/* XPM */
static char *metal_xpm[] = {
/* width height num_colors chars_per_pixel */
"16 16 8 1",
/* colors */
". c #404040",
"+ c #606060",
"@ c #808080",
"# c #A0A0A0",
"$ c #C0C0C0",
"% c #E0E0E0",
"& c #F0F0F0",
"* c #505050",
/* pixels */
"@@##$$%%&&%%$$##",
"##$$%%&&&&%%$$##",
"$$%%&&&&&&&&%%$$",
"%%&&&&&&&&&&&&%%",
"&&&&&&&&&&&&&&&&",
"&&&&&&&&&&&&&&&&",
"%%&&&&&&&&&&&&%%",
"$$%%&&&&&&&&%%$$",
"##$$%%&&&&%%$$##",
"@@##$$%%&&%%$$##",
"++@@##$$$$##@@++",
"..++@@####@@++..",
"*...++@@@@++...*",
"**....++++....**",
"***...++++..****",
"****..++++..****"
};
