/* XPM */
static char *fire_5[] = {
/* columns rows colors chars-per-pixel */
"152 152 249 2 ",
"   c magenta",
".  c #FE00FE",
"X  c #FC00FC",
"o  c #F900F9",
"O  c #FB00FB",
"+  c #FD00FD",
"@  c #F000F0",
"#  c #7A0878",
"$  c #20061E",
"%  c #210F0C",
"&  c #453523",
"*  c #423F35",
"=  c #322C20",
"-  c #292A26",
";  c #383B38",
":  c #323633",
">  c #3B3E3B",
",  c #494B48",
"<  c #4C524F",
"1  c #595E5A",
"2  c #6A716C",
"3  c #70756F",
"4  c #606662",
"5  c #4B4F4B",
"6  c #242624",
"7  c #2C042C",
"8  c #CD01CC",
"9  c #9F029E",
"0  c #670668",
"q  c #470445",
"w  c #0A0802",
"e  c #110E08",
"r  c #3D382C",
"t  c #4D4638",
"y  c #2B2C29",
"u  c #333431",
"i  c #2E312E",
"p  c #3E403D",
"a  c #414440",
"s  c #444947",
"d  c #222727",
"f  c #130511",
"g  c #D801D8",
"h  c #F600F6",
"j  c #AC02AC",
"k  c #0C0A06",
"l  c #191917",
"z  c #222220",
"x  c #24241B",
"c  c #353633",
"v  c #60635C",
"b  c #666A66",
"n  c #E500E5",
"m  c #880287",
"M  c #19140C",
"N  c #13120E",
"B  c #1C1D1B",
"V  c #20211F",
"C  c #222422",
"Z  c #32322F",
"A  c #262825",
"S  c #3D4342",
"D  c #1F2322",
"F  c #060806",
"G  c #60065B",
"H  c #3C063A",
"J  c #070602",
"K  c #0C0D0B",
"L  c #1B180E",
"P  c #1B1517",
"I  c #1C1B19",
"U  c #444743",
"Y  c #515550",
"T  c #1A1B1A",
"R  c #171815",
"E  c #2C2E2C",
"W  c #1E201E",
"Q  c #050605",
"!  c black",
"~  c #0D0F0D",
"^  c #090407",
"/  c #151512",
"(  c #212017",
")  c #161614",
"_  c #555955",
"`  c #111210",
"'  c #303331",
"]  c #000001",
"[  c #010402",
"{  c #060400",
"}  c #373835",
"|  c #0A0C0A",
" . c #171A18",
".. c #080907",
"X. c #030203",
"o. c #030503",
"O. c #1F1F1C",
"+. c #121412",
"@. c #090A08",
"#. c #141615",
"$. c #151817",
"%. c #272A29",
"&. c #343836",
"*. c #B601B5",
"=. c #000200",
"-. c #0F110E",
";. c #4F0150",
":. c #030301",
">. c #000201",
",. c #C301C3",
"<. c #020200",
"1. c #110D03",
"2. c #282E2D",
"3. c #010102",
"4. c #150E06",
"5. c #000300",
"6. c #0F0905",
"7. c #1C1E1D",
"8. c #950393",
"9. c #130C03",
"0. c #040200",
"q. c #0E0902",
"w. c #191007",
"e. c #171005",
"r. c #160E03",
"t. c #000102",
"y. c #0A0501",
"u. c #170E04",
"i. c #190F05",
"p. c #221B0A",
"a. c #5E1C4A",
"s. c #020000",
"d. c #110A02",
"f. c #191005",
"g. c #564025",
"h. c #725231",
"j. c #1E1D12",
"k. c #131002",
"l. c #51351A",
"z. c #6F5027",
"x. c #94217A",
"c. c #442C14",
"v. c #613F20",
"b. c #87206C",
"n. c #1F190B",
"m. c #593C1C",
"M. c #61472B",
"N. c #231F0C",
"B. c #1B1508",
"V. c #3D2711",
"C. c #1E1707",
"Z. c #311B06",
"A. c #432A0C",
"S. c #714B26",
"D. c #772459",
"F. c #463016",
"G. c #805F37",
"H. c #A87949",
"J. c #97693D",
"K. c #251B0A",
"L. c #231605",
"P. c #A26C3D",
"I. c #B38452",
"U. c #7A1267",
"Y. c #211A08",
"T. c #8F6032",
"R. c #6C4823",
"E. c #1A1005",
"W. c #1B1207",
"Q. c #181505",
"!. c #1F1908",
"~. c #55371A",
"^. c #1D1506",
"/. c #4C3217",
"(. c #85582B",
"). c #976233",
"_. c #6C1955",
"`. c #4B2F11",
"'. c #8A5C2F",
"]. c #4E2340",
"[. c #1A1202",
"{. c #674321",
"}. c #2D1A10",
"|. c #3D1235",
" X c #322616",
".X c #35260D",
"XX c #3C2D14",
"oX c #4E3A19",
"OX c #2F172A",
"+X c #7F5A2E",
"@X c #2A1A07",
"#X c #2D1E0B",
"$X c #341F09",
"%X c #251708",
"&X c #2F220E",
"*X c #774E25",
"=X c #654920",
"-X c #5E441B",
";X c #7C5229",
":X c #3A230D",
">X c #765529",
",X c #161305",
"<X c #3D301A",
"1X c #1D1106",
"2X c #81552A",
"3X c #29281E",
"4X c #3B2A0C",
"5X c #281C0B",
"6X c #2B230D",
"7X c #641B6C",
"8X c #352913",
"9X c #785930",
"0X c #59355E",
"qX c #0E1005",
"wX c #39393A",
"eX c #2F270F",
"rX c #292311",
"tX c #882F88",
"yX c #201408",
"uX c #343228",
"iX c #29200D",
"pX c #352B36",
"aX c #BF9361",
"sX c #CEA36F",
"dX c #561C57",
"fX c #423E42",
"gX c #1D191D",
"hX c #767B75",
"jX c #7E817B",
"kX c #868B85",
"lX c #969D97",
"zX c #6E6E66",
"xX c #9EA49D",
"cX c #A7ABA5",
"vX c #B7BDB8",
"bX c #58564C",
"nX c #8D938C",
"mX c #AFB2AB",
"MX c #C1C6C0",
"NX c #CDCFC7",
"BX c #D2D7D0",
"VX c #DDE0DA",
"CX c #E4E7E1",
"ZX c #E9ECE7",
"AX c #BEBCB2",
"SX c #F4F3EB",
"DX c #54183F",
"FX c #F9FAF3",
"GX c #FFFFFD",
/* pixels */
"        . . . . . . . . . . . . . . . . . . . . . . . . . . . . . . . . . . . . . . . . . . . . . . . . . . . . . . . .     . . . X . o X . X O O +     o @ # $ % & * = - ; : > , < 1 2 3 2 4 5 6 7 8 @ . + + + X X . . . .         .     . . . . . . . . . . . . . . . . . . . . . . . . . . . . .       . . . ",
"        . . .   .   . .     . .     . .   . . . . . . . . . . . . . . . . . . . . . . . . . . . . . . . . . . . . . . .           + + + o .     @ 8 9 0 q 7 w e r t t y - u i > p a s 4 2 2 4 , d f g o + X . . + + . . . .                                 . .     . .     . .     . . . . . . . .       . . . ",
". .   .   . .       . .     . .     . .   . . . . . . . . . . . . . . . . . . . . . . . . . . . . . . . . .   . . . .       . . O O h h   @ j # $ k l z z e e x , , a y y i i c c c u < v b 1 s d $ n o o X + + . + . . . .                                 . .     . .     . .     . .     .                   ",
". .   .     . . . . . . . . . . . . . . . . . . . . . . . . . . . . . . . . . . . . . . . . . . . . . . . . . . . .           o h @   @ m 7 e M N B V C V e N Z , , p V V A - y y y i a 1 1 5 S D F G h o X   + . + . . . .                     . . . . . . . . . . . . . . . . . . . . . . . . . . . .         ",
". .         . . . . . . . . . . . . . . . . . . . . . . . . . . . . . . . . . . . . . . . . . . . . . . . . . . .       . . + o @ . 8 H J K L P l A A C l N I U Y 5 ; T R D A z A E u ; , < S ; W Q ! j   o + X + + . . . . .               . . . . . . . . . . . . . . . . . . . . . . . . . . . . . .     . . ",
". .       . . . . . . . . . . . . . . . . . . . . . . . . . . . . . . . . . . . . . . . . . . . . . . . . . . . .   . .     + o + 9 ~ K ^ / ( ) z i E 6 / N y 5 _ , y ` ~ I V V A E ' u p s S ; V ^ ] 9 O @ . + + . . . . . . . . . . . . . . . . . . . . . . . . . . . . . . . . . . . . . . . . . . . . . . . ",
". .   .   . . . . . . . . . . . . . . . . . . . . . . . . . . . . . . . . . . . . . . . . . + . . . . . . . . . . . . + +   X X g ^ [ ^ { ) I I E } ' C ` ) > 5 , p z | K /  .W A E u } p U U ; A ..m   o O   + + . . . . . . . . . . . . . . . . . . . . . . . . . . . . . . . . . . . . . . . . . . . . . . . ",
". . . . . . . . . . . . . . . . . . + + . . . . . . . . . . . . . . + + + + + + + + + + + + + . . . . . . . . . .     + + . O o q ..X.! o./ ) O.c ; i T +.6 U , U ' l @.| #.$.W %.i c c > a S &.%.$ @ X o . . + + . . . . . . . . . . . . . . . . . . . . . . . . . . . . . . . . . . . . . . . . . . . . . . . ",
". . . . . . . . . . . . . . + + . . + + . . + + . . . . . . + + . . + + + + + + + + + + + + . . . . . . . . . . .   + +   O   *.K $.F =.Q R N / y E V -.-.A a U > E ) F | #.$.D E Z c u c ; ; : E 7 @ o X + . . . . . . . . . . . . . . . . . . . . . . . . . . . . . . . . . . . . . . . . . . . . . . . . . . ",
". . . . . . . . . . . . . . . . . . + + . . . . . . . . . . . . . . . . . . . . . . + + . . . . .     . . . .     + . . O + @ 7 #.+.o.o.e / N N +.+.~ | ~ - p p : %.~ Q ~ #. .C E Z u u i : : ' E H @ o o O . . + . . . . . . . . . . . . . . . . . . . . . . . . . . . . . . . . . . . . . . . . . . . . . . . ",
". . . . . . . . . . . . . . . . . . + + . . . + . . . + . . . + . . . + . . . . . . . . . . . .       . . . . . . + O + O o ;.:.F >.:.e N N N R +.-.K ..` y ; : E V | Q ~ #. .C %.i Z Z E i ' i z H h h o o + . + + . . . . . . . . . . . . . . . . . . . . . . . . . . . . . . . . . . . . + + . . . . . . . . ",
". . . . . . . . . . . . . . + + . . + + . . + + . . + + . . + + . . + + . . + + . . . . . . . .         . . . . . . + O + m ] X.! ! w N M N / / +.` ~ F ` E : E %. .@.F ~ #. .C %.i i i - y ' i T 7 h o o o X + + + . . . . . . . . . . . . . . . . . . . . . . . . . . . . . . . . . . . . + + . . . . . . . . ",
". . . . . . . . . . . . . . + + . . . . . . . . . . . . . . . . . . + + . . + . . . . . . . . .       . . . . + . . O   ,.^ ^ X.<.:.1.e e e +.+.` ` K F ) i ' 2.%. .@...-.#.T C A y E A W A ' i z 7 @ O o o X + + + . . . . . . . . . . . . . . . . . . . . . . . . . . . . . . . . . . . . . . . . . . . . . . ",
". . . . . . . . . . . . . . + + . . . . . . . . . . . . . . . . . . . . . . . . . . . . . . .         . .     + . X o o H 3.X.:.! J e e e K -.~ ~ K ....B Z ' %.C +.@.@.-.#.T C 6 - z I l - &.E 6 $ n X O o + + + + . . . . . . . . . . . . . . . . . . . . . . . . . . . . . . . . . . . . . . . . . . . . . . ",
". . . . . . . . . . . . . . + + . . . . . . . . . . . . . . . . . . . . . . . . . . . . . .         . . . . + . . O   *.] X.] ] <.e 4.e k K ..! [ :.<.@.6 i y %.V ` F F ~ /  .B O.B l ) R A : E V ^ 8   O O + + + . . . . . . . . . . . . . . . . . . . . . . . . . . . . . . . . . . . . . . . . . . . . . . . ",
". . . . . . . . . . . . . . + + . . + + . . . . . . . . . . + + . . + + . . + . . . . . . . .       . . . . + + + + h q 3.X.>.! J 4.e e w k 5.! =.! ! +.%.i %.C B K F F K ` R R l l R / / C ' E V [ *.  o + + + + . . . . . . . . . . . . . . . . . . . . . . . . . . . . . . . . . . . . . . . . . . . . . . + ",
". . . . . . . . . . . . . . + + + . + + . . . . . . . . . . + + . . + + . . + + . . . . . . .     . . . . + . . h   *.X.X.:.5.=.k M e k k J =.5.[ =.F W y %.6 D  .@.Q F K ` ) l T l l R ) A ' %.R ! 9 . h .   . . + . . . . . . . . . . . . . . . . . . . . . . . . . . . . . . . . . . . . . . . . . . . . . + ",
". . . . . . . . . . . . . . + + + . + + . . . . . . . . . . . . . . . . . . . . . . . . . .       . . . . + . X h O q X.X.{ >.:.e M e k ..o.5.5.[ =.-.A %.A C W #...Q ..-.` l T l l l R / A ' %.-.! q o h . . + . + . . . . . . . . . . . . . . . . . . . . . . . . . . . . . . . . . . . . . . . . . . . . . + ",
". . . . . . . . . . + + + + + + + + + + + + + + + + . + . . + + . . + + . . + + . . . . . .   . . . . . . . . X . g ^ 3.>.>.=.J 4.4.6.k w o.5.5.=.o.R y %.6 V T -.Q F @.-./ l T T l I R / - i A -.3.X.,.o h + X + + + . . . . . . . . . . . . . . . . . . . . . . . . . . . . . . . . . . . . . . . . . . . . + ",
". . . . . . . . . . + + + + + + + + + + + + + + + + + + + + + + + + + + + + + + + . . . . . . . . . . . + . . O   j >.3.] ] :.k 4.e e k J [ 5.=.5.@.V y A D 7.$.| Q ..K -./ l B B l I l / y E C | X.! G + o   X + + + . . . . . . . . . . . . . . . . . . . . . . . . . . . . . . . . . . . . . . . . . . . . + ",
". . . . . . . . . . + + + + + + + + + + + + + + . . + + + + + + + + + + + + + + + . + . . . . . . . . . + X . O   *.>.3.] ! J e e e e ..[ 5.5.=.o.-.6 - C W T +.F Q | -.N N / l B l I l / E E 6 K X.] 0 . O   + + . . . . . . . . . . . . . . . . . . . . . . . . . . . . . . . . . . . . . . . . . . . . . . + ",
". . . . . . . . . . + + + + + + + + + + + . + + + + . + + . . + . . . . . . + + . . . . . . . . . . . . . X X O   j >.3.>.! J e e e w [ ! 5.=.! F  .A A V 7. .~ Q w k e e N N R 7.T I l R E - z @.3.^ 8   O   . . . . . . . . . . . . . . . . . . . . . . . . . . . . . . . . . . . . . . . . . . . . . . . . + ",
". . . . . . . . . . + + + + + + + + + + + + + + . . . + . . . + . . + + . . . . . . . . . . . . . . . X X +   o   8.>.X.>.=.<.w k ..[ ! ! =.! ! @.7.6 C W T #.@.[ w 4.4.9.e e ) 7.l I I R y - C 6.o.0   O .   . . . . . . . . . . . . . . . . . .   . .   . . . . . . . . . . . . . . . . . . . . . . . . . . + ",
". . . . . . . . . . + + + + + + + + + + + + + + + + + + + + + + + + + + + + + . + . . . . . . . . . . O + . o h o ;.>.X.<.<.<.0.{ 5.! ! =.=.=.=.~ z C O.T  .` Q :.q.w.e.r.4.e / 7.O.B l I E A 7.k / g + o     . . . . . . . . . . . . . .     .       .   . . . . . . . . . . . . . . . . . . . . . . . . . . + ",
". . . . . . . . . . + + + + + + + + + + + + + + + + + + + + + + + + + + + + + + + . . . . . . + . . . X + . @   m >.X.>.>.>.<.:.=.=.=.=.=.=.=.=.-.O.O.I R / | :.:.9.w.4.r.4.e / I B I l I E A 7.k P n . O     . . . . . . . . . . . . .               .   . . . . . . . . . . . . . . . . . . . . . . . . . . + ",
". . . . . . . . . . + + + + + + + + + + + + + + + + + + . . + + . . + + . . . . . . . . . . . + + . . O X O   8.>.X.3.>.>.] ] =.=.5.=.=.! ! =.5.-.I I R ) -.F =.{ 9.w.4.e.9.9./ l I / N O.E A R { P g + o   . . . . . . . . . . . . . .               .   . . . . . . . . . . . . . . . . . . . . . . . . . . + ",
". . . . . . . . . . + + + + + + + + + + + + + + + + + + . . + + . + + + . . . . . . . . . . . . + + X . O + 8 f 3.X.>.t.t.] ] ] =.5.=.=.=.=.! o.) B l / ` | :.! y.u.i.4.e.4.4./ R l / N I E %.` 6.p.9   h . . . . . . . .   . . . . . .           . . . . . . . . . . . . . . . . . . . . . . . . . . . . . . + ",
". . . . . . . . . . + + + + + + + + + + + + + + + + + + + + + + + + + + . . . . . . . . . . .   . + . + o o H >.X.t.t.t.t.] ] ] >.=.=.>.! =.! ..) I l +.K o.! ! q.i.i.4.4.4.e./ R I / e I %.%.~ 6.& a.h o +   .   . . . .       . .               . . . . . . . . . . . . . . . . . . . . . . . . . . . . . . + ",
". . . . . . + + . + + + + + + + + + + + + + + + + + + + + + + + + + + + . . + . . . . . . . .   . +   O   *.>.X.t.t.t.t.t.] ] ] ] ] ] ] ] ! 5./ I I ) ` | >.! s.d.f.e.4.r.9.M L R I M M A 2.d ~ 4.g.h.,.O O . .     . .     . . .                 . . . . . . . . . . . . . . . . . . . . . . . . . . . . . . + ",
". . . . . . + . + + + + + + + + + + + + + + + + + + + + . . + + + . . . . . . . .       . . . . . + X + h H >.X.t.t.t.t.] ] ] ] ] ] ] ] ] ! ..B V B / ~ Q ! ! 0.9.f.e.e.u.4.M L L j.M L - 2.d | k.l.z.x.. h   +   . . . .   . . . . .             . . . . . . . . . . .     . . . . . . . . . . . . . . . . . + ",
". . . . . . . . . + + + + + + + + + + + + + + + + + + + . . + + + + + . . . . . .   . . . . + + X . o   9 >.X.>.>.t.t.t.] ] ] ] ] ] ] ] ! ! ~ O.O.I +.K <.! ! y.r.i.e.f.e.u.M M M j.L L E 2.%.K d.c.v.b.. o   .     . . .     . . . .         . . . . . . . . . . . . . . . . . . . . . . . . . . . . . . . . + ",
". . . . . . + + + + + + + + + + + + + + + + + + + + + + + + + + + + + + . . + . . . . . . . . + . X o o 7 >.X.>.>.t.t.t.t.] t.t.] ] ] ] ! 5.+.V O.l ` F ] ! ! q.u.w.f.i.u.e.M M L n.L j.E %.6 @.L g.m.M.@ o O       . . . . . . . . . .       . . . . . . . . . . . . . . . . . . . . . . . . . . . . . . . . + ",
". . . . . . + + + + + + + + + + + + + + + + + + + + + + + + + + + + + + + . . . . . . . . . . .   O   *.3.3.>.>.>.t.t.t.t.t.t.t.] ] ] ] ! Q R z O.R ~ Q ] ! s.q.i.w.e.e.e.w.M L N.n.B.j.6 7.W o.M V.l.h.*.O O   .   . . + . . . . + + + + + . . . . . . . . . . . . . . . . . . . . . . . . . . . . . . . . . . ",
". . . . . . + + + + + + + + + + + + + + + + + + + . + + + + + + + + + + . . . . . . . . . . + X . + o q >.X.>.>.>.t.t.t.t.t.>.>.] ] ] ! ! @.I z I ) | <.! ! 0.d.i.i.w.w.e.e.B.n.N.C.B.( z W R [ w.Z.A.S.D.O @ + .   . + + . . + . . . + . . + + . . . . . . + + . . . . . . . .     . . . . . . . . . . . . . . ",
". . . . . . . + + + + + + + + + + + + + + + + + + . + + + + + + + + + + . . . . . . . . . + +   h   *.^ 3.>.>.>.>.t.t.t.t.>.>.>.] ] ] ! :.-.B z B ) @.] ! ! { 4.w.w.w.w.e.w.C.n.N.C.B.O.D 6 N k f.F.G.H.J.8.  X o . . + . . + + . . . .     + + . . . . . . + + . . . . . . . .     . . . . . . . . . . . . . . ",
". . . . . . . + + + + + + + + + + + + + + + + + + + + + + + + + + + + + . . . . . . . .   + . + h O H X.X.>.>.>.>.t.t.t.t.>.>.>.t.] >.! o.R V z I ` F >.! s.y.u.w.w.w.e.r.B.B.C.K.C.C.O.D C e k d.L.h.P.I.J.U.n O X . + . . + X . + + .     . .   .   . . . . . . . . . . . . . . . . . . . . . . . . . . . . + ",
". . . . . + + + + + + + + + + + + + + + + + + + + + + + + + + + + + + + . . . . . . . .   . . O + 8 X.3.3.>.>.>.>.>.t.t.>.>.>.t.t.t.>.! F I V z l -.Q ! ! 0.q.f.f.e.w.i.r.C.p.n.Y.C.n.z d d N N w.L.l.T.I.H.R.8.  h + + . + X X X . + + X + .     . . + . . . . + . . . . . . . . . . . . . . . . . . . . . . + ",
". . . . . + + + + + + + + + + + + + + + + + + + + + + + + + + + + . + + . . . . . . . . + . . O   j >.3.>.>.>.>.>.>.>.>.>.>.>.t.t.>.>.! K O.z V R | :.! ! { d.w.E.w.W.i.Q.!.!.C.Y.C.n.6 %.d +.e f.A.~.T.I.J.T.U.. h . X . X O o o O o o X + .   . . . + . . . . . . . . . . . . . . . . . . . .   . . . . . . . ",
". . . . . . . + + + + + + + + + + + + + + + + + + + + + + + + + + + + . + + . . . + . + . .   O . *.>.3.>.>.>.>.>.>.>.>.>.>.>.>.>.>.>.=.~ V z O.) ..! ! ! y.9.W.e.e.W.E.^.!.C.Y.C.^.L 6 d d ~ w d./.m.(.H.).J._.O h + O       .   .       O X . .   . . . . . . . . . . . . . . . . . . . . . . .   . . . . . . ",
". . . . . . + + + + + + + + + + + + + + + + + + + + + + + + + + + + + + . + + + . . . .   + X o   j >.X.>.>.>.>.>.>.>.>.>.>.>.>.>.>.5.[ +.z z B ` Q ! ! s.y.r.W.e.e.w.E.C.!.!.p.C.^.L A %.d / w e.~.`.S.I.J.'.].h h O o h g 8 ,.,.*.9 j g     O X     . X   . . . . . . . . . . . . . . . . . .     .   . . . + ",
". . . . . + + + + + + + + + + + + + + + + + + + + + + + + + + + + + + + . . . + . . . . + . . O   8.>.X.>.>.>.>.>.>.>.>.>.>.>.>.>.>.=.o.l z V I -.:.! ! { q.r.w.e.f.w.f.C.Y.C.Y.C.[.n.%.d D ) { r.l.`.{.H.(.S.}.8 o . g |. X.XXXoXoX/.V.OXm @ + o + . .     . . . . . . . . . . . . . . . . . . .     . . . . + ",
". . . . . + + + + + + + + + + + + + + + + + + + + + + + + + + + + . + . . . . . . . . + X O O o . G >.X.>.>.>.>.>.>.>.>.>.>.>.>.>.>.! ..T z V l K [ ] ! y.d.u.w.f.w.e.W.!.p.Y.p.Y.[.L %.%.d ` :.r./.A.{.+XS.~.q.;.h g g @X#X}.$X`.`././.`.F.H n O O +     . + + . .   . . . . . . . . . . . . .     . . . . . . ",
". . . . . . + + + + + + + + + + + + + + + + + + + + + + + + + + + . . . . . + + . . + X o O h   m 3.X.>.>.>.>.>.>.>.>.>.>.>.>.>.>.>.! K W z O.) F >.] ! y.9.e.E.E.W.e.B.!.!.!.p.Y.[.j.2.2.D ~ :.k./.~.S.+XS.F.^.6.j h 8 %X#X@XA.l.l.`.`.c.&XXXG h o o .     . . + + . . . . . . . . . . . . . . .     . . . . . ",
". . . . . . + + + + + + + + + + + + + + + + + + + + + + + + + + + . . + . . + + . . + X o h   9 X.3.3.>.>.>.>.>.>.>.>.>.>.>.>.>.=.>.! ` W z B ` o.>.] ! k 4.E.E.E.E.e.C.!.!.!.p.p.[.j.2.%.D K :.1.F.v.*X+Xv.L.u.^.% # G $XF.c.m.=XR.=X-XF.Z.}.l.U.@ O o .     . X . X + + . . . . . . . . . . . .     . . . . . ",
". . . . . + + + + + + + + + + + + + + + + + + + + + + + + + + + + . . . . . . . . . + X @   *.^ 3.3.>.>.>.>.>.>.>.>.>.>.>.>.>.>.>.! [ B z O.l | ] ! ! ! q.u.w.W.E.E.e.C.!.Y.p.p.p.[.j.i 2.D @.5.w c.~.{.{.l.Z.L.%X@X#X.XV.V.`.-X=XS.z.=Xl.c.`.`.;Xb.O h o   . . . . + X . + . . . . . . . . . . . .     . . . + ",
". . . . . + + + + + + + + + + + + + + + + + + + + + + + + + + + + . . . . . . . . +   O O n f X.X.>.>.>.>.>.>.>.>.>.>.>.>.>.>.>.>.=.F V C O./ Q ! ! ! :.q.9.w.w.E.e.f.!.!.!.Y.p.n.f.( 2.2.6 | [ w XX/.~.~.A.%X@XV.c.F.V.:XA.l.z.>X+X+X>XR.{.{.v.R.T.x.@ o O + . . . + X . . . . . . . . . . . . . . . . . . . . ",
". . . . . . + + + + + + + + + + + + + + + + + + + + + + + + + . . . . . . . . + + . . O   9 <.^ >.>.>.>.>.>.>.>.>.>.>.>.>.>.>.>.>.<.| A z B ` <.! ! ! J 1.4.w.f.W.f.B.!.Y.Y.Y.p.C.,Xx E 2.C k [ w <XF.~.m.c.1XE.#X$X$X.XF.m.=X+X+X+X+X>XR.*XS.S.2X2X).x.h O h + + + + + X   . . . . . . . . . . . . . . . . . . ",
". . . . . . + + + + + + + + + + + + + + + + + + + + + + + + + + . . . . + + . .   + X O . *.3.3.>.>.>.>.>.>.>.>.>.>.>.>.>.>.>.] 5.:.` - V l | ! ! ! ! w d.u.w.e.W.f.C.!.Y.p.p.p.C.Q.x i %.A K :.J XXc.m.l.:Xi.9.e.[.L.L.$X/.=X>X>X>X>Xz.-Xv.S.>X+X'.(.T.D.g   o + . . . X   . . . . . . . + + . . . . . . . . + ",
". . . . . + + + + + + + + + + + + + + + + + + + + + + + + + + . . . . + + + . . . .   O   j >.3.>.>.>.>.>.>.>.>.>.>.>.>.>.>.>.>.[ Q  .%.W l F ! ! ! ! q.4.e.w.e.w.e.B.C.!.p.p.p.^.Q.3Xi 2.A k :.w XXc.~.l.:Xu.q.k.1.q.9.L.4XoX-X=X-X=X=Xm.A.V.m.=X>XT.(.)._.n   h o +   . .     . . . . . + + . . . . . . . . + ",
". . . . . . + . . + + + + + + + + + + + + + + + + + + + + + + . . . . . .   . + . + O O h q >.X.>.>.>.>.>.>.>.>.>.>.>.>.>.>.>.>.o.@.W - O.` ] ! ! ! s.4.e.w.w.w.e.f.n.C.!.Y.p.Y.[.B.A ' 2.%.K o.w c.F.~.~.XXq.:.w J :.w C..X/.m.=X-X-X-XoX4X5X5X$X-X+X'.'.h.].9 h + O + . .     . . . . . . . . . . . . . . . . ",
". . . . . . + + + + + + + + + + + + + + + + + + + + + + + . + . . + + + . . . + O O o   0 <.X.>.>.>.>.>.>.>.>.>.>.>.>.>.>.>.>.[ o.@.C 6 7.K ! ! ! ! :.e.e.f.f.w.e.f.B.C.!.Y.p.!.e.L - ' 2.- e F q.c.l.m.~.XXJ ! [ o.:.! q.C.4Xm.-X-X-Xm.F.XX6XC.L..Xl.{.+X+XM.a 7Xg O o O X .   + . . . . . . . . . . . . . . . ",
". . . . . . + + + + + + + + + + + + + + + + + + + + + + + . + . . . + + . + . . O h + m <.X.>.>.>.>.>.>.>.>.>.>.>.>.>.>.>.>.>.[ o.-.6 C l ..! ! ! ! { w.e.f.f.w.e.W.B.C.!.!.Y.!.k.M E : 2.C ..o.q.F.m.m.~.8X:.=.o.o.s.d.1X#XoXR.z.R.z.=Xm.oXXX5XL.@X$X`.v.9X<XC 4 0Xh h o + .   + . . . . . . . . . . . . . . + ",
". . . . . + + + + + + + + + + + + + + + + + + + + + + + . . . . . . . . . . . . h . *.3.X.3.>.>.>.>.>.>.>.>.>.>.>.>.>.>.>.>.>.5.Q #.A D #.[ ! ! ! ! y.W.e.f.w.w.e.B.B.!.n.C.!.!.,Xj.: &.i A @.>.q.F.v.m.m.XXJ o.qX:.K.oXXXXXM.9XG.9X>Xz.=X-XoXXXXX.Xc.c.A.M.t N wX< g   O O . .   . . . . . . . . . . . . . . X ",
". . . . . . + . . + + + + + + + + + + + + + + + + + + + . . . . . . . . . . . X h h 7 ^ X.>.>.>.>.>.>.>.>.>.>.>.>.>.>.>.>.>.5.5.Q T A W -.>.! ! ! ! q.W.f.f.w.w.e.W.B.Y.Y.!.Y.C.,X( &.; ' 6 o.[ w F.M.m.l.8Xw [ qXeXoXM.oX.Xg.z.+X>Xz.z.-X-X-XoXoXm.`.c.:XA.<X/ A 2.0Xj 8 O O +   .     . . . . . . . . . . . X ",
". . . . . . + + + + + + + + + + + + + + + + + + . . + . . . . . + + . + + . . O O ,.3.X.>.>.>.>.>.>.>.>.>.>.>.>.>.>.>.>.>.>.5.:...z 6 l F ! ! ! ] ! q.w.e.f.w.e.e.W.B.!.!.!.Y.B.Q.( &.> : 6 Q [ { XXM.~.l.8X{ s.rXoXoXh.oX4X/.=Xz.=X=X=X=X=X-XoXoXR.z.~.A.A.#Xq.l i : 2 0X,.O O . .   . . . . . . . . . . . . + ",
". . . . . + + + + + + + + + + + + + + + + + + + . . + . . . . . + + . . . + . O   *.>.>.>.>.>.>.>.>.>.>.>.>.>.>.>.>.>.>.>.>.5.:.@.C C +.<.! ! ! ! ! 4.w.i.w.w.e.e.B.C.Y.n.Y.p.!.B.x : &.&.A o.>.0.8Xv.~.l.8Xw q.g.oXg.M.4X#X.X~.-X-Xm.-X-X-X-XA.A.=X>Xz.R.v.V.r.o.#.C Y 3 tX  h . + . + + . . . . . . . . + + + ",
". . . . . + + + + + + + + + + + + + + + + + + + . . + . . . . . . . . . . + . o   9 >.X.>.>.>.>.>.>.>.>.>.>.>.>.>.>.>.>.>.! =.o.N A V K ! ! ! ! ! s.4.u.i.i.i.e.e.Q.B.!.n.!.p.B.Q.x &.; > D ..Q s.8XM.~./.&Xy.1.g.g.oX8XK.^.@X4Xc.oX/.oX~.-X-X4X$X/.{.z.*X;Xm.yXw 5.7.wX5 tX. o   + . . + . . . . . . . . + + + ",
". . . . . . + . . . + + + + + + + + + + + + + . . .   . . . . . . . . . . + O O @ H >.X.>.>.>.>.>.>.>.>.>.>.>.>.>.>.>.>.>.! ! F R A T Q ! ! ! ! ! :.u.u.i.i.f.e.e.B.C.!.!.p.p.!.Q.3X; > S D @.Q !  XM.m.l.&X0.,Xg.oX6XY.Y.e.1X$X$X4X4X4X`.oXF.&XL.oXz.z.S.*Xh.& q.@.Q C U ].o h X . . . . . . . . . . + . + + + ",
". . . . . . + + . . + + + + + + + + + + + + + . . . . .     . . . . . + X + o   9 >.X.>.>.>.>.>.>.>.>.>.>.>.>.>.>.>.>.>.[ ! :.-.T A l :.! ! ] ] ! J E.u.i.f.i.r.e.C.!.!.!.!.n.B.Q.- ; S S 7.Q Q !  Xg.l./.5X! qX& 5Xk.C.[.[.1X@X$X:XA.A.`.4X.X^.1.K.oXz.R.*Xh.t L :.@.:.z A j X o     .   . . . . . . + + + + + ",
". . . . . + + + + + + + + + + + + + + + + + + . . . . .   . . . . . . X + o h h 7 >.X.>.>.>.>.>.>.>.>.>.>.>.>.>.>.>.>.>.[ ! ..I V 6 ~ ! ! ! ] s.! w e.u.f.f.e.r.e.C.n.!.!.C.C.,XL i S s S W Q o.!  Xg./.F.5Xs.qXrX1.1.k.9.r.1X@X$XA.m.-X=X~.F.!.:.5.1.XXM.h.M.* c ~ F | @.F q h h .         . . . . . . + + + + ",
". . . . . + + + + + + + + + + + + + + + + + + + . . . . . . . + . . . + . o + *.3.3.>.>.>.>.>.>.>.>.>.>.>.>.>.>.>.>.>.>.>.! K O.z C @.! ! ! ! s.! 1.f.i.f.f.i.r.f.!.!.!.!.!.C.,XL i U s S D ....!  Xl././.5Xs.{ 9.e.k.Q.[.u.L.@X@X`.R.S.*X-X~.&X1.Q J 1.rX& t r c ' ~ Q ~ ~ ^ ,.o o .       . . . . . . . + + + ",
". . . . . . + . . . + + + . + + + + + + + . + + . . . . . . . + . . + X X X X ;.t.X.>.>.>.>.>.>.>.>.>.>.>.>.>.>.>.>.>.>.>.5./ O.C O.o.! ! ! ! s.! 4.f.f.f.f.i.u.Q.n.Y.!.!.^.^.,XL : U s S W @.K !  Xc.c.F.5X! :.1.e.k.^.[.[.L.#X&X-X(.T.T.2XR.m.XXW.J F o.e - y uXp &.7.~ ` ..G   h X .       . . . . . . . . + ",
". . . . . . + + . . + + + + + + + + + + . + + . . . .   . . . . . . +   h   *.X.X.3.t.>.>.>.>.>.>.>.>.>.>.>.>.>.>.>.>.>.>.o.R O.C  .=.! ! ! ! ! 0.w.e.e.f.f.w.e.f.!.!.Y.Y.!.^.,XL Z s s S D Q Q <. XF.`.`.%X! J n.e.[.^.^.[.L.#X.X-X2X2X'.T.(.*Xv.F.%Xk | ! ~  .x i ; ; 2.7.~ ^ *.  o .       . + . . . . . . X ",
". . . . . + + + + + + + + + + + + + + + . . + . . . . . . . . . . .   + @ h 7 3.X.t.t.t.t.t.>.>.>.>.>.>.>.>.>.>.>.>.>.>.=.Q T V z +.>.] ! ! s.! y.W.e.e.e.f.f.e.B.Y.!.Y.Y.Y.^.B.j.Z s , S W ..Q :. XF././.5X! { n.W.^.C.Q.[.^.%X$X~.S.*X*X2X+X*XS.S.v.&Xq...F F ` z E u &.: %.#.$ g . o .       . . . . . . . X ",
". . . . . + + + . . + + + + + + + + + + . . + + + + + + . . . .   . . O X 8 3.3.t.t.t.t.t.t.>.>.t.t.>.>.>.>.>.>.>.>.>.>.5.K B V W | ! ] ! ! 0.s.y.W.f.e.e.e.e.i.B.p.Y.Y.Y.C.^.Q.j.} 5 , S D F :.w <XF.l.l.%X! :.n.C.C.C.Q.e.[.L..X~.=XS.S.R.R.R.*X*X;XR.V.n.-.o.[ | D ; p : &.:  .q @ . O         . + + . . . . ",
". . . . . . + . . . + + . . . + . . + . . . + + . . + + . . . .   . + o   8.t.X.t.t.t.t.t.t.>.>.t.t.>.>.>.>.>.>.>.>.>.=.=.` 7.z B Q ! ! ! ! 0.s.d.W.f.f.i.f.E.f.C.p.Y.Y.p.p.^.,XL } < 5 S T Q >.w <Xl.~./.yX! 0.^.K.K.C.[.,Xr.L..X/.~.~.~.~.~.~.R.*X*X*XS.oX( -.F [ K 6 } S : : wXV H n O + .       . + . . . + ",
". . . . . . + + + + + + + + + + + + + . . . . . . . . + + + + + . + + h . 9 >.X.t.] t.t.] ] t.t.t.t.t.>.>.>.>.>.t.] >.=.:./ T O.) >.! ! ! ] :.<.4.W.f.E.i.f.f.e.C.Y.Y.Y.Y.C.^.B.( ; < , > T | >.e <XoXv.~.5X! :.W.Y.5XY.[.k.r.1X#XV.c.F./.F.A.A.`.=X;X*X*XR.& = +...Q @.W > > : : wX%.G   o O         . . . . . ",
". . . . . + + + + + + + + + + + + + + . . . . . . . . + + . . . + O X h . ,.>.>.] ] ] ] ] ] t.t.] ] t.>.>.>.>.>.t.] >.>.:.+.) l | ! ! ! ! ! :.{ w.E.f.f.i.E.f.W.Y.Y.p.p.Y.Y.B.,X( p < , > $...<.4.<Xm.{.~.@X! 0.^.K.iX5X^.r.r.e.%X.X4X4Xc.4X.X.X.X/.R.;X;Xh.t * Z  .| @.-.6 ; ; : ' wX' 0 @ O O .     . . . . . ",
". . . . . + + . . . + + . . + + + . + + . . . . . . + +   . . . . . X h   ,.>.3.<.<.>.] t.t.t.t.t.t.>.>.>.>.>.>.>.>.>.! J l l ) ..! ! ! ! ! <.J E.i.E.i.i.E.f.W.Y.Y.p.Y.Y.Y.^.,Xx a < 5 ; $.| ! q.XX~.{.m.#X! 0.E.5XiXiXY.r.e.r.[.@X#X.X.X.X8X8XeXF.m.R.S.R.t * U > 7.~ ~ +.6 } &.i ' } : #   h O   . + +   . . ",
". . . . . . + . . . . . . . . + + . . . . . .     .     . + X o o o     n G [ X.<.<.>.>.t.t.t.t.t.t.>.>.>.>.>.>.>.>.>.5.@.R R +.o.! ! ! ! ! ! w i.u.E.i.i.f.i.W.p.Y.p.p.C.C.B.,X3XU < s &.$.K ! 4.<Xl.S.v.@Xs.0.i.K.5X6X5X[.[.e.e.[.%X.X.X.X4X.X8XF.l.m.{.M.* p a U S %.+.#. .A ' i E i wX> # o o + + . + . . . ",
". . . . . . + + + + + + + + + + + . . . . . . . . . . . X O o h h . 8.G $ w { :.<.<.<.>.] ] t.t.t.t.>.>.>.>.>.>.>.>.5.:.| ) ) K ] ! ! ! ! ! 0.9.W.E.E.i.f.w.e.yXK.Y.Y.!.!.p.C.M - s , s : ` F <.4.XX~.S.v.$X{ ! r.Y.L.iXiXp.e.k.k.k.[.K.&X.X8X.XeXF.oX~.m.& uXp p ; > p i D V 6 6 C W T - a > 8.  @ O .   + . . ",
". . . . . + + + + + + + + + + + . . + + . . . . . . . . + X h h . # &XY.r.6.w <.<.<.<.>.] ] ] ] t.t.>.>.>.>.>.>.>.>.5.[ ~ l l F ! ! ! ! ! ! { 4.f.i.E.i.e.e.e.C.p.Y.p.Y.^.^.C.L y s 5 s : #.Q ! 6.<X~.h.v.$Xy.! y.r.L.L.K.K.p.k.1.k.k.,X^.&X.X8X8XXXF.oX/.8Xx Z ; &.i : > p : i y W +.-.-.W wXwXj O o . . . . + ",
". . . . . + + + . . + + . . + + . . + + . . . . . . . . + + h   9 eX}.B.9.e w ! <.<.<.<.] ] t.] t.>.>.>.>.>.>.>.>.=.[ |  .W l Q ! ! ! ] ! ! y.f.f.f.E.f.f.e.f.!.p.Y.Y.Y.C.n.n.j.E , , s ' | >.! w  X~.h.R.`.1X0.{ 0.r.K.L.^.K.!.k.1.k.,Xe.!.5X&X X8XXXF.F. XI T W %.E y u > a U > E R -.` ~ B &.pXg h O X .   . ",
". . . . . . + . . . . . . . . . . . . . . . . . . .   + + o . ,.}.8X!.1.q.e { ] :.<.<.<.>.>.t.t.t.t.>.>.>.>.>.>.>.! Q #.C 6 $.>.! ! ] ] ! ! w f.E.E.E.f.f.e.f.C.p.Y.Y.!.C.C.B.j.i , 5 s 2...>.! y. Xl.S.h.v.F.d.0.{ ! 1.K.p.Y.K.B.qX1.k.1.,XB.Y.iX&X8X XrXM R R #.R W A E } p U U a y ) ` +.` W ' 0   h + . . + ",
". . . . . . + + + + + + + . + + + + . . . . . . . + . + + h   9 &X Xr.9.1.1.w s.:.<.>.<.>.>.>.>.t.t.>.>.>.>.>.>.>.=...T 6 C -.] ! ! ! ! ! :.d.W.E.E.i.u.w.e.W.n.Y.Y.Y.Y.Y.C.Q.j.c , s s 2.| >.! w rXl.S.J.S./.5X{ ! J 0.1.eX6Xp.p.Q.qXqXqXqXk.k.,Xn.K.n.M N / #.#.R $.T D i &.p a p } y O.) ) ) V 6 j   o + + . ",
". . . . . + + + + + + + . . + + . . . . . . . . . + + + X o   8  XK.9.4.4.9.e.k <.=.>.<.<.>.>.>.t.>.>.>.>.>.>.>.[ =.~ B 6 V | ! ! ! ! ! ! { 9.W.E.E.u.u.w.u.W.p.Y.Y.Y.Y.p.!.,Xj.} 5 s S 2...[ ] { K.c.S.H.H.v.:XE.s.{ J s.f.eX6XN.!.B.qXqXqXqXqXq.4.M M M / / #./ #.$.$. .W %.&.> > &.; &.A V O.B 6 OX8   o . + ",
". . . . . + + + . . . + . . + + + . . . . . . . . . . + + h   ,.rXe.d.4.9.9.e.1.<.=.>.<.<.>.>.>.>.>.>.>.>.>.>.>.>.>.+.B 6 B Q ! ! ! ! ! <.w r.1Xf.w.i.i.w.e.W.p.Y.Y.Y.Y.p.C.k.x > , s S %.Q >.] { 5Xl.S.I.aX+X`.Z.r.0.! :.J Q.6XrXN.N.Q.qXqXqXqXqXe e N N / / / / #.$.$. .T W A i : &.; p p &.: y i E H g   h O ",
". . . . . . + . . . . + + . + + + . . . . . . . . . . + + o + ,.W.9.9.4.r.e.e.q.=.=.>.>.>.>.>.>.>.>.>.>.>.>.>.>.! o.#.B C  .[ ] ! ! ! ! 0.q.E.1Xe.w.u.u.w.u.B.p.Y.Y.p.Y.p.C.,X3Xp 5 s S %.F ] J { yX/.h.aXsXI.R.V.%Xw [ 5.=.J B.iXrXrXn.Q.,XqXqXqXqXK k -.` +./ #.#.$.$. .T 7.V C A E : ; a U U s p wX%.|.8 O o ",
". . . . . . + + + + + + . . . . . . . . . . . . . . . + + o X 8 M 9.9.4.e.e.4.J =.=.>.>.>.>.>.>.>.>.>.>.>.>.>.>.! ..R W D ` >.] ! ! ! ! { d.W.W.e.w.u.e.f.r.B.p.!.Y.Y.Y.Y.Q.B.3Xp , s S %.Q ] 0.0.E.c.9XaXsXaXJ./.#Xw.:.! =.5.w Q.N.rXrXN.,X-.qXqX| @.F @.~ ` +.#.#.#.$.$. .T 7.D 6 %.i u ; a 5 Y 5 U wXi dXn + ",
". . . . . + + + + + + + . . . . . . . . . . . + + . . O O O   *.e d.9.4.e.e.q.s.=.=.>.>.>.>.>.>.>.>.>.>.>.>.>.=.! | $.V 7.@.! ! ! ! ! ! w r.W.E.f.w.u.u.f.u.^.p.p.Y.Y.!.Y.Q.B.uXs 5 s S %.Q ] :.{ 1XV.h.aXsXaXI.S.:Xn.w <.! ! =.{ k.p.N.N.j.,XN -.| Q Q Q F | ~ ` +.+.#.$.$. .B 7.W D 6 %.' } U Y _ < a fXa dX8 ",
". . . . . + + . . . + + . . . . . . . . . . . . . + X X . O   9 d.6.u.w.w.e.w ! =.=.>.>.>.>.>.>.>.>.>.>.>.>.>.! :.` R V  .o.! ! ! ! ! 0.w E.W.f.f.i.u.i.w.e.^.p.p.Y.Y.Y.Y.Q.L uX, 5 s S 6 o.<.0.y.%X:XS.I.aXaXI.;XA.%Xe.J ! =.! ! :.e L L L / qXK ..[ >.[ [ Q ..@.| | K ~ ` +.$.T 7.W W V A E c a Y _ 5 p , s dX",
". . . . . . + . . . . . . . . . . . . . . . . . . X + O X o . G q.1.u.E.W.d.:.! =.=.>.>.>.>.>.>.>.>.>.>.>.>.>.! Q +.l O.+.! ! ! ! ! ! { q.W.E.f.E.i.u.u.f.f.^.p.Y.Y.!.!.!.,Xj.u , 5 s S C [ s.! y.#X$X{.H.I.I.H.'.~.#XM 1.:.! ! ! <.:.k N N / ` @.Q o.[ [ [ [ o.o.[ o.o.o.Q @.K ` R  .B B B z %.' U _ _ U > U wX",
". . . . . . + + + . + + . . . . . . . . . + . + + X O X h   m e q.9.1X1Xe.y.=.=.=.>.>.>.>.>.>.>.>.>.>.>.>.>.5.=.F / l I | ! ! ! ! ! <.J d.W.f.W.E.e.e.e.f.f.n.p.p.p.Y.!.n.,Xj.Z , 5 , S C Q <.J 9.$XZ.v.J.H.H.P.T.{.V.w.4.J ! ! ! =.<.<.@.N -.-.~ @.F F Q o.o.[ [ >.] t.>.] [ o...~ +.) R l W A A &.< 1 < ; &.2.",
". . . + . + + + + . + + . . . . . . . . . + . + + + X h   8.6.e 1.4.1X1X4.0.=.=.=.>.>.>.>.>.>.>.>.>.>.>.>.>.5.=.@.) I l Q ! ! ! ! ! :.w 9.W.f.f.f.e.u.f.f.W.!.Y.Y.p.p.!.Q.Q.L E 5 5 , S D o.:.w r.:XZ.v.J.P.P.J.'.*Xl.#XyXd.0.! ! ! =.=.! <.@.-./ R -.@.F F F Q o.[ >.>.>.t.] ] :.| ` +.+.R B V %.> , _ Y , ; 6 ",
". . . . . . + + . . . . . . . .     . . . . . + + . o   ,.6.6.1.9.W.yXW.q.<.5.=.=.>.>.>.>.>.>.>.>.>.>.>.>.>.5.=.K ) I ) o.] ! ! ! ! { w u.W.f.f.f.e.f.w.w.B.!.p.Y.p.p.C.,XL ( } 5 5 s S D o.:.q.u.:XZ.v.J.P.).).'.;Xv.V.%XyX9.! ! ] ! =.:.<.] -.I O.B / K F F Q Q Q Q Q Q Q o.[ >.Q ~ ` +.T W 6 &.p s Y < < ; $.",
". . . . . . + . . . . . . . . .     . . . . . X . X o o H 6.6.q.u.yXyXu.{ =.5.=.>.>.>.>.>.>.>.>.>.>.>.] >.>.5.[ ~ l l ` [ ] ! ! ! ] J d.1XE.f.E.f.f.f.w.f.B.p.Y.Y.p.p.B.,XL O.p Y 5 s S D Q { q.i..XZ.v.P.P.).'.(.*Xv.l.F.#Xn.:.! ] ! >.<.:.! Q l O.B B l @.Q Q Q F F F F F Q Q o.Q ~ -.+.7.z %.: ; > a s U A +.",
". . . . . . + + . . . . . . . . . . + + . . . . . o   *.J 6.w 9.yXY.1Xq.<.=.=.>.>.>.>.>.] t.>.>.>.>.>.t.>.=.! o.-.I l | ! ! ! ] ] ! <.q.W.E.W.f.f.f.f.w.e.B.p.p.Y.p.p.Q.k.L A U _ Y s S 7.F :.w r.$XZ.{.P.P.).'.2X*X{.v.~.:X%Xk ! ! >.>.>.>.5.5.~ B B B B ` Q F Q F F F Q Q Q Q Q o.| ~ #.W C %.' &.; ; p > 7. .",
". . . + . + + . . . . . . . . . . . + + . . . . + + h q ..6.q.i.yXyXf.{ =.<.>.>.>.>.>.>.>.>.>.>.>.>.>.>.>.=.=.Q / B R F ! ! ! ] ] s.s.d.i.u.W.f.e.f.w.w.w.B.n.p.Y.Y.!.,X,Xj.y s _ Y 5 S T @.J 9.W.&XZ.{.P.P.T.2X*XR.v.m.m./.8X,X! =.>.>.>.>.5.=.Q R B 7.B #.F Q F F F F Q Q Q Q Q Q ..~ R V C - E E ' : ; c R #.",
". . . + . . + . . . . . . . .       . . . . .   O   *.^ ..q.9.1XyXyX9.<.<.<.>.>.>.>.>.>.>.>.>.>.>.>.>.>.>.! <.K l O.) o.! ! ! ] s.0.{ 4.i.i.E.i.e.f.w.w.w.B.n.Y.Y.p.C.k.,X( E , 1 Y Y s  .| { d.1X#X$X{.P.P.T.;X*XR.v.m.m.l.XXw.! <.>.>.>.>.>.5.! ~  .B B R F >.Q F F F F F Q Q Q Q ..+.l B z C 6 A i ' &.' #.l ",
". . .   . . + + . . . . . .         . . . . . . h O G ..^ q.u.%XyXW.J ! =.=.>.>.>.>.>.>.t.t.t.>.>.>.>.>.>.! :.-.O.O.` :.! ! ! ! s.! J w.u.e.f.e.f.f.W.w.w.B.n.!.!.p.C.e.Q.( i 5 1 Y _ s $.| { 9.1X@X$X{.P.P.'.*X*X{.v.m.m.~.c.5X5.=.>.>.>.[ >.:.>.>.#.7.W ) [ >.Q F F F F F F F F Q ..#.T B V V C %.i ' ' z l D ",
". . . . . . . . . . . . . .   . . . . . . .   + O n f w w d.1X%XyX9.:.=.=.>.>.>.>.>.>.t.t.t.t.>.>.t.] >.>.=.Q / V B ~ :.! ! ! ! s.! q.w.e.f.f.e.e.f.w.w.e.C.p.!.!.p.C.e.M x i < _ _ 1 S $.| o.q.1X@XZ.R.).).(.S.R.{.v.m.m.m./.5X5.=.>.>.>.5.5.>.5.=.@.B O.` [ [ o.Q Q Q F F F F F F @.#.T B V W C y i ' E T  .C ",
". . . . . . . . . . . . . . . . . . . . . +   X   ,.J J k 4.yX%XyXw =.5.=.>.>.>.>.>.>.>.] >.>.>.>.] ] >.>.=...l V I @.:.! ! ! ! s.! 9.w.e.f.f.w.e.f.w.e.W.!.Y.!.!.p.C.,XL 3Xi < 1 _ 1 > $.~ :.q.L.@X$XS.).).;XR.{.{.v.m.v.m.F.5X=.! =.>.>.>.5.5.5.:.:.+.T K [ [ o.Q Q Q F F F F F F | l T W V V A E i E 6 T W z ",
". . . . . . . . . . .         . . . . . + + . o   8.w 6.d.W.yXyXw.{ 5.=.=.<.<.>.>.>.>.t.t.>.>.>.>.>.>.>.>.=.~ B V R F >.! ! ! ! s.<.4.E.f.f.w.w.f.i.w.B.!.Y.!.!.!.p.C.,XL 3Xi Y 1 1 1 >  .~ o.w L.Z.:XS.).T.;XR.{.v.v.v.m.m.l.iX5.! >.>.>.>.>.5.5.:.<.J +.@.5.[ Q Q Q F F F F F F F K ) B V 6 A y E E - V  .W V ",
". . . . . . . . . . .           . . . . + X + X @ H w e r.yXyXyXd.s.5.=.=.>.>.>.>.>.t.t.t.>.>.>.>.] ] >.>.[ ` O.V +.o.>.! ! ! ! ! :.u.i.f.f.w.w.E.i.w.n.Y.!.!.!.!.p.C.e.L - Z _ 1 1 1 ; $.| [ J L.$XA.*X).'.*XR.{.v.v.v.v.m.l.K.<.=.>.>.>.>.>.>.>.:.:.[ ..F [ [ Q Q Q F F F F F F Q @./ B C C - y y %.C B 7.6 V ",
". . . . . . . . . . . .     . . . . . + X . O   j 4.4.e.yX%XyXE.w ! =.>.>.>.>.>.>.>.t.t.t.>.>.>.>.] ] >.=.Q ) z O.K >.] ! ! ! ! ! y.i.f.f.f.e.w.w.e.W.!.Y.!.!.!.C.p.C.Q.L - u _ 1 4 v ;  .| ! J %X$X`.2X).'.;XS.R.{.{.{.{.v.l.#X{ =.t.>.] >.>.>.5.5.5.5.[ [ [ [ Q Q F F F F Q Q o.:.F ` T V C A A 6 C 7.l T D 6 ",
". . . . . . . . . . . .   . . . . . . + + + h h H 4.e.1X%X%XyX9.<.=.=.>.>.>.>.>.>.>.t.t.>.>.>.>.>.>.>.>.=...l z B ..] ] ! ! ! ! ! q.u.W.f.f.e.e.w.u.B.n.!.!.!.!.!.p.C.W.L 3Xc 1 4 4 v &.#.| ! { %X:X~.2X).T.2X*XS.R.R.R.R.{.~.&Xw <.>.>.! >.5.5.5.[ 5.>.! 5.o.Q Q Q F F F F Q Q o.o.Q @./ O.W W W O.V 7.T 7.7.G ",
". . . . . . . . . .         . . . . . . + o . *.e 6.r.yXL.L.W.w ! 5.>.>.>.>.>.>.>.t.t.t.t.>.>.>.>.>.>.! <.~ I z l o.! ! ! ! ! ! 0.9.r.W.f.f.f.i.w.i.C.Y.!.Y.!.!.Y.p.C.B.L - } v b b 4 ' ` Q ! s.yX$X`.2X).).'.2X;X*XS.*X>XR.m.8Xw ! >.>.] >.5.>.5.[ ! ! Q F Q Q F F F F F F F F Q Q F Q o.Q F F +.B W B gXB m @ ",
". . . . . . . . .           . . . . + . + X h q w 6.i.yXL.L.4.0.=.5.>.>.>.>.>.>.>.t.t.t.t.>.>.>.>.>.>.! :.N W z +.] ] ! ! ! ! ! J 4.r.E.f.e.e.i.w.w.!.p.Y.Y.!.!.Y.p.^.B.L y ; 4 b 2 4 E ~ ] ! ! 1X:XA.*XT.).T.'.(.2X;X;X;XS.v.XXw ! >.>.] >.>.>.! ] Q | ~ K ..F F F F Q F ..F ..F F Q [ >.! =.! Q  .W I l R q 9 ",
". . . . . . . . . .     . . . . . . +   O   *.^ J d.E.%XL.yXq.! =.>.>.>.>.>.>.>.t.t.t.t.>.>.>.>.>.>.>.! Q ) V V ~ ! ] ! ! ] ] ! w 4.e.f.e.e.e.e.e.w.n.p.!.!.!.!.p.N.C.Q.( c U 2 2 3 1 %.F ! ! ! r.V.`.*XT.).).'.(.(.2X;X*XR.m..X0.! [ >.>.>.>.>.o.+. .$.` K @.| | | | @.@.@.| @.@.| ..o.o.o.o.<...B W T $.T +.H ",
". . . . . . . . . .     . . . . . +   + o o H { k 9.1X%XyXu.{ ! =.=.>.>.>.>.>.>.>.t.t.t.>.>.>.>.>.>.>.=...l z I Q ! ! ! ! ] ] ! 6.4.w.f.e.e.e.f.e.w.p.p.n.Y.!.!.N.N.p.B.x ; , 2 hX3 1 6 Q ! ! ! { yX:Xv.+X'.'.T.'.(.2X2X*X{.~.:Xw s.5.=.! >.5.>.` V l $.+.@.| K ~ -.` ` +.) R #.#.+.K o.[ o.[ [ ` W W T  . .gX8.",
". . . . . . .         . . . . . + + . O   *.:.:.w r.yX%XyXd.<.=.=.>.>.>.>.>.>.>.>.t.t.>.>.>.>.>.>.>.>.=.K I O.R o.>.! ! ! ] >.! q.4.f.f.f.e.f.f.e.w.n.p.n.Y.!.!.N.N.n.L x > Y 2 hXhX1 C Q ! ! ! ! ! q.%XF.R.;XT.T.'.(.2X*X{.~.XX1.:.:.=.! >.5.:.) O.I +...o.K ~ -.` +.) R B 7.7.T  .~ o.[ [ o.| ) W 7.T P +.0 @ ",
". . . . . . .           . . . . + + . + h H <.X.y.u.yX%XW.J ! 5.=.>.>.>.>.>.>.>.t.t.>.>.>.>.>.>.>.>.>.[ ` B B ` 5.>.! ! ! ] ! :.q.9.f.f.f.e.f.w.e.w.B.C.n.Y.!.Y.rXN.n.L 3Xp Y 3 hXhX1 D o.! ! =.! ! :.! d.Z.~.*X'.'.'.2X*X{./.V.e :.o.=.>.>.:.:.R V l -.Q Q @.K ~ ` / ) l B W V 7.#.| Q o...K ` l W B #.P #.# @ ",
". . . . . . .         . . . . + +   O   j X.X.{ q.E.yXyX9.<.=.5.=.>.>.>.>.>.>.t.t.>.>.>.>.>.>.>.>.>.! Q +.7.T | ! ] ] ] ] ] ! 0.q.r.E.f.f.e.f.w.r.w.W.f.C.Y.!.p.rXN.n.L 3Xp _ 3 jXjX1 W o.! ! >.>.! [ s.0.y.@Xm.R.(.(.(.;X{.`..Xk.0.@.5.5.>.<.:.l V l ` F Q Q ....K ` ` ) l l R ` ..o.Q @.-.` #.7.W T #.P R # h ",
". . . . . . .         . . . . + . + o o H :.X.J 9.1XyXi.w ! =.=.=.>.>.>.>.>.>.t.t.>.>.>.>.>.>.>.>.>.=...#.7. .Q ! ] ] ] ] ] ! J q.f.w.f.E.f.f.w.f.W.w.W.C.!.!.Y.rXN.n.j.- a 1 3 kXkX1 W [ ! ! ] 5.5.>.[ { 0.y.Z.~.*X2X2X;X{.c.XX&Xy.| o.! <.<.:.l V R K ..Q o.o.o.@.-.` / l +.| F Q @.~ ` +.+. .W W T $.$.R j @ ",
". . . .             . . . . . . . O   *.3.3.{ q.u.1XW.9.{ ! =.=.>.>.>.>.>.>.>.] ] >.>.>.>.>.>.>.>.=.[ -.R 7.#.[ ! ! ! ] ] ! ! w 4.W.w.E.w.f.f.e.W.B.f.W.n.p.!.p.rXN.n.j.y p 4 hXlXlXb C o.! ! >.! [ [ <.Q :.{ q.$Xv.*X;X*Xv.:XXXF.d.k F ! <.<.0.N / ~ ....o.:.:.:.@.` / / l N ..@.@.-.` ` #.#.T V 7. .$.#.gX8 n ",
". . . .             . . . . . . . X h q J ^ w 9.u.1Xi.w s.=.=.>.>.>.>.>.>.>.] ] ] >.>.>.>.>.>.>.5.=.o.+. .7.` ! ! ! ! ] ] ! ! q.4.w.f.E.f.f.f.r.B.p.B.^.C.Y.!.N.rXN.B.j.uXa zXjXxXxX2 D o.! ! >.! ~  .F :.o.{ { u.:Xv.;XS.~.:Xc./.%Xq.F ! <.s.:.k e K | ..F :.:.:...` R R R ~ | ~ -.+./ / / #.W D T $.$.$.OXn n ",
". . . .         . . . . . . .   X   ,.% W.e.r.9.E.1X9.{ =.=.=.>.>.>.>.>.>.] ] ] ] >.5.>.] >.>.>.5.=...+.T B | ] ] ] ! ] ] ! 0.4.e.w.f.w.w.w.w.r.B.N.^.^.C.n.Y.N.rXN.B.j.uX, 3 kXcXlX2 D [ ] ] >.! +.A 6 @.] :.0.y.1XV.{.{./.V.V.l.@Xw F >.s.s.{ e / N K | F [ :.:.F -.l I I ) +.#.R l I I I B C D  .$. .$.q h n ",
". . . .         . . . . . . .   h X G L.f.i.r.i.W.E.q.s.=.=.=.>.>.>.>.>.>.] ] ! <.o.5.>.=.=.>.5.5.5.K ) B l Q =.! ! ! ] ] ! J w.w.f.f.w.w.w.w.r.B.p.Y.C.C.!.p.iXrXN.Q.j.uX5 jXlXvXlX2 d [ ] ] >.=.-.6 &.6 o.Q s.<.y.L.V.l.g./.A.`..Xw J :.:.:.{ e / N k @.Q [ 5.[ o.~ l T 7.W W 7.W V C 6 - E ' 6 T $.gX$.# + @ ",
". . . .       . . . . . . . . + X g % i.e.r.u.yX1Xi.{ ! =.=.>.>.>.>.>.>.>.>.! s...| o.=.=.=.=.5.5.[ -.R B #.o.5.! ! ! ! ] ! w W.f.f.f.f.w.w.w.f.^.p.p.!.C.Y.p.iXrXN.,X( r bXkXxXvXlX3 d [ ] ] >.>.~ 6 } &.$.:.o.>.0.d.@XV.F.F.V.V.8X1.:.{ :.<.:.N ) R -.K ~ ..o.o.5.F R T B 7.W V z 6 - E i c } %.B  . .$.8.  h ",
". .           . . . . .   . . O   *.e.u.u.r.1XyXyX9.<.=.=.=.>.>.>.>.>.>.>.=.! J K K o.=.! =.=.5.5.Q ` l B ` [ 5.! ! ! ! ! s.q.W.f.f.w.f.w.w.w.f.C.p.Y.p.!.!.N.iXrXp.,X( c 1 nXmXvXxX3 D [ ] ] ! ! -.6 : ; ' ..t.>.:.{ d.%X.Xc.c.$Xp.1.{ :.>.<.:.N l B I l R ` ..o.[ o.-.#.T W W V z C %.i u ; ; %.T $. .$.,.O o ",
". . . .     . . . . . + + . . h   m u.E.r.i.%XyXf.y.! =.=.>.>.>.>.>.>.>.=.=.:.@.K ..=.=.=.=.=.5.=.@.+.B T | >.>.! ! ! ! :.{ d.W.f.w.f.e.w.w.w.W.n.Y.p.p.Y.Y.N.6XrXC.,Xx r b lXvXvXxX2 7.t.] ! ! ! ~ 6 : } p C ! ] t.0.{ d.&X<X.X5XL.d.{ :.=.<.:.~ l I I T l +.| F [ 5.o.@.`  . .B 7.z %.E u > } 6 T  .$.H h h O ",
". . . .   . . . . . . + + . + X h H u.E.f.yXK.yXr.0.! =.=.>.>.>.>.>.>.>.=.=.Q @.K Q ! 5.=.=.=.=.5.~ R O. .F >.>.] ] ! ! J w 4.W.f.w.w.e.w.w.W.W.C.p.Y.p.N.p.K.rXrXQ.Q.3X* 3 xXMXvXlX2 7.t.] ! ! ! | C &.} p ; ) ! :.>.s.y.yX&XyXyX%XL.1XJ :.=.=.k R B B T l #.K @.Q 5.5.5.@.` -.+.+.l V %.u > Z W T gX$.#   o + ",
". . . .   . . . . . . . . . o   *.u.1XE.yX5X%XW.q.! =.=.>.>.>.>.>.>.>.>.=.<.k k @.:.! =.=.=.5.=.Q R T W $.[ ] ] ] ] ] =.J J w.W.f.w.w.f.w.w.W.w.C.p.Y.K.N.N.K.rXrX,X,X3X* jXmXMXMXlXb $.] ] ! ! ! | 6 &.} > > : K ] o.! s.y.n.M u.#X:XV.^.J o.5.k ) I B I T ) K ..o.[ :.=.| +.~ ` ` R l O.Z } y B l gXR 9   o O ",
".           . . . . . + . . h o G 1X1XyXK.5XyXr.{ ! =.=.>.>.>.>.>.>.=.=.=.J e k ..! =.=.=.=.5.=.@.B O.V -.] ! ! ! ] ] :.w y.B.E.E.E.w.w.w.w.W.w.yXp.Y.K.iXiXK.rXN.k.,X3XU jXvXMXMXlX4 +.] ] ] ! ! @.C u } } ; > y Q :.t.! 0.q.q.r.#X/./..Xq.[ 5...N l I R +.~ | | F o.[ Q -.-.~ ~ ` / l l E } A 7.B l gXg   O o ",
".         . . . + + . . . + X n % 1X^.K.5X5X^.q.! =.=.>.>.>.>.>.>.>.=.=.{ q.e k o.5.5.=.=.=.=.5.-.O.V O.K ! ! ! ! ! ! :.J q.yXi.E.E.w.w.w.w.W.w.W.K.p.K.iXiXN.eXp.k.M x , kXMXNXMXnX1 -.! t.>.! =.| C u } c } > ; T ! t.>.! 0.q.9.#Xl.m.XXd.o.=.J N N ~ K K ....@.F Q ..`  ./ +.-.-.+.l V Z } A W 7.B |.h O X o ",
". .       . . . + .   + X X   *.r.[.K.#X5X%Xe.{ ! =.=.>.>.>.>.>.>.=.=.<.w 4.e w =.5.5.5.5.5.5.o./ V V B Q ! ! ! ] ! ! { 5.4.W.i.W.E.w.f.w.w.W.w.W.p.p.K.iX6X6XeXB.k.Q.3XbXkXNXBXMXnX_ ~ ! t.] =.=.| A c } u c > > ' ~ ! Q ! ! 0.d.#Xl.v./.1X:.=.:.K K k k | @.F Q o.Q | ) B O.T l l / R 6 Z u z 7.W B 0   o . o ",
". .       . . . . . . + . O   8.E.C.K.5XK.yX1.<.=.=.=.>.>.>.>.>.>.=.=.0.9.e.1.{ =.5.[ 5.5.5.[ F R z V R [ ! ! ! ] ! ] J J B.E.E.W.f.f.f.w.w.W.w.w.C.p.iXiXeXeXeXQ.k.M x _ nXBXBXMXnX< | ! ] >.>.5.| %.c c c : &.> > %.o.Q <.:.0.q.#X/.{.v.$X{ =.s.J K k | K K ..o.o.Q F ` I W O.O.W I O.E i A T T 7.7.j   o   O ",
". .       . . . . X + X O o O q 1X%XK.K.%Xf.w ! =.=.>.>.>.>.>.=.=.=.<.w w.e.k 5.5.5.[ 5.5.5.o.| B z 7.` >.! ! ] ] ! <.J w n.i.E.E.f.f.w.w.w.W.w.W.W.!.iXiXeX8XeX,Xk.,Xx v lXVXVXMXkXs ..] ] >.>.5.| y } u c : : > p > B :.:.<.{ y.%XF.v.{.c.1.=.! J k k -.N -.| o.o.o.[ @./ B V V z z - i - +.K #. .OXn + X   + ",
". .   . . . . + + + O X o   # [.C.L.L.K.Y.1.<.! =.=.>.>.>.>.>.=.! =.{ 9.w.4.J 5.5.5.5.5.=.5.Q ~ B z B K ! ! ! ] ! ! { J 1.n.f.E.W.w.w.w.w.W.w.w.W.W.!.iX6XeX8XrX,X,XQ.x b cXVXVXMXjX> F ! ] ] >.5.K E c Z c u : ; a S &.` ! :.s.0.1Xc.m.{.~.%X0.5.J w ~ l B R +.K o.[ 5.=.Q +.O.W z C y y R :.! ^ F #   h .   . ",
"+ .   . . . . + + + + h X 8.9.C.%XL.L.Y.W.J =.5.=.>.>.>.>.>.>.=.! <.q.w.W.9.:.5.5.5.5.5.=.[ F ` 7.W  .Q ! ! ! ! ! ! J J w.yXE.E.w.w.w.w.w.W.f.W.W.W.!.iX6XeX8XN.k.,XB.x zXmXCXVXvXhX&.Q ! ! ] >.5.~ ' ; u c u : &.p U U ' | F s.! q.:X~.v.v..X{ =.Q Q -.O.O.B T $.@.[ [ =.! F  .W V 6 y A @.! 3.! ^ g . O .   . ",
". . . . . . . + + . O + ,.^ f.^.L.%X%XY.k.<.=.5.=.>.>.>.>.>.=.=.=.0.9.W.w.w =.5.5.5.5.5.:.Q ..-.I B +.o.! ! ! ! ! ! w 0.w.i.i.W.w.w.w.w.w.E.f.W.^.W.C.iXeXeX8XN.k.Q.B.= hXvXCXVXvX2 2.o.] ! ! >.[ -.: > u c u u &.; s 5 s V | :.! { L.F.~.m.8Xy.! o.J ~ l B O.B T +.F [ [ 5.[ +.V O.6 y V o.! X.>.0   o . X . . ",
"    . . . . . + . . h O q 4.W.L.L.%X%X^.w <.=.=.=.>.>.>.>.=.! =.<.w w.W.w.{ =.5.5.>.>.:.Q ..F ~ ) ) ~ >.! ! ! ! ! :.J J W.u.E.W.w.w.w.w.w.f.W.yXC.^.C.6XeX8X8Xp.k.Q.B.uXjXNXZXVXvXb d t.] ! ! >.[ +.&.p u c u u : &.U Y Y > ) ..:.s.d.$Xc.oX&X{ >.o...~ / I B 7.T $.` F [ [ 5.K O.O.A y / =.>.3.X.,.  o   X . . ",
". . . . . . . .   + X g ^ yX[.L.L.%XL.r.0.=.=.=.=.>.>.>.>.! ! ! { 9.w.W.q.<.5.5.>.5.[ Q F ....+.#.` @.! ! ! ! ! ! 0.:.q.E.i.W.W.w.f.f.w.w.f.^.B.yX^.!.&XeX8X8XY.k.C.n.r nXBXZXVXmX4 D t.] ! ! >.Q #.c p c u u u c &.a _ _ Y - J :.! 0.i.#X8Xn.s.>.:.k ~ -.R T 7.7.T #.| o.[ 5...l O.A A ~ [ X.>.q O h X . + . . ",
". . . . . . . + . O   *.d.[.[.L.%XK.yXw <.=.=.=.>.>.>.>.=.=.=.<.q.i.W.w.{ =.5.>.>.:.Q F ..@.@.+.#.-.Q ! ! ! ! ! ! 0.! 4.i.u.W.i.i.u.u.w.W.W.B.B.C.C.Y.6XeX8XeX!.k.n.n.t lXVXZXVXmX_ 7.t.t.] ! >.F R c p } Z u u c &.> _ 4 _ U ` o.<.! y.9.u.y.! o.J k K @.K `  .T T  .~ o.[ 5.o.) V - C | [ X.=.m   h   . + . + ",
"  . . . . . . . . o   9 ^.[.K.5XK.K.e.{ =.=.=.>.>.>.>.=.=.=.! { 9.W.W.9.:.[ =.>.:.Q F F @.| K +.#.~ o.! ! ! ! ! s.0.{ W.W.i.E.E.i.u.i.w.W.W.B.W.B.C.Y.6XeXeXeX!.,XB.n.1 cXZXZXVXcX< $.t.t.] ! >.F  .u p ; Z u u c } ; _ b v < A Q >.! 0.{ J ! :.k ..K K J F ..K `  .R ~ o.[ 5.o./ C - O.Q 5.3.3.,.  o . + + + X ",
"  . . . . . . . + X @ q ^.K.&X#X5X^.q.! ! =.=.>.=.=.! ! ! ! <.y.E.1Xw.w 5.o.o.:.Q ..F F @.K ~ ) +.@.>.! ! ! ! ! <.<.y.W.W.E.E.E.i.yX^.f.f.B.B.f.B.C.p.eXeXeX6XC.,XN.3XhXAXZXZXBXxXs +.t.] ] ] >.F T Z > p Z Z u c } ; 5 b 2 1 ; ` >.5.:.:.<.! k / k -.-.Q o.F o.Q | ~ ....o.[ o.+.C A R o.X.5.$ h + X X + + + X ",
". . . . . . . . o   j .X&X@X&X#XL.r.{ ! ! =.=.>.=.=.! ! ! =.{ d.W.W.4.{ [ F Q ..F F F F | ~ ` l +.F ! ! ! ! ! >.:.0.q.W.W.1XE.i.1XiXiXW.E.^.^.W.^.!.N.eXeXeXrXQ.Q.rXuXnXNXSXZXBXlXS ~ t.] ] ] >.F B i ; p c Z u u c > , 4 3 b < W [ [ ! <.:.=.`  .K -.N K | ..F o.o.F F F o.5.o.+.C C -.[ ^ [ 0 + h X O X + + + ",
". . . . . . . + h h DX4X.X.X#XK.[.q.<.! =.=.>.>.=.=.=.! ! <.y.i.W.W.q.=.Q ........F F ..K +.#.l ` o.! ! ! ! ! =.:.0.9.yX1X1X1Xp.K.iXrXyXE.^.B.W.C.Y.iXeXeXeXN.Q.Q.= t lXBXSXCXNXnX; | ] ] ] ] >...B i ; a > c u u c > , v 2 3 v ; ~ Q [ :.<.o./ T -.~ ` / ) -.F [ [ [ [ Q Q 5.[ #.C D ..=.^ [ m   h + O + X . + ",
". . . . . .   o   *.XX.X.X.X#XyXu.w ! ! =.>.>.>.>.! ! ! ! 0.d.1XE.i.J ! o.J w ....F F ..~ ) l T ` >.! ! ! ! ! ! :.<.d.E.E.1X1XyXK.5X5XyXE.^.W.B.C.K.iXeXeX6XN.Q.C.= bXcXVXSXCXNXkX' F ] ] ] ] 5...O.Z } p a p } u u ; , 1 2 hX2 < D Q [ 5.>.Q R B ` K ` R l R ` F [ [ 5.o.F 5.o. .6  .[ 3.3.[ *.  O . O + + . . ",
". + . . . . + X h a.4X4X4X&X%XE.9.0.! =.=.=.>.>.>.! ! =.=.{ u.1XE.d.<.5.o.J k ..F F F @.` l 7.O.-.! ! ! >.=.! :.:.<.9.i.E.1X1X1XK.rXK.E.f.yXC.C.!.K.6XeX6XiX!.k.n.r v mXCXSXCXvXkX2.o.] ! ! ] 5...O.Z } > U U > c Z } U _ 4 hXhX1 > +.o.[ 5.F / l R @.K ) I l  .~ o.[ 5.[ o.=.F B D -.! 3.! ^ n O . + X . + + + ",
"+ X . + .   O   *.XX.X4X.X5XyXe.w ! ! =.=.>.>.>.=.=.! =.5.w E.yXE.w ! o.J w k ..F F ..@.+.I V W ~ ! ! ! <.<.! 0.0.0.9.i.E.1X1X1X^.p.yXu.e.E.^.^.Y.iX6X8X6XN.C.k.n.* zXAXZXSXZXvXjXd [ ] ! ! ! 5.@.O.Z ; ; a U U > u Z } , 1 2 hX2 _ E @.o.=.Q ` R T ..:.~ T T B #...[ [ 5.[ =.K V 7.F ! X.! ;.X o . + + . + + + ",
". . . + . + o o DXXX.X.X#XL.1X9.{ ! ! =.>.>.>.>.=.! ! =.{ d.1X1Xr.{ =.{ J q.k k F F ..| ) 7.V W ..! ! ! :.>.=.<.s.{ 9.u.f.1X1Xi.r.r.e.r.W.E.f.^.!.iXeXeXiXp.Q.1.N.t jXMXSXSXCXmXhXD t.] ! ! ! [ | V Z } ; p U , a ; Z y ; Y 4 3 hXb 5 7.@.>.o.` ` R Q ! ../ T 7.T +.Q >.[ 5.5.#.V #.5.5.^ =.m   h . + + + + . . ",
". . . .   o   *.&X4X.X.X@XL.W.q.=.! ! =.>.>.>.>.! ! ! =.{ 9.yX1Xd.<.<.q.1.4.6.w ..F ..~  .7.V T :.! ! ] :.>.=.:.s.y.9.r.f.W.E.u.i.9.9.9.f.W.f.C.p.iXeXeXN.p.,X1.rXt kXNXFXSXCXcX2 7.t.] ! ! ! [ @.z u c ; p a , , a c A - p _ 2 hX3 4 ; +.[ 5.K K R | ! Q ~ R 7.7.T ~ [ [ 5.Q T W K ! 5.3.=.*.  h + + + + + . . ",
". . .   . X h q F.4X.X&X%X^.e.y.! ! ! =.>.>.>.=.=.! ! <.w E.1XE.w =.:.9.w.w.1.w F F @.-.B W V $.] ! ! ! <.>.! <.s.q.9.r.u.i.E.r.u.r.1.r.e.[.W.p.K.6XeX6Xp.!.k.d.rXt nXBXGXFXCXcXb 7.t.] ! ] ! [ @.z u c ; p > , 5 U > - V y U v hXhX2 5 D | 5.Q J / ~ >.Q @.+.B 7.7.$.Q [ 5...W T o.! X.! f @ . o O X + + + . . ",
". . .   o   ,.1.eX.XeX5XL.^.1.:.! ! ! >.>.>.>.=.! ! ! 0.d.1X1Xr.:.! J u.E.e.q.J F ..@.+.7.W W ~ ! ! ! ! ! ! <.! { 9.9.u.i.E.E.u.E.r.9.e.f.1Xp.rXiX&XeX6Xp.C.1.q. XbXlXVXGXFXCXxX1  .t.] ! ! ! [ @.C u c } p > a 5 , U Z V O.u Y 2 hXhX1 i #.o.:.{ R ` [ F @.~  .7.W B @.[ 5.| D #.] >.X.! G O h O o + + + + . . ",
". . . . h O q 1.K.#X&XK.L.W.q.! ! ! ! >.>.>.>.=.! =.<.{ 9.1X1Xq.<.=.w E.E.4.w J F ..K R O.7.7.@.! ! ! ! ! ! <.<.y.e.r.u.1X5X&X#XK.r.r.f.E.K. X=  X&XiX5X!.Q.1.d.= bXxXCXGXFXVXlXY $.t.] ! ] ] >.@.6 u u } > > p , 5 , > - T V p 1 3 hXb > B @.:...O.B | @.@.|  .V V W +.[ =.~ W @.! >.^ >.m   h + o + + . . . . ",
". + + O + 8 X.e.6X@X5X%X^.r.:.! =.=.! >.>.>.=.! ! =.<.y.i.1Xf.w ! =.d.W.w.9.w J F ..~ T B 7.T Q ! ! ! ! ! ! J { q.e.e.^.L.&X8X8X#Xi.r.[.^.iX<Xr <X#X5Xp.^.,X1.1.= v mXZXGXFXVXnX, $.t.] ! ] ! >.@.6 u u c > > > a 5 5 U Z 7.T y , 4 3 2 s z ` F K C C / | | |  .V V W B @.>.-.R :.! [ 3.[ j   o . X + X . . . . ",
"X + X o   9 ! 6.K.K.K.K.^.q.<.! =.=.! ] ! ! ! ! ! ! 0.d.E.1X9.:.=.0.r.1Xw.q.J Q F @.-.I T B +.] ! ! ! ! ! <.k w 4.W.W.K.&XXXXX8X&Xf.r.[.K.= r r <XiXK.p.^.k.q.1.r v AXSXGXFXBXnXs $.[ ] ! ] ] >.@.A u u c ; > > > , 5 , > z T W ' < 4 2 Y 6 $.~ -.C C T -.| |  .D W z C ~ Q -.K ! =.3.>.^ g O + . + X X + . . + ",
"O X . o   8.0.B.%XY.K.Y.e.{ =.=.=.=.! ! ! ! ! =.! ! y.u.i.u.w =.=.J E.1Xi.q.J Q F | +.B T l K ! =.! ! ! ! ! J 0.9.i.W.iX XXX<X<X&X^.e.[.5Xr * * = iXK.!.Q.k.q.k.r zXAXSXGXFXBXnXS $.o.] ! ] ] >.@.A u u c } } ; } a , 5 U Z O. .C ; Y b 1 E #.~ ~ W C B / @.@.R V W 6 C ~ ..~ o.! =.X.>.;.X o . . + X X + . . + ",
"+ X h O @ H w %X%XL.L.yXq.! <.=.! =.=.! ! ! ! =.=.<.q.1XE.9.:.=.<.q.1X1Xu.w Q F F K / I I ) o.! =.! ! ! ! ! ! ! d.r.1XiX8X<X<XXX5X[.[.!.= t bX, uXrXp.!.,Xk.q.1.r 3 MXFXGXFXBXkXs T Q ] ! ] >.>.@.A u u c c c u u > U 5 5 a -  .T - p Y 1 &.$.-.~ W C V T ~ | R C 6 %.C ` ~ | ! ! 5.X.>.8.  h   . + + X + . . + ",
"o + h + G q.1.yXyXyX1Xf.y.! <.=.! ! ! ! ! ! ! =.! 0.9.1Xi.q.<.5.{ r.1XE.e J Q F ..~ R I T ` =.=.5.! ! ! ! =.! 0.r.u.[.L.&X<X8X&Xp.9.e.!.r bXb bXr 3XN.C.,Xk.1.k.* hXNXGXGXFXNXkXs 7.F ] ] >.>.5.@.A u u c c u u c ; a 5 5 5 ; B $.B y a _ p T +.-.W C C O.` ~  .y y y z / R ..! ! 3.3.[ *.  h + + + X X + . . + ",
"O o + m q.4.e.1XL.yXE.q.0.<.<.! ! ] ] ! ! ! ! =.=.y.i.E.e.J 5.5.w 1X1Xi.q.J o.F @.` l I l K ! [ [ =.! ! ! ! ! { 9.[.[.1XL.6XiX^.[.r.^.rXt 4 zX1 * = N.Q.,Xk.q.,X* jXBXGXGXFXBXkX< D | ] ] >.>.[ | A u u u u u u u ; > U Y Y , E R #.T i s a 7.+.` B 6 A z ) +.6 i i E W  . .:.! ! 3.! f @ X o o X + X + . . + + ",
"h   *.6.6.e.^.%XL.yXW.q.{ =.! ! ! ] ] ! ! ! ! ! :.9.E.u.9.:.=.:.d.1X1X4.k o.o.F | / l l ) Q ! o.5.! ! ! ! ! =.w k.W.[.^.L.K.K.[.r.k.C.uXbXb zX_ * 3Xn.Q.,Xk.1.L , nXVXGXGXFXBXnXY %.-.! >.>.5.[ | - u u u u u u u ; p a 5 _ Y U 6 ` #.O.E ' T K ` T C A C l R y ' ' y V W $.! ! ! X.Q q + h o o + + + + . . + + ",
"X @ $ 9.e.!.p.5X5XL.e.w <.=.=.! ] ] ] ! ! ! ! ! y.i.E.u.q.5.[ J u.1XW.9.J o.o.F K R l l ` ] ! 5.[ [ >.=.! ! <.q.e.[.1XL.1XY.C.9.k.e.p.r v zXb _ * 3Xn.Q.k.k.1.( _ mXCXGXGXFXBXnX_ i #.[ >.>.5.5.| - u u c u u u u } p a U _ Y 5 >  .` /  .R ~ ..~ R z - 6 W C i ' ' %.7.W +.5.5.o.+.B #   h + O + + + + . . . X ",
"  j q.w.C.K.iXiX5XC.r.w <.! >.] ! ] ] ! ! ! ! <.d.1Xi.9.J ! 5.q.W.1Xw.q.J o.Q ..-.T l l -.! ! <.{ { 5.>.! ! 0.q.k.[.L.5XK.Y.^.k.e.[.rXt v 3 b _ a 3Xn.Q.k.k.L * hXNXSXGXGXFXBXnX1 : $.[ >.5.[ 5.| - : u u u u u u c > a a Y _ Y s E +.-.+.+.Q [ @.R V - A C %.: u ' A 7.W ~ >.[ Q gXW 8.  o   X + + . . . . . + ",
"  # 9.% iXiXiXiXp.e.r.9.q.! ] >.] ] ! ! ! ! =.y.u.1Xi.q.<.=.:.9.1X1Xw.w :.Q F @.` T I l | ! ! k L N o.=.! ! <.q.Q.K.&X8X8XeXC.,Xk.e.3XbX4 2 b _ * 3Xj.B.Q.L uXzXxXVXFXGXGXFXVXlX4 ; 7.[ >.5.5.[ @.- : u u ' ' u u u ; U p U Y Y , > %. .I C | o.@./ W - - 6 E c : E V W 7.F ] ! ~ W  .8 . X . . . + . . . . . + ",
"o # !.}.6X6X6XiX!.9.r.4.1.:.! [ ] ] ! ! ! ! 0.d.i.1Xi.w <.=.w W.1XB.w.{ =.o...| +.I I R ..! ! L = j.k <.! ! ! q.B.6X8XXXXXeXY.[.^.^.3XbXv b b Y * 3Xj.L M j.5 kXmXZXFXGXGXFXVXxX2 a d Q >.5.>.[ ..- c Z u ' ' u u Z c U a ; U Y 5 U > u &.u +.F K +.B A - A i c ' %.B W T [ t.3.R 7.m   o +   . . . . . . . . + ",
"n |.N.eX6XeX6Xp.W.9.r.r.4.w ! =.] ] ] ! ! ! w r.E.1X9.:.<.<.q.yXyXB.e ! =.o.@.~ R I l / Q ! J 3X3XL N J ! >.! q.^.6X8X<XXX6XC.C.N.!.3XU 5 _ _ , ; 3Xj.( j.uXzXxXAXSXFXGXGXFXCXmXjXY i | [ 5.>.[ ..A u Z u Z Z u u Z c a U c c a 5 5 U 5 Y , A ..~ / l 6 - - E Z y O.l W #.! ] ^ $.#   h X . . . . . . . . . . . ",
"# 6X6X6X6XeX6XC.r.r.e.i.4.J ! =.! ! ! ! ! 0.9.i.1XE.d.0.<.<.u.%XyXW.k ! ! :.@.-.I I l ` { ! K uX3XL M k ! <.! q.C.iXeX<XXXK.^.[.!.p.= } p U , > c 3Xj.( x U jXcXNXSXFXGXGXFXSXvXlX4 > ~ [ 5.[ [ @.A u Z u Z Z u u Z u p U ; u c a 5 < Y Y 5 > / -.l ) O.6 6 - - A l R O.| ! X.s.0   h o . . . . . . . . .       ",
"}.eXeXeX6XiXN.W.i.[.f.w.1.:.! =.! ! ! s.s.q.u.E.1XE.y.0.:.{ yX5XyXw.{ ! ! :.@.-.I I l -.<.! I r = M L e ! o.! q.!.5XiX8X X[.^.K.6XN.j.( A E } Z y z I 3X- 1 kXAXBXSXFXFXFXSXFXMXcX3 <  .[ [ [ [ @.A c u u Z Z u u Z u > U p } : u U Y Y _ Y U V ` I ) I O.z - A A T R B o.X.! ;.o o o + .       .   . .         ",
"6XeXeXeX6Xp.p.W.r.f.w.e.w ! =.! ! ! ! ! { 4.u.1X1X4.0.s.=.w K.5Xn.4.s.! 5.<.F ` B T R K ! ! 3X* = M L K ! :.! J W.K.K.iXp.1.,XN. XN.qXK l C A A A B B y y zXnXAXNXSXFXFXFXFXFXBXvXjX1 D [ o.[ [ ..A u u u ' Z Z Z Z ' } U U ; ' ' ; 5 Y Y Y , C ` T R l B V - A C T $. .X.! ;.o @ h + . . . .                   ",
"iX6XeX6XN.n.p.B.9.e.e.d.:.s.<.! ! ! ! ! d.w.u.E.E.q.0.0.! k iX5XyX1.=.:.[ >.Q / I R +...>.Q uXr 3XM M k ! [ =.J e.n.C.W.e.k.,X!.&XrXqX| N I O.O.V T V 6 Z zXnXAXNXSXFXFXFXFXGXCXMXkX4 %.o.Q [ [ F 6 u Z Z i i Z Z Z i c U U > : i ' a 5 5 5 , %./ l R ) l 7.6 6 D  .+.` ! H n o h h o   . . +                   "
};
