/* XPM */
static char * reload_3_xpm[] = {
"261 420 253 2",
"  	c #FF00FF",
". 	c #FE00FE",
"+ 	c #FD00FD",
"@ 	c #FB00FB",
"# 	c #C00AC0",
"$ 	c #3F4340",
"% 	c #535753",
"& 	c #484C49",
"* 	c #4F5450",
"= 	c #4C504C",
"- 	c #444844",
"; 	c #403E37",
"> 	c #2D2C1A",
", 	c #111805",
"' 	c #0C0902",
") 	c #080804",
"! 	c #060501",
"~ 	c #0C0D05",
"{ 	c #1B261E",
"] 	c #242826",
"^ 	c #901190",
"/ 	c #CB0ACB",
"( 	c #F501F5",
"_ 	c #F800F8",
": 	c #FA00FA",
"< 	c #B10FB1",
"[ 	c #531752",
"} 	c #232423",
"| 	c #303331",
"1 	c #272A28",
"2 	c #1C1E1D",
"3 	c #1B1C1B",
"4 	c #181C19",
"5 	c #171917",
"6 	c #131412",
"7 	c #030804",
"8 	c #0A0A09",
"9 	c #111211",
"0 	c #3A3E3C",
"a 	c #690E68",
"b 	c #151715",
"c 	c #030201",
"d 	c #0C0D0A",
"e 	c #373A38",
"f 	c #343734",
"g 	c #A20EA2",
"h 	c #EE01EE",
"i 	c #E902E9",
"j 	c #2E302E",
"k 	c #171612",
"l 	c #1A1914",
"m 	c #141409",
"n 	c #161007",
"o 	c #150F06",
"p 	c #130F05",
"q 	c #110E03",
"r 	c #0F0B04",
"s 	c #110E08",
"t 	c #101106",
"u 	c #8C298C",
"v 	c #613762",
"w 	c #16140E",
"x 	c #13110B",
"y 	c #141008",
"z 	c #161208",
"A 	c #181108",
"B 	c #150D03",
"C 	c #0F100D",
"D 	c #130C05",
"E 	c #1E1E1B",
"F 	c #1D1C18",
"G 	c #652260",
"H 	c #14130F",
"I 	c #1E1F1E",
"J 	c #2B2D2A",
"K 	c #262624",
"L 	c #141709",
"M 	c #23221F",
"N 	c #D607D6",
"O 	c #212322",
"P 	c #262420",
"Q 	c #1D2116",
"R 	c #21201C",
"S 	c #1A1919",
"T 	c #5D625E",
"U 	c #2B2A25",
"V 	c #34322D",
"W 	c #636863",
"X 	c #6A6E69",
"Y 	c #585D58",
"Z 	c #E102E1",
"` 	c #202020",
" .	c #111407",
"..	c #20221F",
"+.	c #71756F",
"@.	c #3D1D3D",
"#.	c #777C76",
"$.	c #1E1C12",
"%.	c #7D827C",
"&.	c #181716",
"*.	c #7D247C",
"=.	c #0B1305",
"-.	c #010501",
";.	c #070E04",
">.	c #262418",
",.	c #19130A",
"'.	c #221E16",
").	c #540754",
"!.	c #171409",
"~.	c #141106",
"{.	c #171A0C",
"].	c #1C180D",
"^.	c #190E04",
"/.	c #171105",
"(.	c #838A84",
"_.	c #1A1208",
":.	c #949990",
"<.	c #9C9E95",
"[.	c #201809",
"}.	c #000101",
"|.	c #800F80",
"1.	c #151506",
"2.	c #000000",
"3.	c #1A1708",
"4.	c #993D8D",
"5.	c #1C1304",
"6.	c #231D0A",
"7.	c #0A120A",
"8.	c #101809",
"9.	c #121B0A",
"0.	c #25210F",
"a.	c #0E1607",
"b.	c #8E928B",
"c.	c #000103",
"d.	c #2C220C",
"e.	c #35260D",
"f.	c #433115",
"g.	c #4D381A",
"h.	c #513C1B",
"i.	c #57411F",
"j.	c #573D1B",
"k.	c #31220C",
"l.	c #261806",
"m.	c #392F17",
"n.	c #463417",
"o.	c #493819",
"p.	c #614522",
"q.	c #5D401D",
"r.	c #412E12",
"s.	c #291E0B",
"t.	c #3B2C11",
"u.	c #4B3416",
"v.	c #473012",
"w.	c #503617",
"x.	c #4E2D10",
"y.	c #603A18",
"z.	c #744E27",
"A.	c #372A11",
"B.	c #3E3014",
"C.	c #754822",
"D.	c #2E1C07",
"E.	c #30260E",
"F.	c #413319",
"G.	c #42270E",
"H.	c #8A592F",
"I.	c #95663B",
"J.	c #2C250F",
"K.	c #91572C",
"L.	c #C4804C",
"M.	c #8F5E35",
"N.	c #45371E",
"O.	c #955E32",
"P.	c #D28552",
"Q.	c #DC9661",
"R.	c #855127",
"S.	c #3B2109",
"T.	c #312912",
"U.	c #201505",
"V.	c #DC8C56",
"W.	c #D68A55",
"X.	c #EB9F69",
"Y.	c #C68E5B",
"Z.	c #6C5132",
"`.	c #29230C",
" +	c #F8A468",
".+	c #FDAA6E",
"++	c #DD9B70",
"@+	c #7C4C24",
"#+	c #E79761",
"$+	c #FDB077",
"%+	c #AB6D3E",
"&+	c #68421D",
"*+	c #EA9259",
"=+	c #E2915A",
"-+	c #63421E",
";+	c #FDB987",
">+	c #C67A44",
",+	c #805E39",
"'+	c #F39E63",
")+	c #9B5E31",
"!+	c #F0995D",
"~+	c #E48C53",
"{+	c #CE7C45",
"]+	c #C1733F",
"^+	c #9E693C",
"/+	c #5F472F",
"(+	c #A47449",
"_+	c #912887",
":+	c #A26435",
"<+	c #FFC69F",
"[+	c #D68149",
"}+	c #7C522B",
"|+	c #6B4924",
"1+	c #83562E",
"2+	c #BD7847",
"3+	c #B48050",
"4+	c #A4766A",
"5+	c #DC864D",
"6+	c #B27444",
"7+	c #AA6737",
"8+	c #563717",
"9+	c #B8713F",
"0+	c #1C1D08",
"a+	c #70441E",
"b+	c #CE8380",
"c+	c #C643B5",
"d+	c #B36B3A",
"e+	c #CD804C",
"f+	c #6F2F60",
"g+	c #A1526C",
"h+	c #8E416C",
"i+	c #D8AE8B",
"j+	c #E7C19E",
"k+	c #73604B",
"l+	c #FDD2B2",
"m+	c #FDDEC0",
"n+	c #FDE5CC",
"o+	c #9CA69D",
"p+	c #AFB4AB",
"q+	c #A7B0A9",
"r+	c #C7D0C5",
"s+	c #D3DBD1",
"t+	c #DDE6DE",
"u+	c #F1F4EB",
"v+	c #A5A8A1",
"w+	c #E9EFE6",
"x+	c #F5F9F0",
"y+	c #B6B9B1",
"z+	c #FAFDF4",
"A+	c #BCA18A",
"B+	c #FEFFFB",
"C+	c #8C8A80",
"D+	c #BAC3BA",
"                                                                                                                                                          . + . .   . + @ @   # $ % & * % = = - ; > , ' ) ! ! ~ { $ - - ] ^ / (   _ ( ( : . @ + + + . . . .                                                                                                                                                                                                                                                                             . ",
"                                                                                                                                                          + . .   . @ _   ( < [ } | 1 2 3 4 5 6 ~ ) ! ! ) 7 ) ) ) 8 9 1 $ 0 { ^ /   _ ( ( @     + + .   . .     . . . .           .                                                                                                                                                                                                                                                       ",
"                                                                                                                                                        . + .   . : + ( # a 3 b ) c c ! ! ! ! ! ! ! ) ! ' ' ) ) ' ) ! c d } e $ f g h : @ @ @ @             . .                                                                                                                                                                                                                                                                         . ",
"                                                                                                                                                      . . + + : : @ i < j k l m m n o p p q q q r r r r ' r r ' r r s t ~ c ) 2 f - u i . _ : : :     .     .       .                                                                                                                                                                                                                                                                     ",
"                                                                                                                                                  .   . . @ + _ ( # v 1 w x s y z A n o p B p p p s p s s s s q q p s s s C C C d 9 0 & < i _ : @ .   . .         .           .                                                                                                                                                                                                                                                           ",
"                                                                                                                                                          @ : ( < $ } C s D D D D D D o y z w w k w w w w k k k l k w w x ~ m E F C b 0 - G / . +   + +                                                                                                                                                                                                                                                                                   ",
"                                                                                                                                                      @ @   @ < $ 1 b H H x y D s s s y x x x w w s w l I ] ] J | | | f f K k t L F M 4 ] 0 $ N   @ + @                                                                                                                                                                                                                                                                                   ",
"                                                                                                            .     . . . .         .           . +   . @ _ ( g j O 6 H H x x o D o s s y x y D s s s w E I P ] J j f e 0 0 $ - $ J Q R J 1 ] - v / : @ @ .       .       . .                                                                             .           .           .           .                             .           .           .                                                                                       ",
"                                                                                                                        . .       .             +   + : _ g j S 9 E S w x y y y y s s D s s r s p q p x k l E R ] j | e 0 $ & % T = e 1 ] | 0 = & < . @ @             . . .                                                                                                                 .                             .   .     . .         . .           .           .                                                             . ",
"                                                                                                            .   . . . . . .     . . . . . .     . @ _   # j J S E K F x x x y D s s r r r r r q p D q q t z L k { ] 1 U j V V f & W X Y f 1 e & * v h   + + .         .   .     .                                                                                                           .                             . .         . .       .   .         . .         .                                                             . ",
"                                                        .           .   .       .                           . . . . . . . . . .   .   . . . + .   + @ Z G | E ` R R w y w x z y s s q r r r r s s q s s q q q t  .l ..O } } P J e % +.+.X * e f - * #   @ + .         . . .   . . . .                                                                                           .           .                 .     .   . . .       . . .       . .         . .         . .                                                             . ",
"                                                        . .         .           .                                                     . . . . + @ + + G | @.` M l E x x x y y s s r r r r r ~ q q r q q r q s t t t x l E ] J J | & W X +.#.X $ - Y v ( . : .   .     . . .   .   . .                                                                                           .           . .       . . . . . . . . . . . . . . . . . .     . . . .     . . . .       . .                                                             . ",
"                                            . .         .           .                                     . .                           . .   @ :   Z 1 ] ..R $.F F x x x s s q q q r p D q p p p p s q r ~ ~ t t t ~ t C k ] f | e % +.#.#.%.+.$ & & <   _       . . . . . . . . . .                                                                                           .           . . . . . . . . . . . . . . . . . . . . . . . . . . . . . . . . . . . .     . .           .                                                 . ",
"                                            .   .           .                   .                       .   . .     .   . . . . .             . @ _ ^ ] } ` E 3 3 &.x x x s s r D r r D s s y s D D s q r s t ~ t ~ ~ t s C x 2 j J f = +.#.#.#.W * Y v h . @         . . .   . . . .                                                                                           .         . . . . . . . . . . . . . . . . . . . . . . . . . . . . . . . . . . . . . . . . .   .       .                                                 . ",
"                                                                                                            . .         . .   . . . . . . .   @ @ N j O O M I 3 l w x t ~ s H H x x w x s s y o D s r q s q s ~ ~ ~ ~ d s s d d b K J J $ W #.#.+.X W % /   : .     .   .                                                                                                       .       . . . .   . . . . . . . . . . . . . . . . . . . . . . . . . . . . . . . . . . . . .         . .                                                 . ",
"                                                        . .         . .                                 . .   . . . . .   + .   . @ + . .   @ . h *.} O ` E F F F S 5 5 5 5 2 ` E &.F k s s y D D r r r q ~ ~ t ~ ~ ~ t s s s ~ C E K K P V & T X +.+.+.< . : @   . + .   .     . .                                                                                             .   . . . . .   . . . . . . . . . . . . . . . . . . . . . . . . . .   . . . . . . . . . . .   . .   . .                                                 . ",
"                                                        . .       . . .                           . .   .   . .     +   .   . . + @ @ . . . @   # 1 ` E S E E 3 E ` I ..O ......F l S k x x x s D s r s t ~ ~ ~ ~ =.~ t ~ s ~ ~ s k F R P K U U 0 % W X % h @ : . . +           . . .                                                                                           .   . . . . .   . . . . . . . . . . . . . . . . . . . .   . . . . .   . . . . .   . . . . .   .     . .                                                 . ",
"                                          . .   .       .   .                               .       . .   .         .   + .   . + + @ . + @ @ + u ....I 3 ` R E ....E ` ..} ] 1 } E O 2 H k w s s m m p t t t t ~ =.C C d s t ~ s x k l R P U U J J 0 = Y N   _ .   . .                                                                                                             .     . .   .   . . . . . . . . . . . . . . . . . .   . . . . .   .   . . .   . .   . .                                                             . ",
"                                    .       .   .       .   .                               .     . . . . . .     . . . + @ @ @ @ @ + . @ @ + : j R Q ] ` R R M M M } 1 1 1 1 ] I S ' s l P J K M E H 7 -.7 ;.~ ~ ~ d d C t ~ t C x s H R M } j f | j $ % #   _ +   . .                                                                                                                   . .   .   . . . . . . . . . . . . . . . . . . . . . . . .   . . . . .   . . . . .   .                                                         . ",
"                                          . .                                                       .   .     . . + . .     . + + : : : : +   / } Q F M >.P K } } I F l l ,.q ' x 2 | * X #.%.%.#.+.X % ; $.d ~ ) ! ! ) ) ) ) ) ~ t ~ C 3 } 1 J J J J f - u . : @                                                                                                                   .       .   .                     . . . . .   . . .   .   . . .   .   . . .   .   . . .                                                             . ",
"                                                                                                            . @ @ : @ _ ( ( h h h i h _ : h / a 1 Q F R R R '.F l k D q D H S S 3 ` 0 $ - = - - - & = - & - $ e 1 1 1 { 4 4 6 ~ ~ ~ t x H S } } } ] ] J 0 f _ . :     .                                                                                                                     .   .       .             . . . . . . . . .   .   . . .   . .   . .   .     . .                                                             . ",
"                                              .                                             .           .   + @ . :   N ).[ @.R @.@.@.@.[ @.} j 1 F w M P F m p r q w F 2 S &.6 s q r ' ! ' ' ! ! ! c c ' s l R ] | e e f e f 1 1 1 { k l E R } ] 1 ] ] | J Z   : . . . .   .                                                                                                               .   .       .     . . . . . . . . . . . . .   . . . . .   . .   . .   .     . .                                                             . ",
"                                    .       .   .       .                                 .       .     . . + @ . _   / 1 e v J j j | | f | | ] k s ' R U R F z r D s p s r t s r s D D D o o y y D D D r ' ' ' ' ' q m Q J | f f f 0 | J j J J J 1 1 ] O { #   _ +             .                                                                                                           .         . . .   . . . . . . . . . . . . . . . . . . .   .   . . .   . .   . .                                                             . ",
"                                            . .                                           . . . . .   . . . + @ + (   g 1 G G @.@.` E F S &.w A s q r J V j J F D s q p o x x s x x s o o o o o o D D D D D D s s ~ ' r q l K ] J 0 0 0 f | | j J 1 ] ] ] ..g   _ .                                                                                                                             .   .   .   . . . . . . . . . . . . . . . . . . . .   . . . . .   . .   . .                                                             . ",
"                                    .       .   .                                           . . . . . . . . + + @ (   g 2 @.C s H ) c ' ' ' D ' r z B J f j j ` D s s s y s s s s s o D D D D D D D D D r D D D D p q q q !.k l P V e e f f | | j J J J J ] ^   : +                         . . . .                                                                                         . .         . .     . . . . . . . . . . . . . . . . . . . . . . . .   . .   . .   .                                                       . . ",
"                                          . .                                                   . . . . + . . . + :   < S &.).r ~ ~ H H x s D D r B B | f J j } s s s s s r s s s o o D D D D D D D D D B D D q q D q q ~.,.{.H K $ - e f e e e f | | J J J G h . @               . . . . . . . . . .                                                                                       .         . . .   . . . . . . . . . . . . . . . . . . . . . . . . .   . . . . .   .                                                         . ",
"                            .         . . .     . . .         . .         . .             .   .   . . . + . + . . @   / &.P [ F w w w x y y s D D D B j | 1 | } x s r s s s y y o n n B B B B B B D B B o o B B D o p r ~.].$.w P = +.% e $ 0 0 e e f | j | j /   : .                           .                                                                                           .     . . . . . . . . . . . . . . . . . . . . . . . . . . . . . . . . . . . . .   .                                                         . ",
"                                . .         . .         .           .             . .   . . . .   . . . . . .   + @   N &.@.$.k @.F s w x p s B B q D j | 1 j O C x r s y r D p D D D D B D B B B D B B ^.o B /.y D o p B ].'.'.P = #.(.& 0 $ $ $ 0 e e f e e <   _ @           . . .   .                                                                                                   . . . . . . . . . . . . . . . . . . . . . . . . . . . . . . . . . . . . . . . .   . .   . .                                                 . ",
"                              . .   . . . . .   . . . . .   . . . . . . . . . . . . . . . . . . .   . . . . .   + .   Z C ` [ [ ` S x A y p o D B q o J f 1 j } d d s r D r r D D r r D D B B B B B B o p p o o x x z _./.].'.$.'.- +.:.W e - & $ 0 e e e e 0 G h + :             . .                     . . .                                                                       . . . . . . . . . . . . . . . . . . . . . . . . . . . . . . . . . . . . . . . . . . . . . . . . .                                                 . ",
"                                . . .   . . . . . .   . . .         . .     . . . . . . . . . . . . . . + . .   . + . . N g [ S &.&.6 d p o D ^.B B ~.J f j J ` d d C C x s x x s s x x s s y y p p q q p ~.~.~.y x n _.,.,.$.$.$.V X <.W = * = & $ 0 0 $ 0 0 j / . _ +   . .     . . . . .                                   . .                                                     . .   .   . . . . . . . . . . . . . . . . . . . . . . . . . . . . . . . . . . . . . . . . . . . .                                                 . ",
"                              . .   .     . . . .     . . .         . .     . . . . . . . . . . . . . . + . .     + @ _   @ h < ^ ).b b m q B B B B z K | 1 I b S S 2 O ` 2 I ..I O ] } 2 2 2 4 5 b 6 6 x t t m z z z A ,.z ].'.'.>.% :.#.Y * * * = - 0 0 e 0 J / . _ +   + . .   . . + . . . .                                 .                                                 .         . .       . . . . . . . . . . . . . . . . . . . . . . . . . . . . . . . . . . . . . . . . .                       .                         . ",
"                                .       . . . . . . . . .   .       .   . .   . . . . . . . . . . . . . . . .     + @ . @ _ _ @ @ Z g I 3  .q B B ~.].` 1 I 5 4 O ] ] ] 1 1 ] ] ] O O I 2 2 2 2 4 4 4 b x t ~.!.!.~.n A n p ,.$.'.'.; #.W & = Y Y % % = $ 0 0 ] /   @ + . @ + + . . . . + . . . .                   . . .                                                                 . . . . . . . . . . . . . . . . . . . . . . . . . . . . . . . . . . . . . . . . . . . . . . .   .                   .                         . ",
"                          . . .     . . . .     . . . . .   . . .   .     . . . .   . .   . . . . . . .   . .     . + : + . : _ _   : ^ 2 } k k 3 4 E F ` I b 2 I &.9 s x s s s r r r ' r r ' r ~ r ~ ~ ) ) ' ' r y w {.!.z ,.$.'.>.V T * - * % Y T Y Y * - $ j #   : @ + @ + .         @ + . . . +                                                                                       . . . . . . . . . . . . . . . . . . . . . . . . . . . . . . . . . . . . . . . . . . . . . . .   .                   .                         . ",
"                                . .         . .         . . .       . . . .   . . . . . . . . . . . . . . .   . . + + . . + + @ _ _ @ i a O F ` 1 } M F } ] 5 4 6 ! ! ' ' ' ' r r r r r r r r ' ' ' ' r ' ) c c c ! s H !.,.,.[.'.'.U - X T * & = Y Y % % = - f <   _ _ _ _ : : @ @ @ +       . +   .   . .       .     .                                                                   . . . . . . . . . . . . . . . . . . . . . . . . . . . . . . . . . . . . . . . . . . . . . . . .                   .                         . ",
"                              . .     . . . . . . . . . . . . . . . . . . . . . . . . . . . . . . . . . . . . . . . + + + + @ @ : _ ( @ ^ } F E O ..M F } O 5 3 5 ' r D D n n n y y o D D D q D q r r q q ) c c c }.c ! ' !.].].].'.U V = X W Y Y Y Y % % * & f |._   + .       @ +   + _ _ @ + .   + . . . .     . .     . .   .   .                                                       .   . . . . . . . . . . . . . . . . . . . . . . . . . . . . . . . . . . . . . . . . . . . . . .       .         . .                     . . . ",
"                              . . . . . . . . . . . . . . . . . . . . . . . . . . . . . . . . . . . . . . . . . . . + . . + + + @ : (   < 1 I F F R R $.` 2 E 3 &.r y o D D o o y o y y p s p p p y p q p  .~ ! c ! ! c c ! ' A ].'.U V e - Y W W T Y Y Y % & f b a g / N # # / Z Z Z h ( : :   + + + @ @           .                                                                             . .   . . . . . . . . . . . . . . . . . . . . . . . . . . . . . . . . . . . . . . . . . . .     .     . . . .                   . . . . ",
"                              . .   .   . . . . . . . . . . . . . . . . . . . . . . . . . . . . . . . . . . . . . . . . . + + + @ : (   / ] I E E E R F I 3 2 2 &.s s y p D D D D D D D D D p p s p p q p 1. .~ ) ! ! ! ! -.c c r w R J V f $ Y W T T T Y % - f 1 ..O O } ] 1 1 ] { 5 ).|.g N _     . @     +       .                                                                         . .     . . . . . . . . . . . . . . . . . . . . . . . . . . . . . . . . . . . . . . . . . . . .     .   .   . . .                   . . . . ",
"                                . .   .   . . . .   . . . . . . . . . . . . . . . . . . . . . . . . .       . . . . .   . + + @ @ : _   i @.` E R E R l S S 3 2 &.s s p D D D p D D D D q q q q p p ~.p p ~. .t t ;.c c c ! ! c c ' l 1 j j 1 - W T T T Y * - e ] O ] ] 1 J j j j j | 1 f $ 0 u / Z _ + ( + @ + . . . .       . .   .       .                                               .   .   . . . . . . . . . . . . . . . . . . . . . . . . . . . . . . . . . . . . . . . . . . . . .   . .   .   . . .   .       .       . . . . ",
"                          . . .     . . . . .   . . . . .   . . . . .   . . . . .   . .     .     . . .     . . .         . + + + @ : @ . ^ ] ` E R M k k S S S S s r q q D p D s D D D D p D p B p p o ~.~.~.t  .L x ) 2.c ! ! ! ! s M j j M j * T T T T = - e 2 9 9 b 4 I } 1 j | | J | 0 - & & v *.# h   + +   . . . . .   . .   . .   . .                                               . . . . . . . . . . . . . . . . . . . . . . . . . . . . . . . . . . . . . . . . . . . . . . . . .   . .   .   . . .   .       .       . . . . ",
"                                . .       . . .       . . . .     . . . . . . . . . . . . . . . . . . . . . . . . . . .     + . + + @ _ + # K } I E P w x S 3 3 S s r s r D p p s D D p D p D q o o p p ~.~.t ~.~.!.{.w ~ ! c ! ' ' s k U j 1 } e % Y T T * - 0 4 -.}.}.}.7 d 6 2 ] 2 5 2 J 1 1 J e & 0 # . _ + + + . . . .     .   . .   . . .                                             .   . . . . . . . . . . . . . . . . . . . . . . . . . . . . . . . . . . . . . . . . . . . . . . . . . .   .   . . .   .       .       . . . . ",
"                              . .     . . . . . . . . . . . . . . . . . . . . . . .     . . . . . . . . . . . . . . . . . . .   . + + @   N } K O M P l x l 3 3 &.C r p q q y p D D B B B B B B p ~.p p ~.~.p ~.~.p !.].].m ~ ! ! ' y H E K 1 K j & Y T T * $ 0 4 -.-.}.2.2.}.-.) 8 d 8 6 5 2 O O O ] e - Z . + . . +     .   . .           .                                               .   . . . . . . . . . . . . . . . . . . . . . . . . . . . . . . . . . . . . . . . . . . . . . . . . . .   .   . . .   .       .       . . . . ",
"                              . . . . . . . . . . . . . . . . . . . . . . . . . . . . . . . . . . . . . . . . . . . . . . .     . @ + :   ( *.1 } M P l w F 3 3 S C r p p s p p D B B B B B B B p p o o o ~.~.~.~.~.~.3.3.[.].q ! ' x H E ....O J 0 * Y Y * $ 0 b }.-.-.}.}.-.) ~ 8 8 6 I ] ] ] ] K ` I ; 4.. @ @ . . . .     . .                                                                       . . . . . . . . . . . . . . . . . . . . . . . . . . . . . . . . . . . . . . . . . . . . . .   .   . . .   .       .       . . . . ",
"                              . . . . . . . . . . . . . . . . . . . . . . . . . . . . . . . . . . . . . . . . . . . + . . . .   . @ + @ +   # I R R K ].y F E 3 3 x r p q q p s s D B B B p p p o p p ~.~.~.p /././././.3.[.[.].z p ~.k ....3 I ] j 0 = % & - $ b }.7 -.}.-.-.7 d d d 5 O ] ] ] } } } O 3 e i @ _ . . . .   . .   .         . .     .                                               . . . . . . . . . . . . . . . . . . . . . . . . . . . . . . . . . . . . . . . . . . . . . . . .   . . . . .   .       .       . . . . ",
"                            . . . . . . . . . . . . . . . . . . . . . . . . . . . . . . . . . . . . . . . . . . . . . . . .     . + . @ +   h a ` M P ].D F 3 S S C s o p s y y y D B o o o o o o /.~.~.~.~.~.~.~.!.3._._.5.[.[.3.3.m l O ..3 2 ..1 j e - - $ $ 5 2.-.-.-.-.-.) d C 6 2 ..} ] ] ] ] ] } O 1 *._ : : .     .   . . . . .     . . . . . . . .                                 .   . . . . . . . . . . . . . . . . . . . . . . . . . . . . . . . . . . . . . . . . . . . . . . . . . .   .   . . .   .       .       . . . . ",
"                        . . . . .   . . . . . . . . . . . . . . . . .   . . .   .   . .           . . . . . . . . . . . . .   . . . + + @ + _ a } M P ].s F 3 S S C r o p o o y o B o o o o o o /./.o o ~.~.~.~./.z 3.3.3.5.[.6.].3.].F ....E I O } ] j f 0 $ f 6 -.-.-.}.}.7 t b 2 ......K 1 1 1 1 1 ] ] j $ g @ _ . + .   . . . . .           . . . . . . .                               . .   . . . . . . . . . . . . . . . . . . . . . . . . . . . . . . . . . . . . . . . . . . . . . . . . .   . . . . .   .       .       . . . . ",
"                              . . .       . . . . .   . . . .     . . . .     . . . . .   . . . . .     . . . . . . .   . .     . . . . + :   |.} M P ].s F E S S C r n p o n y o o o o o o o o /./.o o ~.~.p ~.z /.!.3.3.3.3.6.[.3.$.M } O ..O O K K j | f f 1 9 7 ;.7.7 7 8.2 O ] ] } O } 1 1 1 J J J J 1 0 % /   @   @ .     . . .           . . . . . . .   . .                         . . . . . . . . . . . . . . . . . . . . . . . . . . . . . . . . . . . . . . . . . . . . . . . . . . . .   . . . . .   .       .       . . . . ",
"                            . . . . . . . . . . . . . . . . . . . . . . . . . . . . . . . . . . . . . . . . . . . .       . .   . . + + . :   g O ..P ].D F E 3 S C r o o y y y n n o n o o o o o o o /.o ~.~.n z z 3.3.3.3.[.6.[.].>.U ] } O ] K ] ] O J | | ] 7.;.{.{.4 Q Q } ] ] K ] ] } 1 J J j j j f j } 0 % / @ : @ .     . . . . . . .     . . .   . .   . .                         .   . . . . . . . . . . . . . . . . . . . . . . . . . . . . . . . . . . . . . . . . . . . . . . . . . .   . . . . .   .       .     . . . . . ",
"                      .     . . . . . . . . . . . . . . . . . . . . . . . . . . . . . . . . . . . . .     . . . . . . . . . . . . . + + + :   < O ..P $.D F E 3 S x r p p y o o A ^.o o o o o o o /./.o o o p p ~.z 3.].3.].].6.[.].>.J K } } ] ] K } 2 5 ] J { 7 7.{.{.{ { { ] ] ] ] ] ] ] ] J j j j | f f J | = & / . : @     . . . . . . .     . . .   .                                             . . . . . . . . . . . . . . . . . . . . . . . . . . . . . . . . . . . . . . . . . . . . . .   . . . . .   .       .     . . . . . ",
"                    .   .   . . . . . . . . . . . . . . . . . . . . . . . . . . . . . . . . . . . .         . . . .   . . . . . . . + + + :   # } M P ].D F F 3 S s D n o o n n A ^.n n o /.o o o o o o /.~.~.p p p z !._.3.3.6.6.$.>.j ] } K 1 1 K ..b d 8 C 7.7 -.7.8.9.Q { } ] ] ] 1 ] 1 1 J j j | f | f f f - % u ( @ @ . . .   . .   . .     . . . . . .                                           . . . . . . . . . . . . . . . . . . . . . . . . . . . . . . . . . . . . . . . . . . . . . .   . . . . . . .       .     . . . . . ",
"                    .     . . . . . . . . . . . . . . . . . . . . . . . . . . . . . . . . . . . . . .           . .       . . . . . + . + _   / O ..M w D F F F S s s n o o o o y n n n o o o o o o o o o n o ~.o p p o z p /.0.0.$.U f j ] ] 1 1 ] 2 C ) -.}.}.-.7 7.a.=. .{.{ ] ] ] ] 1 1 J J j j | f f f f f f & T Z   + . . . . . . . . . .     . . . . . . . . .                             . . . . . . . . . . . . . . . . . . . . . . . . . . . . . . . . . . . . . . . . . . . . . . . . .   . . . . .   .       . .   . . . . . ",
"                        . . . . .   . . . . . . . . . . .   . . . . .   . . .   .   . .                                   . . . . . .   . :   N M E R ,.D l F E l s D o o o n n n n o o o o o o o o o o o o o o ~.p n n !.p p 0.0.'.U f f J ] 1 1 ] 2 d ) -.}.}.-.-.;.m ~ ~ t m F M ] ] 1 J J j j | | f f e e e f e Y 4.+ @ @ . . + . . . . . .       . . . . . . . . . .                         . . . . . . . . . . . . . . . . . . . . . . . . . . . . . . . . . . . . . . . . . . . . . . . . .   . . . . . . .       . .   . . . . . ",
"                              . . .       . . . . .   . . . .     . . . .     . . . . . . . . . . .             . .   .   .       . + . + :   i @.R R ,.D l F E &.r s p y y o n A n n n B o o o o o o o o o o n o p n n z o ~.$.'.'.U f f | 1 1 1 ] 3 ) ! ! c -.-.) d m t q q q q ,.$.K 1 J j j j | | f e e e e 0 j $ T N   _ . . . . . . . . .   .   . . . . . . . . . .                         . . . . . . . . . . . . . . . . . . . . . . . . . . . . . . . . . . . . . . . . . . . . . . . . .   . . . . .   .     .   .   . . . . . ",
"                    .   . . . . . . . . . . . . . . . . . . . . . . . . . . . . . . . . . . . . . . .   .     . . . . . . . . . . . . . + _   i 1 R R w s l F E k r s p o y n n A /.n n o /.n o o o o o o o n p o o o o p ~.!.$.'.'.U f e e j J J 1 3 ) -.c c c ) ~ ~ x m p p B D D o ,.l K j | | | | f e 0 0 e 0 f e Y v ( + @ . .   . . + . . . . .     . . . . . . .   .                       . . . . . . . . . . . . . . . . . . . . . . . . . . . . . . . . . . . . . . . . . . . . . . . . .   . . . . . . .     .   .   . . . . . ",
"                    . .     . . . . . . . . . . . . . . . . . . . . . . . . . . . . . . . . . . . .           . . . . . . . . . . . . . + _   i 1 R E ,.s k F F k r s p y n A A n n n n o ^.o n n o o o o o o o o o p B /.p z '.'.'.U e 0 0 e | j 1 5 7 c c c }.! ) ) s x s p B B B o o p x R ] J f f f e e 0 0 e 0 e Y T #   : +     . . + + .   .                                                     . . . . . . . . . . . . . . . . . . . . . . . . . . . . . . . . . . . . . . . . . . . . . .   . . . . . . .     . . .   . . . . . ",
"                  . . . . . . . . . . . . . . . . . . . . . . . . . . . . . . . . . . . . . . . . .             . .   . . . .   . . . . + _ . i 1 E F ,.s l F E k r y y y n o n n A n n o o n o o o o o o o o o p p o o n p o ].$.$.U e 0 $ 0 e j 1 b ! -.c c 8 8 8 ~ d C x q B p B o o o y H l 4 I ] f e e 0 $ 0 0 e * T u _ @ @ . . . . . . . . .                     . .                                 . . . .   . . . . . . . . . . . . . . . . . . . . . . . . . . . . . . . . . . . . . . . . . . . . . . .     . . .   . . . . . ",
"                . . .     . . . . . . . . . . . . . . . . . . . . . . . . . . . . . . . . . . . . .               .   . . . .     . + . + _ . i K E F w y l l E w r s p y y o n A A o A n o o o o o o o o n o o p p n A n o p ,.].$.J e 0 $ $ 0 | 1 6 -.-.}.7 C 9 H H x H 9 p p p p B o o y w F E 5 b 3 j $ 0 0 $ 0 0 $ % Y N   : + . . . . . . . . .       . .     . . . . .                     . . . . . . . . . . . . . . . . . . . . . . . . . . . . . . . . . . . . . . . . . . . . . . . . .   . . . . . . .     . . .   . . . . . ",
"                    .   . . . . . . . . . . . . . . . . .   . . . . .   . .           .                               . . . .       .   + _   Z } E F y s w l F H D s o o o o A n o o n n o o o o o o o o o ~.~.p p o o o n A ,.].F U f 0 - $ 0 f 1 9 -.-.}.! 9 b 6 k k b 6 ~.q ~.o o o p o w ..O 3 5 5 5 j $ $ $ $ $ 0 - W < . @ @ . . . . . . . . .       . .     . . . . .         .           . . . . . . . . . . . . . . . . . . . . . . . . . . . . . . . . . . . . . . . . . . . . . . . . .   . . . . . . .     . . .   . . . . . ",
"                              . . .   .   . . . . .   . . . .     . . . .     . . . .     . . . . .   . .   . . . . . . . . . .   . . . + _   / M E F x x k l F x r y D o n n A o o o n n o o o o n o o o o ~.p o o o n o n A ,.].F U f 0 - $ 0 f 1 C -.-.}.}.8 8 ) ) 8 d d ' r o p o o n o w M M 2 I 2 3 5 J - - $ $ $ 0 T u _ + @ . . . . . . . . . .     . .   . . . . . . .                   . . . . . . . . . . . . . . . . . . . . . . . . . . . . . . . . . . . . . . . . . . . . . . . . .   . . . . .   .     . . .   . . . . . ",
"                    .   . . . . . . . . . . . . . . . . . . . . . . . . . . . . . . . . . . . . . . .   . . . . . . . . . . . . . . . + + _   / M F l x x l &.F H r n o y o o z n n n n n n o o o o o n n o ~.~.o o p o A o o A ,.F J e 0 - - $ f 1 C }.}.2.}.2.2.2.}.}.2.}.' B p p /.o y n ,.M M I } } 2 b b ] $ - $ $ $ * G (   @ . . + + . . . . . . .   . .   . . . . .   .                   .       . . . . . . . . . . . . . . . . . . . . . . . . . . . . . . . . . . . . . . . . . . . . . . . . . . . . .   . . . . . . . . . . ",
"                  . . .     . . . . . . . . . . . . . . . . . . . . . . . . . . . . . . . . . . . . . . . . . . . . . . . . . . + . + + . _   # M F l A s k &.F x r n y o p y n n n n n /.n o o p o o o o o ~.o n o o n n n o y ].E J e $ - - $ f 1 d }.}.}.}.2.c ! ) ) ! ) q o o /.o o n o A R R I K | 1 b b b O 0 - 0 $ * G _   @   . . .   . . .     .     .                                         . . . . . . . . . . . . . . . . . . . . . . . . . . . . . . . . . . . . . . . . . . . . . .   . . . . . . .   . . . . . . . . . . ",
"                . . . . . . . . . . . . . . . . . . . . . . . . . . . . . . . . . . . . . . . . . . .   . . .   . . . . . . + + + + + . + _   < M 3 l ,.s k S F x r o o n n n n n n o n n o o o o ~.o o o o ~.~.o o ~.A n A z w F P J e $ - - $ f 1 d }.}.2.2.}.) ' r t  .~.o o o o o o n o A '.R R } f e ] S 2 5 I e 0 - Y G (   @ . . . . .     . .       . . .       . . .                               . . . .   . . . . . . . . . . . . . . . . . . . . . . . . . . . . . . . . . . . . . . . . . . . . . . .   . . . .   . . . . . ",
"                . . .     . . . . . . . . . . . . . . . . . . . . . . . . . . . . . . . . . . . . . . .   . . . . . . . . . + . + + @ + @ _   ^ ..F l w s k S F H s y o o /.n n A n n o z n n o ~.~.~.~.n o ~.p p p p o o y x w M J j e $ - - $ e 1 8 }.c }.2.c ~ s t L L m ~.~.p B p y o o n '.R R M | - e ` O 2 9 ` - = * |.@ . + . . . . . .   .       . . .     . . . . .         .           .       . . . . . . . . . . . . . . . . . . . . . . . . . . . . . . . . . . . . . . . . . . . . . . . . . . . . .     . . . . . . . . . ",
"                    .   . . . . . . . . . . . . . . . . .   . . .       . .                                       . . + + . . . + . + + + (   ^ M E F l s w E S H s s o o n n A n A n n n n n o o ~.n /.o n o o ~.o o o y y s w P J j e $ - & $ e J d }.-.}.2.c ~ t  .L  . .~.~.p p p o o p y '.R R M V - & f ] O b 6 j & - g   @ + . + + + . . . .       . . .     . . . . . .       .           .     . . . . . . . . . . . . . . . . . . . . . . . . . . . . . . . . . . . . . . . . . . . . . . . . . . . . . .     . . .   . . . . . ",
"                    . .       . . .   .   . . . . .   . . . .     . . . .     . . . .   . . . . . .     .   . . . . + + . + + + + . + . @ : . |.O E F $.s w R l H s s o o n n n A n n n n n o o ~.n o o n n o o ~.o o ~.y y s w R 1 | e $ & & $ e J d }.c }.2.c ~  . . .a. .~.p p p p o o D y $.'.F E V - = & j 5 9 6 3 0 $ <   : . . + + . . . . .     . . . .     . . . . . .                           . . . . . . . . . . . . . . . . . . . . . . . . . . . . . . . . . . . . . . . . . . . . . . . . . . . . .   . . . . . . . . . . ",
"                    .   . . . . . . . . . . . . . . . . . . . . . . . . . . . . . . . . . . . . . . . . .   . . . . . + + + + + @ + + @ @ : : |.` E l l s k M &.6 s s o o A A n n /.n o n n n o o o ~.n ~.n n n o o n z y y x w R 1 | e $ & & - 0 J 8 }.c }.2.c ~ , a. .a.a. .~.p o n o o p y $.'.E E V & * * - 3 8 S &.| | #   _ . . . + . . . . .   .   . . .     . . . . .                             . . . . . . . . . . . . . . . . . . . . . . . . . . . . . . . . . . . . . . . . . . . . . . . . . . . . . . . . . . . . . . . . ",
"                . . . .     . . . . . . . . . . . . . . . . . . . . . . . . . . . . . . . . . . . . . . .   . . . . . . . . . . + + . + @ . Z [ F E F l s w I S k s s o o n n n n o o n n y o n n n ~.~.~.n n n o o ~.n n y z w R U j 0 $ & & - 0 J d 2.c }.2.c ~ 1.a., a.a. .~.~.o n o n o y l '.F E J & % * Y f ) 6 3 j ] /   _     + + + . . .       .                                                 . . . . . . . . . . . . . . . . . . . . . . . . . . . . . . . . . . . . . . . . . . . . . . . . . . . . . . . . . . . . . . . . ",
"                . . . . . . . . . . . . . . . . . . . . . . . . . . . . . . . . . . . . . . . . . .         . . . . . . . . . . . + + @ + + ^ } F w l M k x S &.k s s p p o o o n n n n z z n ~.~.y y ~.o n y y ~.o o p o y y y l P J f $ & & - 0 J 8 2.c 2.2.'  .t , a.a. .1.~.o o n o n o y ].'.F E K $ Y Y % = 3 C 4 J 2 N   :     + + + . . .                       . . .                               . . . . . . . . . . . . . . . . . . . . . . . . . . . . . . . . . . . . . . . . . . . . . . . . . . . .   . . . . . . . . . . ",
"                . . .     . . . . . . . . . . . . . . . . . . . . . . . . . . . . . . . .   .     .         . . . . + + . . + . . + @ @ . Z R 1 F s w P l H S &.k s y y y y n n o /.z A ~.~.z n ~.~.~.y ~.y ~.y ~.p n n o D p s l P J f $ & & - 0 J 8 }.-.2.c t L t  ., a.a.~.~.~.o n o n y o ].F F F ..0 Y T T * e } O ..6 Z   :   . + + + . . .       .     .       . . . .         .                   . . . . . . . . . . . . . . . . . . . . . . . . . . . . . . . . . . . . . . . . . . . . . . . . . . . . .   . . . . . . . . . . ",
"                    .   . . . . . . . . . . . . . . . . .   . . .         .                                         . .   . . . . + @ _ . # ` U l r w R k H 3 S &.s y p y o o o n o ~.~.~.~.~.z ~.p y y y n o ~.o n o n n y y x F P j e $ & & - 0 J 8 }.! 2.c m L t  ., a. .~.~.o o n o n n o w F E E R e T W X % e $ e ] C i   _     + @ + . . .       .   .           . . .                               . . . . . . . . . . . . . . . . . . . . . . . . . . . . . . . . . . . . . . . . . . . . . . . . . . . .   . . . . . . . . . . ",
"                    . .       . . .   .   . . . . .   . . . .     . . .       . . . .     . . . . .     . . . . . . . .     . . . + : ( . < M K l ' k M k H 3 &.&.s s p p o o o n o ~.1.~.~.~.~.~.o y y y n o n o o n n o z x w R U | e $ & & - 0 J 8 }.! }.c ~. . ., , a. .~.~.n o n n n n y w $.E E R f T W +.Y f & % f [ h   :   . @ @ + + . .       .   .           . .                                 . . . . . . . . . . . . . . . . . . . . . . . . . . . . . . . . . . . . . . . . . . . . . . . . . . . .   . . . . . . . . . . ",
"                  . .   . . . . . . . . . . . . . . . . . . . . . . . . . . . . . .   . . . .           . . . . . . . . . . . .   + @ ( . < M K E r k M l x S S k s s y y o n A n z z m z 1.~.z z ~.o ~.n ~.y o n n o n n y z w P J | f 0 = & - 0 j 8 }.! }.! ~.a. ., , ,  .1.~.n n n o n n y w $.E E I | T X #.W - = Y $ G h   @   . @ @ + . . . .                   . . . .                               . . . . . . . . . . . . . . . . . . . . . . . . . . . . . . . . . . . . . . . . . . . . . . . . . . . . . . . . . . . . . . . ",
"                . . . .     . . . . . . . . . . . . . . . . . . . . . . . . . . . . . . . . . .       . . . . . . . . . .   . . . + @ _ + g M K E s w R S H 5 3 &.D s p p o y z z z z m 1.z ~.z z z ~.~.n z n n y o p o n y y x M J | e 0 & & - $ J ) }.! 2.c q  . ., , ,  .~.~.n n n n n n y w F F E E j Y +.+.W Y Y Y 0 ^ @ + @ .   + + + . . .       .                 .                                 . . . . . . . . . . . . . . . . . . . . . . . . . . . . . . . . . . . . . . . . . . . .   . . . . . . . . . . . . . . . . . . ",
"                . . . . . . . . . . . . . . . . . . . . . . . . . . . . . . . . . . . . . . . .     . .   . . . . . . . .   . . . + @ : + ^ M U F r w M S C b 2 k s s y y y y y z y ~.m z ~.y o y z n z z n o n z n ~.o p y x x M J | e $ & & & $ j 8 }.c 2.2.! ~ , , , , a.~.~.~.n A n n z y z l F E I J * +.#.W T +.* @.N   + .   . . . . . .                                                               . . . . . . . . . . . . . . . . . . . . . . . . . . . . . . . . . . . . . . . . . . . .   . . . . . .   . . . . . . . . . . ",
"                . . .     . . . . . . . . . . . . . . . . . . . . . . . . . . . . . . . . . .       .       . . . . . . .   . . . + @ : + ^ M U F r x R S C &.2 k s y o o y y y n y y y y n p n n A z y z z ~.~.n y n n o y y w M U | e $ = = & $ | 8 c ! }.2.c ~ , , , , a. .~.~.~.~.n n y y !.l E E M J = +.#.X W #.T ^   @ +     . . . . . .         .                                                     . . . . . . . . . . . . . . . . . . . . . . . . . . . . . . . . . . . . . . . . . . . . . . . . . . .     . . . . . . . . . ",
"                  . .   . . . . . . . . . . . . . . . . .   . . .         .                                 . . . . .         .   . @ : @ |.M K F s x E S 9 &.I k s y o o n y n z z y y A A n y z z z z y y A y o n n o n y y x M U J e $ & = & - f 8 }.! c c ! t , , , , a. .~.~.~.~.n n z y z l R R M 1 - #.%.X X %.W g   : +     . . . . . .         .                                                     .   . . . . . . . . . . . . . . . . . . . . . . . . . . . . . . . . . . . . . . . . . . . . . . . . .   . . . . . . . . . . ",
"                    .         . . .   . . . . . . .   . . . .     . . .       . . .       . . .         . . . . . .   .     . .   + @ @ _ a M K l s x F S 9 b I k y y o o n n A z z n z z z z ~.z z n m y ~.z y y y y o o y y y R K J e $ = = & - f 8 }.! c 2.' t , , , a.a.1.~.~.~.~.~.n n y x l R R M K $ #.(.+.+.(.W ^   : @   . . . . . . .                     .                                         . .     . . . . . . . . . . . . . . . . . . . . . . . . . . . . . . . . . . . . . . . . . . . . . . .   . . . . . . . . . . ",
"                    .   . . . . . . . . . . . . . . . . . . . . . . . . .   . . . . . . . . . . . .     . . . . . .   . .   . . . . @ + ( [ M P k r x F S 9 6 2 H s y y o n n z z z A ~.z A z z y z z z m z y y z o p n z o p y F K j f $ = = & - e C }.7 }.c q  . ., , , a. .t ~.~.o o n n y x l R R M } ; #.b.#.+.(.W ^   : +   . . . . . . .                     . .                                       .       . . . . . . . . . . . . . . . . . . . . . . . . . . . . . . . . . . . . . . . . . . . . . . . . . . . . . . . . . . ",
"                . . . .     . . . . . . . . . . . . . . . . . . . . . . . . . . . . .   . . . .         . . . . . .   . .   . . . + :   h 3 ..M l r x F &.9 b 2 H s s p y y n y !.!.z A z z z z z z !.m ~.x y ~.z y n z n n y z R K j e $ * = & - e d }.7 }.c ~. . ., , , a. .t t ~.~.n n n y z l E R ..K e X (.#.#.b.Y <   : +   . . . .   .                       . .                                       .   .   . . . . . . . . . . . . . . . . . . . . . . . . . . . . . . . . . . . . . . .   . . . . .   .   . . . . . . . . . . ",
"                . . . . . . . . . . . . . . . . . . . . . . . . . . . . . . . . . . .   . . . .         . . . . . . . .   . . . . + :   i 3 ..M l r x F S 9 6 2 H y y y y m m z !.z z A A z !.z z m z ~.~.z z ~.o y ~.y n !.z x M U j e $ * * & - e 8 }.7 }.c !.{., , , , a. .t ~.p ~.o n n y z F R ` ..] f X %.#.#.:.Y #   _ +   + . . .                           . .                                       .   .   . . . . . . . . . . . . . . . . . . . . . . . . . . . . . . . . . .   .   . . .   .   . . .     . . . .   . . . . . ",
"                  . .       . . . . . . . . . . . . . . . . . . . . .   .   . . .   .   . . . .           . . . . . . .     . . . @ :   Z 3 ` M k r x S S C b I H y y y y ~.~.A !.!.z z !.!.z !.z m z z z z y A y o y o A z y m P J | e - * * & - e d c.7 }.c t L  ., , , a. .t t p ~.~.n z y ,.F E E M K | W %.#.%.:.* /   : .   + + . .                 .         . .                                       . . . . . . . . . . . . . . . . . . . . . . . . . . . . . . . . . . . . . . . . . . . .   . . . . .     . . .   . . . . . . ",
"                    .   . . . . . . . . . . . . . . . . .   . . . . .     .                                 . . . .   .     . . . + :   N 3 ..M k r x S &.9 &.E H x y y o ~.z z !.!.z z z !.z m m m z z y y y y z z o m z o p y >.J | 0 & * * & - e C }.! }.c ) t  ., , , ,  .t t ~.~.n n z y w F E E O K | T %.#.%.:.& Z   : .   + + . .                 .         . .                                       .   . . . . .   . . . . . . . . . . . . . . . . . . . . . . . . . . . . . . . . . . . .   . . . . . .     . . .   . . . . . ",
"                    .         . . .   . . . . . . . . . . . . .     . .       . . .       . . .         . . . . . .   .     . . . @ _   / 3 ..R k r x S S H b 3 w x y p o m z z !.!.m !.z z z z m z z n ~.z y n z ~.z z z ~.~.~.R J | 0 & * * = - e C }.c 2.2.}.~ L , , ,  . .t ~.~.~.o z z y w F E E O 1 j Y #.#.(.:.- i   @ .   + + . .                           . .                                       . .       . . . .   . . . . . . . . . . . . . . . . . . . . . . . . . . . . . . . . . .   . . . . . .     . . . . . . . . . ",
"                  . .   .   . . . . . . . . . . . . . . . . . . . . . . .   . . . . .     . .           . . . . . . . .     . + . @ _   # E ` R k s x F S H b 2 H ~.z o y z z ~.z !.m z !.n z m m ~.z !.~.y y z ~.~.z z /.,.m m >.J j 0 - * * = - e d }.c.2.2.}.~ m L , ,  . . .p p ~.n n z o w F E E M 1 j * +.%.(.b.$ (   @ .   + + . . .               .         . .                                       .         . . . .   . . . . . . . . . . . . . . . . . . . . . . . . . . . . . . . . . . . . . . . .   . . . . . . . . . . . ",
"                  . . .   . . . . . . . . . . . . . . . . . . . . . . .     . . . .     . . . .     . . . . . . . . . . . . . + . + :   < I M R k r H F F 6 &.3 x y ,.n n z z m ~.m m  .!.m m L L m m m t ~. .~.~.~.~.~.z !.~.m P j | 0 - * * = - e C }.c }.}.c  .L  ., ,  . . .t ~.~.o o n p w E E 3 M 1 | & X %.(.b.v _ . +     + + . . .               .         .                                         .         . .       . . . . . . . . . . . . . . . . . . . . . . . . . . .     . .   .     . . . .     . .   .   .   . . . . ",
"                . . . . . . . . . . . . . . . . . . . . . . . . . . . . .   . . . .       . . .     . . . . . . . . . . . . . + . + :   g I M R k r H S S k k k x ~.z n o !.L m m m a.8.L L 8.8.8.L  .L L  . .m m m ~.~.z z z z R J f 0 - * * = - e C }.-.}.}.c  .L  . . . .t t ~.~.~.~.n y o ,.E E E M K j & X %.(.(.v : . +     + + . . .     .                                                             .         . . .     . . . . . . . . . .     . . . .     . . . .   .   . . .       . . .       . . .     . . . .   . . . . . ",
"                . . .       . . . . . . . . . . . . . . . . . . . . .   . .     .           .   . .     . . . . . . . .   . + + . + _   ^ I M R w r k S S 6 H w y m !.A z !.L L L 9.9.8.8.8.8.8.8.8.9.9.L L L L ~.~.~.y n ~.~.z $.U | 0 - * * = - e C }.-.}.2.}.L L t  .8. . .~.t ~.~.n ~.n y w E E E } K j - T #.(.(.*.@ . .   . + . . . .                                                                   .         . . . .   . . . . .   . . . .   . . . . . . . . . . . . . . . . .     . . . .     . . . .       . .   .   . . . . ",
"                    .   . . . . . . . . . . . . . . . . .   . . . . .     .                       .         . . . . . .   . . + . + _   ^ ` M R l r k 3 E &.H w p z z z z z L 9.9.9.8.a.a.8.8.8.8.8.9.m  .m L m ~.p p o o n z z $.U j e - % * = - 0 9 }.-.}.}.2.L L t 8.a. . .~.~.~.z z ~.y ~.w F E E } U j 0 Y #.%.%.u + + .   . . . . . .                                                                               .   .     . . .     . . . .   . . . . . . . . . . . . . . . . . . . . . . .   . . . . . .     . . .   . . . . . ",
"                    .       . . . . . . . . . . . . . . . . . .     . .       . . .       . . .   .   .   . . . . . . + + + . + . + _   |.M M R ].r k S S &.k w y A A o o !.L L 9.9.8.a.a.8.8.8.8.8.9.L m z ~.z ~.o ~.~.n n z /.$.U j e - % * = - 0 6 }.-.}.}.2.{.{.=.,  . . .~.t ~.z z ~.y y w F E I } 1 f 0 = +.#.#.g . @ .   . . . . . .                                                                               . .       . . .       . . .     . . . . . . . . . . . . . . . . .   . . . .     . . . .       . .   .   . . . . ",
"                    .   . . . . . . . . . . . . . . . . . . . . . . .       . . .   . .   . .     . .       . . + + + + . + + @ + + _   |.} M R ,.r &.S S S w y z z A n y !.m L 9.8.8.9.8.a.8.8.9.8.9.w n ~.z y n o o ~./.n /.o ].K j e - * * = - 0 6 2.-.}.}.2.w {.t  . . . .~.~.z m z !.m ~.w Q E I } 1 e 0 - W X X < . : .   . . . . . .     .                                                                         .         . . .       . . .       . . . . . . . . . .   . . . .   .   . . .     . . . . .   . . . .   . . . . . ",
"                  . . .     . . . . . . . . . . . . . . . . .     . . .     . . . .       . .     . . .     . . + + + + + @ + + + + _   |.} M M k r F S S S k x z ~.z ,.!.y z {.{.L 9.8.a.8.8.9.8.9.{.A n A A n n n ~.~.p ~.!.z ].U j e - * * = - 0 9 }.-.}.}.}.w {.~  .=.;. .t t t q p ~.~.y w Q E E O J e e $ Y W T <   : .   . . . . .                                                                               . .         . .         . . .   . .   .           .           .           .           .     .     .   .   .   . . ",
"                  . .   . . . . . . . . . . . . . . . . . . .     . .         . . .       . .     . .     . . . + + + + + @ + + + + @ @ |.P M M l s S E F &.k n n A n ,.!.o z !.m L 9.8.a.8.8.8.8.m !.A A A n n n n p ~.~.~.!.n $.U | e - * * = & 0 C -.-.}.}.c t m t t ;.;.~ ~ ~ ' ' r r q q m Q E I ..j e 0 - Y T T <   :     . . . . .                                                                     .   .     . .         . . .       . . .       . . .       . . .   .   . . .         . .       . . .   .     . .   . . . . . ",
"                    .     . . . . . . . . . . . . . . . . . . .     .         . . .       . .               . + + + + + + @ + . . @ @ ( a P M R w s S E S &.k n z A n z A o A m ~.L 8.8., , 8.,  .!.!.,.A A /.z A ~.z ~.p ~.!.z $.U | 0 - * * * & 0 C }.-.}.}.}.) ~ ~ ;.;.7 7 7 -.) ) ) ' ~ r !.Q E I ..j e 0 - % % % #   _     . . . . .                                                                       . . . . . . .     . . . .       . . .       . . .     . . . .   . . . . .     . . . .     . . . .       . . . .   . . . . ",
"                    .   . . . . . . . . . . . . . . . . . . . .     .     . .   .                           . . + . + . . + .   . : + Z 3 M M M w s F S 3 S k n A A n ,.!.n !.!.m ~. . ., 9.9. .m L !.z A A A A /.~.p o ~.n !.!.$.K f 0 - % % * & 0 6 -.c 2.c ! ! ' B /.p y A y p o r ) ) r q z F E E ..J | e $ * * * /   :                                                                       . . . .     . .   . .   .         . . .       . . .     . . . .     . . . . .   . . . .     . . . .     . . . .       . .     . . . . . ",
"                    .     . . . . . . . . . . . . . . . . . . .     . .         . .                     . . . + . . . . . . . . @ . @ u K R M M l k 4 S S S k y A n n A A n !.!.z 1.L  ., 9.8. .z !.!.z A A z A ~.n o p ~.z !.z $.U f 0 - * % = & e 9 -.c c 5.d.e.f.g.h.h.i.i.i.i.j.h.f.k.l.^._.$.F F ..1 J | $ = = = /   _     .                                                               . . . . .     .     . . . .         . . .       . . .       . . .     . . . .     . . . .     . . . .     . . . .         .   .   . . . . ",
"                    .   . . . . . . . . . . . . . . . . . . .     . .         . .                         . . + . . + + . . + + : . N e f M E R l l E S S S k D o y o A z n ,.!.1.1.L L L 1. . .m !.m z z z n z z z n ~.n ~.,.!.w M | 0 - * % = & e 6 8 ) 5.m.n.o.i.i.i.i.i.i.p.p.i.p.q.j.j.r.s.$.F F E ] 1 j 0 = = = /   _ .   . . .               . . .                       .             . . . . . . . . .   . . . . .           .         . . .         .           . .     .   . .       . . .       . . .         . .   . .   . . ",
"                    .     . . . . . . . . . . . . . . . . . .       . .       . . .                     . . . . . . . . . . + + _   # | j M F F k k 3 3 S S k D o n n A z y z 1.3.1. .~.1.3.1. .m  .!.m ~.z o ~./.n n ~.o A !.,.w Q j 0 - * % * & e b 8 y k.t.f.u.u.v.u.o.v.n.n.v.u.w.u.x.y.z.g.'.$.F E ] J j 0 & & - /   _ .   . .                   .             . .         .                         . . . . . . . . . . .   . . . .       . .                                                           .           .             . ",
"                    .   . . . . . . . . . . . . . . . . . . .       .           .                       . . . . . . . . . . + + _ . < K M ` E F w &.3 3 3 S k D o o n A ,.y z {.L !.m m ~./.1.m  .L L m ~.z A o ~.n n ~.o A !.,.l M j e - % % = & f 6 C ].e.A.B.r.v.v.f.r.f.n.n.n.u.u.v.v.x.C.y.D.'.$.E { 1 j f $ - - /   _     . .         .                       . .   . . . . . . . .                 . . . . . . . . . . . . . . .           . .         . .       . . .       . . .         . .       . . .         . .   .   .   . ",
"                    .     . . . . . . . . . . . . . . . . . .       .         . .                       . . . . . . . . . . + + _ + < K ..O I S k S E 3 3 S w p o o o A z o !.{.!.m m m !.m ~. .L {.L m z z z n z z o /.n o z !.F U j f - % * = & | k w [.E.B.f.f.n.n.n.F.B.F.o.n.n.f.v.G.x.H.I.G.J.'.E 2 O 1 | 0 $ - /   _     . .       . . . . . . . . .   . . . . . . . . . . . . . . . . . .         . . . .   .   . . . .   . . .         . .         . .       . . . .     . . . .     . . . .     . . . .       .   . .   . . . . ",
"                    .     . . . . . . . . . . . . . . . . . .       .           .                       . . . . . . . . . . . . : + g 1 M } 2 S k l 2 3 3 S w D o o o z !.y !.{.L L m m !.!.~.m L L L 1.y y ~.~.A y /.n A o y w R J | e - % % = & | l k ].s.e.F.f.B.F.t.B.B.B.B.B.B.r.r.k.G.K.L.M.N.d.'...] ] J e 0 0 /   _ .   .       . . . . .       .   . .     . . . . .       . . . . .             . .         . . . . . . .   .           . .       . . .     . . . .     . . . .     . . . .     . . . .         .     . . . . . ",
"                    .     . . . . . . . . . . . . . . . . . .       .           . .                     . . . . .     . .   . + @ . g K } ..3 k k &.3 3 S S w D o o o z !.y !.{.L m  .m z A 1.~.L L L ~.~.z n /.n n z ~.n z m k K j f e & % % = & f l ].,.l.D.B.t.e.e.A.t.B.t.A.t.B.t.A.k.r.O.P.Q.R.S.T.P U ] ] | 0 0 #   _ .         . . . . .             .           .                   . . . .   . . . .   . .     . . . . . .   .           .           . .       . . .       . . .         . .       . . .         .       . . . . ",
"                    .     . . . . . . . . . . . . . . . . . .       .         . .     .               . . . . . . .   . . . . + : + g K O ..3 6 k 3 3 3 S 3 w D o n o /.z y 1.{.L  . . .m !.1.1.L L L ~.~.z A z ~.n n n n z z w U f f 0 & * * * = | l ,.U.l.k.t.A.e.e.T.k.e.E.e.e.A.e.e.k.r.O.V.W.Q.I.u.m.>.P ] 1 f e #   _ .   .     . . . .   .           .   . . .                 . . . . . . . . . . . . . . .     . . . . . . .             .           .           .           .           .           . .         .   .   .   . . ",
"                    .     . . . . . . . . . . . . . . . . . .       .         . . .                   . . . . . . . . . . . . + @ @ ^ K O M 3 6 6 3 I 2 3 3 H D o o o ~.y o !.{.m  .m L  .z ~.m L L L m p y ~./.A p p n n y x x U f | 0 & * % * & | l ].[.6.k.A.e.E.d.E.d.J.T.E.e.e.e.A.k.r.K.V.X.X.X.Y.Z.E.J.P U f $ #   _ + . . .     . . . .       . . .   . . . . + . .               . . . .   . . . . . .   .     . . . . . . . . . . .   . .                                                                       .             . ",
"                    .     . . . . . . . . . . . . . . . . . .       .         . .     .               . . . . . . . . . . . + @ @ : |.K ` O 4 6 6 3 3 3 3 S x s o n n z z o 1.{.m  . .m z z 1.m L 8. .m ~.n n z /.n o n n x x w U | | e & * * * & | l ].[.6.d.e.E.`.`.d.s.J.J.E.e.A.t.A.k.v.K.W. + + +.+++@+t.V U V $ #   : + . + + .   . . . . .     . .   . . . . . .   . . . . .           . .       . . . .   . .   . . . . . . . . . . . . . . .         . .         . .         . .         . .       . . .         . .   .   . . . ",
"                    .     . . . . . . . . . . . . . . . . . .       .         . .     .               . . . .   . .   . . . + @ @ ( |.} ` ..S 9 6 2 3 5 3 S x o n n o !.z p 1.{.L  .m m z !.m L L 8. .~.p /./.z n ~.~.y y n x w U | | 0 & = * = = | $.].[.6.d.E.d.d.0.`.`.d.`.d.d.k.k.k.k.r.K.V..+.+.+.+X.Q.I.j.A.V f /   @ + + + + .   .   . . .         . .   . . .     .     . . . .         .       . . . . . . . . . . . . . . . . . . . . . . .         .         . .         . .         . .       . . . .           . .   . . . . ",
"                    .     . . . . . . . . . . . . . . . . . .       .           .     .               . . . . . .     . . . + @ + ( a } O ..3 9 6 3 2 3 3 5 x y n n n z z o 1.{.m  .L  . .m 1.L 9.8. .~.o o ~.n o ~.y y y x y w J | | $ & * % * = | '.].[.6.d.d.d.`.0.`.d.s.J.`.d.k.D.k.k.v.O.#+$+.+$+$+.+ +V.%+&+N.; N   : + + + .             .           . .     .   .   + . . . . . .             .     .   .   .     . . . . . . . . . . . . . .       . . .       . . .       . . .         . .     . . . .         .     . . . . . ",
"                    .     . . . . . . . . . . . . . . . . . .       .           .     .               . . . . . .     . . . + : + h [ } M ..S C 6 3 3 2 3 &.x s o n z !.z p 1.{. .1.L L L m L L 9.a. .z ~.o n n o ~.n y y y s H U | | $ & * * * = | $.].[.s.J.d.d.d.0.J.d.`.`.d.E.e.k.k.k.r.K.*+$+$+$+$+$+.+=+P.%+-+N./ . ( _ : @ @ @ @ @ @ : @ @ @ : : : : : : : : : : @ +       . +   . .   . . . . .   . .   .               .   . . . . . . . .           .           .           .           .         . . .         .       . . . . ",
"                    .     . . . . . . . . . . . . . . . . . .       .           .     .               . . . . . . . . . . . + : . h [ } ` ..&.C k 3 3 3 3 &.x s o o y z z y L L L L L L m m L L 9.8. .z ~.o y z n z o n y y y w U | | - = % % = & V F ].[.s.J.d.d.`.0.`.d.J.`.d.J.E.e.k.k.v.O.#+$+;+$+;+;+$+ +W.>+%+,+/   ( @ +     . @ @ . . . . + + .   . . @ + . . .   . : ( _ + + . . . . . . . .       . . . . . . . . . .   . . . . . .     . .         . .         . .         .           .         . . .         .   .         . ",
"                    .     . . . . . . . . . . . . . . . .   .       .           .                   . . . . . . . . . . . . + :   h @.O ` ..3 6 &.E I 3 3 5 C s o A n n y ~.L 9.L L L L m m L 9.9.8. .y z o o o n o o y o y y w U f f $ & % * * = | '.$.[.6.J.d.`.s.0.`.d.J.`.`.d.d.D.k.k.v.K.#+$+;+$+;+;+;+'+=+>+>+I.G # # / N N N Z Z Z Z Z N N N N N N / N N N N Z Z N h : @ @ + + @ + @ @ + . .   . .     .   . .     .     .     . . . .     . .   .     .                                                                       . . ",
"                    .     . . . . . . . . . . . . . . . . . .       .           .     .               . . . . . . . . . . . + : . h @.O ....4 6 k S I 3 3 &.x s y n y z y m {.L L L L L m m L L 8.L L z n p p A A o p o o y y w U | e $ & % % % = V '.l 3.6.J.E.`.`.0.`.`.`.`.d.d.d.D.D.l.S.)+'+$+;+$+;+;+$+!+~+{+]+^+G.B B /+(+,+,+,+M.I.,+,+,+,+I.I.I.I.^+(+(+^+I.I.I.H.z._+< Z _       @ : .   . + .   . . .   . . .   . .   .   . . . . . . . .         . . .           .           .           .         . .           .   .       . ",
"                    .     . . . . . . . . . . . . . . . . . .       .       . . .                     . . . . . . . . . . . + : . i @.} M ..b 9 &.F 3 I 2 &.x s o n n !.x x w m m L m !.z z !.L L L L z o ~.~.z z n n n o y x H U | e - & % % * & f '.].].6.J.J.s.`.0.`.`.`.`.d.d.k.k.l.U.G.:+#+.+;+$+;+<+;+ +~+[+]+O.l.s.' /+I.,+,+}+}+}+z.z.z.z.z.|+z.z.}+z.z.z.}+}+1+,+1+1+R.@+4.N N i _     _ @ @ + + + .     . . + + . . . . . . . . . . . . .       . . .         . . .         .           .         . . .         .   .   . . . . ",
"                    .     . . . . . . . . . . . . . . . . . .       .           .     .             . . . . . . . . . . . . + :   i @.O M R 6 H F R 3 2 3 &.x y y n n ,.n y w {.{.!.z A z A z !.L L L z y z A n z n o n y y y w K | e - & % * = = f $.].[.6.J.J.`.`.`.`.`.`.s.`.d.k.D.D.l.G.)+#+.+$+$+;+<+;+'+V.{+]+^+l.[.r r.,+z.|+z.z.|+|+-+-+q.q.-+q.q.q.q.i.j.q.q.&+y.y.&+@+:+2+2+3+4+4+4.N : @ . + . @ .     . . . + .   . .     . .     . . . . . . . . . .     . . .           . .         .         . . .         .       . . . . ",
"                    .     . . . . . . . . . . . . . . . . . .       . .     .   .     .           . . . . . . . . . . . . . + :   Z @.O M R x C l R I I 3 &.x s o y n !.n y !.!.y z n A A A ,.,.z !.!.z z n o z A z o n o y y w K f e $ & % * * = V '.]._.6.J.J.`.`.`.`.`.s.`.`.`.k.D.D.D.S.)+!+.+$+.+;+<+;+#+5+>+2+H.^.o ) k.}+|+&+-+-+-+-+-+-+-+q.q.j.w.u.h.r.v.i.j.j.-+y.w.|+I.O.^+(+(+L.Y.6+4.Z ( + + @ @   @ .       . .   .     . .       . . . . . . . . . . .     .                                   . .         .           . . ",
"                    .     . . . . . . . . . . . . . . . .           . .     . . .     .           . . . . . . . . . . . . . @ _   Z @.O M F s d w F ` I E &.x s o y A z y z ,.z y z !._.A _.,.!.z n !.!.y n o z z A n n n y y H U f 0 $ & % % * = | '.l ].6.J.J.s.`.J.`.`.J.J.J.J.e.k.D.l.D.:+'+.+$+.+;+<+;+'+W.L.2+C.D ' c l.p.|+p.q.p.-+p.p.|+p.p.|+p.p.p.p.j.T.o.n.e.f.n.A.N.-+O.%+%+^+:+^+(+6+%+4./ @ @ + . . .         . . . . . . .   .     . .   . . . . . .   .   .                                   .           .   .         . ",
"                    .     . . . . . . . . . . . . . . . .   .       . .     . . .     .           . . . . . . . . . . . . . @ _   Z } ..M F s x k F I I 3 k H s o o o A n z ,.!.!.z z A _._._.A z z !.,.y o A y ~.z n n n y x w U | e - - * Y = & | '.$.[.6.`.d.`.`.>.`.`.J.`.J.J.k.D.l.l.S.:+'+.+$+.+;+<+;+#+P.L.%+x.r ' }.^.i.q.j.i.q.q.j.q.p.q.p.p.p.p.p.h.j.f.F.o.n.r.A.f.B.u.M.O.%+6+7+:+:+:+6+P.(+# @ @   + .   .     + + .   . . . . . .   .   . .     .     .                                                                 . . ",
"                    .     . . . . . . . . . . . . . . . .           . .     . . .     .           . . . . . . . . . . . . . + :   N O O M l x H l F I ` E &.H s p y y n n y ,.!.z A A ,.A A A A !.z z !.o o n z n n n n n y x w U | f $ - % % = & j '.].[.6.`.J.`.`.>.`.`.J.`.`.`.d.D.D.D.S.K.'+$+$+$+;+;+;+'+5+P.}+U.^.B ' ^.w.w.h.j.w.w.w.8+w.h.j.j.h.h.j.g.n.g.r.B.t.e.A.r.t.v.}+H.@+O.:+)+:+7+^+^+L.L.N   _ @ @   . .   . .       . .     . . . .         . .                                             . .           .           . ",
"                    .     . . . . . . . . . . . . . . . . . .       . .   . . . .     .           . . . . . . . . . . . . . + _   N ..O M l s H l F I I 3 &.H x s y y z y y ,.,.y z z A A A z n z y z z n o z z A ~.o n n z x w K f e e - % % * & j '.$.[.[.J.J.`.`.0.`.`.J.`.J.d.J.s.D.l.D.K.'+.+$+.+;+;+$+!+V.L.x.B U.U.1.U.u.h.h.h.w.w.w.w.h.w.u.h.h.h.h.g.g.g.o.t.e.e.e.k.k.r.z.O.R.M.O.O.O.)+7+%+^+2+4+N + _ + .           .   . + .   . . . .   .   . . . . . . . . . .                                 .           .     . . .   . ",
"                    .     . . . . . . . . . . . . . . . .   .       . .     . . .     .           . . . . . . . . . . . . . @ _   N ..O M k s H k F I I 3 &.w s y y y y y y z z m !.~.o n _._.p ~.!.!.m n n o ~.z ~.o z A y x w U f e 0 - % % = - j '.].[.6.`.d.`.`.`.`.`.`.J.J.J.T.s.l.U.D.K. +.+$+.+$+;+$+!+#+)+l.' ^.U.1.^.e.u.o.u.u.u.v.v.v.r.t.t.t.t.t.t.r.t.t.f.f.A.s.D.k.t.|+1+R.M.M.M.M.M.^+%+7+)+9+3+/ _ : + + .   . . . .   . . . .   . . . . . . . . . . . . . .                                   . .                     . . ",
"                    .     . . . . . . . . . . . . . . . . . .       . .     . . .     .           . . . . . . . . . . . . + + :   / O O R k x w k F I I 3 &.x x y y n z y o z {.!.z z o n /.o p m L !.m y y n /.B o n A n y x w 1 e e e - Y % & - J F ].[.[.`.d.`.`.`.`.`.`.J.J.d.J.s.s.l.l.1+ +$+$+ +$+.+ +*+*+R.^.' B l.3.r 5.e.t.t.t.S.e.e.e.e.A.A.e.e.k.E.A.A.e.A.B.e.[.l.s.e.q.}+}+M.M.O.M.H.H.O.)+7+%+2+Y.N   : + @   . . . . . . . .       . . . . . . . . . . . . . . .                               . .                     . . ",
"                    .     . . . . . . . . . . . . . . . .           . .     . . .     .             . . . . . . . . . . + . @ :   / ....I k x k w 3 I 3 3 &.x x y y x y ~.~.!.{.m t  .~.!.z ~.L L m m m p z A A z ~.o z A y x w K e e e & % * - - U $.].[.[.`.J.`.`.`.`.J.d.J.J.E.J.d.s.s.5.p.X.$+X.'+ +$+'+*+Q.8+' ! B D.0+r r [.d.E.k.k.k.D.D.k.k.E.s.E.d.d.d.d.d.s.s.s.U.6.l.s.h.&+&+}+H.)+H.C.a+1+I.7+%+M.6+b+/ @ : @ . .   . . . . . + .   . .   . . . . . . . . . . . . .                               .                         . ",
"                    .     . . . . . . . . . . . . . . . .           . .     . . .     .             . . . . . . . . . . + . @ _   # O ..I k C w k S 2 2 3 &.H s p y y p p ~.m {.m ~. .m m !.z m m L L  .~.~.~.n A o n z n z x w U e e f & % % & $ U $.].[.[.`.J.`.`.`.`.`.J.d.d.E.J.d.J.s.l.r.I.2+2+Q.++X.Q.3+}+5.2.r U.l.[.' ' 5.`.d.d.d.k.d.D.d.d.d.s.s.d.d.s.s.`.E.s.d.E.k.6.6.o.p.z.@+}+H.1+z.a+-+1+I.^+:+O.%+Y.c+( @ +   . +     .   . . . .     .               .                                                               . . ",
"                    .     . . . . . . . . . . . . . . . .           . .     . . .     .           . . . . . . . . . . . + + + _   # ..I E w C H k S 3 2 2 &.H x y y y y y p z {.L t  .m z z m ~.m {.L t t z o n o o y A A n x k U e e f - % * - $ J $.$.[.[.`.J.`.`.J.`.`.J.J.J.E.E.`.d.J.J.6.U.r.G.w.g.N.D.5.r c ) [.U.l.U.' ' /.6.`.d.E.E.d.d.d.E.E.E.d.d.d.d.d.d.E.d.e.E.s.U.U.E.j.z.C.1+}+M.}+&+w.x.y.}+}+K.K.I.Y.c+    @   + + .       . .     .   .       .   . . . . .                                   .           .           . ",
"                    .     . . . . . . . . . . . . . . . . . .       . .     . . .     .           . . . . . . . .   . . + + @ _   < ..2 E H x 6 H 3 3 4 2 &.x x o y x y y p 1.{.L t ~.t m n ~.1.L L m t  .~.z n n o ~.y n y x w U f f e - * = - $ U l ].[.[.s.J.`.`.`.J.J.J.J.J.E.E.J.d.d.`.`.5.' 2.! c c c c 2.2.q 5.U.6.1.~ ) p [.`.J.E.d.d.d.E.J.E.E.E.d.`.d.`.s.6.d.A.k.l.U.5.[.v.-+a+}+C.}+C.x.v.x.S.p.z.@+1+@+M.b+c+h . ( : @ : . . . . .     .   . .   . . . . . . . .                                 . .                   .   . ",
"                    .     . . . . . . . . . . . . . . . .   .       . .     .   .     .           . . . . . . . . . . . + + @ :   g O ..I x C k k S 3 2 2 &.H y y y x y ~.~.L {. .t  . .y z m 1.L L m t  .~.z y o o ~.z n z x w 1 e f e - * * & $ U $.].[.[.s.J.`.`.J.`.`.J.J.J.J.J.J.E.T.E.J.J.3.' B ' D _.D ' r r r B B 1.t ' q 5.6.`.d.d.d.d.d.E.d.d.T.d.`.`.`.s.s.A.B.r.B.B.t.A.w.-+|+&+&+|+j.S.S.w.u.v.-+|+z.O.R.H.Y.b+# ( _ @ . + . . . . . . . . . .   . . . . . . . . . .                             .                         . ",
"                    .     . . . . . . . . . . . . . . . . .         . .       . .                 . . . . . . . . . . . . + + :   g O ..I x C k &.S S 3 2 &.H y y y y y ~.~.L {. . . . .y !.!.1.L L m t ~.z y z o ~.~.z z y x w U e e e - * = - $ U l $.[.[.s.J.`.J.`.`.J.J.J.J.J.J.J.J.J.J.J.T.0.1.3.1._.].!./.3.q q q ' r ~ ) ' q [.6.J.`.`.`.`.`.`.`.J.0.6.6.s.`.A.o.g.h.h.i.i.h.i.q.j.8+q.q.n.D.D.u.j.u.v.w.q.&+@+H.H.3+Y._+Z @ @   . . . + + + . . . .   . . . . . . . . . .                                                     . . ",
"                    .     . . . . . . . . . . . . . . . .           . .         .                 . . . . . . . . . . . + . + _   ^ ..I E s x l &.S S 3 3 l x y s x x y y ~.1.{. . .~.m z z z 1.L L  . . .~.~.z ~.~.p ~.z y y w U f e e $ * & 0 $ U l $.[.[.s.J.`.J.`.J.`.J.`.J.J.`.J.J.J.J.T.J.0.].~.!.].]./.q o ~.q q r q ~ ) ' r 3.[.J.J.6.`.`.6.`.6.`.6.0+6.6.E.B.o.o.o.g.h.i.h.i.j.r.r.8+u.e.l.`.d.e.e.t.G.u.8+&+z.@+@+I.3+z.# : . +   . . . . . . . .   . . . . . . .     . .                                                     . ",
"                    .     . . . . . . . . . . . . . . . .           . .     . . .                   . . . . . . . . . . + + + _   ^ O 2 E H H l k S S 2 3 &.H s y y y o y ~.!.{.L m m m y n ~.1.L L  .t y ~.p ~.o ~.p o y y y w U f f e - = & $ $ K $.$.[.[.s.J.`.`.J.`.`.`.J.J.J.J.J.J.`.J.J.0.0.3.p ~.3._.B B B B q ~.p ~.~ ~ r ' q /.[.J.s.`.J.`.6.6.6.J.0+3.s.T.t.B.B.B.B.n.o.r.r.r.k.D.k.6.5././.5.U.^.k.r.k.S.v.q.1+M.}+H.3+|+h . : . . + + . . . .         . . . . .                                                           . . ",
"                    .     . . . . . . . . . . . . . . . .           . .     . . .     .               . . . . + + . + + + . . _   ^ } 2 E H H S &.S S 3 3 l x s y y y s o !.!.L m m m z y A 1.1.L L L ~.~.~.p y ~.p ~.o z y x w U f f e - & & $ $ K l ].[.[.s.J.`.J.`.`.`.J.J.J.J.J.d.`.`.`.`.0.0+3.m q _.$.q B /.! ) ' ) ! c c c 2.c ! ' 5.6.6.3.U.U.1.3.6.6.6.s.E.E.e.e.e.E.e.k.6.l.l.5.5.q ' ~ ' ' /./.o /.U.l.l.D.h.-+q.a+}+z.(+N   : + + . . . . .                 . . .   .                                                       . ",
"                    .     . . . . . . . . . . . . . . . .   .       . .     .   .                   . . . + + + + + + + @ + @ _   ^ } 2 E s C &.&.3 S 3 S &.x y s x x x y z {.m  .m m y z n !.!.L L L z ~.~.~.y ~.~.p ~.y y x w U f f e $ & $ 0 0 U ].$.[.[.s.T.`.`.`.J.`.`.J.J.J.J.J.`.`.`.`.6.0+~.t t 3.[.r B q ! c c 2.2.}.c 2.2.2.! ! ' B B B B 5.5.5.D.r.S.r.x.v.u.G.G.G.G.G.l.5.^.D q q ) 7 ! r q B /.D ^.U.U.U.D.j.j.j.-+|+z.4.: @ . . .   . + . . .             . .     .                                                       . ",
"                    .     . . . . . . . . . . . . . . . .   .       .           .     .             . . . + + . + + + + + . + _   ^ } I ` s s k &.I 3 3 3 &.x s y y z ,.y ~.!.{.L z !.A !.z z 3.{.{.!.o z z y ~.~.~.p y z p y w U f f e - - 0 e 0 K $.].[.[.s.J.`.J.`.`.`.`.J.J.`.`.`.`.`.`.0.6.].!.p ~.!./.~.6.^.B B D ' ! ' ' D B U.D.S.S.G.x.8+8+@+@+}+M.I.R.}+H.H.1+1+1+}+}+}+|+g.G.k.U.5.q ' ' r B B B o _./.5.U.l.S.g.h.i.Z.p.Z.# . _ .     . . . . .           . . . .   . . . .                                                 . ",
"                    .     . . . . . . . . . . . . . . . .           . .           .                 . . . + + + + + + + . . + @ @ |.} ` ..6 H &.S I S 2 2 &.x s s y y z n n !.m m z ,.!.!.A z _.,.!.!.z z p p y n ~.~.~.z y x w U f f e $ - 0 e e K l ].[.[.s.J.`.J.`.`.`.`.J.J.J.J.`.`.J.`.`.6.3.~.p 1.t 1.5.5.s.U.B ^.S.x.x.y.C.@+K.O.:+6+6+2+2+2+Q.W.W.Y.9+9+%+7+7+:+7+^+I.O.I.I.@+}+|+w.D./.B q r r q q B /./.^.^.l.l.e.o.g.p.Z.z._+( : @     + . . . .   .       . . . .   . . . .                                                 . ",
"                    .       . . . . . . . . . . . .   . .           . .         .                     . . + + + + . @ + . + @ @ ( |.K I 3 C 9 3 I I 2 2 I l x s s y y z ,.A z ~.y !.n n o n ,.,.3.z !.!.z y ~.z z ~.o z z y m w U f | e $ - 0 f e K l ].[.[.s.T.`.J.`.J.J.`.d.J.J.J.d.d.`.`.`.0.3.t r q 1.6.T.k.G.S.8+1+^+%+%+9+2+2+2+2+Y.L.2+2+L.2+P.L.>+9+]+L.>+>+>+>+]+9+d+:+:+:+K.K.R.@+-+G.l.U.r q q q p p B /.B B s.D.k.B.g./+p.q.N   : + . . . . . . . . . .   . . . .   . .   .                                                 . ",
"                    .     . . . . . . . . . . . . .   . .           . .         .                     . . . + . . . + . . + : + Z @.} I 3 C C E ` ` ` 3 3 l x s y y y ,.w n !.z z x A A n n ,._.!.z !.!.~.z n ~.z p p ~.z p y w U f | e $ - 0 | f K $.].[.[.6.J.`.J.`.`.`.`.J.J.J.J.J.d.d.d.`.6.0+~.=.~ ~ ) m./+x.H.Y.Q.Y.Y.L.L.2+%+%+6+7+:+7+:+7+2+9+d+d+2+e+L.L.e+P.W.W.V.V.=+V.P.>+9+7+)+@+a+G.l.U./.1./.~.p p /./.B l.s.l.d.k.n.h.p.<   : @ . . . .   .               .                                                           . . ",
"                    .       . . . . . . . . . . . .   . .           .           .                 . . . . . . . . . . . . @ . @ u f ` I I &.b I I ` 2 3 2 S x s y n n z n o A A A n A _.A n A A ,.A !.z ~.o o n n ~.p o z o y w P | | e $ - 0 f f P $.].[.[.6.T.`.J.`.`.`.d.J.J.J.J.J.J.`.d.`.0.3.1.~ ;.! ! t.i.y.3+6+6+2+3+2+%+:+)+R.O.)+)+:+9+d+7+2+2+%+%+7+7+7+9+2+2+e+V.=+'+'+'+!+*+[+>+d+K.8+G.k.5.r q q q p ~.~.p B 5.U.[.l.s.E.i._+: + +   @ + . . .   . .       . . .         .                                                 . ",
"                    .       . . . . . . . . . . . . . . .           . .                           . . . + + . . + . . + + : . N $ $ } F E &.S O ` I ` 2 E S x s o o o y z y ,.n o A !.A n A z ,.,.A z !.y ~.~.y /.~.p ~.n y z m P V j f $ $ e f | P l ].[.[.6.T.`.J.`.`.`.`.`.`.J.E.J.`.`.`.d.0.0+{.;.;.' A.h.8+6+3+6+%+%+K.K.K.O.)+O.:+2+2+L.L.L.6+6+%+)+H.R.K.R.K.:+7+9+2+P.#+'+ +.+.+ +!+5+>+:+y.G.e./.' q q t q p ~.q q 3.[.5.U.l.E.*.( . + . + . . . . . . .     . . . .                                                           . ",
"                    .       . . . . . . . . . . . .   . .           .                             . . . + . . . . . . + @ _   # 0 0 M &.S 9 &.M ` O O 2 E F x y n o ~.n z n A ,.A A A n A _._.A A z !.!.y o z y o n p o z ~.~.~.P | | V $ $ f j j M l ].[.U.6.J.`.J.J.J.J.`.`.J.J.E.J.J.J.J.J.6.0+ .;.) p h.}+M.L.2+7+%+2+:+^+(+^+3+3+6+L.L.2+%+6+%+^+)+:+)+)+K.K.K.)+:+d+9+]+{+V.!+'+'+ + +!+~+[+d+y.G.d.5.1.~ ~ q t q t ~.1.6.[.[.6.d.f+(   @   + .     . . . . . . . . . .     . . .           .                                     . ",
"                    .       . . . . . . . . . . . .   . .             .                           . . . . . . . . . . + + _ . # | e M &.S 9 &...` O I 2 E F x y o n o z A o A ,.A z A /./.A _.A A ,.1.z n n y n ~.o p o z o t ~.>.j j f 0 $ | j j ..$.].[.[.6.J.J.J.`.J.`.`.J.J.T.J.J.J.J.J.J.6.6.t ~ ~ 1.q.^+3+3+:+%+Y.^+1+H.R.}+^+6+^+6+L.9+7+9+9+:+O.:+O.K.O.O.)+:+)+7+9+]+>+P.=+*+'+ +'+!+*+5+5+]+y.G.k.6.r -.! ~ ~ t 3.1.0+6.3.5.d.f+( . @ . .         . . . . . . . . .     . . . .                                               . ",
"                    .       . . . . . . . . . . . .   . .           .                             . . . . . . . . . . . + _   < | f } S S 9 &.` ` ` I 2 3 l x y n n o n n o ,.,.n A n n A _.A A z A _.z y n n n n o n A z o p q $.P P j e 0 f J J ` l ].6.[.6.T.J.J.J.`.`.`.`.J.E.J.J.J.`.d.J.`.0+t r t U.M.6+6+2+6+%+1+y.a+z.y.y.C.R.R.%+2+6+%+d+%+O.H.^+O.K.H.O.)+)+)+:+d+]+]+P.*+#+'+ +'+!+5+5+*+5+>+K.x.S.l.^.' ) ~ t L  .1.0+/.5.d.m.( . @ . + .         . . . . . . . .     .   . .                                               . ",
"                    .       . . . . . . . . . . . .   . .           . .         .                 . . . . . . . . . . . + : . g | j K S &.9 5 O I O O 2 2 &.x D o p o o n o A n n A z n n _.^.A z n _.!.z o n z o n n A A z y q L $.$.K e f J 1 j E w ].6.[.6.J.J.J.`.J.J.`.`.E.T.E.J.J.`.`.`.s.6.p r t t.3+3+3+3+M.&+8+|+,+,+}+1+}+}+C.^+%+%+:+K.H.H.H.R.R.@+R.R.H.K.K.K.7+d+9+>+5+=+#+ +'+!+=+[+5+5+5+[+d+a+G.k.D.B ' ~ =. .{.3.!.5.`.N.( . @ . +               . . . . . .         .                                               . . ",
"                    .       . . . . . . . . . . . .   . .           .           .               . . . . . . .   . . . . + : . g 1 1 K &.&.9 b O O } I 2 2 &.s s n n o n n o z ,.!.n z z n _.z A A ,.A z z n n z o o o n A y ~.t {.{.9.{ | | 1 j J F !.].[.[.[.J.J.J.J.J.J.`.`.T.T.E.J.`.J.d.`.s.6.q r ~.A.(+3+O.&+h.g.i./+i.o.i.|+y.8+y.z.C.R.R.@+a+R.R.C.a+a+C.a+a+a+a+R.R.)+7+]+{+5+V.#+!+!+ +~+{+5+~+~+5+{+)+x.x.G.l.r ;.=.0+3.1.5.0.N.h   : + + . . . .     . . . . . . . .     . . .                                               . ",
"                    .       . . . . . . . . . . . .     .           . .       . .               . . . . . . .   . . . + @ : . g M 1 K S 6 9 b O O O 3 2 I &.x y n n o n o o ,.,.z z n ~.A _.n ~.z ,.!.z z z n A n n o n A n z t {.9.9.{.{ 1 ] ] { l {.].[.3.6.J.J.J.J.J.J.`.`.T.E.E.J.J.E.d.d.`.[.' ' ~.D.1+I.&+v.r.r.t.e.e.e.A.t.e.t.r.v.8+8+y.y.y.&+a+a+a+&+&+y.y.8+&+C.a+K.)+7+]+>+P.~+~+*+ +!+~+[+[+~+*+5+5+d+C.8+v.A.~.;.{.0+1.3.T.F.h   : . + . . . .     .   . . . . . . . . . .                                               . . ",
"                    .       . . . . . . . . . . . .   . .           .           .               . . . . . . . . . . . . @ : + ^ } J 1 S 9 9 5 ` O } 2 3 I &.x n o n o o o n 3.z z z z n A A n y x z !.!.z y A n n n n n z z ~.t {.9.8.a., 9.9.4 4 L !.].].3.6.J.J.`.d.J.J.`.J.T.T.E.E.J.d.d.d.s.U.r r /.l.|+|+v.G.A.e.k.e.r.r.v.w.u.w.u.v.u.u.w.8+w.8+w.8+8+8+8+q.y.y.&+a+C.@+R.:+9+]+{+[+[+5+~+*+*+V.[+5+5+~+V.*+[+)+x.j.o.6.L  .t 3.m.N.i   : . .     . .       . . . . . . . . . . . .         .                                     . ",
"                    .       . . . . . . . . . . . .   . .           . .                         . . . . . . . . . . . + @ @ @ |.K 1 K S 9 9 5 O } } I 3 I &.x o o n o o n n 3.!.z n z z y A /.o y !.!.z y n n n o n n n A z p t {.9.8.a.a.8.a.8.{. .m $.].3.[.`.J.`.d.J.J.`.J.T.T.E.T.J.d.d.s.s.[.q r q U.u.v.S.G.t.e.r.v.r.r.u.j.8+u.w.h.u.w.j.h.w.u.w.u.w.w.u.8+j.q.-+a+a+C.R.7+9+9+>+e+{+[+5+~+~+!+~+5+[+5+~+~+*+ +9+x.8+f.`.' -.t T.N.h . :   . .     . .     . .   . . . . . . . . .                                               . ",
"                    .       . . . . . . . . . . .       .           .         . .               . . . .   . .   . . . . @ @ _ |.K K } S C 9 5 O O O 2 S I &.x y /.n y o y ~.!.!.z n z ~.A A z ~.z !.!.!.z y n n n n n A !.!.t t 9.9.8.9.8.8.a.9.9. .L $.].3.6.`.`.`.E.J.J.J.J.T.T.T.E.E.E.k.d.0.6.B q B ^.G.g.g.h.f.n.g.h.h.h.i.i.h.g.h.h.u.w.h.w.u.u.u.u.u.w.w.w.8+j.8+y.-+&+C.H.:+d+9+2+]+>+{+{+5+~+~+[+[+5+5+~+!+ +.+P.K.y.G.D.^.q `.N.(   _ .   .   . . . .   .       . .   . . . .                                               . . ",
"                    .       . . . . . . . . . . . .     .           . .       . .               . . . .   . .   . . . + @ @ ( a } K } S C C 5 O } O 3 S 2 &.s o n z y p p ~.L !.z z z y z y n o y !.!.z z p n n n A A A z m t ~ 9.9.8.8.8.8.8.9.9. .{.].].].0+`.J.J.J.J.J.J.E.T.m.E.E.J.d.d.d.d.6.r r q ^.B.u.h.i.o.n.g.o.o.n.h.i.o.o.o.g.v.n.o.v.o.o.n.u.n.o.g.h.j.j.j.p.-+-+|+z.1+O.:+7+7+d+d+9+>+e+{+>+5+[+[+[+5+!+.+.+ +P.K.p.h.D.e./+(   _ .       . . . .                                                                       . . ",
"                    .       . . . . . . . . . . . .     .           .         . .               . . . . . . . . . . . + : + ( [ K K } &.C C b O K O 2 3 2 &.s s n n o p ~.z 3.!.z z y z ~.z ~.y ~.!.!.z z y y n n n n n y z t ~ 9.9.8.8.8.8.8.8.8. .L ].].3.3.0+0.J.`.J.J.J.E.T.m.E.E.J.`.J.`.`.6.q ' r B m.N.n.F.f.B.B.r.e.D.A.B.A.e.E.t.A.t.B.t.t.t.e.t.f.f.o.g.h.h.q.-+p.p.-+|+z.}+H.R.K.)+)+7+7+d+9+]+[+>+>+>+[+[+~+'+ +.+!+d+1+y.8+f+: + : . . . .   .   . .   . . . . . .       . . .       .                                     . ",
"                    .       . . . . . . . . . . . .     .           . .       . .               . . . . . . . . . . . + : + h [ 1 K O S C 6 S O } O I 3 I &.s y n z y p p ~.{.!.z z z ~.m z y y ~.m !.m x y n A n n n n x m  .t 9.9.8.8.8.8.8.8.9.8.m 3.].0+3.3.0.`.J.J.J.d.E.A.A.T.E.E.J.E.d.s.0.B ' q B 5.6.k.E.d.s.d.k.d.l.l.D.s.s.s.l.s.s.s.6.l.6.6.s.d.e.e.t.n.n.g.i.i.q.p.p.|+z.|+a+@+C.R.R.K.K.K.7+9+d+d+]+{+{+[+*+ +.+ +'+W.6+I.4.(   : +     . .     . .     . . .   . . . . . . . . . . .                                     . ",
"                    .       . . . . . . . . . . . .     .           .           .               . . . . . . . . . . . + : . h @.K K ` S 6 b S O } O 2 3 I k s y n A y p p z 3.m z z ~.~.y A z p z L m z z p p n A A n z z m  .t 9.9.8.8.8.8.8.8.8.L  .!.].].3.0+0.`.`.J.J.d.E.A.m.T.E.E.J.d.d.`.s.p ~ ~.q B 5.U.[.5.5.U.l.U.l.l.U.5.U.U.5.5.5.5.5.5.5.5.5.5.U.5.U.0+6.E.E.v.g.h.i.p.p.p.q.-+-+-+-+&+a+@+R.K.K.)+d+d+d+>+5+~+!+ + +.+.+Q.4._   + .         .     .         . .         .   . .           . . . .                         . ",
"                    .       . . . . . . . . . . . .     .           . .         .               . . . . . . . . . . . + :   h @.K } R &.9 C &.K K } I 3 E &.x y o n o p ~.!.3.m z z ~.~.z z n p m !.m !.!.p o n n n n z z y t t 9.9.8.8.8.8.8.9.8.L  .!.].].1.3.0.`.`.J.J.d.E.m.m.T.E.E.E.d.`.J.6.p q ~.q A _.^./.^.^.5./.5.5.^./.5.5.5.^.q q q ~.~./.p p q q p p ~ ~ q 5.l.s.e.B.u.h.h.g.h.w.x.j.8+y.&+a+C.@+O.)+:+7+d+]+{+[+~+*+!+!+$+g+_ . @ + + .             .       . .   . .   .               . . . . .                       . . ",
"                    .       . . . . . . . . . . . .     .           .         . .               . . . . . . . . . . . + : . i @.} K M k C 9 k } 1 } I 3 E &.x n o A y p ~.!.3.m ~.z z z z z z p ~.!.!.!.z p o y y n n z z y s t 9.9.8.8.9.8.8.8.8.9. .z ].].1.3.0.`.`.J.E.d.E.m.m.T.T.T.J.E.E.d.0.p ~ p z /.D B B B /./.p /.5.^.B ^.U.[.U./.B B B B 5.B 5.5.B /.^.q 1./.1.~.1.6.E.A.B.B.B.f.r.v.u.u.w.w.8+y.a+R.@+R.K.:+9+]+]+>+5+~+~+=+X.c+  + ( @ +                     . . . . .       .       .                           .       . . ",
"                    .       . . . . . . . . . . . .     .           . .       . .             . . . . . . . . . . + . + : . i @.} P M k 6 l 3 M ] } 3 3 2 k s o o z y p t m !.m m z n ~.z !.z p z m L L ~.s y ~.~.n n A z !.z t 9.9.8.9.9.8.8.8.8.8. .!.].3.1.3.0.0.J.J.T.J.E.m.m.T.E.T.J.E.E.`.s.p q t ~.q q D o p q q q /.^.^.B 5.l.l.U.U.D.D.k.D.S.S.S.G.G.G.v.k.D.U.D B /./.U.6.`.E.A.A.t.F.r.f.n.n.w.w.q.&+y.a+R.)+d+d+>+]+>+[+[+5+#+ +b+i . + + . . .     .             . .                                                       . ",
"                    .       . . . . . . . . . . . .     .           .         . .           . . . . . . . . . . . + . + :   i @.} } M x C k F } K } I 3 I 6 x y o z z q t !.L m m !.n ~.z z y p m m m L m p y z ~.z A n z !.z m 9.8.8.8.9.8.8.8.9.L  .m ].3.1.3.0.0.`.J.T.d.E.B.m.E.E.E.J.J.d.`.0.p q t ~.q q p p ~.1.o ' r B ^.5.l.l.l.D.G.x.8+y.y.C.@+C.R.K.K.:+K.K.C.x.D.B ^.' ' t 3.6.E.A.A.B.B.r.f.f.u.u.8+y.y.}+O.:+:+2+>+]+]+[+[+5+=+.+.+c+h   + @ + +   . .       .   .       . . . .       .       .   .                       . ",
"                    .       . . . . . . . . . . . .     .         . . .       . .             . . . . . . . . . . + + @ :   Z @.O M F s d x l } K } ` I I H x y p !.z p ~.!.!.m m !.z ~.y z y p m m m L m p t z ~.y n n z A ~.z {.8.a.8.9.8.9.8.8.L L m ].].1.3.0.0.J.J.T.J.E.m.m.E.E.E.d.J.d.J.0.p ~ ~.~.~.t ~.~.t p q ~ ' 5.D.D.S.S.x.y.&+a+a+@+@+O.)+)+%+9+2+L.>+2+>+2+(+1+q.D.~.~ ;.t s.J.J.E.A.B.F.f.r.u.u.w.8+&+C.R.)+9+>+d+9+>+{+{+[+~+*+*+b+# i : :     + .           . .   . . .   .     . . . . . . .   . .                   . ",
"                    .       . . . . . . . . . . . .     .         . .           .             . . . . . . . . . . + . @ _   Z @.O P F s C H F O } } ` 2 3 H x y o z z t t !.{.m m z z z z !.z ~.m L L L m t ~.y m z z A ,.!.z !.{.9.8.9.9.8.8.8.8.L  .L ].3.1.3.0.0.`.J.T.d.E.B.m.T.E.T.J.E.J.d.0.t t 1.t t ~ ~.q m t ! q 6.d.e.v.8+|+M.M.H.O.^+)+)+:+7+7+d+]+{+e+[+[+[+5+~+#+W.&+B t ! 7 ;.0+0.6.T.m.B.B.f.r.u.u.u.8+&+C.R.)+%+:+7+d+9+>+[+5+~+~+!+ +4+N @ : +   + .               . . .   .     .   . . . . . . .     .             . . ",
"                    .       . . . . . . . . . . . .     .         . . .       . .             . . . . . . . . . . . . @ :   Z ` O P F x H w F O ] } I I 3 H x y o z z t t m !.m m z z n z !.z ~.~.m L L m p ~.z z z A A ,.z !.!.L L , 9.9.9.8.9.9.L  .L ].3.1.3.6.0.`.J.E.d.E.F.B.T.T.E.E.E.J.J.0.t t  . .1.t t  .~ c ! 6.m.t.x.&+z.C.1+H.H.:+6+2+9+>+>+>+]+[+~+V.V.V.~+~+5+~+[+P.8+' t ) -.7 t 3.`.T.A.t.B.r.r.r.v.v.8+|+C.R.O.O.:+7+d+L.e+{+5+~+V.=+.+Y.N     + + +                 .     .     . . . . . . . . .                   . . ",
"                    .       . . . . . . . . . . . .     .         . . .       . .           . . . . . . . . . . . + . @ _   N ` O } F x x H 4 O } } ` ` 3 H H y o z z t m L L m m m z n z z z ~.m m {.L m y ~.m z A A _.,.A !.!.l $.$.{.L L 8.9.9. . .L ].{.1.3.6.0.`.J.T.d.E.F.F.e.T.E.J.E.d.E.`. .~  .t  .t L ~ -.c s.m.A.w.&+}+}+@+I.^+^+:+%+2+9+9+9+>+>+W.V.=+#+=+*+*+*+!+5+V.Y.w.c 0+t 7 -.;.3.0.J.A.B.B.B.t.r.B.v.j.-+C.R.K.K.K.)+d+>+>+>+[+5+5+P.Q.++c+Z + : + +       .                 . . .         . . .           . .       . ",
"                    .       . . . . . . . . . . . .     .         . . .       . .           . . . . . . . . . . . + . @ _   N I ..} F x x x l O } } I I S H x y o !.z t  .L m  .m m ~.n z !.z ~.m L L L m ~.m z z ,.A ,.,.n y ,.R P P R L  .L L 9.L L L ].].1.1.0+0.`.E.T.d.E.F.F.T.T.T.d.E.E.J.`. .=.t =. .t ~ 7 -.].F.e.t.-+C.1+I.(+3+3+3+%+:+:+:+7+7+9+9+>+e+P.V.#+!+=+*+*+*+*+e+2+C.y ~ ) -.-.7 1.[.J.A.A.m.A.A.t.t.r.u.8+y.a+C.@+)+:+d+9+9+>+[+[+[+[+=+$+++/ _ _ @ + . + .       . .       .     .                               . . ",
"                    .       . . . . . . . . . . . .     .         . . .       . .           . . . . . . . . . . . + + @ :   / I ..M F x H H l O } O I I S C x y y z ~.t m L  . .m m z z z !.z y m L L L  .t m z !.,.,.,.A n z w M P M P Q  .L L 8.L L L 3.3.3.3.0+0.J.J.E.d.E.F.F.T.T.E.E.E.E.J.`.1.=. .t a.t -.-.7 1.e.t.h.z.@+H.(+(+I.I.1+R.K.:+9+d+d+d+d+>+>+e+[+[+5+V.5+5+5+[+[+d+++M.^.;.7 7 }.7 p [.J.T.T.E.e.e.e.E.A.t.r.w.j.&+R.K.)+7+9+9+9+]+>+{+[+=+$+$+c+h . @ @ + @   . . . . . . . . . .   .       .           .           . ",
"                    .       . . . . . . . . . . . .     .         . . .       . .             . . . . . . . . . . + . @ :   / ` I O F x H x 4 O } O I I 3 9 H y y y p t L L  . .m !.z y z !.y ~.m L {.L 8.t !.z ,.,.,.,.A A z ,.P P P M M {.L L , L L L 3.3.1.3.0+0.J.J.E.d.E.F.F.T.T.T.E.E.d.J.`.3.=. . .a.t }.-.) [.t.r.w.&+@+I.^+1+C.z.@+}+O.L.2+2+9+:+7+d+d+2+>+P.V.e+]+{+{+[+5+]+]+Q.I.^.;.q 7 7 ' 1.6.J.E.T.T.d.`.d.E.e.t.r.f.v.8+a+R.)+d+d+7+d+]+{+[+5+*+'+ +b+# h : _ . . +   . @ +   . . . .             .       .         . . . ",
"                    .       . . . . . . . . . . . .     .         . . .       . .             . . . . . . . . . . + + @ _   # I I ..F s x H 5 O } O 2 2 3 C x y y z ~.t L L  . .m m z ~.z ,.z ~.m L 9.9.L t m !.z A A A ,.z /.,.} U P R P {. . .8.L L m ].].3.3.3.0.J.J.T.d.E.F.F.T.T.E.E.E.d.J.J.0+=.=.a.t C }.-.1.m.n.w.j.1+M.^+H.}+z.a+@+a+I.%+6+%+O.)+K.R.:+d+d+9+W.V.e+{+V.5+5+5+[+e+W.3+0.) r ) 7 ) q [.`.T.T.E.J.E.E.e.e.t.t.r.u.8+&+R.:+7+%+d+]+>+{+5+5+~+*+ +$+4+Z : _ +   + +   . .       .             .               . . . . ",
"                              . . . . . . . . . . .     .         . . .         .             . . . . . . . . . . + + + _   < ` I R F s x H 4 O } } 2 2 S C H y y z p t L L  . . .!.z ~.z ,.!.~.m L 9.9.8. .m !.z A ,._.A A n n M 1 M M R {. .L  .L L m m {.].3.3.0.J.J.T.d.E.F.F.A.T.E.J.J.E.E.T.6.=. . . . .}.-.6.e.v.p.z.I.^+H.1+z.z.C.}+a+I.1+@+a+a+M.y.y.@+R.O.:+:+7+e+e+P.V.5+~+~+[+[+$+3+D.! ) ! 7 ! B 0+`.`.E.e.E.E.T.A.A.T.A.r.f.h.a+@+K.9+d+9+]+]+>+{+[+[+P.=+$+b+Z   . @ @ . .           .                     .       .   . . ",
"                              . . . . . . . . . . .     .         . . .         .           . . . . . . . .   . . + + @ _   < ..2 E F s s H 4 O } } 2 I S H H y y ~.p 1.L L  . . .!.z z z !.z ~.m {.{.9.8.m z !.,.A ,.,.A _._./.].K P M >.{., L  .L {.!.t 3.{.3.1.0.J.J.E.d.E.F.F.A.T.T.J.E.E.E.J.0. . . . .7.}.}.[.k.u.}+1+I.1+z.y.x.8+z.&+a+1+z.a+z.a+&+x.y.-+&+@+K.)+K.:+P.{+>+V.~+*+*+5+V.V.3+G.' p ' ' ~ /.6.m.m.A.T.J.E.T.E.E.A.A.B.w.&+&+a+)+7+7+7+]+>+>+>+{+5+~+W.=+++c+Z + _ _ + . .     . . .   . . .           .           . . ",
"                    .         . . . . . . . . . . .     .           .           .           . . . . . . . . . . . + + @ :   g O I R F s s H S O } } ` ` 3 9 H y p p ~.m {.{.L  .L m z z z !.!.~.m L {.9.9.m z !.z ,.A _._._.A /.].M P P >.L 8.,  .L {.m !.].{.1.3.0.J.J.T.J.E.F.F.T.T.E.E.J.J.E.E.0. . .L L 8.}.-.0+d.|+1+M.}+|+y.8+p.|+q.-+|+-+8+8+8+v.v.u.w.q.-+&+a+R.O.)+:+e+P.5+=+#+'+'+ +X.=+++h.q /.r ' ! ) 0+> J.J.J.T.A.T.T.A.m.A.f.w.y.|+@+K.7+9+9+>+2+]+e+5+5+5+V.'+.+++c+( _ @ . +     .       .                             . ",
"                    .         . . . . . . . . . . .     .           . .         .           . . . . . . . . . . . + + + :   g O I I l s H H S O O ` ` I S 9 x s p z z z L {.L  . .m z z !.,.,.y ~.{.{.{.L m !.!.z ,.,._._.A /./.].K K >.$.L ,  . .L L y y ].].L 1.0.J.J.T.d.d.F.N.A.T.E.J.J.J.E.T.`. . .L L 9.-.-.0+d.p.}+z.a+&+q.8+q.j.8+8+w.w.u.v.G.G.v.G.v.v.u.8+-+@+@+R.O.7+e+P.W.V.=+'+ +.+'+$+++8+^.' r ! 2.2.! ' 1.> T.m.m.A.E.e.A.r.u.j.&+C.@+K.d+9+]+]+>+>+>+{+{+5+=+#+$+;+4+i . @   . .           . .             .         . . ",
"                    .       . . . . . . . . . . . .     .           .           .           . . . . . . . . . . . + + + _   ^ O I E l s x H S ` O I 2 2 &.C x y y y z z L {.L m m !.A n z ,.,.z y !.{.L L !.!.,.,.A ,.,._.A _.1.,.Q ..Q {.{., 8.1.L !.~.~.{.{.L 1.0.J.E.T.J.d.B.N.A.E.E.J.J.J.J.E.`.1. .1.L 9.-.-.1.s.p.z.|+y.8+u.G.v.v.r.G.v.G.G.t.S.G.t.t.t.t.r.v.x.y.a+@+R.@+)+>+e+P.#+X. +.+$+$+X.W.3+/+^.^.D ) c c 7  .0+J.A.A.A.E.m.t.f.h.q.|+C.@+K.7+9+]+>+>+>+]+]+]+{+{+[+#+'+2+/ _ . .           . . .       . .     .   . . . . ",
"                    .         . . . . . . . . . . .     .           . .               .       . . . . . . . . . . + . @ _   ^ O I E l s x H 3 O O ` I I &.x w z z y z !.!.L !.!.z z z z z ,.,.,.z z ].{.!.z !.!.A A ,.,._._._.z 1.3.l Q {.L 8.L L {.!.y m ].{.1.1.6.J.E.T.J.d.m.F.A.E.J.J.T.J.J.E.J.1. .1.L 9.7 -.~.6.j.i./+w.v.G.t.t.t.S.G.A.k.k.e.k.k.e.e.e.e.e.t.G.v.8+8+C.R.R.7+2+e+W.#+X.'+$+;+$+.+.+Q.^+8+5.! c ' q ~ -.~ 3.0+6.E.E.A.B.f.h.q.|+@+R.K.:+9+>+>+>+>+>+>+]+>+]+]+]+.+6+(   : .   .       .           .       . .   . . ",
"                              . . . . . . . . . . .     .           .                           . . . . + + . + + + . . _   ^ } I E l s x k S O ` 2 3 S k x z n y y ~.!.!.!.z A A A ,.!.A A A z ~.!.].].!.,.,.!.n A ,.,._._.,.!.!.{.8.9.9.8.a.L L m m z !.].{.1. .6.J.E.E.J.`.m.F.T.T.E.J.J.J.E.E.J.1.1., L {.;.7 q U.e.t.G.S.e.k.k.k.k.D.D.e.k.k.k.D.k.k.e.k.e.E.e.e.G.u.v.y.a+@+R.)+d+L.P.W.Q. +.+$+$+ +.+V.W.%+8+D.B ! ' ! c }.}.! p 1.`.A.A.r.w.q.&+C.R.O.:+%+]+e+e+e+e+>+>+]+]+]+6+Y./   _ + . . .               . .       . .   . . ",
"                              . . . . . . . . . . .     .           . .                         . . + + . + + + + @ + @ _   ^ K I E k s H k S ` ` 3 &.k H x n n z z n A z z !.z A A A n A A A n n A ].,.!.w ,.,.,.A A ,._._._.!.L 8.8.8.9.9.8.L L m !.!.!.3.{.1. .0+J.E.E.J.d.m.F.A.J.J.J.J.J.J.E.J.3.1.L L {.=.! p 5.5.l.l.U.l.k.D.k.d.D.D.D.k.D.s.D.k.s.d.d.k.d.d.E.e.r.v.u.j.&+a+a+R.7+9+L.W.#+'+'+.+$+.+'+ +'+V.2+M.z.k.^.B ' ! ! ! r !.6.d.t.r.v.8+-+z.R.K.O.7+2+e+P.e+e+e+L.9+K.K.L.h+@ @ +   .             .     .         .   . . ",
"                    .         . . . . . . . . . . .     .           .                         . . . + + + + + + + + . + _   ^ K ` R k r x k S ` ` 3 S &.H x y p A A n A !.m x A A ,.A n A n n A n A ,.,.,.w w A _.n ,.,._.A A !.L 8.9.9.9.8.8.L m m !.z 1.3.L 1., 0+J.E.E.J.`.A.F.A.J.E.J.J.J.E.T.J.3. .L L L =.) ~./.[.s.U.5.l.l.`.d.d.s.s.l.l.D.k.D.d.d.s.d.d.s.d.d.A.e.t.f.j.8+y.&+a+R.K.7+L.P.W.=+#+.+.+.+.+'+!+=+W.{+>+1+G.D.D ! B B /.5.3.0.E.E.G.w.j.|+@+1+M.:+9+>+e+e+L.L.%+R.H.I.(+N   _ +   . .                             . . ",
"                    .         . . . . . . . . . . .     .           . .                       . . . + + + + + + + . . @ @ @ |.K ` I l x H k S O ` 3 2 3 H x x p ~.A n A ,.z A A ,.z z z z A A A A n w ,.,.,.,._.A A A ,._._.!./.L 8.8.9.9.8.8.m z ~.!.z 1.{.L 1., 0+J.T.T.J.`.A.F.A.T.E.J.T.J.E.E.J.3.1.1., 9.=.7 ' 6.F.m.s.5.^.^.B D 5.^./.5.U.[.U.l.l.l.D.d.d.J.d.d.E.A.t.B.v.w.8+y.y.&+C.K.7+6+2+e+{+e+!+!+!+!+!+~+~+{+[+V.)+K.@+x.l.^.r 3.U.6.3.U.l.d.E.f.q.|+@+K.)+7+9+2+2+2+%+1+H.}+I._+@ _ @   . .     . . . .                 . . ",
"                    .         . . . . . . . . . . .     .           .                           . . + + + + . @ + . + @ @ ( a K 2 E k x H k S O ` 3 2 2 w x z p ~.z n ,.,.z ,.z ,.z z z z z A n n z ,.,.z ,.,.,.z /.z ,.,.A A A L a.8.9.9.8.a.m m m !.!.!.L {.1., 0+J.E.E.J.`.A.F.m.E.J.J.T.J.J.E.E.0+1.L , 9. .;.q m.N.m.m.J.6.6.[.B _.B B r r q r B q ^.l.l.s.J.d.J.J.T.A.B.n.r.w.j.q.8+8+C.@+R.)+7+9+d+e+V.~+!+!+!+*+!+ +~+{+]+9+7+K.@+y.G.D.s.D.l.s.6.6.k.t.r.w.&+C.R.O.%+^+I.1+a+z.z.R.j.Z . : .           . . . .                 + ",
"                    .         . . . . . . . . . . .     .           .                           . . . . . . . + . . . : + Z @.O 3 E &.s H S 3 ` I 3 2 E w x y y z n o A ,.z y z z z z z A A z n A ,.,.!.z z w n n z z !.,./.A _.{. .8.9.9.8.a.m m m m !.~.3.{.3.1.0+J.T.T.`.`.A.F.m.E.J.E.T.J.J.T.J.3.1.{., L , ;.q T.N.N.m.[.5.U.s.U./.D D ' ' ' ' ' r r B U.U.[.6.`.`.J.T.t.f.n.g.h.w.v.w.8+y.&+C.K.)+7+9+>+>+5+*+!+'+~+!+!+5+[+{+>+]+]+]+]+)+&+v.k.l.D.l.d.k.s.E.m.F.g.q.|+|+|+|+y.-+z.z.C./   _ @   .           .                 . . ",
"                              . . . . . . . . . . .     .           .                         . . . . . . . . . . . @ . @ u j } 3 I R k k I ` ` ` 3 3 S w x y o y o D y !.m x z z z z z z A y A A n z !.z 1.3.z ~.n z ,._._.A A ,.s m 9.9.8.a.m m m !.m 1.1.L 3.1.0+J.E.T.`.`.A.m.m.T.E.T.J.J.J.E.`.3.1.L 9.L L ;.' [.6.J.l.l.r o D B ' c c 2.}.}.c c c ! ! ! ! ' p 3.0+`.E.m.F.n.n.o.o.f.v.u.u.8+y.@+R.O.:+7+d+9+P.{+5+[+>+~+~+5+~+5+[+[+d+]+>+d+)+C.y.G.k.0.>.Q 0.J.A.A.G.G.G.w.8+-+|+z.|+}+< + : @   .           .                 . . ",
"                    .         . . . . . . . . . . .     .           .                         . . + . . + + . . + + : . N | f } S F I S S } O O O 3 4 5 x o o n z z y y y z y y x z !.z z z ,.z z y z !.z !.{.m n /.z !._.,.A ,.z y L {.9.8.8.m m m L !.~.L {.{.1.0+J.T.T.`.`.T.m.m.E.E.E.T.J.d.E.J.3.1.L L {.8.;.' 1.' _.6.s.^.].A r ' ' ! c 2.c c 2.2.! r ' r D ,.~.3.3.`.d.m.t.F.f.n.f.n.r.v.j.j.8+&+@+R.R.)+7+9+9+>+{+{+[+V.~+*+~+~+~+{+{+{+e+>+{+]+7+)+R.|+q.r.G.G.G.G.G.v.G.G.v.8+y.|+q.h+: . :                                 . . ",
"                    .         . . . . . . . . . . .     .           .                         . . . . . . . . . + + _   # j | ` S S S &.&.} O ` ` 3 4 S x D o p z w ~.m t m ~.y z ,.!.z ,.,.A n ,.!.x m m !.L m ~.A z z ,.A A _.!.m L {.{.9.8.m m m m m y ~.{.3.1.3.J.T.T.J.J.T.m.m.T.E.E.E.J.J.E.`.0+3.3.L L L t q 3.3.^.].].' ' _.^.^.U.U.U.D.D.S.x.G.l.D.^.D r ! B r q 3.0+d.t.A.F.B.F.o.f.f.o.w.w.y.&+a+@+R.K.K.:+d+7+9+]+{+{+{+5+~+!+[+*+5+5+[+[+{+[+[+{+{+[+]+%+K.a+y.x.S.G.S.S.S.S.u.S./+_ . _ + .                               . ",
"                    .         . . . . . . . . . . .     .             .                     . . . . . . . . . . . @ _ . # 1 j ..S S S &.&.O ` } ` 2 3 S H x y D o ~.1.{.L L m x m z A A ,.,.A A ,.y y w L 1.L L m /.z z A A _.A !.s  .{.9.9.8.m m !.!.z p 1.{.].1.0+E.A.T.J.J.A.F.m.T.E.T.E.E.E.T.`.[.3.L L 1.1.t 1.[.3.A D r D ' ^.D.S.S.G.8+}+1+O.^+7+d+7+)+K.C.G.U.B p ~././.l.6.A.t.B.o.n.B.n.g.v.w.j.q.&+C.@+1+)+%+%+d+d+9+9+]+9+]+[+[+~+!+*+~+~+~+5+5+V.5+V.=+V.V.W.L.2+7+O.R.C.8+e.A.k.h.i + : @ . . . .   . .   .       .         ",
"                    .         . . . . . . . . . . .     .           .                       . . . . . . . . . . . + _ . < J J } S S &.S S O ` ` I 2 3 3 k x z n p p , {.L L m  . .m ,.n A A n n z y m {.L L 8.L A A A A A _._.,.,.y q 9.9.8. .m !.!.,.!.~.1.{.{.1.[.T.A.T.J.`.A.F.m.A.E.T.E.J.E.T.`.3.1.1.L L L 1.!.,.B p ^.S.r.G.y.y.y.y.&+}+I.I.:+6+2+L.L.L.2+L.2+)+|+v.l.5.[./.[.`.A.t.n.B.f.B.B.r.n.u.u.-+|+a+a+}+1+R.K.)+)+7+d+>+{+>+e+5+~+~+*+~+~+~+~+~+*+!+'+'+X.X.X. +.+X.X.V.e+6+^+R.}+4.+ :     +   . .       .     . . .   . . ",
"                    .         . . . . . . . . . .       .           .                       . . . . . . . . . . . + : + g 1 J } S S &.S 3 ` O ` ` 2 S 2 k x y z ~.t  .L 8.8.L  .~.!.,.A A ,.A n z !.w w L !.L !././._._._.A _.,.,.,.s 8.9.9.8.m m !.,.z m m 3.3.1.[.T.m.T.E.J.m.N.m.T.J.T.E.J.T.T.`.3.3.L 1.L L L ].q c [./+Z.Z.z.M.}+M.I.O.M.H.M.:+7+9+2+9+]+]+>+]+{+{+9+H.G.5.U.5.5.6.`.e.F.t.B.B.f.n.u.v.q.q.j.-+|+|+C.R.K.K.)+7+7+9+]+{+{+{+[+[+5+[+5+~+5+=+#+'+'+'+'+'+!+*+*+*+~+~+5+5+ +X.Z./ . ( +   .     . .                   . ",
"                    .         . . . . . . . . . .       .           .                       . . . . . . . . . . . + : . g K 1 } 5 5 &.S 3 ` O O ` 2 S 3 x s y z m y t 8.8.8. . .z A ,._.A ,.A n z L m L L L m z !._._.A A A _.,.,.w ~ ) a.9.9.m m !.!.!.z !.3.3.3.].0.T.T.J.d.m.F.m.T.`.J.T.J.s.0.6._.3.L L !.1.1.t }.q /+/+q.&+|+@+@+I.I.I.O.O.O.)+]+]+>+9+e+>+{+[+{+{+]+W.2+&+S.l.5././.5.s.E.B.B.F.n.n.u.w.w.w.8+q.j.-+&+a+@+O.:+:+d+d+]+]+>+[+P.V.5+V.V.e+>+e+P.W.V.!+!+!+!+!+!+!+*+V.e+5+ +=+h+i   . +   . .         .             . ",
"                    .         . . . . . . . . . . .   . .           .                     . . . . . . . . . . . . @ : + g K 1 } 5 &.&.S 3 ` } O ` 2 S S x s s x x x t 9.9.L m m !.A A A A A y n x z  .m w w m m ,.,._.^.^._._.,.,.x ) ) =.9.L m z z !.!.z L ].{.{.1.0+[.6.6.6.T.m.T.`.6.6.[.[.[.[.3./.3.{.L m m m ) 2.T./+w.-+&+}+H.H.1+H.M.H.M.R.R.L.e+L.P.P.P.{+{+[+[+[+{+]+9+%+C.S.U.U.U.p [.E.B.t.f.r.n.n.v.r.v.v.u.j.j.8+y.C.R.R.K.:+7+d+9+e+e+W.P.W.P.2+d+7+7+%+]+L.P.*+'+'+'+'+!+#+=+*+=+[+5+b+N h   @ + +               . .     . ",
"                    .         . . . . . . . . . . .     .           .                       . . . . . . . . . . . @ : @ ^ 1 1 K S b b S 3 ` } ` I 2 S &.x s y x y y {.{.9.L  .m w w x x z w H x x x m w H w ,.m ,._._._.^._._.,.,.m 8 ) d 8.L m !.z ,.z z L {.{.L 3.].1.3.3.3.6.0.[./././.^.^._._.3.z 1.!.1.t t t ! 2.d.n.p.z.|+1+M.H.1+M.H.1+H.)+^+%+2+2+2+>+V.>+]+[+[+]+{+[+>+{+d+K.y.d.[.l.^.5.[.6.s.A.t.B.t.f.v.u.w.w.8+8+8+-+a+@+@+K.:+7+7+d+2+>+>+P.2+7+)+O.)+)+:+%+9+e+V.!+'+'+ +'+'+'+!+*+5+~+=+++c+_ @ + . . + .           .   . ",
"                    .         . . . . . . . . . . .     .             .                   . . . . . . . . . . . . @ @ : |.1 K K S 6 b S 4 O O ` 2 I S &.w x ,.,.w w L L L L m H H H H H H H H H k k 6 6 6 H ,.z ,._._._.A A _._.].w 8 ) 8 8.9.m y z !.!.m L {.L L 3.{.L ].3.1.~.p A A o ^.^.^.^.B /.~.1.1. .~.q t ;.}.d.p.Z.|+|+z.z.|+-+-+&+|+@+H.:+6+2+9+9+d+d+9+9+>+W.[+[+5+5+[+>+d+e+^+G.D.l.U./.B q 1.[.k.t.t.n.v.u.g.w.w.w.8+y.&+C.R.K.)+)+:+7+7+d+2+%+)+K.R.@+R.O.)+:+d+>+P.V.*+!+'+#+=+~+*+5+V.#+.+$+c+h + + @ : @ . . .   . .   . ",
"                    .         . . . . . . . . . . .     .           .                     . . . .   .     . . . . @ @ ( |.1 K } S 9 b S 3 O O ` 2 I 3 l w x ,.A ,.x t  . .L H w w k k k k k k k k k k 5 b H w z 1._._.A _.,._._.,.s ) ) t 9., m y !.z ,.!.L L L L L L {.{.3.1.!.!.,.,.,.]._.^.^./././.L , L m 1.~.~ 2.s./+q.j.p.-+p.8+h.q.z.|+|+M.)+%+6+9+9+9+9+d+d+]+P.5+5+V.~+5+[+{+]+d+%+}+u.D.l.l.[././.3.s.k.t.r.f.n.n.u.u.v.8+-+-+&+R.R.K.K.K.)+:+:+7+:+K.a+a+C.@+R.K.)+7+d+e+W.V.#+!+=+5+[+[+5+[+[+V.V.Q.c+h @ +   . + . .       . ",
"                    .         . . . . . . . . . .       .           .                     . . . .   .   . . . . + @ + ( a K K } S 9 6 S 2 } O ` 2 I 3 S w s A n z z m {.{.{.L w l l l l l l l S &.k k l &.H A ,./.A _.5.A A ,.,.z s ~ =.a.8. .m m !.,.z m L L L L L {.L {.L L !.!.3.!.A _._._._._.5.1. .L t  .1.1.t }.5.g.w.j.j.q.q.q.q.j.|+|+p.|+@+O.:+%+d+9+>+{+]+>+e+e+>+[+[+V.5+[+[+{+>+{+7+@+G.l.U.U.5._.5.5.6.E.e.t.t.f.n.u.u.q.y.y.a+}+R.H.K.:+:+:+:+:+)+C.&+y.8+y.y.C.R.)+9+>+P.W.V.~+5+>+{+e+[+5+5+*+!+'+b+Z + @   @ .   . . . + ",
"                    .         . . . . . . . . . .       .           .                     . . . . . . . . . . . + : + h [ K K } S 9 9 S 3 } O ` I I 3 S k s D A !.z !.{.L L L !.].,.,.,.,.,.,.,.,.,.w m w x ,.3.~./._._.A A _.,.,.y t 8.a.=.t ~.m ,.!.z !.L L {.L L 9.{.9.{.{.3.!.,._.A _._._._._._./.~. . .L  .1.t c /.f.8+w.j.q.j.j.p.i.h.i.w.q.p.|+}+H.:+7+d+>+>+>+]+>+]+]+>+[+=+~+~+*+=+~+5+]+d+@+x.D.U.U.5.^.B /./.s.e.t.v.u.u.u.8+8+8+&+C.@+K.)+)+:+)+:+)+R.C.y.x.x.x.8+y.}+O.7+9+9+2+e+>+]+>+[+e+[+5+~+5+P.5+b+Z   : @ :   . . . + ",
"                    .         . . . . . . . . . .     . .           .                     . . . . . . . . . . . + : + h [ K K M S C 9 3 3 O O I I I 3 2 S x y ,.,.!.z !.m m !.z ^.n ^.A A ^.^.A n n A !.w ,.,.,.!.!.A _.A _._.,.,.y s 9.8. .L ~.y !.!.!.!.L L L L L L {.{.{.3.,.,.,._./._.5.^.^./././.L ,  . .=.1. .-.' F.j.w.j.8+h.h.h.g.v.h.n.h.j.8+|+z.H.K.)+7+7+d+9+]+>+]+>+>+=+=+=+*+~+*+*+V.{+{+6+M.q.k.D.U.5.o o /.[.6.e.t.f.g.u.w.w.8+&+&+C.H.O.)+O.)+O.H.R.a+8+w.x.G.G.8+C.1+K.)+%+9+d+9+]+e+[+>+{+e+5+5+{+~+b+N @ _ . +     . . ",
"                    .         . . . . . . . .   .       .                                 . . . . . . . . . . . + : . h ).K P M S C 9 3 2 } } 2 2 3 3 ` S H w ,.,.z z !.m m ].,./._._._.^.^._._.A A _.3.{.w z z _.z A /.A ,.A ,.A y s 9.8.8.{.1.~.,.A !.!.L m {.L  .L {.{.].!.z ,._._.5.5.5.5.5.5.5.3.L ,  .t , L {.7 ! A.h.h.w.u.u.w.u.u.v.v.r.f.u.n.g.j.&+@+R.)+:+7+7+d+9+>+]+>+>+[+5+V.~+*+~+*+~+5+{+{+d+O.y.e.l.U.^.5./././.l.k.t.t.u.w.q.y.&+C.@+H.H.O.O.O.O.R.C.-+8+G.G.G.v.y.&+C.1+O.)+)+d+]+9+>+>+>+P.=+~+[+5+*+e+/ @ : . + + + + ",
"                    .         . . . . . . . . . . .     .                                 . . . . . . . . . . . + :   i S K P M S 9 6 S E } } I 2 3 S I &.x z ,.n y !.!.~.!.].,.A ,._._.A _._._._.A ,.w !.w ,.z /.z A A _._.,.,.A y ~ 8 7. .L z z ,.,.,.!.1.L L {.L L L !.,.3.3.[.[.[.[.6.6.l.6.s.6.0+1.,  . . ., {.=.7 s.g.u.g.u.u.v.v.v.v.r.f.f.f.B.t.A.r.g.-+@+R.O.)+:+7+9+9+]+]+]+]+e+5+V.*+*+~+*+*+~+5+>+e+)+&+S.l.l.l.5.p q 1.[.k.t.f.h.q.&+&+C.}+1+O.O.K.H.K.@+&+8+u.x.w.u.u.8+-+a+C.R.K.)+7+:+7+]+>+P.e+5+~+~+[+~+W.N   : + @ + @ ",
"                    .         . . . . . . . .   .     . .                                 . . . . . . . . . . . + : . i 3 K K M &.9 6 S E O } I 2 3 3 3 k x y A A z ,.z t !.3.!.z A A _._._._._.A n !.!.m m w ,.z z z _._._._.A ,.w d ) 8 C {.m n ,.,.,.,.!.L L {.0+3.3.].[.s.d.J.J.E.E.T.T.T.d.T.E.6.3.1.1., 1., 9.9.;.U.B.f.n.n.u.n.f.f.f.o.n.f.r.B.e.e.e.A.e.t.w.a+R.K.)+7+7+7+d+d+d+]+]+>+V.~+~+*+!+!+*+~+[+{+]+:+-+G.k.l.l.3.1.1.6.[.s.A.r.w.j.-+|+@+1+H.H.H.H.R.a+-+j.w.w.w.h.x.8+q.&+a+R.1+K.)+7+d+]+>+]+e+5+~+5+]+ +(+# _ : : @ . ",
"                    .         . . . . . . . . . .       .           .                   . . . . . . . . . . . . + :   i 3 K K ..S 9 b E I } O I 2 2 2 E w x z ,.].!.z z m L m z z _.A A ,._.A _._.A _.L m x m ~.,.A A A A /._._.].w 8 8 8 8.{.m A !.,.!.,.3.L 1.3.3.].6.0.J.T.T.A.m.A.m.m.m.A.k.A.E.`.3.3.1.1., , 9.L ~ q E.n.f.r.g.n.f.r.f.r.B.t.t.t.r.F.B.n.B.t.u.w.8+&+@+O.)+)+7+d+d+9+]+]+>+e+[+~+*+*+~+~+*+~+[+[+]+:+&+t.D.U.5.3.3.1.1.U.D.e.v.w.q.|+|+}+}+@+}+C.&+-+j.u.u.v.u.u.w.q.-+|+C.}+}+R.O.)+7+9+>+L.e+5+V.>+>+5+1+^ h : : . ",
"                    .         . . . . . . . . . .       .           .                   . . . . . . . . . . . . + :   i 3 } } ` S 6 b 3 I } } 2 2 3 I E H w ,.,.!.!.~.1.L L m !.!.A _.A _._._._.A /.!.{.m L m m m A /.,._.A _._.].H 8 8 d 8.L m z A _.3.,.3.{.1.3.3.6.0.d.T.T.T.m.m.m.m.B.B.t.e.A.E.`.3.3.L L L 8.8., =.;.`.B.A.B.F.t.A.A.t.t.A.t.t.t.t.B.o.n.n.n.n.n.f.u.8+&+}+K.)+:+7+6+d+d+9+]+]+]+e+~+!+~+~+*+*+*+~+{+P.:+y.k.U.U.U.3.1.1.5.6.e.r.u.j.q.&+&+&+&+q.&+-+j.v.v.r.f.v.w.q.q.-+p.C.z.z.@+R.K.)+9+2+>+]+]+]+9+7+V.8+/   _ : ",
"                    .         . . . . . . . . . .     . .                                 . . . . . . . . . . . @ _   Z 2 } K ` S 6 &.S E } ] I I 3 I S s p y n ~. .L L L L 1.1.z A A ,.,._._.,.A n 3.9., L {.L ~.A /.z _._._._.w x 8 ) 8 C 8.m !.,.,._.3.].3.L 3.0.J.T.T.T.E.E.m.m.m.m.B.F.B.A.A.E.0.3.1.1.{.L L L  . .=.3.E.E.A.e.d.d.E.s.k.k.E.T.A.e.E.B.B.B.B.t.f.n.u.u.w.j.&+C.R.K.7+7+7+d+d+9+]+]+]+[+=+~+!+*+!+!+*+=+{+2+O.w.k.l.U.5.3.1.0+s.k.t.u.h.h.j.q.j.j.p.p.j.v.o.n.r.f.v.g.j.j.8+-+&+&+|+C.C.C.@+K.)+)+)+O.:+:+K.z.^ : : _ ",
"                    .         . . . . . . . .   .     . .                       . .     . . . . . . . . . . . . @ :   Z 2 O P R k 9 &.F I ] } I I 3 3 S x q y z ~. .L a., L L  .p A A A ,._.A _.A z L L L L L L z z z z n _._.,.A x 8 ) ) d x m z A !.A ].].!.1.{.J.B.m.m.m.T.T.m.F.m.m.B.B.B.t.m.T.`.[.3.3.{.{.L {.L  .t t 3.6.[.s.l.U.6.[.5.l.s.d.6.s.s.6.6.s.k.A.t.B.r.r.r.g.j.y.&+z.1+O.)+:+7+d+9+9+]+{+{+{+5+*+!+!+!+*+~+[+~+d+R.x.k.l.U.U.[.U.5.[.k.e.e.t.n.o.o.h.i.h.o.o.n.f.n.n.o.g.g.8+j.j.j.q.q.-+&+-+&+C.a+|+-+&+a+y.q.G ( @ _ ",
"                    .         . . . . . . . . . .     . .                               . . . . . . . . . . . . + _   Z @.O P R x C k E } ] } ` I S S S x y ,.!.m L L a.9.8., m ~.z ,.z _._.A _.n ~.!.{.9. . .L m !.!.~.A A ,._.A m  .~ 7 ) d x z _._._._.3.!.1.{.T.B.B.B.m.m.T.m.F.B.B.F.F.B.B.m.T.d.6.3.3.{.9.L L L  .1.t p 3.3.5.5.^.B 5.5.^.^.5.^.^.^.^.^.B l.d.d.E.E.A.A.t.n.v.w.q.-+C.@+R.O.:+%+9+d+9+]+]+]+{+~+'+*+*+'+!+~+[+d+7+a+G.D.l.U.5.B B B q q 5.s.d.e.A.t.B.B.o.o.n.n.n.n.n.o.g.g.w.w.h.h.8+q.y.j.-+q.8+u.v.w.g.v.f+( @ _ ",
"                    .         . . . . . . . . . .     . .           .                   . . . . . . . . . . . . @ _   Z @.O P F s s H F M K K I ` 3 E 3 y o !.!. . .L L 9.9. . .~.,._.A ,._._.,.,.n L 9.L L L L 1.!.z z A ,.,.,.A z {.9.=.7 ) t A _.,._.A 3.3.3.3.J.F.B.B.B.m.A.m.F.B.B.B.B.B.B.t.E.s.[.3.1.L L L L  .L L t p A /.o ^.A A /.^.A ^.^.^./.B B ^.B ^.6.6.[.[.[.U.D.k.A.t.v.v.w.-+a+@+@+)+:+:+d+d+9+]+]+9+e+~+*+!+!+!+!+*+5+>+:+}+8+S.k.D.l.U.^.B B B B 5.5.U.[.d.e.B.B.B.B.B.F.F.f.n.n.n.u.u.w.h.q.j.8+w.x.t.k.D.d.e.G ( @ : ",
"                    .         . . . . . . . . . .     . .   .       .     .             . . . . . . . . . . . . @ _   Z @.O K '.x x w F M } K ` ` I E F z o ~.m m m L L 8.9.L  .z z _._._._._.,.A y {.L , L L !.m 1.1.1.z A ,.,.~.~.L 9.a.;.~ t y A _._._.].3.3.3.`.B.B.m.B.m.T.m.F.B.B.B.F.B.B.t.E.s.6.[.3.L L L {.1.L L t q z /.o D B B B A ^.B ^.^.^.^.^.^.^.5.[.[.[.[.U.l.d.k.e.t.A.r.n.u.8+-+&+C.R.K.:+7+%+d+d+2+]+{+{+5+*+!+'+'+!+*+5+{+:+K.a+y.G.S.D.l.l.5.^.^.^.^.B B 5.U.6.s.E.e.A.A.A.B.B.B.f.f.n.g.o.g.r.B.A.k.`.[.[./.a ( : : ",
"                    .         . . . . . . . . . .     . .     .     .     .             . . . . . . . . . . . . + _   Z @.O K R H x w E } } } ` ` I 3 F w n z !.L L m L  .L L  .z n _._._._._._.A n {.9.L L  .m m !.1.z z A ,.,.z t  .9. .9.9. .y A _._.A !.3.3.3.`.m.B.m.B.m.A.m.F.F.B.F.F.f.B.t.E.d.6.3.!.L L L L L L L ~.r y o n D D o B B D B o o ^./.A ^.^.^.o /./.[.6.k.t.t.t.f.B.r.n.u.u.w.w.j.&+C.@+R.)+%+:+%+9+9+]+>+>+V.!+'+!+!+*+*+=+[+>+d+K.a+y.x.S.S.D.D.l.l.l.l.l.5.^./.1.1.3.0+6.`.T.A.B.B.B.t.A.A.t.e.s.6.0.3.~.q a _ : : ",
"                    .         . . . . . . . . . .     . .   .       .                   . . . . . . . . . . + . + :   Z @.` K R x x w F K K } I ` I S 3 w n !.!.m  . . .8.L  .m !.A A _._._._._.A z {.L L L L L !.!.!.z _.,.,.!.!.p  .8.8.8.9.L n _.,._./.!.3.3.3.s.B.B.B.B.A.A.B.F.F.F.F.F.f.B.B.e.d.6.[.3.1.L L L L !.L y r D n n o A o n p o /.o B B B /.^.B ^.B /.l.d.E.B.n.n.f.f.v.n.v.u.v.n.r.u.8+y.y.y.C.R.R.O.:+d+9+]+e+>+]+>+5+*+'+ +'+!+!+#+V.e+2+%+H.a+y.y.8+x.x.x.x.S.D.s.U./.q 1.1.3.0+6.`.J.`.d.E.E.E.E.6.3.L t t q a ( _ : ",
"                    .         . . . . . . . . . .     . . .         .                   . . . . . . . . . . . . @ _   Z O ` K F x x x F } } } I ` 3 S 3 w n ,.!.~. .L  .8.L L m !.,.A _._._._._.n !.{.{.L L L L L !.1.!.A _.,.,.z p m 8.a.a.8.m o _._._.A 3.3.3.3.`.B.F.F.F.m.m.F.F.F.F.B.F.B.B.t.k.s.[.5.!.1.1.L L  .m m ~.q D ,.,.,.A A A A p p p p B /././.U.l.6.s.E.A.t.f.f.f.f.v.r.u.u.u.u.h.u.u.w.x.8+y.-+a+C.@+R.O.%+6+7+d+9+]+]+]+{+e+!+ + + +'+'+ +#+P.2+6+:+K.@+C.&+&+y.8+x.v.A.l.s.l.0+3.1.3.3.6.6.`.J.d.`.6.3.3.q t q a ( _ : ",
"                    .         . . . . . . . . . .     . . . .       .     .             . . . . . . . . . . . . + :   Z O ` M F x x x F } } } ` ` 2 3 E l y p z m m L L 8.8.L L z !._._._._._.,.,.z {.{.L L L L L !.z z A A ,.,.z p L 8.a.a.9.m n ,._._.,.].].3.3.6.m.m.m.m.A.A.B.F.F.F.B.B.F.B.t.E.d.6.3.3.!.!.L L 1.L m m y y A ,.,.A A y z z ~.!.].[.[.6.0.J.J.J.T.A.t.t.r.r.v.v.u.v.r.u.g.h.g.h.u.u.h.8+q.-+-+&+a+a+@+K.O.O.:+7+%+7+d+9+d+9+>+V.=+=+#+#+#+'+#+#+=+W.>+2+7+)+K.@+&+-+x.G.t.D.`.6.5.5.U.U.6.6.s.0.0.0+0+{. .a.=.a ( _ : ",
"                    .         . . . . . . . . . .     . . .   . .   .     .           . . . . . . . . . . . + . @ _   N O I M F x x H F } } } ` I 2 I 2 l ,.y z !.1.1.8.8.8.L L z A _._._._.,.,.,.z L {.L L L L L !.,.A ,.,.,.,.!.~.L 9.a.a.9.L y ,._._._.].].1.3.[.T.T.E.d.d.T.m.F.F.F.B.B.B.B.A.k.s.[.3.].!.!.1.L L L m m !.y y w ,.n o n !.3.!.].0.0.0.>.T.T.T.A.A.m.B.B.r.f.f.n.u.v.n.g.u.u.g.h.g.u.w.8+j.q.q.-+&+a+@+C.@+@+R.K.K.:+:+%+%+d+:+:+9+7+]+W.=+X. + + +.+.+.+ +V.W.e+>+7+:+K.R.a+y.v.S.D.D.l.d.d.s.6.0+1.{.L a.=.=.a ( _ _ ",
"                    .         . . . . . . . .   . .   . .   .   .   .     .             . . . . . . . . . . . . @ _   N I ` M F s s x F } } } I ` 2 I E k ,.].3.!.L L 1. .L L L z ,._._._._._._._.!.{.{.L L L L L !.A A ,.,.,.,.!.t m 9.8.a.8.L z A ,.,.,.3.].1.1.3.s.`.`.d.d.E.m.F.F.F.F.m.m.m.T.s.6.[.].$.3.1.1.L L L L m m s s z y r ~ t  . . . . . .1.3.0+6.0.J.E.A.m.B.F.n.u.u.g.u.u.u.u.u.u.u.g.u.w.w.j.q.j.-+-+&+a+@+R.R.R.R.R.O.)+)+)+O.)+:+7+7+7+7+9+2+W.#+ + +$+ +.+$+.+.+ + + +#+V.e+9+9+K.C.&+8+k.k.D.6.6.3.{.{.8.=.=.a h _ _ ",
"                    .         . . . . . . . . . . .     . .         .                   . . . . . . . . . . . . @ :   / ` ..R F s s C F } } } I ` 2 E E x D y z !.m , L L L L L z ,._._._._._._.,.,.{.{.L L L L !.A ,.,.,.,.,.,.!.m L L 8.8.8.m z _.,._.].].3.1.1././.3.[.[.U.s.m.t.A.A.E.E.d.6.[.A A ,.A ,.!.!.m  . .L L  . .~ ' ~ t  .L L ,  .,  .a.a.,  .a. ., 1.3.0+0.J.T.m.B.n.n.o.u.v.v.v.v.u.u.w.w.8+8+8+u.u.q.y.&+1+H.O.K.R.K.O.K.R.K.K.O.)+)+:+:+%+7+d+d+d+2+P.V.X.'+ + + +.+.+ + +'+!+=+V.e+9+9+7+R.x.e.s.6.[.1., =.=.a.a h _ _ ",
"                    .         . . . . .   . . . .       .   .       .                   . . . . . . . . . . + . @ :   / ` 2 E F x s H F O } } ` ` 3 3 F s r p y !.L  .L L 8.9.L z A _._._._._._.,.A L {.L  .L m z !.,.,.,.A _.,.,.m 8.9.9.8.8.w ,.,.].3.[.3.3.3.!./././.y B q 5.E.A.k.d.s.6.[.U./.D r B o o y y y y z m  . .m ~ ~ s w {.{.{.9.8.8.8.8.a.8.8.a. .1.1.1.~.1.3.3.6.6.A.f.n.n.n.u.v.u.u.g.g.g.w.h.h.h.u.u.w.8+z.H.M.M.H.K.O.K.R.R.R.O.O.O.O.)+O.O.)+:+:+7+2+9+P.V.=+ +.+.+$+$+.+.+.+ +.+!+=+P.5+e+%+H.y.A.s.0+a.=.=.8.a h _ _ ",
"                    .         . . . .     . . . .       . .     . . .                 . . . . . . . . . . . + . @ _   # ..I E F s s H 3 O } } I ` 2 3 F x y ,.y m w  .L 8.8.L L !.A _._._._._.,.,.n 1.{.L  .8.L L m !.,._.A A ,.!.!. .7.8.9.9.w ].,._.3.].3.!.3.1./.,.,.,./.q 5.k.A.k.E.d.d.s.[.3._././._.,.A z !.!.!.!.m x m x t x x L {.9.8.a.a.a.=.=.8.8.a.a., L L L L 1.1.1.1.1.6.d.A.f.n.o.n.o.v.u.g.h.g.w.w.u.u.8+8+-+1+H.M.K.O.O.K.K.K.K.M.O.H.H.H.R.H.H.O.O.K.:+6+9+>+e+=+!+'+ +.+$+$+.+.+$+ +'+*+!+*+~+5+d+R.g.0.3.~.=.9.a h _ _ ",
"                    .         . . . .     . . . .       .   .   . . .                 . . . . . . . . . . . + . + _   # ..I 3 F s C x 3 O } } I ` 2 E E A y ,.z m m L  .8.9.8.m !.,.A ,._._._.,.,.z !.{.9.L L L L m z ,.,.,.,.,.!.w t ) ) d d 7.,._._.3.].3.!.!.!.!.,.,.,.!.o /.d.A.e.d.s.k.d.6.[.[._.A A ,.A n !.!.z !.m s m !.m t  .L 8.8.8.a.a.a.a.a.a.a.a.a.a.8.8. .L 8.L L 1. .L 3.[.s.E.F.F.f.f.f.u.n.n.v.u.u.w.x.8+q.C.R.H.H.K.K.H.O.)+O.O.O.H.M.R.@+C.}+H.M.H.M.:+7+6+9+L.P.P.=+'+ + +.+.+.+.+ +'+!+~+~+W.e+>+)+u.J.3. .L [ h _ _ ",
"                    .         . . . . .   . . . .     . . .   . .   .                 . . . . . . . .   . . + + @ _   < ` I E F s s x F O } } I I 3 S F x y A z m L L 8.8.8.9.L z z _.,.,._._.,.,.z L {.9.8.8.8.L m z ,.,.,.,.,.,.x ~ ) ! c c 8 m ,._.].].3.!.!.!.z 3.,.!.!.~./.s.A.e.k.E.T.T.`.s.[./.o o n n o n y A z ~.p ~.m m m  .8.8.9.9.a.a.a.a.a.a.a.a.a.a.a.a.a.8.a.L 8.a., L 3.3.1.3.6.d.E.r.n.f.f.f.n.g.u.u.w.u.8+q.a+@+1+H.K.R.I.:+O.)+M.M.H.R.@+C.&+a+R.1+C.@+K.)+:+6+2+2+>+e+W.=+!+ + +.+.+.+ +*+*+V.5+W.>+:+j.k.0.1.a h : _ ",
"                    .         . . . . .   . .   . .     .   . .     .                 . . . . . . . . . . . + . @ :   g O ` E F d s x E } K K I I 2 S F w y ~.t m L  .8.9.8.8.L !.,._.,._.,.,.,.,.z L 9.9.8.8.9.8.m !.,.,.,.,.,.,.m t d 8 7 ) 8 x ,.].].].3.!.!.m !.!.!.!.1.p 1.E.t.A.A.e.A.E.d.s.6._./.A A A A n B ~./.~.t !.!.1.t t  ., 8.8.9.8.a.a.a.a.a.a.a.a.a.a.a.8.a.a.8.8.8.8. .L , L 1.1.3.6.J.A.F.F.o.o.o.g.u.w.w.8+y.C.}+R.1+H.O.O.O.O.O.M.H.1+@+@+a+a+C.C.C.a+@+K.)+%+6+9+9+2+>+P.V.V.#+'+'+ + +.+.+'+~+5+V.{+d+C.t.[.a h : _ ",
"                    .         . . . . . . . . . . .     . .                           . . . . . . . . . . . . + + :   g O ` E F s C x F K K } I 2 2 3 3 k x ~.m  .L 8.8.a.8.9.L !.A _.,.,.,.,.,.,.!.L L 9.8.9.9.8.m z ,.,.,.,.A ,.!.m x 8 7 ) 8 x ,.,.].].3.1.!.1.z !.!.m 1.t 1.T.B.m.m.t.t.E.d.`.s.3.B n A A ,.n D o ~.y p z !.~.q ~.L L , 8.9.8.a.a.a.a.a.a.8.a.a.a.a.8.a.a.a.8.a.a.a.a., , 8.8.L , L ].J.T.m.F.N.o.g.u.g.8+j.-+a+C.}+H.H.O.O.K.H.H.H.1+@+@+@+C.C.C.C.C.C.R.O.)+^+6+9+d+9+L.e+P.=+V.#+=+#+'+ +.+ +*+*+=+5+9+C.G.G h : _ ",
"                    .         . . . . .   . . . .       .                             . . . . . . . . . . . + . + _   ^ } ..F F C x x 3 } } } ` 2 3 3 3 k x m L 8.8.8.8.8.9.9.8.!.,._.,._._.,.,.!.!.L 9.9.8.8.9.9.L m z ,.,.,.!.z !.{.L  .7 ! 8 y z !.3.].3.1.m m m !.L L L  .3.A.F.B.B.B.B.A.J.`.`.6.5.o /.A z A n n p o p p p q p t t =.a.9.9.a.8.8.8.a.a.8.a.a.a.a.a.8.8.a.8.9.a.a.a.8.8.a.a.a.L L 1. .1.1.3.6.T.B.n.n.u.h.w.j.-+&+a+}+1+H.H.H.H.R.1+}+}+z.C.a+a+a+a+C.C.@+R.R.O.:+:+:+7+6+2+2+2+e+V.=+=+~+*+ +.+ +*+5+5+>+7+O.f+h : _ ",
"                    .         . . . .     . . . .       . .         .                 . . . . . . . . . + . + . @ _   ^ } ` F F s C x 3 O } } I I 2 3 3 k s  .L 8.a.a.8.8.8.8.8.m !.,._.,.,.,.,.!.L L 8.9.8.8.8.8.L L !.,.,.,.,.z !.{.L L a.=.t  .~.!.3.].3.1.1.1.1.L L L L  .0+m.F.F.B.B.F.m.E.d.J.`.J.6.B /._././.,.A ~.~.~.p q p t t ~ ;.;.L 9.8.8.9.9.8.a.a.a.a.a.a.a.a.a.a.a.a.a.=.8.8.8.a.a., 9.8. . .L L ,  .0+0+0.J.t.t.t.g.j.q.&+z.}+1+H.}+1+}+1+}+z.z.|+|+|+|+a+a+a+}+H.R.O.)+K.)+7+%+7+:+d+9+>+P.5+~+*+'+'+*+[+{+e+]+d+h+h _ _ ",
"                    .         . . . .     . . . .       .   .       .                     . . . . + + + + + + . . _   ^ } I E F s C H 3 O } } ` I 3 3 &.x s  .8.8.8.a.8.8.9.9.9.L !.!.,.,.,.,.,.!.{.L 8.8.9.8.8.8.8.L m z !.,.,.z ~.L L L 9.{.{.L m !.3.].L 1.1.1.1. .L L ,  .0+m.F.B.B.F.F.m.T.d.d.d.T.J.6.3.5.3._.3.1.z 1.o ~.q q !.!.~ -.-.-.~ L ,  .9.9.9.a.a.a.a.a.a.=.a.a.a.a.a.a.8.8.8.a.a.8.8.a., 8.L L  . . .t t m _.3.5.[.s.A.t.f.n.u.i.p.p.|+|+|+-+&+-+&+-+-+&+&+y.a+@+1+K.K.O.)+O.O.)+)+)+:+7+d+]+e+P.V.=+=+5+{+>+>+d+g+h : _ ",
"                    .         . . . . .   . . . .     . . .         .                   . . . + + + + . + + @ + @ _   ^ K I I &.d C H 3 } } ` I 2 3 S k s s L 9.8.8.a.8.9.9.9.9.L !.!.,.,.,.,.A !.{.{.9.9.8.8.8.8.8.9.m m z ,.,.!.m m L L 8.{.{.{.m !.].].L 1. .L L  .L 9.L , 0+m.F.F.F.F.F.m.A.E.d.E.J.J.`.0.[.3.3.3.3.!.~.p p q p !.!.t 7 ! -.}.) =. .9.9.9.8.8.8.a.a.a.a.a.a.a.a.a.a.a.8.8.8.8.8.8.8., , 8.a.L L L !.z !.r r B ^./.5.[.U.U.l.s.k.e.r.G.u.w.w.j.q.j.y.-+-+y.y.-+}+R.H.H.K.K.H.K.K.K.K.K.)+)+)+7+9+L.V.5+5+{+d+d+g+h : _ ",
"                    .         . .   . .   . .   . .     .     .           .               . . + + . + . + . + . + _   ^ } ` I l d 9 H 3 } } ` I 2 3 S k x s L 9.9.8.a.8.8.9.9.9.1.z ,.,.,.,.,.A ,.{.L L 9.9.8.8.8.8.9.m m !.!.!.m !.m  .L 8.8.8.8.m !.3.].L m L L L  .L 9.L  .0+m.F.F.F.F.F.m.T.E.T.T.E.J.`.`.6.[.0+3.3.!.!.z ~.q p ~.t t ) -.-.c 2.-.) , 9.a.a.a.8.8. .=.a. .=. .a.a.a.a.a.a.a.8.8.8.8.a.8.8.8.L L L L !.!.m z !.A _._.5.3.[.[.s.s.s.k.A.B.v.v.u.w.8+8+q.p.j.-+q.&+}+C.1+K.R.H.H.R.R.R.K.H.K.K.)+)+:+2+{+e+>+7+)+h+h : _ ",
"                    .         . . . . .   . . .         . .                             . . . + + . + + + . . . @ @ @ |.} I I F C 9 k 3 } } ` 2 2 3 S k x s  .8.8.8.a.8.9.9.9.L m !.,.A ,.,.,.,.,.!.L L 9.9.8.8.8.8.8.L L !.!.!.!.!.m  .L L 8.8.L L L {.{.L L L L L  .9.9.8.=.0+m.F.F.F.F.F.m.T.E.T.E.E.E.E.`.`.6.3.3.!.!.,.z ~.z ~.~.~.t ! }.! c c }.}.! =., , , 8.9.8. .a.a. .a.a.a.a.a.a.a.8.8.a.8.8.8.8.L L L L {.!.!.!.!.m !.!.!.3._.3.].[.[.[.l.D.A.t.n.u.g.h.j.8+j.i.8+j.q.p.&+&+@+}+@+1+1+R.H.H.H.H.H.O.R.R.K.O.)+7+:+K.@+h+h : _ ",
"                    .         . . . .     . .   .       .                               . . . + + + + . @ + . + @ : _ |.} I I S d 9 k E ] } ` 2 2 2 S k x s t 8.a.8.a.9.9.L 9.L z ,._._._._._.,.,.!.L L {.9.9.9.8.8.L  .L m L w !.w m  .m {.9.L L L {.{.{.L L L L L 8.9.9.8.a.0+m.F.F.F.F.F.m.T.E.E.J.E.T.A.k.s.6.[.3.m !.z ~.~.z z z y p ) }.-.c c c c c c ;.8.9., 8.L L L a.a.8.a.a.a.a.a.8.8.a.a.a.8.a.8.8.L L {.!.!.L L !.L !.!.3.{.{.].3.[.[.U.d.d.r.o.o.o.g.h.i.h.g.w.w.w.j.q.y.|+|+C.}+1+@+@+H.H.R.1+1+H.R.@+R.@+@+C.C.&+C.h+h : _ ",
"                    .         . . . .     . . .         . .                               . . . + . . . + . . + : + Z @.M 2 E &.8 C 6 2 } } ` 2 2 3 S k x r ' =.8., 9.L L 9.L L z A _.,.,._._._.,.,.!.m L 9.9.9.8.8. .m m L L !.z m m t m L L 8.8.{.{.{.{.L L L L L a.8.9.8.a.0+m.n.F.F.F.F.m.T.E.J.J.E.e.A.E.d.6.[.3.z z !.z !.!.z ~.o z m ~ -.c }.c -.-.}.}.-.;.a. .L L 9.8.8.a.a.a.a.a.a.a.a.a.a.a.a.a.a. .m m m m !.L m !.!.!.!.,.,.].].3.3.[.[.d.E.f.n.o.o.h.h.h.h.h.w.h.w.h.j.q.-+|+C.C.z.}+@+R.R.R.R.R.H.@+C.C.@+C.a+&+y.|+f+h : _ ",
"                    .         . .   . .   . . . .       .                             . . . . . . . . . . . . @ . @ u e ..E R M 6 9 S ` } } 2 I 3 3 S k x r ! ! a.L 9.L L L !.!.A _._.,._._._._._.A z z L L L 9.8.L  . .L L !.!.m m m  . .L 8.8.8.L {.{.].L L 8.8.8.8.8.9.8., 0+m.n.F.F.F.F.m.A.E.E.`.E.l.D.k.s.l.U.3./.z !.!.,.A n z o ~.L w s t ) }.}.-.}.-.}.}.-.~ t  .L 8.a. .a.8.a.a.a.8.a.a.a.a.a.a. . . . .m m m m m !.,.!.z x !.].,.].].3.s.k.e.n.n.g.u.g.h.o.o.g.g.g.w.j.8+q.q.-+&+|+|+}+@+R.R.R.R.H.H.@+a+C.a+C.|+&+y.-+f+h : : ",
"                    .         . . . .     . . .   .     .                             . . . + + . . + . . + + : . N f e ` 3 F ..S S 3 ` K } 2 3 3 S &.k H r ! ! ~ 1.1.!.z z A _.A _._._._._._._._._.z z !.z 1.L L L L m L L m m m L m  .L L L a. .m {.{.{.L L 8.9.8.a.8.9.8., 6.m.n.F.F.N.F.B.A.T.J.d.d.A.f.l.k.l.U.3.p !.3.!.].!.z ~.p ~.~.t y !.~.) }.}.}.}.c c }.}.c 8 C x  .8.8.8.8.8.8.8.a.a.8.a.a.a.a. .8. . .m m ~.z z z m z z m !.,.].3.[.J.A.e.B.o.u.u.h.h.g.n.n.n.o.g.j.j.q.q.y.q.&+&+|+z.}+}+}+1+R.1+@+a+&+&+&+&+q.8+8+f+h : _ ",
"                              . .   . .   . .   . .     .     .                           . . . . . + . . + @ :   # | f E S 3 E &.5 2 O K O 2 3 S S &.k w s ! ! ~ m !.z A z _.A !._._._._._._._._.A A !.!.m m L L L L L m L L m L L L L {.L L 8. .m {.].{.L 8.L 9.8.8.8.9.9., 6.m.n.F.N.F.N.B.A.E.`.s.l.t.I.z.x.S.s.5.n !.].].].].3.!.p p p p p y ,.y ! }.}.c }.}.c c }.2.! ~ L 8.8.8.8.8.a.8.a.a.a.a.a.a. . . . . . .m m z !.z z z m w !.3.!.[.T.m.F.n.r.u.g.g.h.w.g.o.u.g.g.u.w.j.j.8+8+j.q.-+&+|+|+z.z.}+}+}+C.|+-+-+q.q.w.x.8+f+i : _ ",
"                              . . . .     . . .           .                           . . . . . .   . . . + @ _ . # V | 3 S E S &.b 2 O } ` 2 3 S S &.w w s c ! t 1.z !.!./.A !.!._._._._._._._._.,.A !.!.m L m m m  . .m L L m L L L L L 9.9.8. .m w ].{.L 8.8.9.8.8.8.9.9., 6.m.n.n.N.N.F.F.m.J.5.5./.D.Y.Y.R.|+S.U._.!.!.!.3.].3.,.z !.o p y y s s s ! }.}.}.c c c c }.2.c )  .=.a.8.8.8.a.8.8.8.a.a.a. . . . . . .m x m m m m m !.m !.{.~.6.A.F.g.i.w.h.h.u.u.h.g.o.o.g.w.w.h.w.h.q.j.j.q.-+&+&+-+|+|+z.z.z.a+|+-+-+j.j.u.v.u.G h : _ ",
"                              . .   .       .   .       .                             . . . . . . . . . . . + _   < | | I 3 2 S S 5 2 O } O 2 3 S S &.k x r c ! t 1.~.!.!.,.n !.,._._._._._._._._.A A ,.!.!.m m m  .m  . . . .m m L L L L L 8.L m x L {.].L 8.8., 8.8.8.9.9., 0.m.n.f.N.N.F.F.m.6.q ~.q N.i+++Y.,+w.k.U./.q q !.,.3.3././.n p q r r r y s ! -.}.c c c c c c c }.! ~ =., 8.8.8.8.8.a.a.a.a. . . . .m  . . . .m m m m m m m  .t 3.J.F.g.g.i.i.i.j.g.n.o.n.n.n.h.w.g.u.w.j.h.h.j.j.y.q.-+-+|+|+z.|+&+-+q.j.j.h.r.G.t.G h : : ",
"                              . . . .     . . .         . .                         . . . . . . . . . . . . + : . < | j ` 3 3 &.5 4 I } } ` 3 5 b &.k k x ' c ! ~ ~.~.~.!.z A ,.z _.A A _._.A _._.A A !.!.!.L m m m  . . .m  .m  .L L L L {.L 8. .t m {.{.L 8.8.8.8.a.8.9.9., 0.m.n.n.N.N.F.F.m.6.q !.q /+j+;+++I.|+f.k.U.^.A ,._.[.[._._._./.n q r s y r ) ) ! c c c c c c c c }.c ) =.a.8.a.a.8.8.8. .t  .t  . . .m  . . . . .m m m  .L 1. . .0+T.F.n.g.h.i./+i.g.n.n.n.o.f.v.u.n.u.u.u.u.w.w.8+j.j.-+|+|+|+&+&+-+j.8+w.n.r.S.A.G h _ : ",
"                              . .   . .     . . .       .                           . . . . . . .   . . . . + : . g j | I 5 S S 5 5 I O } I 3 4 b &.&.k x r c ! ~ ~./.z !.z /.z A _.A _.A ,._.,.,.,.A !.!.!.m x m  .m m  .m L L L L {.{.L {.9.L x x m {.{.8.8.8.9.8.8.8.9.9.9.0.m.F.F.N.F.F.F.m.5.' A 6.Z.i+++++Y.M.8+G.e.l.[.[._.U.[.3.3._._._.A p D z s ) ) ! }.c c c c -.}.}.c 2.c -.;.=., a.=.a.a.a.a. .8.a. . . . . . .L  .L L  .L L 1.1.L L 3.6.s.s.E.A.m.m.f.n.n.n.f.o.f.n.f.f.u.u.v.u.u.g.8+8+q.|+z.|+&+-+q.w.u.n.f.r.e.t.G h : : ",
"                              . . . .     . . .   .   . . .         .               . . . . . . . . . . . + @ : . g j j I b S S S 5 I O } I 3 S 5 &.&.k x ' ! c ~ ~.z z !.A !.z z z A A A A A A A ,.z !.!.m m m m m x  .m m L L {.{.{.{.{.{.L L t t m {.{.8.8.8.9.8.8.8.9.9.9.0.m.F.n.N.F.F.F.m.5.r 3.U.Z.j+j+i+++3+,+q.v.e.s.l.U.5.5._.3._.5.3.,.A n n y p ' ) c c c c c c }.}.}.c c c }.7 =., , a.a.a.8.8.8.a.a.L  . .8.8. .8.L 8.L L  .1.L 1.1.~.q r q q t 5.l.s.E.A.r.f.n.f.f.n.f.n.n.n.f.f.r.u.j.p.&+z.|+&+q.i.v.f.n.B.t.e.t.G h : : ",
"                              . .   . .   . .   . . . . .     .     .               . . . . . . .   . . . . @ : + ^ j J ` &.5 S 3 3 I } } ` 3 S 5 &.k k x ' c c ~ t o !.!.!._._./.z A A A A A A ,.A A z !.m m m  .x x x m m m  .w l Q F l Q k  .t s x m L 9.9.8.9.9.8.8.9.9.9.0.m.F.F.N.N.N.F.m._.r _.5.k+l+m+l+j+++(+}+-+v.e.s.l.[.U.[.[.3.3.[.,._._.n o A o q ) c 2.}.c c c c }.c c }.c c -.7 ;.a.8.9.8.8.9.a.a.a.a.a.8.8.8.L  .8.8.a.L  ., L L 1.L L  .1.3.3.[.`.E.E.A.A.A.t.B.f.f.n.n.o.n.r.f.u.j.-+&+a+&+q.q.h.v.B.f.F.A.k.A.G h : : ",
"                              . . . .       . .         . .                         . . . . . . .   . . . . @ @ @ |.J J ` &.b &.S 3 I } } ` 3 S 5 &.k k x r c c ~ x o ~.z !.,._.1.A !.z z A A A A ,.A z z z m m x x x m m m x w F j J U R P Q w s t x  .L 9.9.8.9.9.8.8.9.9., 0.m.F.N.N.N.N.F.T.D ! D ^.k+l+m+m+j+++3+I.H.C.v.e.s.s.[.[.[.[.[.3.[.5._._.A ,.n _.A r ! }.c }.c c c c }.}.c }.}.2.}.7 ;.7.8.a.a.8.8.8.a.8.8.a.8.8.8.8.8.8., a.8. . .L {.{.{.{.L 3.6.T.T.T.E.`.d.d.E.T.e.A.t.e.t.t.F.g.i.-+&+|+&+p.i.o.t.t.f.f.e.k.t.G h : _ ",
"                              . . . .     . . . .       .                           . . . .   . .   . . . + @ @ : |.1 1 E &.b b S 3 2 } } ` 3 S &.k k k x ' c c ~ x z ~.~.!.!.A /._._._.A A _.A A z A !.~.z ~.m m  .m x w k H l J * $ 0 V | K k x ~ x t 8.8.8.9.9.9.8.8.9.9., 0.m.F.N.N.N.F.m.T.' c r _.k+j+n+m+l+i+Y.3+I.M.C.w.G.D.s.[.5.3.[.[.[.U.[.3._._.y p ~.n p ' c }.}.c }.}.}.}.}.c c c c }.}.}.! ~  .9.a.=.8.9.9.a.a.9.8.8.8.8.8., L a. .8.8., , {.{.m `.A.T.T.T.d.d.s.J.J.d.s.s.s.l.d.A.o.j.-+-+p.q.i.N.t.k.e.t.r.A.e.t.G h : : ",
"                              . . . .     . . .       . . .       . .               . . . . . . .   . . . + @ @ _ a 1 K 2 5 S &.S 2 I O O I S 5 &.k k w s ' c c ~ x z z m !.!.!.~.z !.A z z n z A A z z ~.~.m  . .t x t s x d k e W T * $ - 1 6 C ~ t =.a.8.8.8.9.8.8.8.9.9., 0.m.N.N.N.N.F.m.T.' c r ].k+j+n+n+l+j+i+Y.(+)+K.C.j.t.s.6.[.[.[.[.[.[.[.[._.A A o ~.p ~.z ) }.}.c }.}.c c c c c c c c c c 2.}.! =., a.8.8.9.9.8.a.8.8.a.8. . ., 8.a.8.8.a.8.{.{.L 0+s.`.A.J.s.s.E.E.d.k.d.s.6.s.d.T.N.8+j.h.i.h.g.B.e.d.T.f.r.A.e.A.G h : : ",
"                              . . . . .     . . .     . .         . .               . . . . . . . . . . . + : + ( [ 1 K I 5 b &.S 2 ` O O I S S &.k k w x ' c c ~ m !.m 1.z !.!.!.z 1.!.1.z z n n z z z z m m m  . . .t ~ ) ) k & #.+.% = = J k 7.;.t ~ a.8.8.9.8.8.a.a.9.9., 6.m.n.n.N.N.F.m.E.' c ' ].k+j+n+n+l+<+;+++3+7+:+R.a+q.t.s.l.[.[.[.[.[.[.[._._._./.p o o y ~ c }.c c }.c c c c }.c c c c c c }.2.2.) a.a.a.9.8.9.9.8.a.a.8.a. .a. .L a.a. ., L {.{.{.1.[.`.6.].3.[.[.6.6.0.s.6.d.E.t.n.u.w.h.n.B.t.A.J.s.A.f.B.A.e.t.G h : : ",
"                              . . . .     . . .       . . .       . .               . . . . . . . . . . . + : + h [ K K E b 6 b S 2 O O O I S S &.&.&.w x ' c c ~ L !.m m z z !.!.!.!.!.!.z z z z ~.!.z m  .m m m  .~ ;.! ) d F % b.%.X Y Y f 6 7.7.=.=.8.8.8.8.8.8.a.a.9.9., 6.m.F.n.N.N.F.m.J.' c ' ].k+j+n+n+l+<+;+++3+d+2+%+R.a+j.t.s.[.[.[.[.[.[.[.3.[.3.,.o o o p y ~ c c c }.c c c c }.}.c c }.c c c c c }.}.! ) a.0+9.9.9.8.8.8.8.L L , , a., ,  .1.{.{.{.0+[.3.!.3.L m !.!.].[.6.0.E.m.F.F.r.r.A.m.T.J.s.0+6.e.r.f.A.e.A.G h : : ",
"                          .   . . . . .   . .   . . . . .           .               . . . . . .     . . . + : . h [ K P S 6 5 S 3 I O O O I S S 5 &.&.w x ' c c ~ m m t m L m z !.!.!.z z z z ~.z z z z ~. . . . .t 7 -.7 ) d 5 T o+:.%.+.+.- b ;.7.;.=.8.a.a.8.8.8.a.a.8.9., 6.m.n.n.N.N.F.m.J.' c ' ].k+j+n+n+l+<+;+++2+]+e+2+:+R.-+f.k.[.[.3.3.[.[.[.3.].3.3.!.~.~.~.y w ' c ! c 2.c c }.}.}.}.}.}.}.}.}.}.c c c c }.-.=.9.8.a.{.{.{.{.L 8.L 8. . .L L 1.L L {.].!.!.{.].L ,.[.3.3.[.].6.J.m.F.F.F.k.E.T.> > 0.[.[.k.B.n.A.k.T.a h : : ",
"                              . . .         . .         . .                         . . . . . .     . . . + :   h @.K M l C 6 &.E ` O O O I 3 S 5 &.&.k x ' c c ~ m m  .m m m z z z z z z ~.A z z !.m y m  .L L a.~ -.-.) ) 8 I X p+q+b.%.%.= 2 ;.7 7 =.9.a.a.8.8.8.a.a.9.9., 0+m.N.n.N.N.F.m.J.r c ' ].k+j+n+n+l+<+;+++2+d+L.P.>+:+&+u.G.J.].3./._._.3.[.[.[._._.z !.z z !.s c c c 2.c c }.}.}.}.}.}.}.}.}.}.}.c c c -.}.2.7 7.;.=.9.{.H {., 8.a. . .8.8.L ,  .L  .m L L L L 3.].].[.].[.6.0.J.T.m.T.T.J.T.> >.0.0.6.k.o.n.A.E.A.a h : : ",
"                              . . . .       .           .           .               . . . . . . . . . . . + : . i @.K M l d C 6 S I O O O I 3 S 5 &.&.w x ' c c ~ m 1.m L !.1.!.m z z n z z n n z z z z !.m m L 8.d -.}.! d C M %.r+r+p+b.(.Y J ;.7 7 ;.9.a.a.8.8.8.a.8.8.9., 0.F.o.o.N.N.F.m.E.r c ' [.k+i+n+n+l+<+;+++L.d+L.Q.=+2+O.|+u.T.6././././._.[.[.[.3.3.,.,.,.!.m x ~ ! ! c c }.}.}.}.}.}.}.}.}.}.}.c }.c c c c c c c ) ' ! 7 8 !.9.a.a., 8.8.8. .8. .8. .L m 8.a.L L L 3.3.[.6.0.0.`.`.`.J.T.> > > 0.].].6.E.n.B.t.T.B.a h : : ",
"                              . . .   .   . . . .   . . . .       . .               . . . . . . . . . + . + : . i @.K M l s C 6 S I ..O ` I 3 S 5 &.k H x ' c c ~ m m m 1.1.!.m m !.z z z z A A A ~.z !.m  . . .H d -.}.! C C R b.s+t+t+p+o+W | 7.7 -.;.a.a.a.a.8.8.a.a., , , 6.F.o.o.N.N.F.m.T.r c ! [.k+i+n+n+l+<+;+++L.9+2+#+'+V.2+O.&+m.'.].3._._._._.5.[.].3._._.,.3.z p m t ~ ) c 2.}.}.}.}.}.}.}.}.}.}.}.c }.}.c c c c c c ! ' ~ ' r 9.9., a.8.a. .L L 8.8.L m  .8.8.a.8.8.L L 3.$.0.0.>.0.J.m.m.> >.> >.{.3.`.e.m.B.t.t.E.a h : : ",
"                    .     .   . . . .     . . . . . . . . .       . .             . . . . . . . . . . + + + :   i @.} ` k s H k 3 O ` ..` I S S &.&.k H x ' c c ~  .t ~.1.1.z !.!.z z A A A A A z !.z z m t  .t H d c }.! s d F <.t+t+u+r+q++.0 9 -.-.7.8.a.a.8.8.8.a.a., , , 6.F.g.o.N.N.N.m.T.D c ! [.k+i+n+n+l+<+;+++L.d+2+X. +#+W.9+1+i.A.l.[._._././._._._.3.3._.!.n ~.~. .m m t ) }.2.}.}.}.}.}.}.}.}.}.}.}.c }.}.c c c ! c c c ~ t  .a.9.8.a.a.a.a.8. .a.8.8.L 8. .8.8.8.8.{.{.{.{.].].$.0.> > > 0.$.$.]./.0.B.t.F.B.A.e.A.a h : : ",
"                    .       . . . . .     . . .   . . . .         . .   . .       . . . . . . . . . . + + + :   Z @.} M l s x 6 F O O ` O I 3 5 &.b k H x ' c c ;.t t ~.1.!.1.z !.z z A A _.A A ~.z y z m  .m  .C d c 2.c s d J v+w+w+x+s+y+(.= 4 -.}.;.8.a.a.8.8.a.a.a., , , 6.F.g.g.N.N.N.m.T.D c ' [.Z.i+n+n+l+<+;+++L.d+9+X..+!+=+e+^+|+g.t.s.[.3.A o /.B /.3.,._.z z ~.~.~.1.t t t ~ ! 2.}.}.}.}.}.}.}.}.}.}.}.}.}.c c c ! ! ! -.c.c.~ , =.7.a.a.8.8.8.8. .8. .a.L L a.8.8.a. .L {.{.].{.].].].3.!.1.3.!.3.6.m.F.F.n.t.e.E.B.a h : : ",
"                          . . . . . . . . . .   . . . . .                           . . . . . . . . . . . @ :   Z } O O l s C H S ` ..I ` I S 5 &.&.k H s 8 c c ) t t m m !.z !.z z z A A A A A z ~.z m y x  . .H d c 2.c C 9 j v+w+u+z+t+r+b.% { -.}.7 7.=.a.8.8.a.a.a.a., 3.`.N.h.o.N.N.N.m.T.r 2.! [.Z.A+n+n+l+<+;+++2+d+9+X..+'+#+W.6+1+p.u.T.l.U._._._._.5._.A _.,.!.!.t t t t t t 1.~ }.}.}.}.}.}.}.}.}.}.}.}.}.}.}.}.c.c c }.c ! c }.=.=.=.a.8.8.8.8.8.8.8.8.8.m 9.L a.a.8.L 8. .L 3.!.{.!.1.~.!.3./.3.6.6.A.F.f.f.A.A.e.m.a h : : ",
"                              . . .         . .       . . .         . .           . . . . . . .     . . . @ :   Z } O ` l s s H S O ..I ` I 4 5 5 &.&.w x r c c ~  .t ~.m z z !.!.z z z A A A z z z y ~.y  .m m H d }.2.c d C J p+u+u+z+w+s+<.Y ] 7 2.7 7 ;.=.a.8.a.a.a., , 3.`.F.h.g.N.N.N.F.T.p c ! [.Z.A+n+n+l+<+;+++2+d+9+X..+'+#+V.2+K.|+w.m.k.s.[.[.U.5.[.[._.3.3.3.1.~. .t t t t t t c }.}.}.}.}.}.}.}.}.}.}.}.}.}.}.}.}.}.}.c ! ! c }.! =.a.a.8.9.8.8.a.7.a.8.L 8., , 8.a.8.a. .8.L L L !.!.3.].].3.6.`.T.m.F.t.t.t.A.e.A.a h : : ",
"                          . . . . .         . . .     . .   .     . .             . . . . . . . .   . + . + _   N } ` I l x s 9 3 O O I ` ` 3 4 5 S &.w x r c c ~  .~.~.m ~.z m !.z z A A A z z z y y ~.y y m m H d }.2.2.8 C V y+u+u+z+u+s+o+T | C 2.-.-.;.=.a.8.a.a., , , 3.6.F.h.o.o.N.N.F.T.o c ! [.Z.A+n+n+l+<+;+++9+d+9+X.$+X.#+Q.L.^+@+8+n.r.A.d.U.5.5.5.[.3._._.3.!.1.~. .t t t t  .) 2.}.c }.}.}.}.}.}.}.}.}.}.}.}.}.}.}.c c c c c c c c ;., =.=.a.9., a., , 8.8., 8.8.8.a.8.8. .9.L w m 1.3.$.0.6.0.J.T.F.t.A.m.e.e.E.m.a h : : ",
"                    .         . . . .     . . . . . . . . .       . .           . . . . . . . . . . . + . + _   N O ..R l x s 9 S ..O I ` 2 4 4 5 &.&.H x r c c ) t m 1.m m z z m z z z A A z z z ~.~.y y t m m x ~ }.2.2.d 9 J y+x+u+B+u+t+o+X $ 5 2.-.-.;.a.a.8.a.a., , , 1.`.N.h.g.o.N.N.F.T.p c ) 0.Z.A+n+m+l+<+;+++9+d+6+++$+X.#+Q.L.%+M.a+g.f.A.E.`.6.U.[.[.3.3._.!.3.1.~.~.t t t t m ~ }.}.}.}.}.}.}.}.}.}.}.}.}.}.}.}.}.}.}.c c c }.}.c c c 7 =., a.8.9.9., 8.8.a.a.L 8.8.8.8.8.L L {.m !.3.0+6.0.J.6.E.A.F.F.B.A.E.k.E.J.a h : : ",
"                    .     .   . . . .     . . . . . . . . .       . . .           . . . . . . . . . . + . + :   / O ` E l x s H S I O ..` I 4 5 5 &.k H x r ! c ) t m 1.m z z !.1.z z z z z z z z ~.~.~.~.~.m m x ~ }.2.2.8 9 U y+x+u+B+z+w+:.X * 1 2.7 7 ;.a.a.8.a.a., , , 3.`.N.i.h.g.N.N.F.T.o c ) 0.Z.A+n+m+l+<+;+++9+7+6+++$+'+X.Q.L.6+O.1+p.v.e.e.E.E.6.U.[.[.[.[.3.3.!.~.m ~.t t m m  .! 2.}.}.}.}.}.}.}.}.}.}.}.}.}.}.}.}.c c c c }.2.c c c 2.!  .9.a.8.8.8.8.9.8. . .a.9.8. .8.L L  .t ].J.0.6.`.`.`.E.B.N.F.A.t.e.E.A.J.a h : : ",
"                            . . . .   .   . . .   . . . . . .     . . .         . . . . . . . .   . . + . @ :   / O ..E l s C 9 S ` O ....` 3 S 5 5 &.H x r ! c )  .m z m ~.!.!.z z z z z z z z z m ~.~.~.x x m m d }.2.2.d 6 V y+x+u+B+x+z+p+%.X 0 }.7 7 7 =.a.8.a., 8., , 3.`.N.i.g.o.o.N.F.T./.c ' >./+C+n+m+<+<+;+++9+7+6+++.+'+#+Q.L.6+)+M.z.8+r.A.T.e.E.6.[.[.[.[.3.,.z ~.!.~.q q !.1.L t }.}.}.}.}.2.}.}.}.}.}.}.}.}.}.}.}.}.c c c c }.c c c ! c c ) , 0+8.8.9.8. .a., a.C a. .t 8.L  .{.J.> > J.J.J.0.d.B.N.B.e.m.A.A.A.J.a h : : ",
"                          . . .   . . . . . .   . . . . .     .     .               . . . . . . . . . + . @ :   # O ..E k s C H S ..O O ` I 3 S 5 5 &.x x r ! c ) m !.m 1.m 1.m 1.z z z z z z z m ~.~.p ~.m m m H 8 2.}.2.d C J y+z+u+B+u+B+t+o+%.& 7 7 7 7 =.a.a.a.a., , , 3.`.o.i.g.o.o.N.F.T./.c ) > i.4+n+m+<+;+;+++9+7+6+++ +'+X.Q.L.6+^+M.1+z.j.F.m.e.E.J.`.[.[.3.3.3.p p z p p ~.~.1.L t -.2.}.}.}.}.}.}.}.}.}.}.}.}.}.}.}.}.}.}.}.c }.c c c ! ! ! c ) {.0+, 9.0+9.9.0+{.9.9.9.8.8.{.{.Q > m.m.m.m.m.J.J.m.F.o.B.A.E.t.T.T.a h : : ",
"                                . .         . .       . . .         .               . . . . . .     . + . + _   # O ..E k s x H S ` O O ` I 3 S &.&.k x x d ! c )  .z m m m 1.1.1.m z z z z z ~.m ~.~.~.~.x m m H 8 2.}.c d d U y+x+u+B+z+B+z+q+#.* d -.7 7 =.=.8.a.a.9., , 3.`.o.i.h.g.o.F.F.A.5.! ! > i.4+n+m+<+;+;+++d+7+2+++X.!+#+Q.2+6+:+O.M.1+|+h.A.k.E.d.d.s.[.].3.A p p p ~.~.~.p ~.~.t 7 2.}.}.}.}.}.}.}.}.}.}.}.}.}.}.}.}.}.}.}.}.}.c c c c ! ! ! }.}.~ ~ ;.9.9.9.L 8.a.a.8.Q {.9.{.Q >.> >.0.>.0.0.`.d.B.N.F.A.d.E.T.6.a h : : ",
"                          .   . . .       . . . .   . . .   .       .           . . . . . . . .     . + + + _   < O ..E k x x H S I O } ` ` 3 S &.&.k x x r ! }.) t ~.~.m m !.m m 1.m z z z z z z ~.~.~.~.x m x H 8 2.}.c d d U p+x+u+z+B+B+z+y+#.Y 5 }.7 7 =.=.8.8., 9.9., 3.`.o.i.h.h.g.F.f.e.5.! ! U h.4+n+m+<+;+;+++d+7+2+++X.X.X.Q.2+6+^+O.M.H.}+p.n.e.k.d.d.s.6.6._.o p o p p p ~.q q p L ~ }.}.2.}.}.}.}.}.}.}.}.}.}.}.}.}.}.}.}.}.}.}.c }.c c ! ! -.! ! ! ! c ! ~ =.~ ;.7 7 ) {.{. . . .t q q q r r /.6.`.t.o.B.t.d.k.T.3.a h : : ",
"                    .         . . . .       . .     . . . .       . .           . . . . . . . . . . . + + + :   < } O F k x C k S ` } } O I 3 S &.k k x x r c c ) t ~.~.~.m !.!.1.z z z m z z z z ~.~.y y m m x H 8 2.c c d d P p+u+w+x+z+B+B+D+#.W ] }.7 7 =.=.a.a., 9.9.L 3.`.o.i.j.h.o.F.f.A.3.! ! U ; k+m+l+<+;+;+++7+7+2+Q.X.X.#+Q.2+6+^+M.M.H.1+z./+w.e.d.s.s.0.6.3._.A n ~.p p ~.p q ~.!.t }.}.}.}.}.}.}.}.}.}.}.}.}.}.}.}.}.}.}.}.}.}.}.}.}.c c }.! ) ! 7 8 8 ) ) t 7 ;.t ;.;.~ ~ t =.~ t p n /./.B /.l.A.F.o.F.t.d.E.T.].a h : : ",
"                    .     .   . . . .       . . .   . . . .       . .       .     . . . . . . . . . . + + + :   g } ..F k x H 6 S ` } O ` I 3 S &.&.&.w x r ! c ) ~.z ~.z z z z m ~.z z z z z z ~.~.p p ~.m w x H 8 2.c c d C M v+u+u+z+B+x+x+D+#.X j }.7 7 =.=.a.8., 9., L 0+`.o.i.j.h.o.B.B.A.U.! ) > ; k+j+<+<+;+$+X.d+7+2+Q.X.X.Q.Q.L.6+^+M.M.H.1+}+|+p.g.e.d.s.6.[.[.3.A n n p p o o q q m t 2.}.}.}.}.}.}.}.}.}.}.}.}.}.}.}.}.}.}.}.}.}.}.c c c c 2.! ) ! ! ! ) ) ) t t t 8. .~ ;.' ~ t ].].[.6.s.s.E.e.e.t.f.o.B.e.k.T.T.].a h : : ",
"                    .       .   . .       . .     . . . .           .       .     . . . . . . .   . + + + @ _   ^ } O F w x H H S ..O O ` ` 3 S &.&.&.w x r ! c ) m z ~.~.!.!.~.m 1.z z z z z ~.~.~.~.y y y m x H 8 2.c c d d F <.u+u+z+B+x+z+D++.X 0 -.7 ;.=.=.a.8., , 9.0+0+`.g.i.j.i.g.n.F.A.U.c ~ m.; k+i+<+;+$+$+#+d+d+>+Q.X.X.Q.Q.2+6+I.M.H.1+1+}+|+|+p.w.t.k.s.s.6.[.3._.A n o p o p r ~. .c 2.}.}.}.}.}.}.}.}.}.}.}.}.}.}.}.}.}.}.}.c c c c c c c ' p ~.!.q ! )  .{.0+{.L 8.=.t 3.0.T.T.J.E.T.A.B.F.n.o.f.n.f.t.e.k.A.m.].a h : : ",
"                          . . .     . . . . .   . .                                 . . . . . . . . . + . @ _   ^ K O F k H H H S O ] } O ` 3 S &.&.&.w x r ! c ) x ~.~.1.~.!.z 1.m z z z z ~.z ~.~.~.y y m m x H 8 2.c c d d '.v+u+w+x+z+x+B+r++.X - 7 7 ;.=.=.a.8.a.9.9.0+0+`.h.i.j.i.g.f.F.A.6.! ~ > ; k+i+;+;+;+$+#+7+7+2+Q.X.#+#+Q.2+6+I.M.M.H.H.1+z.z.|+|+j.r.e.s.6.6.[._._././.n o B q m {.! 2.}.}.}.}.}.}.}.}.}.}.}.}.}.}.}.}.}.c c }.c c c c ! c ) ].6.`.0+=., 0+{.9.{.9., a.{.> m.m.A.A.B.B.f.o.n.o.o.g.g.o.B.e.k.d.T.~.a h : : ",
"                                . .         . .       . . .                     .   . . . . . . + + + + . + _   ^ K ` E k x H k S ` } } ` I 3 5 5 &.k H x r ! c ) ~.z ~.~.1.z ~.z z z z z z z ~.~.z ~.y y z m x x ) }.c c d C '.v+x+u+z+B+z+z+r++.X * 9 7 ;.7.=.8.8.a.9.9.0+0+`.h.i.i.i.h.o.F.m.6.'  .> N.k+++;+;+;+$+#+d+7+2+V.X.#+=+Q.2+%+I.M.M.M.H.1+}+}+z.z.-+8+u.t.d.s.[.U.5._./.o B q q !.3.~ }.}.}.}.}.}.}.}.}.}.}.}.}.}.}.}.}.}.}.c }.c c c ! ! }.}.$.E.T.T.0+9.9.9.9., , , , , 0.T.m.m.F.F.o.o.h.o.h.h.h.g.g.n.A.e.s.J.' a h : : ",
"                              . . .       . .     .   . .   .                       . . . + + + . + + @ + @ _   ^ K O R k C 9 &.S ` } O ` I 3 5 &.&.k x x r ! c ) ~.m z z z z z !.!.!.z z z z z z ~.~.y z z m x x 8 }.c c d C l <.x+w+z+B+z+z+r++.X % 5 7 d =.a.8.8.a.9.9.0+0+E.h.j.i.i.h.o.N.B.6.) {.> N.k+Y.;+;+;+$+#+d+d+>+W.X.#+Q.Q.2+%+I.M.M.M.H.H.1+1+}+z.|+p.q.w.A.k.s.6.U.5./.o B q p 1.1.t c }.}.}.}.}.}.}.}.}.}.}.}.}.}.}.}.}.}.}.c c c c c c 2.~ 6.T.T.`.{.a.a.L , , a., , , 0+E.m.F.F.o.o.h.h.o.o.g.o.o.o.t.e.e.d.0.! a h : : ",
"                    . .       . . . .       . . .     . . .                     . . . . + + + + + + + + + + _   ^ } O E 6 C H b S ` } O ` ` 3 S S &.k w x r ! c ) y z z z z z z 1.z z z z z z z z z ~.n z z x x H ) }.-.c d C l <.u+w+z+B+x+B+r++.X Y 2 ;.7.7.=.8.8.8.9.9.0+0+E.h.j.i.i.h.g.N.m.6.) 0+J.N.k+3+;+;+;+$+Q.d+d+2+W.X.#+Q.Q.2+6+I.M.M.H.H.H.1+1+}+}+z.|+p.j.g.t.k.s.6.[.5././.o p ~.1.m 7 2.}.}.}.}.}.}.}.}.}.}.}.}.}.}.}.}.c c c c c c c c c p `.T.T.0., 9.8. .9.8.8., , , 0+T.F.N.N.o.o.o.g.o.o.n.f.n.f.A.k.k.J.0+c a i : : ",
"                    .         . . . .       . . .     . . .                       . . . + + + + + @ + + . @ : @ |.K O E 6 9 6 &.S ` } O ` I 3 S &.&.k x s r ! c ) y ~.~.z z z z z z z z z z ~.~.~.~.~.n n z z x x ) }.-.c d C F <.u+u+z+B+x+B+s++.+.Y } 7.;.=.=.a.8.8.9.9.0+0+E.h.i.i.i.h.h.N.F.0.' 0+J.N.Z.(+X.;+;+$+#+d+d+2+W.X.#+Q.Q.2+6+I.M.M.H.H.H.1+1+}+}+}+z.|+&+i.f.e.s.s.6.6.5._./.~.1.1.m 7 2.}.}.}.}.}.}.}.}.}.}.}.}.}.}.}.c c }.c c c c ! c ! ~.T.m.T.0.a.9.9.8., 8.9.9.9., 3.6.T.m.m.F.f.B.B.r.v.r.n.o.n.A.k.k.J.].c a i : : ",
"                    .       .   . .   .     .   . .     .                         . . . . + + + + @ + . + : : ( |.K ` E 6 9 6 &.S ` } O ` 2 3 S &.k k x s r ! c ) p o o ~.z A /.z z z z /.z z ~.~.~.n n n z m x x ) }.c ! d C l <.u+u+z+B+z+B+s++.+.Y J 7.7.7.=.a.8.8.9.9.0+0+E.h.i.i.i.i.h.N.F.0.' 0+`.N.Z.I.++$+;+$+=+d+d+2+W.X.#+=+Q.2+%+I.M.M.M.M.M.1+H.}+}+}+@+z.z.p.w.r.e.E.d.`.6.[._.3.!.~.m ) 2.}.}.}.}.}.}.}.}.}.}.}.}.}.}.}.c c }.c c c }.c }.! 0.m.m.T.0+, 9.9.9., , , , , , 3.3.1.3.6.m.m.t.B.n.n.r.o.o.o.A.k.A.J.$.}.a i : : ",
"                          . . .     . . .         .                                 . . . . . . . + .   . : + Z @.} I E 6 C 9 &.S ` } O I 2 S &.b k k H s r ! c ) p o n z A /.z z z z /.n n n n n n n n A z x x x 8 }.-.c d C l <.x+u+B+B+x+z+r+#.+.Y f 7.7.a.=.a.8.a., , 0+0+A.i.i.i.q.i.o.o.F.0.q 3.6.N.Z.I.Q.$+$+$+#+9+9+2+W.X.#+=+Q.2+%+I.M.M.M.H.H.1+H.1+}+}+}+}+z.|+q.h.f.e.E.E.`.6.[.3.3.!.!.~ 2.c }.}.}.}.}.}.}.}.}.}.}.}.}.}.}.c.c c c c c c }.~.m.F.m.J.0+0+9., 8., , a., , , 1.~./.q /.s.J.J.T.B.g.h.h.h.n.t.k.T.T.!.}.).i : : ",
"                    .           . .         . .         . .                     .   . . . . . . . . . . @ . @ ^ ] ` I I S &.9 b 3 ` O O I 2 3 5 k k w H x r ! c ) p n n z A /.z z z /././.n n n n n n n n n x x x ) }.c ! d C F <.u+u+z+z+B+B+s+#.+.T $ 7.7.8.=.a.a., , , 0+0+A.i.j.p.i.i.g.N.F.U.B p l.N.Z.H.Y.$+$+.+#+]+9+>+V.X.#+=+Q.2+%+I.M.M.M.M.M.H.H.1+1+1+}+}+z.|+&+q.g.t.e.A.E.s.6.5.3.~.{.x }.c c }.}.}.}.}.}.}.}.}.}.}.}.}.}.c.c.-.c.c ! c ) 0.m.F.m.0+9.{., t a.,  .a., ,  .1.3._.n q D B /.5.U.E.n.n.g.n.A.A.J.T.x }.).i : : ",
"                              . . .       . .   . .       .                       . . . . . . + . . + + : . N } 1 I E 3 S S b b 2 ` O O I 2 3 &.k k w x s r ! c ) s n /./.A z /.z /././././.A n n n n o n n z x x ) }.c c s C l <.u+w+z+B+z+z+r+#.#.T & b 8.8.=. . .a., , 0+0+m.p.j.p.q.h.o.n.B.U.B ^.l.F.i.C.2+$+$+.+*+]+]+>+=+X.#+#+Q.9+%+I.M.M.M.M.M.M.H.1+1+1+}+}+}+z.|+p.j.r.e.t.A.E.s.[.3.z ~.t }.}.c.}.}.}.}.}.}.}.}.c.c.}.c.c.c c c c c.c.-.7 ~.0.F.N.0+=.L {.9., ,  . ., , ,  .1.!.z q r D B /./.B 5.k.e.n.F.A.E.J.0.t }.).i : : ",
"                    . .       . . . .     . . .         .                       . . . . . . . + . . + @ _   # M ] E 3 3 S S b &.2 ` O O I 2 3 S k k H x s r ! c ! q o n z A /./.z /././././././.n n o o n n y x x ) }.! c d C k :.u+w+z+B+z+z+s+%.#.T = 4 8.9.=.a., , , , 0+0+B./+p.p.p.j.u.v.t.U.U.5.l.r.8+&+%+.+.+.+*+]+]+>+=+X.#+#+Q.2+%+I.M.M.M.M.M.H.H.1+1+1+}+}+}+z.z.|+p.w.t.t.A.A.d.6.3.!.t t c }.}.}.}.}.}.c.}.c.}.c.c }.c c c c }.}.}.c 7 z 0.[.T.0+1.0+0+0+9.9.9.L L ,  . . .q r p p B /.U.[.U.l.s.k.t.r.f.m.A.J.J.) }.).i : : ",
"                  . . .       . . . .       . . .       .                       . . . . . . . . . + + + _ . # M K E 3 E S S 6 &.2 ` O O I 2 3 S &.&.w x y r ! c ! D n A z z /./.z z z /.A /././.A n n o n n z x x ) }.! c d 9 k :.u+u+z+B+x+B+s+%.#.T * 4 7.9.=. ., , , 9.0+0+m./+Z.Z.Z.|+|+Z.Z.q.j.j.h.j.j.a+^+X.'+ +!+>+]+]+=+#+#+Q.Q.2+%+I.M.M.M.M.M.H.H.1+1+1+1+}+}+z.z.z.|+j.v.r.t.t.k.d.6.[.!.L ! }.}.}.}.}.}.}.}.}.c c c }.c c c c }.2.-.~ ,.[.z ' q 1.0+0+, , , , 9.{.L 1.~.q q r p _.5.U.U.l.D.e.r.f.r.o.o.r.t.E.E.J.! }.).i : : ",
"                  . .       .   . .   .   . .     .     .                       . . . . . . . . . . + @ _ . # } } E 3 2 S S b &.2 ` O O I E 3 5 b l k x y ' ! c ! D n /.A A /./.A A A /././././.A n n o o n z x x ) }.7 ! d 9 w :.u+u+z+z+x+B+s+%.#.T Y 4 7.9.=.a., , , 9.0+0+m./+z.,+,+,+,+,+,+,+,+Z.Z.p.q.&+R.L.Q.X.=+]+]+]+=+#+=+=+Q.2+:+I.M.M.M.M.M.H.H.1+1+1+}+}+}+z.z.z.|+-+u.r.r.f.A.A.d.0.].{.7 }.}.}.}.c }.}.}.}.c c c.}.}.}.c c c.}.;.].].t ! ! ~ 1.0+3.=., L L 1.~.q p /.5.5.[.d.E.k.k.e.t.n.g.h.h.u.h.h.n.A.d.T.0.c 7 ).i : : ",
"                          . . .     . . .       . .                             . . . . . . . . . . . + : . < K } I 3 2 S &.6 S I ` O O ` 3 3 5 5 l k x y r ! c ! q o /.z A /./.A A A /././.n n n n n o n n y y x ) }.c c 8 9 l :.u+u+B+B+z+z+s+%.#.W T 3 8.9.=., , , , 0+0+0+m.Z.,+,+,+Z.Z./+/+/+/+i.h.n.r.x.x.y.R.d+9+d+d+>+*+!+#+=+Q.2+7+^+M.M.M.M.M.H.H.1+1+1+1+1+}+@+z.C.|+p.w.u.r.B.t.e.k.s.6.].) }.-.c.2.}.) ! ! ! }.}.}.c c c.c c 2.) ].!.~ ~ r q 1.t  .3.0+1.3.{.3.5.5.[.s.E.A.B.f.n.f.v.g.j.q.q.j.q.p.j.h.r.A.A.`.0+-.-.).i : : ",
"                    .           . .         . .         . .                     . . . . .     . . . . + :   g } K I 4 2 3 S b S 2 ` O O ` 2 3 5 5 l w x s r ! c ! q n A A /.A /.A A A /././.A /./.n /.o n o y x s ! }.c ! d 9 l :.u+u+z+z+z+z+t+%.#.W Y ..8.{.t , , , 9.9.0., F.,+Z./+f.k.l.^.B B ' D B B B B ^.U.G.C.M.7+7+L.#+!+*+#+V.9+:+I.O.M.M.M.H.H.H.1+1+1+1+}+}+}+}+z.|+&+8+u.r.t.r.t.k.s.[.].s -.-.}.}.-.~ 8 ) ! }.-.c c c }.}.2.) z !.t ~.1.3.3.1.1. . .3.0+6.6.6.T.B.N.F.F.n.o.g.h.h.i.p.|+|+p.|+p.|+i.n.e.E.A.J.0.c -.).i : : ",
"                              . .     .   . .     .     . .                   . . . . . . .   . . . . @ : . g K } I 3 2 S 5 b S I ` O O ` E 3 5 b k w y y r ! c ! D n A A A /./.A /./././././././.n n o o o y y s ! }.-.c 8 6 l :.x+u+z+B+z+x+s+(.#.W Y } 6 {.=., , , , , 0+1.F.Z.h.A.U.B ' ' s ) ~ s d ' ) c c c B l.x.C.)+2+P.~+~+=+V.9+7+I.M.M.M.M.H.1+1+1+1+1+1+1+}+}+}+z.|+&+j.u.r.t.t.f.A.s.6.[.m }.}.}.}.-.8 7.) }.}.}.c }.c c c ' ].].1.3.].0+].3.3.3.~.1.1.3.6.`.A.N.F.g.g.n.n.n.o.h.h.h.p.|+|+|+Z.|+|+j.t.k.E.E.T.$.c }.).i : _ ",
"                    . .       . . . .     . . . .       .                     . . . . . . . . . . . + @ : + ^ K } I 3 E S 5 b S I O O O ` E S &.k l k ,.n s ! c ! r n /.A A A /./././././././.n n o n o o o y y ~ ! }.-.! 8 9 k b.u+u+z+B+B+x+s+(.%.W Y 1 6 {.a., , , 9., 0+0+J.m.s.[./.p ~  .$.$.$.Q $.t ! -.c ! ) ' ^.S.@+%+>+{+[+=+W.9+7+I.M.M.M.M.M.H.1+1+1+1+1+1+}+}+}+z.C.&+j.u.r.r.r.n.B.e.e.s.m }.}.-.2.}.s C 7 -.7 c }.}.c ! q 3.3.$.].3.3.3.3.3.3.0+3.t ~.[.6.0.E.A.F.F.F.f.B.t.t.B.f.o.j.p.|+p.p.p.q.u.e.d.J.J.T.3.}.-.).Z : _ ",
"                  . . .       . . . .       . . .       .                     . . . . . . . . . . . + @ : @ |.K } I 3 2 S S 5 3 I O } O ` I F l k k w ,.y s ! c ! r n /.A /.^././././././././.n n o o o o o y y ~ -.}.! ! 8 6 l b.u+u+z+z+z+z+t+(.%.W W j 9.{.8., , , , , 0+, 0+0.p ' ' s ) ! ) c }.c ! ) ;.7 7 -.7 -.! D G.z.6+P.5+=+V.9+7+)+M.M.H.H.M.H.1+1+1+1+1+1+}+}+}+z.|+&+8+u.f.r.r.r.n.f.F.T.!.-.-.7 }.) ;.7 ! ! 7 c c ' ' ' !.].z p p /././.1././.[.[.~.q !.3.[.3.3.6.s.E.d.e.t.e.e.e.t.f.g.q.p.i.p.i.f.k.k.T.J.> !.}.-.).Z : _ ",
"                  . .     .     .     .     .     .     .                     . . . .   . .   . . . + @ @ : |.K } I 3 3 S S 5 4 I O } } ` R F l w y x n D r ! c ! r A A A /./././././././././././.o o o o o y y ~ c -.! ! 8 6 l b.x+x+B+z+x+z+t+(.#.W X | 9.{.a.a., , , 9.9.9.Q {.) 2.2.}.2.2.2.}.}.}.}.}.7 ;.;.-.-.-.c ' B S.H.P.W.V.W.2+:+O.O.M.H.H.M.H.1+1+1+1+1+1+}+}+z.z.|+-+8+n.r.t.t.f.g.g.o.A.].! -.c.}.7 -.c ! ) ! ;.m !.z ~.z !.3._././.3.6.[.3.5.[.[._.p B p p B /.q q /.5.U.d.k.k.D.D.k.t.n.h.h.j.p.g.e.A.T.s.> L c 7 ).Z : _ ",
"                          . . .     . . .   .   . .           .               . . . .   .     . . . + @ + _ a K } I 3 3 5 &.5 5 2 O } } ` I S k x y z ,.o r ! c ! r n z A /./.z z z z z /./././.o ~.~.o o y p y ~ -.-.! c 8 6 F b.u+x+B+B+z+x+t+b.#.X +.| b 9.a.a., , , 9., 9.{.;.7 -.c }.}.}.-.-.-.7 7 7 -.7 7 7 -.}.}.! ! B x.O.d+e+W.2+:+O.O.M.M.H.H.H.1+1+1+1+1+1+}+}+z.z.|+-+8+u.r.t.f.u.g.w.n.T.0.) }.}.}.}.}.}.c -.7.{.L t 1.3.3.!.3.3.[.6.6.s.6.s.[.5.[.[././.o /._.3./././._.5.U.l.s.d.k.k.e.t.r.u.h.i.n.k.k.k.6.> w }.7 ).Z : _ ",
"                    .         . . .         . .           .                   . . . .   .     . . . + : + ( [ K ` E S 3 S S S 4 2 O O ` 2 3 F &.H x w ,.p r ! c ! r n z z /././.~.1.1.1.1./.~.~.~.~.o o n y y x ~ -.-.-.c 8 6 F b.u+x+B+z+z+x+t+:.#.W +.e 6 Q =.a., , , , 8.a.) ! ! 7 7 8 8 d 6 l Q >.>.Q 1.=.;.-.}.2.}.}.c ! U.x.@+%+3+%+^+:+O.O.M.H.H.H.1+1+1+1+}+1+}+}+z.z.|+-+8+u.f.r.f.u.g.g.g.t.0.~ }.}.-.}.-.}.}.;.{.{., {.!.1.].!.!./.5.3.6.6.s.6.6.[.l.s.[.U././._.].3.3._./././.5.l.d.E.e.e.B.r.v.g.o.t.e.d.d.s.0.~ }.7 ).Z : _ ",
"                              . .     .   . .   . .     . .                   . . . . . . .   . . . + : + h [ K M I 3 2 S S S 4 2 O } ` 2 E F l k w w !.s ' ! c ! r A A !.z z 1.1.1.1.1.1.1.1.~.~.~.~.~.y y y x ~ -.-.! ! 8 6 F :.x+u+z+z+z+u+t+:.%.X X 0 9.4 =.=.a.a.a.a.a.=.7 -.-.c }.-.-.7 C {.$.Q >.> > >.$.{.8.7 }.}.c ! ! ^.S.y.I.I.O.I.O.O.M.H.H.H.1+1+1+1+1+1+}+}+z.z.|+-+8+n.r.t.f.g.h.g.g.B.0.~ }.-.-.7 7 }.7 a.{.{.L  . .1.3.3.q ].`.6.s.s.s.s.s.s.d.s.6.[./.B _._./.,._./.o ~./.5.l.d.e.E.A.t.t.f.r.t.e.d.d.d.6.) }.-.).Z : _ ",
"                    . .       . . . .     . . .         .                     . . . . . .     . . . + : + h @.1 ..I E E S S S 3 ..} } ` 2 3 S &.k w x x s r ! ! ! r A z !./.z 1.1.~.1.~.1.~.~.~.~.~.~.~.y y y x ~ -.! 7 ! 8 9 l :.x+u+z+z+B+u+t+<.%.X X - 4 { a.a.a.=.a.a.a.=.7 }.}.}.}.}.2.2.2.2.2.}.c ) ~ 0.> > >.9.;.}.}.c ! ' ^.D.i.}+M.H.O.O.O.H.H.H.H.1+1+1+1+1+}+}+}+z.|+-+8+u.r.t.B.g.h.h.h.F.J.y -.7 -.-.-.7 a.a.=.L  .a.t 3.3.1.1.0.E.J.T.A.A.m.A.A.A.E.d.s.[.[.5.^.p o n o z ~.o /.5.U.s.s.s.e.A.B.B.e.d.k.d.6.6.~ }.-.).Z : _ ",
"                  . . .       . .   .     . . . .       .                     . . . . . .   . . . . + : . h @.K ` E 3 3 S S 3 2 O } } I 2 S &.5 k w w x y r ! ! ! r A z z z ~.1.1.1.~.~.~.~.~.~.~.~.~.~.y ~.y x ~ -.-.7 ! 8 9 l :.x+u+z+x+B+x+t+<.%.X +.& 4 { 8.a.a.=.=.=.a.a.7 2.}.}.2.2.2.2.}.2.2.2.2.2.2.2.r $.>.>.Q 9.-.}.c ! ' ^.D.w.,+M.K.I.O.M.M.H.H.1+1+1+1+1+}+}+}+z.|+-+j.u.f.t.t.n.i.h.h.N.T.m -.-.}.2.-.a.8.8.8., , {.{.3.3.5.3.[.s.d.A.t.t.F.B.B.t.A.E.d.s.d.6.[./.q q D A !./.A _./.U.[.[.s.k.e.A.d.s.k.s.s.6.t c c ).Z @ _ ",
"                  . .     .     .     .   . .   .       .                   . . . . . . . . . . . . + :   i @.K ` E 3 3 5 S 3 2 O } } ` 3 3 5 S 4 l w m s ' ! ! ! r n 1.!.1.1.1.1.1.1.~.~.~.~.~.~.~.~.~.~.t t x ~ -.-.7 -.8 9 l :.x+x+B+x+z+x+t+<.#.X #.- 4 { =.;.a.a.=.=.=.a.7 }.-.-.}.}.}.}.}.2.2.2.2.}.}.c 2.! {.>.Q >.Q ;.-.! ! ' ^.U.w.M.H.O.O.M.M.H.H.1+1+1+}+1+}+}+z.z.|+-+8+u.f.t.t.n.h.h.i.o.m.].-.-.-.}.;.{.8.a., , , 1.3._.3.[.3.[.e.e.m.F.F.F.F.B.t.t.e.E.k.d.s.s.6.5.!.n /.p /.A A /._.3._.[.s.d.s.s.d.d.s.s.6.) c -.).Z @ _ ",
"                          . . .     . . . . .     .           .               . . . .   . . . . . . @ :   i @.K ` I 3 3 S 3 2 2 O } } ` 3 3 5 4 4 l H y s ' ! ! ! r y 1.!.1.1.1.1.1.~.~.~.z ~.~.m ~.~.t  .t t t ~ 7 -.-.7 8 9 l :.x+u+z+x+z+u+t+v+#.X #.- b { a.=.a.a.=.=.=.=.;.-.-.}.-.c }.}.}.}.2.}.2.c }.c 2.2.c m Q >.> Q ;.7 ! ! r ^.U.w.@+R.H.M.H.H.H.H.1+1+1+1+}+}+z.z.|+-+8+o.r.e.t.n.i.i.i.g.m.$.7 -.7 -.~ $.L , L , , 1.3.5.[.[.U.T.F.A.B.n.B.B.B.B.t.B.A.e.T.e.k.s.d.d.s.[._.B B o n /._././.3.[.6.s.d.d.d.s.s.[.) 7 7 ).Z @ _ ",
"                    .           . .         . .           .                 . . . . . . .     . . . + :   Z K } I 2 3 3 S S 2 2 O } O ` I 3 5 5 l k x x s ' ! ! ! r z !.1.1.1.1.1.1.~.1.~.z ~.~.m ~.~.~. .t t t ;.-.-.7 7 d 9 l :.x+u+z+x+z+w+w+o+%.X #.* 6 { 7.=.a.a.a.a.=.=.;.-.7 c }.c c c }.}.}.}.2.}.}.2.}.2.}.! ~ $.> > > =.}.) ! r k s.x.z.}+H.M.H.H.H.H.1+}+1+}+}+}+z.|+p.j.o.r.t.B.o.i.i.i.g.A.[.) }.-.}.t {., , , , , 1.3.[.[.U.6.A.B.B.o.n.F.F.F.F.B.f.F.t.A.A.k.s.s.d.E.d.s.[._./.~.o /.!.!.3.].6.`.T.J.s.l.s.[.~ '  .).Z @ _ ",
"                              . .     .   . .   .       .                 . . . . . . . .     . . . + _   Z K O ` E 3 3 S 4 3 I O } } ` 2 3 5 5 5 5 w x y ' ! ! c ' m m 1.1.!.1.1.1.1.z 1.z z z z 1.m m ~.t  .C ;.-.-.7 7 C 6 F <.x+u+z+x+z+w+t+o+%.X #.* 4 ] 7.;.=.=.=.=.=.=.;.-.7 -.c c }.c c }.}.}.}.}.}.}.}.2.2.}.! ' $.> > >  .}.7 ! r 5.l.G.z.@+1+H.1+H.1+1+1+}+}+}+z.z.|+p.h.u.B.t.B.f.h.i.i.o.A.6.) -.-.2.~ {.8., L 8. .L !.[.5.6.T.t.t.f.n.f.F.F.n.F.F.n.n.F.t.t.e.d.D.k.E.E.d.d.s.6.[._.!.!.!.!.~.3.6.`.d.s.l.s.[.' ~ !.).Z @ _ ",
"                    . .       . . . .     . . .         .                 . . . . . . . . . . . . . + _   N } O ` I 3 3 3 3 2 ` O } } O ` 2 S S 5 l w m x ' c ! ! ' m L L !.1.1.1.1.1.z z z z z z z z ~.m  . .C ;.-.}.7 7 7.6 l <.x+w+z+x+z+u+t+v+%.X #.* 4 { 7.=.=.=.=.=.=.=.;.-.7 -.}.c c c c }.}.}.}.}.}.}.}.c c 2.2.' p $.> > > {.-.c ) D ^.^.t.|+z.@+1+1+1+1+1+}+}+}+z.z.|+p.h.n.r.t.t.f.o.i.i.o.t.s.' -.-.2.-.L L , L L , L 1.3.3.`.m.N.F.B.B.F.B.F.F.F.F.o.n.n.f.B.B.t.t.A.A.A.k.k.d.d.s.6.3./.!.3.,./.3.0.s.s.s.J.[.) r m ).Z @ _ ",
"                  . . .         .   .     . . . .       .                   . . . . . . . . . . . . + :   / } } ` I 3 3 S 3 2 ` O } } ` I E S S 5 k H x y ) c ! ! ~ m L L 1.!.1.1.1.1.z !.z z !.z z z ~.m m x x ;.-.}.7 7 d 9 k :.x+u+z+u+z+u+t+v+%.+.#.% 4 { a.=.=.=.=.=.=.=.;.-.7 -.c c c c c }.}.}.}.}.}.}.}.c c c }.}.' q 6.> m.m.$.c }.! ' n ^.e.|+|+z.1+1+1+1+1+}+}+z.z.|+p.h.u.r.t.t.f.h.i.i.o.B.J.r -.-.}.2.~ L =. ., L  .1.~.3.m.m.F.F.F.F.F.m.m.m.t.B.B.B.B.B.B.B.f.r.r.r.t.A.e.d.d.d.s.[.5.!.!.!.!.3.6.0.d.J.J.3.! r !.).Z @ _ ",
"                  . .         . .   .     . .   . .     .                     . . . . . .     . + . @ :   / } O I I 3 3 S 4 2 ` } O O ` 2 3 S 5 l k H w s ) c 7 7 ' m L L z !.1.z /./././.n /./.z ~.~.~.m m m x ;.-.}.7 ) d 6 w :.z+u+z+u+z+x+t+q+#.+.%.Y { { 7.;.=.=.=.=.=.=.;.-.-.-.-.c c c c.}.}.}.}.}.}.}.}.c }.c c 2.2.! /.0.> > > >.' c.! ' ^.B e.|+z.}+1+}+1+1+}+}+z.z.|+p.h.n.B.t.B.n.h.i.i.h.f.E.t -.-.-.}.! =.t L , 9.1.L t t J.T.T.T.A.E.J.J.E.J.d.J.J.E.B.B.F.B.n.f.r.r.B.f.t.e.e.E.d.`.6.[.3.3.1.3.3.6.0.0.J.3.c t !.).Z @ _ ",
"                    .     . . . .     .   . .   . .                           . . . . . . .   . + + @ :   # } } I 2 3 3 S S 2 O } } } ` 2 3 S S S k w w y ) c ! ! r L !.L z /.~././././././.o o o p p p y s x H d -.-.7 ) C b l :.z+u+z+x+z+u+t+q+%.+.%.% 4 { 7.;.=.=.=.=.=.=.7 }.-.}.}.}.}.}.}.}.}.}.}.}.}.}.}.}.}.c c c }.2.' 3.0.T.m.m.J.~ }.) ) r ' e.q.q.|+}+}+}+@+z.z.|+|+q.w.v.r.t.t.f.h.i.i.h.f.E.p c -.-.}.}.;.L L  .,  .L 1.q 1.0+3.3.3.U.3.5.1.3.[.6.6.`.T.t.t.B.f.n.f.r.r.n.r.t.t.e.E.J.J.s.[.[.3.1.3.3.[.0.J.!.c t  .).Z @ _ ",
"                                . .         . .                             . . . . . . .     . + + + _   # ] } 2 2 3 3 S 4 I O } } } ` 2 E S S F k w w s ) c c c ! ~ t m z /.~./././././././.o o o ~.p s s ~ d 8 7 -.c ! d 6 l :.x+u+z+u+z+w+w+q+%.+.%.Y b { 7.=.=.=.=.=.=.;.-.-.-.}.}.}.}.}.}.}.2.}.}.}.}.}.}.}.}.}.}.}.c }.}.' 1.6.> m.m.>.~ }.c.c ) D k.h.q.|+}+}+}+}+z.|+|+q.h.v.B.t.t.f.h.i.i.h.f.E.q -.-.-.}.}.t L , 9.=.a.L  .t  . . .1.1.1.1.1.~.t 1.1.3.3.6.d.T.t.B.f.F.r.f.f.f.f.B.t.e.k.d.s.s.6.[.3.1./.3.6.>.!.! t  .).Z : _ ",
"                              . .         . . . .       .                 . . . . . . . .   . . + + @ _   < ] } I 2 3 S 5 3 I O } } O I 3 3 S &.&.H H w s ! c c c c ! ~ ~.n ~./././././././././././.B y p r ) -.-.-.}.c c 8 9 l :.x+u+z+x+z+w+t+q+%.+.%.Y 5 ] 7.;.=.=.=.=.=.;.-.-.7 -.-.}.}.}.c c }.}.}.}.}.}.}.}.}.c }.c c c }.}.! /.0+T.m.> > s }.c.) ' r D.i.q.&+z.z.}+z.z.|+q.h.n.t.t.B.f.g.i.i.h.f.E.1.! -.-.}.! t L 8.a.a., a.a. .L  . .t t t  .L  . . . .,  .3.0+6.d.A.B.f.n.f.f.n.n.f.r.A.e.e.E.`.s.6.].!./.3.[.0.m 7 m m ).Z : _ ",
"                    . .       . .         . . .                             . . . . . . . . . . + + @ :   < ] } 2 2 3 S &.3 ` O } } O 2 3 2 S &.&.H H w s ! c ! ! c ! q 1.A /.o /././././.o o B B B B o o s ) ! -.! }.c c 8 6 l b.x+u+z+u+z+u+t+q+%.+.%.T { { 7.;.=.=.a.a.=.;.-.-.7 7 -.-.-.-.c c c }.}.}.}.}.}.}.c c c }.c c c }.}.! q 0+J.m.m.> x }.) ) ! ' d.w.8+-+z.z.z.z.|+p.h.n.B.t.t.f.h.i.i.h.n.A.[.) 7 7 }.) t  .a.=.a.a.a., , , =.t a.t =. .m  . . .L , ,  .L 3.0+s.A.B.n.f.f.v.n.n.f.t.A.A.e.k.s.s.6.3._.3.].$.~ -.s ~ ).Z : _ ",
"                    . .   .   . .         . . .                             . . . . . . . . . . + + + :   g ] } 2 3 3 3 5 S ....} } O I 3 E S 5 5 k w w s ! c ! -.c ! ~.!.z /././././././.o o B B B o B o y s ) 7 -.c c c 8 6 l b.x+u+z+u+z+x+t+q+%.#.%.T { { 7.;.=.a.=.a.=.7.7 }.7 7 7 -.-.-.-.-.! c }.}.}.}.}.c c }.c }.}.c c c c }.c ' 3.> m.> >.d }.c.c c ' s.u.j.&+z.z.C.|+p.h.v.B.t.B.f.g.i.i.i.n.A.[.) -.}.2.) t  .a.a.a.=.a., a.a. . . .a.a. . . .L L L L , , , L 0+0+J.B.n.n.n.f.v.v.f.r.t.B.t.e.e.d.`.[._./.3.].-.}.7 -.).i : _ ",
"                    .           .         . .           .                 . . . . . . . .   . . + + @ _   ^ ] } E 3 3 3 5 S ..O } } O ` 3 E S S S &.k w ~ ! }.! ) ! ) ~.!.n /.~.n /./././.o B B B B B A n y H d 7 -.}.! ! 8 b F b.z+x+z+u+x+x+t+q+%.+.%.T { { 7.;.=.=.=.=.7.7.-.}.7 ) ) 7 -.-.-.! ! ! ! }.2.}.}.}.}.}.}.c }.2.c c c c }.c ' 0+> > > > t }.c ) ! ! l.h.q.|+z.C.|+p.j.n.B.t.B.f.o.h.i.i.o.A.[.' }.}.2.) L a.a.a.8.a.a.a.a.a. . . .a. .=. .,  .t  . ., , , , 1.1.3.T.n.n.u.f.n.v.f.f.f.B.B.t.A.e.J.6.[._.].s }.}.c }.).i _ _ ",
"                    .     .   . .         . .     .                 .         . . . . . + . . . + . + _   ^ ] O 3 3 3 3 &.S ` O ] O ..2 2 2 5 5 5 k k w ~ ! }.! ! -.~ 1.~.o /.z /./././.o o o B B B B n n y x ~ -.-.}.c c 8 6 F b.z+u+z+x+z+x+t+p+%.+.%.T { { 7.;.;.=.a.=.;.;.7 }.7 ) ) ) 7 ) 7 7 c ! 7 }.2.2.2.2.}.}.2.}.}.}.2.c c }.c 2.c ' 3.J.m.> >.7.}.! ! c ! D.v.8+&+z.|+-+j.o.r.B.B.f.o.h.i.i.o.B.l.~ }.-.}.~ {.=.=.8.8.8.a.a.a.,  .a.a. .a. .L L  . . . .1.L a.a., L ~.0+r.n.f.n.o.g.f.r.n.f.r.B.t.A.k.s.l.[.6.~ }.}.c }.a i : _ ",
"                                .         . . .                               . . . . . + + + + + . + _   ^ K ..2 3 3 4 5 S ..} } O ..I I 2 &.5 &.k k w d c }.! -.) z 3./././././././.o o o B B B B B B o y y s ) -.}.c c 8 6 l b.x+u+z+u+x+u+w+q+%.+.(.T 4 { ;.;.=.;.;.;.7 7 7 -.-.-.-.-.-.-.-.}.}.}.c }.2.2.2.2.2.}.}.}.}.2.}.c c }.2.}.c ! ' 1.>.> >.Q ;.}.c.c c ' l.f.j.p.|+-+j.u.f.f.B.n.o.h.i.i.g.B.6.t -.-.-.m {.=.a.a.a.8.a.a., , , ,  . ., L  . .1.3.0+3.3.L  .t 1.1.1.3.d.u.u.u.h.h.f.r.n.n.r.r.t.B.e.e.d.l.J.s }.-.c }.a h : _ ",
"                              . .         . . .                               . . + + + + . + + @ + @ _   ^ K O E 3 3 S &.4 ..} ] } O I I 2 &.5 S &.&.H d }.}.) ! r !.,./././.n /./././.o o o B B B B B n z z x ' -.c c c 8 6 l b.x+u+z+x+z+u+t+v+%.#.%.T 2 { 7.7 ;.-.}.-.-.7 -.}.}.}.}.}.}.}.}.}.}.}.}.}.}.}.}.}.}.c }.}.}.}.}.}.c }.c c c c 2.! 1.>.>.>.Q 7.-.c c c ! l.u.q.p.|+q.n.f.f.r.f.o.h.i.i.h.B.s.x 7 -.-.L {.a.a.a.a.8.a.=.a., , ,  .,  . . .1.3.6.J.J.J.6.!.~.1.1.1.3.5.t.i.j.w.g.u.u.f.f.f.r.r.f.r.t.e.s.J.~ }.-.-.2.a ( _ _ ",
"                                .         . . .                             . . . + + . + + + + + + + _   ^ K ` 2 3 3 4 5 S ..] ] O ..2 2 3 S 5 &.&.&.w d }.}.) ) r A /././././././././.o o o B B B B o n z z x ' -.c c c ) 9 k b.x+u+z+u+z+x+t+v+(.#.%.W { { 7.7 ;.7 -.-.7 ;.-.}.c c }.}.}.}.}.}.}.}.}.}.}.2.2.}.}.c c c }.}.}.}.2.}.c 2.c c c 2.! p $.> >.Q 7.-.}.c c ! l.v.j.p.j.u.f.f.n.n.n.h.i.i.h.B.s. .7 -.-.m {. ., , a., a.a.a.a.9.,  . .1.3.0+0+J.T.T.A.m.B.m.`.6.5. .3.~.[.F.i.j.h.q.q.j.g.u.u.u.n.r.f.t.e.> t }.-.-.}.|.( _ _ ",
"                    .           .         . . .                             . . . + + + + + + + . . + : @ |.} ` 2 2 3 4 4 S ` K } O ` 2 3 3 S S &.&.k 6 d }.}.! c r _./././././././././.o o o o B B B B n n y z ~ }.}.! ! ) H k C+x+u+z+u+x+x+t+v+(.%.%.W { { 7.;.=.7.7.;.;.;.-.}.! c c }.}.}.}.}.}.}.}.}.}.}.}.2.}.}.}.}.}.}.}.}.}.}.}.}.}.}.c c 2.c r Q >.Q Q 7.-.}.}.c ' l.r.h.g.u.n.f.f.n.u.h.i.i.h.f.s.x 7 -.}.~ {.t  ., , , , a.a.a.a.=., , {.0.J.J.T.m.A.A.t.F.F.B.A.d.3.1./.5.d.u.j.j.p.p.p.p.i.i.j.h.n.r.r.B.m.t }.-.-.~ ^ _ ( _ ",
"                    .           .         . .                                 . . + + + + . + + . + @ : ( |.O I I 2 4 b S 3 ` K } O O I 2 3 S &.&.6 H H d }.2.! ! p _./.A ^./././././././././.o o o o o o n y y ~ -.2.! ! ) C k C+z+z+z+u+u+x+t+v+%.%.%.T { { 7.;.=.a.8.8.7.;.-.}.-.}.c c }.}.}.}.}.}.}.}.}.}.}.2.2.}.}.}.}.}.}.}.}.}.}.}.}.c c c c 2.c q Q Q Q Q a.7 }.}.! ' U.r.u.u.g.n.f.n.g.h.i.q.h.n.J.m 7 -.2.)  .t , , L , L , , , =.L 0+0.`.`.`.E.T.A.B.B.t.B.B.F.F.B.T.[._.[.6.k.g.i.q.p.|+q.p.q.q.q.j.h.o.o.m.~ }.-.-.l ^ : _ _ ",
"                    .           .         . . .                               . . . + . . . + . . + : + Z @.} O ....4 b 5 3 ` ] } O O I 2 3 S &.k 6 k H s c 2.! ' A _./././././././././././.o o o o o o o n n y s ! }.! ! ) C l C+x+x+z+x+x+x+t+v+(.%.%.T ] { 7.;.8.a.=.a.7.;.-.}.-.}.}.}.}.}.}.}.}.}.}.}.}.}.}.2.}.}.}.}.}.}.}.}.}.}.}.}.}.}.c }.}.2.2.c ' {.>.Q {.7.7 2.c ! ' l.t.r.g.f.f.n.g.j.i.q.j.u.e.,.) }.2.!  .L {.9.8., a., a., 0+0.J.J.T.T.A.B.m.m.F.n.F.F.F.f.n.o.r.B.`.[.6.U.k.h.j.p.p.p.p.q.-+p.q.i.h.h.m.) }.}.! >.g @ _ : ",
"                                            .                             .   . . . + . . . . . . @ . @ ^ ] } E F E S 5 &.3 O K } O ` I 2 3 S S S &.k H ! }.}.! r _././._./.A /././././.n n o o p o o o n n n y y ! }.c ! 8 H k C+x+x+B+u+x+u+w+v+(.%.%.W { { 7.;.a.7.a.7.7.7.-.}.7 }.-.c.}.}.}.}.}.}.}.}.}.}.}.2.2.}.}.}.}.}.}.}.}.}.}.}.}.}.}.}.}.2.2.2.2.! $.Q {.{.7.}.}.c ! ' l.t.r.n.o.n.u.h.q.q.q.h.t.].~ c 2.!  .L L L 8., , a.0+0.0.J.T.m.B.F.F.N.F.F.F.o.n.n.n.o.n.u.g.n.n.E.[.U.U.A.h.q.q.p.p.p.-+-+q.i.j.h.T.! -.}.) V < . _ : ",
"                                .         . . .                           . . . + . . . + . . + @ : . N R 1 P k d s x H &.3 ` } } O ` I 2 3 3 S S S &.s 2.2.2.! q ,./././././.A /./.A /.n n n o p p o o o A n n x ) }.c c ) 9 l C+x+x+B+x+x+u+t+v+(.%.%.W { { 7.;.a.7.7.a.7.;.-.-.-.}.-.c }.}.}.}.}.}.}.}.}.}.}.}.}.}.}.}.}.}.}.}.}.}.}.}.}.}.}.c }.}.}.2.2.2.) {.$.Q Q a.-.c c ! ' l.t.f.o.g.u.h.j.q.q.i.B.6.x ! }.!  . . . .a., 9.{.Q >.J.T.m.F.F.F.F.N.N.F.B.n.n.n.n.n.n.v.g.n.n.f.e.6.[.s.e.g.p.p.q.p.q.-+-+q.j.i.J.! -.}.~ V <   : : ",
"                                .           .                               . . . . . . . . + + @ _   < R K E w r r s s &.3 O } } O ` I 2 2 3 S S S &.d c c 2.c q _././././././.n A A /.A n o o o o o o n A z ,.!.) }.! c ) C w C+x+x+B+x+z+u+t+v+(.%.#.W ] { 7.;.7.7.7.7.7.;.-.-.-.-.c c c }.}.}.}.}.}.}.}.}.}.}.}.}.}.}.}.}.}.}.}.}.}.}.}.}.}.}.}.}.}.2.2.2.2.! 1.Q $.{.7.}.}.! c ' l.A.t.n.o.j.j.q.q.j.f.J.L 7 }.-.~ t t  .=.8.0+Q Q > > > m.m.F.B.m.F.F.m.F.F.B.F.n.f.n.f.v.n.n.n.n.t.s.6.l.k.h.q.i.p.p.p.q.p.j./+J.-.7 }.{.j # . : @ ",
"                                            . .                           . . . . . .   . . . + + _ . < R K k r x x s s &.3 O } } O ` I 2 3 3 S S &.&.d c ! 2.! p _./././././././.A /././.n ~.o o o ~.~././.A ,.w ~ -.! c ) 9 k %.u+x+B+u+x+u+t+v+(.%.%.W ] { 7.;.7.7.=.=.7.;.-.-.-.-.-.c }.}.}.}.}.}.}.}.}.}.}.}.}.}.}.}.}.}.}.}.}.}.}.}.}.}.}.}.}.}.c 2.2.2.2.2.c  .$.Q $.d }.c.c c ' l.e.B.o.j.j.j.p.i.o.T.{.;.}.-.;. .1., =., 9.9.9.Q >.> > J.T.E.d.d.E.T.m.m.m.B.F.n.o.g.n.n.f.N.n.o.F.d.U.s.r.j.i.i.p.q.q.q.j.i.6.}.-.c U V N . _ . ",
"                    .                     . .                             . . . . . . . . . . . + _ . g M U ].r x w x x k S ` ] O O ` 2 2 3 S S S &.&.8 2.c 2.! p _.5./././.n n n /./././.n n ~.~.~.~.~././.A z ,.~ -.7 c ) C k %.u+z+B+u+u+x+t+o+(.(.%.W { { 7.;.7.7.7.7.7.;.7 7 -.-.-.}.}.}.}.}.}.}.}.}.}.}.}.}.}.}.}.}.}.2.2.}.}.}.}.}.}.}.}.}.}.c }.}.}.}.c c 2.c ~.{.Q Q =.}.c ! ! ' [.A.f.h.i.i.p.q.o.m.0.t -.-.;.1., a.=.a.a.=.=.=.a.9.0+0+6.`.J.`.s.s.s.s.s.s.E.A.B.n.o.o.n.o.n.n.n.B.d.d.e.r.g.i.i.q.q.q.j.i.[.}.c.-.f f i   _ + ",
"                    .           .         . . .                           . . . . . . . . . . . + : + ^ P U l r y x s s 6 S O K O ` I I 2 3 S S S &.&.8 2.}.2.! r 5.5././././.z z z z /./.n ~.~.~.z z ~.o A n A !.~ ! ! c ) C H %.u+x+B+u+x+x+t+v+b.%.%.T { { 7.;.7.7.C 6 C 8 7 8 7 7 7 8 7 }.}.}.c.}.}.}.}.}.}.}.}.2.2.}.}.2.}.2.2.}.}.}.}.}.}.}.}.}.}.2.}.}.2.c 2.2.c ' 0+Q {.7.}.c ! ! ! [.e.f.g.h.p.q.u.m.>. .-.-.;.L  .a.a.a.a.a.=.a., ,  .1.3.].6.[._.U.U.U.5.U.[.U.l.D.k.B.o.u.g.o.o.f.B.e.e.k.k.u.q.h.q.p.i.i.3.2.}.7 f u : + _ @ ",
"                    .           .         . .                             . . . . . .   . . . . + @ . ^ M U ].r y w x s 6 5 O ] O ` ` ` 2 2 3 S S &.k ~ c ! c q /.3._./._./.!.A !._.!.z z !.z z ~.z z z z z !.,.m m ) }.c ) C C %.w+x+B+u+x+u+w+v+(.%.%.W { { 7.7.7.;.;.d d 7 7 7 7 8 C 6 9 8 -.-.-.c.}.2.}.}.}.}.2.}.2.2.2.}.}.2.2.}.}.}.}.}.}.}.}.}.}.2.2.}.}.}.}.2.2.c ~ {.$.Q d 2.c 2.2.' U.e.f.g.i.i.f.m.0.t -.-.;. .a.a., a.a.a.a., , , L  .t q B /.B 5.U.l.s.s.6.[.U.l.U.l.D.t.g.i.g.o.u.f.k.k.D.e.h.i.i.p.i.h.r 2.}.}.K N   @ @ + ",
"                    .           .         . . .                         . . . . . . . . . . . + @ @ + ^ M U ].r x w x s 6 S O ] } ` ` ` 2 2 3 3 S b b 8 c ) c p _.3.3././.A /././.A z z z n z z z ~.m !.z z !.,.!.k ~ c 2.) C H #.w+u+z+u+z+w+t+v+b.%.%.W } { 7.7.7.-.}.7 8 -.7 9 b 9 C 9 9 9 d 7 -.}.}.}.}.2.}.}.}.}.2.2.}.2.}.}.}.}.}.}.}.}.}.}.}.}.}.}.2.}.2.}.}.c c 2.c ~ 9.Q Q ~ 2.}.c 2.' 5.d.A.g.i.f.T.0+~ -.-.;.=.=.=.a.a., , , , ,  . .~ q B ^.U.6.d.d.E.A.A.T.k.s.l.l.l.U.U.e.g.h.i.i.g.t.e.e.A.e.g.p.j.i.N.' -.8 ;.|.: : +   + ",
"                                .         . .                           . . . . . . . . . . . + @ @ : |.M U l r x w y s H S O ] O ` ` ` 2 3 3 3 S &.b 8 c ! c B /.A _./._.!.~.m z !.L L L L L L L m m m !.z z !.w {.~ ! 2.! d x #.w+u+z+u+z+u+t+v+b.%.#.W ] { 7.;.;.-.7 ) 2.4 = W - ..5 9 9 5 b 9 7 7 7 -.-.}.2.2.2.}.}.}.}.}.}.}.}.}.}.}.}.}.}.}.}.}.}.}.2.2.}.}.}.}.c 2.2.2.) {.$.{.~ 2.c c c ! 5.l.B.i.n.E.3.t ;.7 =.a.a.a.a.8., , a.a.a.=.t ~./.3.6.d.T.m.B.B.B.B.t.t.m.A.J.s.[.5.5.d.o.i.p.h.g.r.t.f.k.D.v.i.i.F.' c d b g   : +   + ",
"                                            . .                         . . . . . . .   . . . + @ @ _ a M U ].r y w x s H 3 O ] O ` ` I 2 3 3 3 S &.b ) c c c o _._._._.3.{.m m  .m 8.t t t ~ t 8.L L !.!.z z !.w w ~ ) }.c d d +.w+u+z+u+z+x+t+v+b.%.#.W 1 { 8.7.C 4 b 9 ] = W +.b.* K 5 b 4 2 2 6 C 9 d d d 7 }.}.}.2.2.2.}.2.}.}.}.}.}.}.}.}.}.}.}.}.}.2.2.c }.}.}.c c 2.2.}.) 1.$.$.) 2.c 2.c r [.E.F.B.J.3. .~ ;.a., a.a.8.9.8.a.a.=.=.t t 3.[.0.T.A.B.B.B.B.f.B.t.t.B.t.m.E.d.[.5.5.k.g.i.i.h.h.g.r.A.D.G.i./+F.! }.C } Z   : . . @ ",
"                                          . .           .               . . . .   . .   . . . + @ + ( a P U ].r n w x s H 3 O ] O ` ` I 2 2 3 3 S b b ) 2.c c A 3._././.].m ~ ! }.}.}.}.c c c }.-.) ) s !.!.!.!.m w ~ ! 2.! 8 8 +.t+u+z+u+x+x+t+v+b.(.#.T J { 6 7.b j 1 j & % Y v+t+r+X S b 4 4 I 3 9 9 C 7.8.7.7.;.7 }.}.}.2.}.}.2.2.}.}.}.2.}.}.}.}.}.}.}.}.2.2.c }.c }.2.2.2.2.) m '.].c }.}.c ! r U.A.m.`.3.t t a.8.a.=.a.a.8., , a. . .L 0+6.J.T.A.B.f.f.f.n.f.f.f.B.B.t.t.A.m.T.5.5.U.t.g.i.p.i.i.v.f.r.f.f.i.m.2.}...G : . @ . . @ ",
"                    .           .         . . .         .               . . . . . . .   . . . + : . h ).P U ,.' y n s s H 3 O } O ` I I 2 3 3 3 S b 6 ) 2.c ! A ,._./.z !.' -.c c }.c c -.! c c c c }.-.d m ~.m m w t ) 2.c 8 C X t+u+x+u+z+x+t+q+:.(.#.T J { 7.7.6 | 0 | j Y b.t+B+u+s+* 2 4 4 5 4 6 7.7.7.7.a.7.8.8.;.7 }.2.2.}.}.}.2.2.}.}.2.}.}.}.}.}.}.}.}.2.2.}.}.c }.}.2.2.2.! m ].s }.c c c c r J.T.0+ .t  .L {., , L , , a., , L {.0+0.J.A.A.t.F.f.f.n.n.n.n.n.f.B.B.t.t.A.m.s././.U.t.u.i.p.i.i.g.n.n.t.F.[.2.7 j g . @     . + ",
"                          .     .           . .         .               . . . . . . . . . . . + : . h ).M U ,.r A ,.y r H 3 O } O O ` ` 2 2 3 3 S C d ) c c ' _.5.3.z !.m ! -.-.-.-.-.-.7 c c c c -.-.}.-.~ t m w w t ) 2.c 8 C X s+u+z+u+z+w+u+q+b.(.#.T 1 { 7.;.b | $ ] b % (.s+B+u+w+#.] 2 5 3 I 5 C 7.7.7.=.=.8.a.8.8.;.-.2.}.}.}.2.2.2.}.2.2.}.}.}.}.}.}.}.2.2.2.}.}.}.2.2.2.2.2.! r y ) 2.c c c ! [.0., ;.t  ., , L , , L L , 1.3.0+6.0.T.T.t.B.B.F.n.n.f.n.n.n.n.n.f.B.r.B.B.A.A.[./.5.s.f.w.i.p.j.j.g.u.o.h.].2.6 j N   :     . @ ",
"                          .               . . .         .     .         . . . . . . . . . . . + : . i H M U ,.r ,.,.y s H 3 O ] O ` ` ` 2 2 3 3 &.d d ! }.c ' _./.3.!.~.~ -.}.}.}.}.}.2.}.2.2.2.}.}.}.-.-.) t m L L x ~ }.c ) d X t+u+z+u+z+w+w+q+b.(.#.T 1 { 7.7 7.1 | b 8 $ (.s+B+B+x+C+j O O ..} } 4 d 7.8.7.=.;.;.=.8.8.=.-.2.}.}.2.}.}.}.}.}.}.}.}.}.}.}.}.2.2.2.}.}.2.}.}.2.}.2.2.! ) ' c c c c ! p 3.=.;. .1., t 1.3.1.1.3.0+6.0.J.`.T.m.t.B.F.B.n.n.n.n.n.f.n.n.n.n.f.f.f.B.t.A.E.U.5.B e.w.h.i.i.i.h.u.h.N.r c } *._ + @       @ ",
"                          .     .         . .           .               . . . . . . .   . + . + :   i 6 P P w r ,.z s s H 3 O ] O O ` ` 2 2 E E 6 8 d c c }.r [./.!.!.q ) -.-.}.}.-.-.! ! 7 -.-.-.c -.7 ! ) ~ t m L y ~ ! c ) s X t+u+x+u+z+u+w+p+b.(.#.W j 4 7.7 7 5 5 9 5 1 +.r+w+z+B+C+U J | J K U K k 7.8.7.a.a.=.=.=.a.a.=.-.}.}.}.}.}.}.}.2.2.2.}.}.}.}.}.2.2.2.2.2.}.}.}.2.}.}.2.2.}.! ) ! c c c r 1.t t 1.3.0+3.3.3.0+3.6.`.`.T.A.m.m.m.B.B.F.F.n.n.n.o.n.n.n.n.o.n.o.f.f.t.A.A.A.`.5.B 5.r.g.h.j.i.h.h.i.T.c c 1 #   : @       + ",
"                          .                 . .                         . . . . . . . . . + . + :   i H P P w r w z s s H 3 } ] O O ` I 3 3 3 E k d C ! c }.q ,./.~.z p ~ ~ ~ t t L L {.{.{.L L 9.L L L t ~.~.t m ~.q ~ c c ) s W s+x+z+w+z+u+w+p+b.(.#.W | 4 7.7 -.7 8 C d 9 f T b.<.(.f R J 0 | K U P F 8.a.a.a.a.=.=.=.=.=.=.;.-.}.}.}.}.}.2.2.}.2.2.}.}.}.2.}.2.}.2.2.}.}.}.}.}.2.2.2.2.c ! ! c 2.2.' t 1.1.0+0+0+6.[.6.6.`.J.T.T.A.m.B.B.F.F.f.f.n.n.n.n.o.o.o.o.o.o.o.n.n.f.B.t.A.t.T.6./.B s.h.h.h.i.h.g.i.J.c 8 a ( @ @ +       . ",
"                        . . .             . .                           . . . . . . . . . + + @ _   i 6 K M z s w z y r H 3 O ] O ` ` I 2 2 3 3 &.C C ) c }.r o q p ~.m m {.{.{.L {.{.L L 1.1.L {.{.3.3.1.1.~.p p ~.q s c 2.c r T s+z+B+w+z+u+w+p+b.(.#.W | 5 7.7 -.}.c c 2.7 d k K f J P V f e f j J M l k  .a.a.a.=.=.=.;.=.=.a.;.}.}.}.}.}.2.2.2.2.}.2.2.}.}.2.}.}.2.2.}.}.}.2.2.}.}.2.2.2.c ! c 2.2.! ~ 1.6.6.`.`.E.E.E.E.E.A.A.m.B.B.B.F.F.f.n.f.n.o.o.o.o.g.g.g.o.o.o.o.f.f.B.B.t.t.A.J.5.q A m.i.i.i.g.g.h.>.c b #   _ .         . ",
"                        . .               . . .         .               . . . . . . . . . + + @ :   i k P R s r w y s r H 3 ..K } ` ` I 2 3 S S k H s c 2.c x p ' y ~.~.m L L z ~.m m ~. .~.~.~.~.t ~.~.p q q q p ~.q q ! c ! r Y r+x+B+w+z+u+w+y+b.(.#.W | 4 7.7 }.}.c c }.c 8 5 K j V ; ; 0 e | f | K R Q L  .=.a.a.=.=.=.=.a.a.a.7 }.2.2.2.2.}.}.2.2.}.}.}.}.}.2.}.2.2.2.}.}.}.}.}.}.2.2.2.2.c ! c 2.c ' 1.6.d.E.A.t.t.t.m.m.m.B.B.B.B.F.F.n.f.n.n.o.g.g.g.g.g.o.g.h.g.o.o.n.f.f.f.t.t.A.T.6.r /.5.B.h.h.g.h.N.3.7 @.( +   .         . ",
"                        . . .   .           .           .     .         . . . . . . . . . + + @ _   i &.P R s D A z s s H 3 O O O O ` I 2 2 3 S &.6 C c 2.c y o D ~.~.t p t t q p p p p ~.p ~.p p p ~.p ~.p q p ~.p q q ! c ! ' = D+u+u+t+B+u+w+y+b.(.%.W j 4 7.-.}.-.c }.2.}.) 5 J J | e e e f f f | J K P l  .=.=.a.a.=.=.=.=.=. .~ c 2.2.2.2.2.}.}.2.2.}.2.}.2.2.2.2.2.2.2.2.}.2.}.}.2.2.2.2.2.! c 2.2.' 1.0+d.T.m.B.B.B.B.B.B.B.B.B.F.F.n.n.n.o.o.o.g.g.g.g.g.g.h.h.h.o.o.n.n.n.f.r.B.A.e.d.B o D U.o.g.g.i.F.r P # . :   .   .       ",
"                          .               . . .         .   . .         . . . . . . . . . + + @ _   i F P '.D s w y s s w E O } O ` ` ` 2 2 S S S b C c 2.c y o p ~.~.p q p ~.p p p p p p p ~.p q p ~.p o p p o ~.~.q o ' c c ! ; v+s+s+s+B+x+w+p+b.(.%.W J 5 7.-.}.c c }.2.2.! l J j | e e f f f f | J } } Q H =.~ a.8.a.=.=.=.=. .t ) }.}.}.}.}.}.}.}.}.2.2.2.2.2.2.2.2.}.2.2.2.}.}.2.}.2.2.2.2.2.c 2.2.) 1.0+`.e.t.B.t.t.t.B.B.B.F.F.F.n.n.n.g.o.u.g.h.h.h.w.h.j.i.i.h.g.n.f.f.f.f.f.B.t.e.T.[.o o D t.o.o.i.E.].v h   +     .         ",
"                        . . . . .         . .                           . . . . . . . . . + + @ _   i F P F s s x x s s k I O } } ` ` I 2 2 3 3 S &.9 ! }.! z o q y ~.p p p z ~.~.o o n o n n o o p n /.p p q p o ~.q q q ! c c V <.r+y+y+x+B+w+y+b.(.%.X j 4 7.7 -.7 ! c -.-.) x F J f e e e f f f J K K K R l m  . .8. .=.=.=.~ t t t ' c }.2.2.}.2.}.}.2.2.2.2.2.2.2.2.2.2.2.}.2.2.2.}.2.2.2.2.2.2.c 2.! 1.6.d.A.t.B.B.t.B.B.F.f.f.f.n.n.n.o.g.g.g.g.h.h.j.j.i.q.i.i.h.h.o.n.f.f.f.f.B.t.e.e.`.B n ' l.n.f.h.`.$.< . . @ +     .     . ",
"                        . .                 . .         . .             . . . . . .   . . + . @ _   i @.P l r x x x s s k I O O } ` ` ` 2 2 3 3 S b 9 ! c ! z n q y ~.~.p o ~.n o n n n o n n n o o /./.o p B o o /.p q r ! c c > :.s+y+v+w+B+w+y+b.(.%.W j 5 7.7 -.-.}.}.}.7 ) ~ w V ; f V e e V U K P P P M F l w t  . . . .=.~ ~ t  .t ! 2.2.2.}.2.}.2.}.}.}.2.2.2.2.2.2.2.2.2.2.2.2.2.2.2.2.2.2.2.c 2.! ~.6.d.A.t.B.B.B.B.B.F.f.f.n.n.o.o.o.u.g.g.w.h.j.i.q.q.q.q.i.h.g.o.n.n.f.B.f.r.A.k.A.T.B D r U.f.F.N.[.).i   @ + .     .     . ",
"                        . . . . .         . .           .             . . . . . . . . . . + . @ _   i @.K k r x x y s s H E O O } ` ` I 2 2 3 S &.6 d c }.! z o D ~.n o p o n n o o /./.n n o /./././././.B q /./.o /.~.r ) c 2.$.+.D+D+<.s+x+t+y+(.(.#.W j b 7.7 }.-.}.2.}.d d s w M V V V V f J U U P R Q R R R F y q t  . .t t ~ t t t ~ }.2.}.}.}.2.2.2.2.2.2.2.2.2.2.2.2.2.2.2.2.2.2.2.}.2.2.2.2.2.2.! q 6.k.A.t.B.B.B.B.f.f.f.n.n.n.o.g.g.g.w.h.j.j.q.p.p.p.p.q.i.h.g.o.n.f.f.B.B.t.A.e.m.m._.' r 5.A.N.N.1.^   _ +         .     . ",
"                        . .               . . .         .           . . . . . . . . . . . + . @ _   i @.K k s x x s s s H E ` O } O ` I I 3 3 S &.6 C c }.) z o D ~.~.~.p o o n o o o n n ^.^././././././.o B B /././.z r ! c 2.s = <.p+b.D+w+s+q+%.(.#.W | 5 C ;.-.8 9 C -.d d x x s M V V V J J U K M E F R R P M l y q  . .t t t ~ t  .t ) }.}.}.}.2.2.2.2.}.2.2.2.2.2.2.2.2.2.2.2.2.2.2.2.2.2.2.2.2.c ' q `.e.e.t.t.B.B.f.f.n.n.n.n.n.u.g.h.h.j.j.q.q.p.p.p.p.p.q.j.g.o.n.n.f.B.B.B.B.t.t.m.m.[.' r _.l.m.T.~.#   : @         .     + ",
"                          .               . . .         .             . . . . . . . . . . + . @ :   i @.P H r x x x s s H E M O } } O ` I 2 3 S 5 6 C ! }.' A y p y y o p o o o o n n /.A /././././.n o ~./.B B B /./.~.q ! c 2.~ ; %.:.C+y+t+s+o+%.%.#.X f 5 C d ;.E | } 6 C d x x r R V V j J V J U P E F R Q P P R l t  . . .t t ~ ~ p t  .7 }.2.}.}.}.2.2.2.2.2.2.2.2.2.2.2.2.2.2.2.2.2.2.2.2.2.2.2.c ! p s.A.e.t.r.f.r.f.f.n.u.u.u.u.u.w.h.h.i.q.q.p.p.p.p.p.q.j.h.g.o.n.n.n.f.B.F.B.B.t.B.B.s.B D 5.B 5.6.L N   : +           . . + ",
"                          .               . .         . . .         .   . . . . . . . . . + . @ :   i @.M x s x x x s s H E ` O } O ` ` I 2 3 S 3 b C ! }.' p D ~.p y y o o o o o o n n n o o p p p p p p p p B B B o p ~.r c 2.! U Y +.#.o+D+D+<.#.%.#.X f 5 9 d 7...J ..3 b C C 9 C R f | j J j j U P R E E F R M R Q k m  .t  . .t q t t t ~ }.2.}.}.2.}.2.}.2.2.2.2.2.2.2.2.2.2.2.2.2.2.2.2.2.2.c c 2.! ~.6.t.t.t.r.n.f.n.u.u.g.g.w.w.w.h.j.j.q.p.q.p.p.p.p.q.j.g.g.o.o.n.n.n.F.f.B.B.B.B.f.B.E.5.^.5./.B z ).(   : +   . . .   . . + ",
"                        . .               . .     .     .               . . . . . . .   . . . @ :   i @.M H s x s s s s w E M O } } ` ` I I S 5 2 b d }.}.) r D y p y o o p n y p p p s p s s s s s s t t ~.o /.B o o p y r c 2.2.l $ T X %.<.o+b.#.%.+.X 0 b 9 d d b 4 5 b b C 8 8 d ..e | J J j j U M E E E F F R R P R k t t m x x p q t t  .;.}.}.}.}.}.}.}.2.2.2.2.2.2.2.2.2.2.2.2.2.2.2.2.2.2.}.}.2.r 6.d.A.r.t.r.f.f.n.u.u.u.g.w.h.h.j.q.q.-+-+p.-+|+|+p.i.h.u.u.u.n.F.f.f.n.f.B.F.f.B.B.t.A.[.5.3._.~.q |.+ + @ . . . . . . . . . ",
"                        . .               . . .                     . . . . . . . .   . . . . @ _   i @.M H s s s s s s w R M M } } M ` I 2 S 5 2 b C -.7 8 s D p p s p D D y x x x x x x x x x x x x x m ~.p /./.o /.z z y ' c 2.d J & % X %.%.#.X +.X W 0 b 6 8 d b 5 5 b C ) 7 7 d R f | j J j j U P R R E F E E R P P F m t x x x y p ~ t 3.m ! }.}.}.}.2.2.}.}.2.2.2.2.2.2.2.2.2.2.2.2.2.2.2.2.2.}.2.1.d.A.B.f.r.r.f.v.n.n.u.g.u.w.j.j.q.q.p.-+|+|+|+|+|+p.j.h.u.o.o.n.n.n.n.n.n.n.F.B.B.B.t.e.[./.!.!.z t <   : + . . . . . . . . . ",
"                        . .               . .           .           . . . . . . . . . . . + + + _   i @.R x s s s y s s H R M ` } } ` ` ` I 3 3 I 5 9 d d C d s s s s s s x H 6 6 6 6 6 6 H H H H C C C m ~.q o B /././.z ,.z ~ ! ) R f $ * W X W T X W Y e 4 6 d C 3 4 5 3 9 ) ) 8 d I | | | J j J P M M R R E E R '.R R E F w x s s y y r r 3.1.~ }.2.}.c }.}.2.2.}.2.2.2.2.2.2.2.2.2.2.2.2.2.2.2.c 2.! 3.E.A.r.r.r.r.n.n.u.u.u.g.g.j.q.q.-+-+p.|+|+|+|+|+p.j.j.h.o.o.o.n.n.n.F.n.n.n.F.t.B.F.A.k.A p p z m t #   _ . . . . . . . . . . ",
"                          .               . . .                       . . . . . . . . . . + + + :   Z M R x s s s y s s H E M ` M O ` I I 2 2 ` O 5 5 6 9 C s C 9 H H 6 6 6 6 b b b 6 H H H H x x x x x m ~.p /.B p p B /.o /.~.' ~ l 1 e $ = Y % % T W Y e 4 9 C b I I b &.5 9 8 d d E j | V J j j M E R R R R R F F '.F F R '.$.w p s p r q z z {.~ }.c c }.}.}.}.}.2.2.2.2.2.2.2.2.2.2.2.2.2.2.2.c 2.! 6.d.t.B.r.r.r.n.u.u.u.u.g.h.q.q.-+p.|+|+|+|+z.|+p.j.w.w.g.u.n.n.n.n.n.n.f.f.B.F.F.B.F.E.s././.A z m t /   _ .   . + . . . . . . ",
"                          .                 .                   .     . . . . . . . . . . . . + _   N ..R s s s s y s s k E M ` ` I I 2 2 I ` } O I I 3 3 S 5 5 5 S k &.b b b 5 5 &.k H H H 6 H x x H x x y o /.n p p ~.z z z !.z s H ..j 0 $ & = = * Y = 0 ] 3 6 3 K ..E 3 I 5 d d d 5 U | e V J U M E R R R M P R E R F F R M '.l x r r B ~.z z {. .}.2.2.}.}.}.}.2.}.}.2.2.2.}.2.2.2.2.2.2.2.2.2.}.-.p s.E.t.r.r.f.f.n.u.u.u.g.h.h.q.p.p.|+|+|+|+|+|+p.q.q.h.g.u.u.n.o.n.n.n.n.n.f.B.F.F.B.B.[./.3.1.p t  .t /   _ .   + + . . . . . . ",
"                                            .                 . .     . . . . . . . . . . + . @ _   / M ..s s s s s r s &.E ` } O ` } K K ] ] ] O ` ` O O ` 3 3 S &.6 &.4 S k &.6 6 H 6 6 9 C s C C C d t s /./.z ~././.~.~.z !.!.x x F 1 f e 0 - - = = & 0 | J K 1 1 K } } K ..H C C S J f 0 f 1 K R E M M M M M M E E R R E R $.w l l n D p y D r t ) 2.2.}.}.}.}.}.}.}.}.}.}.2.2.2.2.2.2.2.2.2.}.2.7 6.s.e.t.f.r.f.f.f.n.u.u.h.j.j.q.p.|+|+|+|+|+|+p.q.j.j.g.g.g.o.o.o.o.n.n.n.n.n.B.F.t.A.6.p o ~.p ~ t  .t /   _     . + + . . . . + ",
"                          .                 .                           . . . . . . . . . . . + _   / } ..s s s s s s s &.F ` O O } 1 J j J 1 1 } O ` ` ` 3 S 3 S 6 H b 2 5 S b 9 2 &.x l 6 d 8 ~ d d ~ ~ y n /.n p ~./.1.o ~.~.y x H k ..J f e 0 - & & $ 0 e f f | J J J U U K S 9 H S 1 f 0 f 1 } ....M M M R M M R E R R F F F F R P '.3.A n y y t L ' c.c }.2.2.}.}.}.}.}.}.}.2.2.2.2.2.2.c c c 2.) l.J.B.t.f.f.r.f.n.n.g.g.h.q.q.-+|+&+|+|+|+|+-+q.j.w.g.g.n.u.o.u.n.n.n.n.n.n.B.t.B.B.6.' A 6./.~.~ t t t /   : .   + + + . . . . + ",
"                          .                 .                       . . . . . . . . . . . . . . _   # } O C s s s s x &.` M O O 1 j j j j j J ] ` I 2 3 3 3 3 3 S 6 H &.I 3 4 6 b K M l R R E S H ~ ~ ) ' t z /.p p ~./.z /.p o p p w k E 1 j | f 0 $ $ 0 $ e f f | j J J J K ..k 6 6 4 1 f e f K } ....O ..M M P K R E R I 3 F F '.R >.>.>.>.].y w ].].) c.c }.2.}.}.}.}.}.}.}.}.2.2.2.2.2.}.2.c }.c /.U.e.f.r.f.n.f.f.n.u.g.w.j.p.-+&+|+|+|+&+|+&+-+q.h.g.u.o.n.n.n.n.n.n.n.n.n.n.t.t.F.m.5.D /.[.!.~.~ t  .t /   : . . + . . . . . . . ",
"                          .                 .                         . . . . . . . . + + + . + _   < K K 9 s s d &.E } J J J j | | | | j J ] ` 2 2 2 3 2 3 3 3 S H &.I O ` 3 6 C H R P M R R M O 6 ) ! ! r o o ~.q o /.~.z z z p p w l R 1 J j f e e 0 0 0 f f f j j J J J 1 M 6 9 b O f 0 0 j } O O ..M ..I M U K M M } M R I I '.>.>.>.>.P '.,.y ]. .c }.2.}.}.}.}.}.}.}.}.}.2.}.2.2.2.}.2.}.c }.q 3.6.A.t.f.r.f.f.n.n.u.g.h.q.p.-+|+|+|+|+&+p.-+q.j.w.u.o.n.f.F.f.n.n.n.n.f.F.N.B.A.N.T.5./.A !.s r ~  .1. ./   : . . + . . . . . . + ",
"                          .                 .                         . . . . . . . . + + + + + _   < K 1 9 C 9 5 1 1 j | f f f f f f j } 3 I ` 2 2 I ` I S S S &.k ` J 1 } P k d d k P K M F M K ..8 c ) ~ p p ~.q B /.o o z z q s m k I } 1 J | f | f e f | | | 1 J j j J J J 5 4 O j 0 $ 0 j O I I ` I ..M M K } M K K M M ..F E R '.>.>.>.>.'.].!.~ ! c }.}.}.}.}.}.}.}.}.}.}.}.}.2.2.2.}.c 2.-.1.1.d.t.t.f.f.f.f.n.n.u.g.h.i.q.-+p.|+|+p.-+q.j.8+w.u.u.n.n.n.f.f.n.n.n.f.n.n.N.t.e.F.`.5.A _.3.t q q  . . ./   : . . + + . . . . . + ",
"                                            .                         . . . . . . . . + + + + + _   g K } 6 9 &.R U j f f f e e f j K ` 3 2 ` O O ` ` ` ` 3 S S 3 ` 1 J 1 ] K k s x H F M R R M U } C -.) ~ y q p q ~.~.~.~.n z ~.s m k 4 ..K 1 j | | | | j 1 1 1 K K 1 1 ] j e f e 0 0 e $ 0 J ..2 I 2 E 2 R P K M M P } O O M R E '.'.'.>.'.'.>.>.'.s c c c }.2.2.}.}.}.}.}.}.}.2.}.}.2.}.}.-.2.) ~.[.A.r.r.f.r.f.f.n.n.u.g.g.j.q.q.p.p.-+q.q.j.w.w.g.u.n.f.n.n.f.f.n.f.n.B.B.F.B.A.f.B.`.^.o !.1.1.1. . . . ./   _ + + @ + . . . . . + ",
"                                                              . .     . . . . . + . . + + + . + _ ( a K K F R M U V f e e 0 e j 1 I &.b 3 I ..} ] O ` ` ` ` E S E 1 j j 1 1 j I H s s w F R M F M K 5 ) -.~ s q t q p p y y o A ~.y m k 4 I } 1 j | j j j J 1 } O O O ` ` ..J f 0 $ - - e f j K I I I 2 ..F E M P M } K } } ` ..P R F '.R $.'.'.'.>.'.].8 ! c 2.2.2.}.}.}.}.}.}.}.}.2.}.}.}.}.}.c p /.6.t.f.r.f.f.f.f.n.n.u.g.g.h.j.j.j.j.j.j.j.h.w.w.g.u.n.n.n.n.n.f.f.f.B.B.A.E.A.t.n.B.T.5./.z !.t ~. . . .8./   : + . + @ . . . . . . ",
"                          .                                           . . . . . + . . + + .   @ @ Z ).} M M J f ; e f 0 0 | ` b b 9 6 S 3 2 O ] 1 } O O ` ` I S 3 1 | | j j | J 5 ' ' s w $.E P P P E s c ' s q p p p n y y z z y y m k 4 2 } 1 j j j | j J 1 O 2 ` ` 3 3 2 O 1 f 0 $ $ e J ..3 4 2 2 I I I M M M K P } } M ..M K P R R P F '.'.'.>.>.>.$.r ! c }.}.2.2.2.}.}.}.}.}.}.}.}.}.}.2.) _.[.A.t.r.f.r.f.f.n.n.n.u.g.g.w.h.j.j.8+j.8+w.h.w.u.u.n.n.f.f.n.f.f.r.t.B.B.A.6.E.B.e.F.F.T._.m m ~. .1.t L  .N   : . . + + + . . . . . ",
"                . .       .                                       .   . . . . . . . . + . . @ : + g ] f j | e f e 0 e | 1 I b k 9 C b 2 2 2 ..] 1 } ] O ` ` I &.S } j j J ] J j ` d r x w w R V R } ..k ) ' q q p p o o y ~.y z y ~.x k 5 F ` K J j j | j J J } I 2 3 3 2 2 I K J | f e | P ` ..5 4 3 E S ` K M M K K M } M M P K P M R M '.'.'.>.>.'.>.>.y c c 2.2.2.2.2.}.}.}.}.}.}.}.2.}.}.2.! ~.d.F.r.r.f.f.r.f.f.n.n.u.g.g.g.g.w.w.w.h.w.w.g.g.u.n.n.n.f.F.F.f.r.B.t.A.m.A.T.s.[.s.t.N.A.3.y  .L  ., , 8.9.i   @   . + + . . . . . . ",
"                . .                                                 . . . . . . + + + . . @ @ + Z | f e e e f f | j ] 2 5 5 b k C C b 2 2 2 O ] 1 ] ] } O ` I S 3 ` J | J ] J | K C s w w w F J R U M k s ~ s r p o o p ~.y n z y y y w 4 3 I } 1 J j f j J J } ` 2 4 3 ` 3 5 3 ` } 1 j J 1 1 1 ..2 3 5 3 M K M M M K M O ..M K M M R M R R R >.>.>.'.'.'.k ) c.c }.}.}.}.}.}.}.}.}.}.}.}.2.2.c -.q k.f.f.r.r.r.r.n.f.n.n.o.o.u.g.g.u.u.g.g.g.u.u.u.o.n.n.f.n.F.B.f.B.B.t.k.e.k.J.~.' `.e.t.A.[.t m L a. .{.9.|.( + @     + + . . .     . ",
"                  . .     .                                       . . . .     . + + + . @ : _ @ *.f e f f f V J K I 3 5 5 &.C s s C 6 4 I 2 O 1 1 ] ] } O O ` 3 E I J e j ..| f ` C s x H k k R K U R k t ~ s q p z o o p o o y y ~.y k S 3 ` } K j j f j J 1 ] ` 3 3 3 3 4 5 4 3 2 } K K U J ] O E F 3 I } } } O I O I } ....E F R P M M R R R R R R Q '.>.$.l d }.}.}.}.}.}.}.}.}.}.}.2.}.! c ) [.e.t.f.f.f.f.f.n.n.n.n.n.n.n.u.n.u.u.u.g.o.u.u.n.n.n.n.n.f.f.B.B.t.t.e.k.k.d.z ' r 6.A.F.d.3.!.m  . .a.9.9.<   : @     . . . . .   . . ",
"                                                                . . . . . .   . + . . . + :   i f f f | | | 1 ..I E S S 6 C s s r s 9 4 2 2 O ] J ] ] } O } I 3 E R 1 f j ] j | l d d s H k 6 x 6 3 S k t x s D p z o o p p o y y ~.m k S 3 I ` } J j f | J 1 O 2 3 2 2 2 2 3 2 2 3 5 3 ..K ] } } I E O I ..` M ..O ..I } ..` 5 &.R M M R E E R R '.F Q P >.P R w ) }.}.}.}.}.}.}.}.}.2.c c c ! 3.J.A.t.r.B.f.f.f.f.f.n.f.n.n.n.n.n.n.u.u.u.u.n.n.n.n.n.n.n.f.f.B.t.t.A.e.k.d.[.p q q [.A.m.d.3.1. . . . .9.).i @ : +     . . . .     . . ",
"                                                                  . . . . . . . + + . . . @ : g | f | j J } O O I 3 &.H s s s s s C 9 4 2 2 I ] j 1 } } } O 3 &.&.k &.F E ..J j E d C x x H k 4 P >.'.l ) d s y z z z n ~.o n A z ~.z k F 3 2 2 O 1 f 0 e | J ] 2 3 3 I I I 3 3 I I S 3 E } } K } I ` ` ..` O ` I M I } O ....&.6 F E R M R R E '.E F R P P F E k x ) c c 2.}.}.}.2.2.}.c c -.q J.A.B.t.r.B.f.f.f.f.f.n.f.n.n.n.n.n.n.v.u.u.u.n.n.n.f.n.n.F.f.f.t.t.A.e.E.k.6.B n n t !.E.m.T.3.1. .L L  .9.^   _ +     .   . . .       . ",
"                  .                                                 .   .   . . + . . . + @ N f | | j j K O O I 2 &.x s r p s s r s 6 4 4 2 O 1 j J ] K O ` 3 b 9 d 8 8 s S ] | J 9 C 9 s H & v+r+y+C+V ~ 7 ~ p m m p n ~.n o z n y z k S S 2 I O J 0 - $ 0 e J I 2 2 I ` 2 3 3 I I 2 3 3 O ..} ] O ` ..O O } ......E } I ..] I 6 S F E F ..I R P R '.P P >.$.M R S &.) }.}.}.}.c }.}.}.c c ' U.s.A.B.B.f.B.f.f.f.f.f.f.f.f.n.n.n.n.n.n.n.n.n.n.n.f.n.f.f.f.B.B.t.A.e.E.k.s._.o o p q /.J.m.T.1.1.L 1.L 0+0+i   + +   . .   .             ",
"                . .                                                 .   . .   . . . @ @ . _ ^ e e j j 1 } O ` 3 &.H s r s p p s ~ d 6 4 3 2 O 1 j J 1 1 } O 3 &.6 6 C d 9 3 1 j I 7 c C &.$ p+B+B+z+w+C+].8 8 r s y y y y n o z y ~.y w &.S I I } j 0 - - - 0 j O I ` O O 2 3 2 I ....3 ` O O K ] } O I ` } K } } } O E ..] J } 5 ..R E &.I R R R $.'.R >.>.'.R M M k 7 }.c c c c }.}.c 2.r 0.J.s.T.A.t.B.B.B.B.r.f.f.f.f.f.n.n.n.n.n.n.n.n.n.n.f.f.f.f.f.B.r.B.t.e.E.J.s.[._.A o p p p 0.m.T.1.m L 1.m J.g   @   .   . .                 ",
"                . . .                                               .   . . . .   . @ :   N j e f j 1 } O ` E l x y r q p p p s ~ C 6 4 3 3 O 1 j J 1 1 } O 2 S &.b C d 8 9 3 5 8 2.}.c.6 X s+z+s+r+r+r+- d 6 l w y z y y ~.y z y n z w k S 2 ..O j 0 $ - & $ f 1 } } ] } O I I ` ` 2 2 ` ..O ] ] } O ` } K } } } K ] ..E M K ..O 1 M ..E ....l F R $.$.>.>.'.F E M k 9 s ! }.c c c c }.! 0.T.E.E.k.e.A.e.t.B.f.f.r.f.r.f.n.n.n.n.n.f.n.n.n.n.f.f.f.f.f.r.B.B.B.A.e.d.s.6.o n o o o y q [.m.0.~.1.L {.0.@.i   + .   . .   .   .         . ",
"                    .                                                       . . . + @ @ + |.| f j J } O ` R l x y s q q p q q s ~ d 9 4 2 2 } J | j 1 1 } ` 3 &.k 9 8 ! c c }.7 c }.c }.c V %.r+r+p+D+%.V t R V F p ~.~.~.y ~.y y ~.y H k b 3 I ..J 0 $ = * = 0 | J 1 ] } O O O O ` 2 2 I I O O } ] O O } O O } } } O K ..5 S I J K M } O ..E l R P _.3.>.> $.'.E E M ..F C c }.c c }.}._.0.0.T.m.m.e.e.A.A.B.B.r.t.r.B.B.f.f.f.f.f.f.f.f.f.f.f.n.f.f.B.t.B.t.A.e.k.s.[._.A D o A n o p /.T.6.1.1.L 0.0.g . @ :     . . . . .           . ",
"                                                                . .         . .   . @ @ @ [ f f j ] } O I S x p D D o ~.p q q t ~ 7.9 4 I I } J | J 1 1 O ` 3 &.b 6 d ! }.2.2.}.}.-.-.c 2.2.8 } | f } 2.}.c c ) ) ) r z y ~.y y y y ~.H k 5 3 2 I K J e - & = - 0 | J J 1 } O 2 I 2 I 2 2 ` I O } ` I K } } K } } } } K } E 3 O U K 1 K } I 2 E F ].5.5.s.>.>.R M ..M M R l ) c c c ) r ,.,.p _.6.T.E.k.e.e.e.A.A.e.A.r.r.f.f.f.f.B.B.f.f.f.f.f.n.f.f.B.t.A.A.k.k.s.l.U.A A o B A n p B 3.T.[.1.1.3.0+H Z . _ :     . . . . .           . ",
"                                                                .           . .   . @ . _ [ e | j K K ` F x s p D D y ~.~.q q t t x 6 4 I 2 O J | j 1 ] O O 3 S b 6 C ) -.}.}.}.}.}.c c.}.2.2.2.2.2.2.}.}.2.2.2.2.}.c r y ~.y ~.y x m H k b 4 3 S E ..J 0 - - - $ e j j j 1 ] O I I O O I I I O } ` 2 ` O } O O O O } ] O 2 S ..J P M ] 2 4 2 M $.[.s.l.6.6.>.P K M ..} R F k y r s n _.o r D D B 5.[.d.e.e.E.k.e.A.e.t.B.B.B.f.F.B.B.f.B.B.f.f.f.B.B.A.e.e.E.d.s.U.5._./.n o o o o p ^.0.m.3.3.3.3.~ |.@ ( : + .     . . . .           . ",
"                                                              . . . .         .   . @   Z K e | j } } F k s o B B o z ~.~.y t ~ t x H 4 I 2 O J f | J 1 } O 2 5 &.b C 7 }.}.}.}.}.}.}.2.}.2.}.-.! c ) ! }.2.2.}.2.2.}.c q y y y y x x H 6 b &.5 5 5 5 I | 0 $ $ $ e j | f j J } O O } } ..` 2 O ] O ` 2 2 O } O ....I ..I 4 3 2 1 } M } } } ] M '.s.d.d.d.0.>.U U P R M R F R F w r o o o D B n ^.^.^.U.s.d.d.E.T.A.A.e.t.t.t.B.t.B.B.B.B.B.B.B.B.B.A.e.E.d.d.6.5._.^./././.o n B o q /.T.T.3.0+3.r ) <   _ : + .     . . . .           . ",
"                . .                                   .   .   . . . .   .   . .   . @   / J e j U M M k n o p B B o y z z ~.t t t x 6 4 I I ] J f f J 1 K O 3 5 b 6 d -.}.}.}.}.}.}.2.2.2.}.c -.c c c }.2.2.2.}.c 2.}.}.' s s y x x x H 6 b b b S b 9 b } j | e 0 e j j j | J } ` } ] ] ] } O ` ` I I I ` O } ] ] 2 2 O ..2 2 ` } K ] } 1 1 ] ..'.s.s.k.A.T.> J U K M F F '.'.l s r D o o D D B o o B /.^.5.U.s.J.E.T.e.E.E.E.e.e.A.A.A.m.A.A.A.A.e.e.T.d.s.6.5.^./.o /./.o o n o /.r 3.> 0.[.3.! -.7.i   : @ . . .     . . .           . ",
"                  . .                                   . . . . . .       .   .   . :   / J e j U M R x o o p B D o n z z ~.t t t x 6 F ....] j e e j J K O 2 5 b b 8 -.}.}.}.2.}.}.}.}.2.}.}.}.}.}.}.2.2.2.2.2.}.}.c }.! y y s x x C H 6 b b 5 S 5 6 b ` K 1 j f | j J 1 J 1 } O } 1 1 K ] ] } } O O ` O O } ] } ..I I I I ` I I } } } ] 1 } '.s.s.l.e.m.T.U V J J U R '.R M F k x D o D D D B B D B /.^.B ^.5.[.s.s.d.d.d.E.J.d.E.E.k.E.E.d.k.E.d.d.s.6.U./.^.^././.o o o B D y o r 6.> 0.z ) 7 ) ^   + @ + . + . .   . . .       . . . ",
"                                                            . . . .   . . . . . . + :   # | f J U M S s o B p D D D n z z m x t t w H 4 ..2 K j e e | j J } 2 5 b b 8 -.}.}.}.}.2.}.}.}.}.}.}.}.}.}.}.2.2.2.2.2.2.}.}.}.c s y s ~ d C H 6 6 6 b S 5 6 5 2 ` ..1 J J J J J J 1 K ` O } 1 1 } ] K O O } O I I I } ] 1 } 3 I O O 3 2 ..O ] 1 ] ` >.d.s.k.m.A.J.V V J U j U $.R U U P R k y D D B o n B D ^.A n /.^.^.^.5.[.6.s.J.J.s.J.J.s.s.s.s.s.s.[.U.5.5.^.^./._./././.o B D p !.~.' 0.>.t ! }.7.d #   @   . + . . . . . .         . . . ",
"                                                              . . . . + . . . + + . _   g e V J U '.w o B D s s D o y n m y s x t x 6 3 ..2 ] j e 0 f f J O 2 5 b 5 ;.-.}.}.2.}.}.}.}.}.}.}.}.}.}.}.}.}.}.2.2.2.}.c 2.c c c ! ) ) ) C 6 6 6 6 b S S b 5 2 I I K 1 1 } } K 1 J 1 } O O ] } ` } } ` O } O I I I } 1 1 ] S 3 O I I O } ] ] ] O R d.k.d.E.m.A.T.U U j U J P w w P U P '.$.x D D D n n o r B _.n B ^.^.^.^.^./.5.[.[.[.6.s.6.[.6.6.U.5.5.^.^.^./.^.A _./././.o o o z /.q t ~.r ! c -.6 7 Z   : . . + + . . . . .         . . . ",
"                                                              . . . . . . . + @ + @ _   ^ f j J P l n A ^.o y D D o n ,.,.r ' ~ d x k E I ..] j 0 $ f e | } ..4 4 4 ;.-.}.}.}.}.}.}.}.}.}.}.}.}.}.}.}.2.}.}.2.2.2.2.}.}.c }.c c c ) C 6 6 b 9 b 3 S b 5 2 2 } 1 1 K ` ` O } K K K O 2 I I 3 2 O O } ] O I O O ` } 1 1 2 4 3 2 ` ] ] } O O ` ].U.l.l.l.T.A.T.U V J J U P '.w $.P P '.'.$.w n o D n o B B B D ^.B o A o B B o ^.^.^.^.^.^.^.^.^./.B ^.^._.^.A A n /./.o B p p !.,.p ~.m ! c ! 2.l 8.a ( + @ . . + . . . . .     .     .   + ",
"                . .                                         . . . . . . . + + + + + _   g | J J P w n A B o y o o o o z ,.! ! ' ~ x k E ....] j 0 $ f 0 f ] O 2 4 4 ;.-.}.}.}.}.}.}.}.}.}.}.}.}.}.}.}.}.2.2.c ! ! c.}.}.}.2.}.}.! ) d 9 6 6 9 b 3 S 5 5 S 3 O 1 1 } I ` O O O } } } 2 5 4 2 I I ` } ] } ..} O ..} 1 1 K K I I } ] ] } } ] E ,.l.l.l.U.s.T.>.V V U J J V U '.].'.P R >.P F k z D D B o o D B o B B n ^.o o ^.n ^.^.B B B B B ^.^./.^.^.^.^./.^.o o o p q o p y z 3.0+~ ! ' 2.P P }.N   @ @ . . .     .                 . . ",
"                . . .                                       . . . . . . + @ + + + + : @ *.f 1 U M w n A B o n y o n D o p c ! ' ~ t k E ....] j 0 $ e e f 1 ] 2 2 4 ;.-.}.}.}.}.}.}.}.}.}.}.}.}.}.}.}.}.2.}.! 8 8 8 8 ) ! 7 ) 8 8 8 d 9 6 6 6 b S S S &.&.S ` K K O O } K } } } K } ` S 2 I I 2 2 O O O } O O 2 } 1 } 1 1 I I O } O } O O S ].l.s.l.5.^.A ].P P U J V V V '.].].'.>.R >.'.$.k n D n n o D B o B o o o o o n o o n ^.B ^.^.^.^._./.^.^.^.^.^.o ^.n D q p ~.~.~.q {.].) ) }.6 ; 8 g   . @ . . .       .           .       . ",
"                  . .                                       . . . . . + + @ + + + @ : ( *.| K P l y n o ^.n y o o n n ,.s c ! ' ~ s H F ....] j $ - e 0 f J 1 ..{ 2 7.-.}.}.}.}.}.}.}.}.}.}.}.}.}.}.}.}.}.c ) 8 8 8 8 8 8 d C d d d d C 9 6 9 b 5 5 5 &.b &.I K ] } O } K K K K K K O 2 2 I ` 2 I ` I O } } ` O } } K K } E 3 O ] O K I 4 F $.[.U.[._.r ' x M U J V V V J >.].w >.>.R >.'.F F k n n n o D B o o o o o o o D o o n ^.o ^.n A o ^.^.^.A A /.B B o p B ~.~.p m !.t 0+].) }.) V m g   + @ + . . .     . .           .     . . ",
"                                                            . . . . . . . + + . + : . Z f J K P y o A B n ^.n o o o n ,.s ! ) ~ ~ t H F ....} j - $ e $ e j 1 ..{ 2 7.-.}.}.}.}.}.}.}.}.}.}.}.}.}.}.2.}.2.2.! 8 8 8 8 8 ) 8 8 8 8 8 C 9 9 9 9 6 b 5 S b 6 6 S ` } K } M } } } K } ` I 2 ` 2 ` I I I I ] ] } K K } } K ..` I E } } O ....2 E k ].,.,.z r ' s P U U V j V U P l !.'.'.'.R Q F E F x y n D D o D o B o o B B D o o o o o o o n ^.^.^.^.^.^.^.B n n n /.z z ~.1.L L $.s c 7 U $.|.  @ @ @ + .                           .   . ",
"                    .                                   . . . . . . . . . + . + @ + + g e J U R B A /./.o /.n o D D n ,.' ) ' ' ~ s H F ....] J - $ | $ f j 1 ..O { ;.-.-.}.}.}.}.}.}.}.}.}.}.}.}.2.2.}.}.2.! 8 8 8 8 8 8 8 8 8 8 8 d 9 9 6 6 6 b 5 S &.6 6 S ` O } } } } } K K O O 3 I I 3 2 I I I O ] O O 1 } } } } O I ` I ..I ....O ..3 b &.F F k ~ ) x R U U j U U J K ].m ].].w R F F R F l k x D o o D D D o o D o o o o o o o o o ^.^.n n ^.o ^.^.o o o o z ~.~.1.!.L {.s c -.U >.|.h @ : : . .                               . . ",
"                    .                                   .   . . . . . . . . + + : . Z f 0 J U $.B A /.A o n o o o n n x ! ' ' ~ s s 6 F ..O ] J $ & | $ e j J O ] { 7.-.}.}.}.}.}.}.}.}.}.}.}.}.}.}.}.}.2.}.) 8 8 8 8 8 8 8 8 8 8 8 C 9 6 6 6 6 5 S 5 &.6 9 b 2 O O } O } } K ] } I S 2 ` I 2 I O I I 1 ] O ] } ..E } K 3 3 ..E E ....O O 2 4 3 3 3 6 d ) r k P U U J U J K l z ].l x k l F R R F F l y y y D D o D o D D D o o o o o o o ^.o n ^.^.^./.n /.n o y z ~.~.!.!.].m 7 2.l V ).(   : @ + + .                   .           . . ",
"                . . .                                   . . . . . . . . . . + + _   # | f J U w n _./.n o o o o n n z y ! ' ' ~ t ~ w F O } ] j - = e $ 0 j J ] ] O 7.-.-.}.}.}.}.}.}.}.}.}.}.}.}.}.2.}.2.}.) d 8 8 8 8 8 8 8 8 8 d C 9 6 6 9 6 5 S &.&.6 9 6 2 } } O O O } } ] } 3 3 2 I I 2 3 O ..2 K ] } K K O O ] M 3 I ....` } } O ..I 3 3 b b C 8 ~ r k P K J j j j K l x ].w ~ k l F E R E F F k s s D o o o o o o o o o o o o o ^.^.^.^.^.A n n A n n o y z ~.!.m {.{.) 2.s > C Z   : @ + . .                         .         . ",
"                . . .                                   . . . . . . . . . . . @ ( . < f | U M x ,././.z o n o n A n A y ! ' ~ ~ ~ t k F O ] 1 j $ - 0 - 0 j J ] ] ] 7.-.-.}.}.}.}.}.}.}.}.}.}.}.}.}.}.}.}.}.) d 8 8 8 8 8 8 8 8 8 d C 9 9 6 6 6 5 S S &.6 6 b 3 } O O O O } } } ` 3 3 ` O ` O ......O O O } O K } } K O ..I E ..I I ....3 3 4 3 S b C d 8 ' k P U J V V J K k y l w s l E E M E ..E F k s s D o o o o o o p D D o o o o n A n ^.A A n n A A o o ~.z m m m L ~ }.' > ).N   @ : + . . .                               .   . ",
"                  . .                                   . . . . . . . . . . . @ _ + g e j J '.y ]._./.A o o n A /.A ,.s ! ' ~ s s s k E O ] 1 j = T - 0 $ | j ] J ] 7.7 -.}.}.}.}.}.}.}.}.}.}.}.}.}.}.}.2.}.) d 8 8 8 8 8 8 8 8 8 d C 9 9 9 6 b &.S S &.b b &.2 } } K } } } O O 2 I 2 I } O ] ..I O O ` ` O } O } K } } } ..2 O O I ....2 3 2 3 S k 6 r ) ! s R U J J j J P w s k s r k R ..M M M R E l k s r D D B D o o o p o n o o o A A o A n n n o y n n y y !.!.m L ~ }.c >...Z   : : @ . . .                                 .   . ",
"                                                                      . .   . + @ + ^ e V U ].n [.5./.n n /.n o n ,.,.r ! ' ~ s C x k E O ] 1 e #.D+(.e | | J ] J ] 7.-.-.}.}.}.}.}.}.}.}.}.}.}.}.}.}.}.2.}.) d 8 8 8 8 8 8 8 8 8 d C 9 9 6 6 b 5 S &.b b 6 6 3 } } K K K 1 K } ` I 2 4 ` K } ` ..O O O 2 I 1 } } ] } K E E ....O ..I ..I E I F 5 H x d r ! s '.P U U J K R H x k w ' x R E R ..} M R R R &.x D D D o n o o o o n n n ^.o n ^.n A n o n y y y p s !.m L  .! 2.,.> #   @ : @ . . .                         .         .   . ",
"                    .           . .                       . .   .     .     . @ . + ^ f j P z A [.[._.o n o n n A ,.x ' ! ) s s x x k I O 1 j $ (.D+b.= f | J 1 | J 7.7 -.}.}.}.c.c.}.}.}.}.}.}.}.}.}.}.}.}.) 8 8 d 8 8 8 8 8 8 8 d C 9 9 9 6 b 5 5 &.b b b b S O } K K ] ] K } ` I 2 3 2 K O ..` O O ..` ..] 1 O O 1 ` ....` E } } ..I ` 2 F b S k C x d ! w >.P K U U R F k x w x ~ H l F R M M E E R R R F w s D n /.n B n n n o A A A A n n n n n y o ~.~.~.t  .z L ' 2.d >.g   + @ @     .                                       . . ",
"                    .                                 .   . .   . .   .     . : @ + *.f j $.p _.].[.3._.n n n n ,.,.r ! ! ) ~ s x x b ..} 1 j e %.D+(.% $ 0 j 1 e | C 7 -.-.c.c.c.c.}.}.}.}.}.}.}.}.}.}.2.}.8 8 8 8 8 8 8 8 8 8 8 d C 9 9 9 6 b 5 4 5 b b b b S ` } ] 1 1 1 K } ` 2 2 I ..O I I O O O ..} 2 I 1 ] ] 1 } O E ....} M R ....E k k &.&.k H ! ! w R R P P P '.H d 8 s ~ ) x l l R M M I I M R R M F w o ^.o o n o n n o A o n n o n n n y ~.p ~.m ~.!.t  .q ! ) 0.|._ @ _ @ .   . .                                         . ",
"                                .                     .   .     .     . .   . @ . ( v f U ].p 3.[.[._._._.o o o ,.].' c ! ' d s H H 5 ..] 1 J f #.:.T Y 0 f j 1 0 | 7.7 -.-.}.c.c.c.c.}.}.}.}.}.}.}.}.}.}.}.8 d d 8 8 8 8 8 8 8 8 d C 9 6 6 6 b 5 5 5 b 9 6 b 3 } ] 1 J J J K } O 2 2 ..] ` ` 2 O } O } O ....} ] } ] 1 O 2 R O M } } ..E F l 6 6 6 k C ! ! x '.R P M M F s ) ~ d r s y w x E M P } K K M E E E $.].A B o A A n n n n A n A n n y o o ~. .t t  .m t m ) c 0.0.Z   @ @ . . .                                             . ",
"  .                             .           .       . .   .     .   . .     . :   i f V P z p ].3._._._.,.D n o ,.,.! c ! ' ~ C H H 5 } K 1 J e = * - - j | j j $ f 6 7 -.-.}.c.c.c.c.}.}.}.}.}.}.}.}.}.2.c 8 d d 8 8 8 8 8 8 8 8 d 9 9 9 9 6 b 5 5 5 b 6 6 6 4 } 1 1 J j J 1 O I ` 3 O K ` 2 3 1 1 O K } O K } } } 1 ] } 2 I ..} K K } R F &.l &.k k C ! ! s R P P P M l ~ ' ~ 8 ~ x x y w R U } K K K M ..E F '.'.].,.A ^.A n A o n n A n n n y ~.~. .t t  .m m ~.~ }.k >.#   @ . .   +                                               . ",
"                                            .       . .   .     . . . . .   + :   i 0 J F q A ].,.,.o A A n A n A x c ! ! ) ) d C C 6 } K } J 0 * = +.* 1 f | e & e 4 7 7 -.}.}.c.c.c.}.}.}.}.}.}.}.}.}.2.}.8 d d d 8 8 8 8 8 8 8 C C 9 6 6 6 b 5 5 5 S b b b 4 K 1 J j j j 1 } I ` I ..} O I ..K K } } O } K K O ] ] K } ....} ....O } ..E l l 5 E 5 C ) ! ~ E P P P P k ' ) ) ) ) w w x l M K ..K K } P M P M R '.'.$._.B B A A o o n n o y z z y ~.m t t  . .w s 2.C >.|.: + @ + . . .                                           .   . ",
"                                                          .     . .   . . . + :   i & V ].D ,.,.,.].n A A o n A ,.x c ! ! ! ! ) d C 9 ..} } J $ = = (.% j f | | - 0 5 -.7 7 }.}.}.c.c.}.}.}.}.}.}.}.}.}.2.}.8 d 8 d 8 8 8 8 8 8 8 d 9 9 9 6 6 b b 5 b S b b 6 3 K J j j j | J } 3 2 ..M O ..O } I ..} } } ] 1 ....K } 1 ] } I O M ......M E &.&.l &.6 d ) ) d l '.M P P k 8 ) 8 ) ' k w x l P P K M U K } K P M R R '.$.[._.B ^.A A A y y y o n y y y p m m t m w }.s $.[ i . : @   . .                                           . .   . ",
"                                .           . .   . .     . . . .   . . . . . :   Z & U n n _._.].,./.,._.A _.3.w ~ ! ) c ! ) ) 8 d 9 O J } j & = * o+& | e f f $ $ 4 7 7 7 c.c.c.c.c.}.}.}.}.}.}.}.}.}.}.c.8 d d d 8 8 8 8 8 8 8 d C 9 9 9 9 b b 5 5 3 b b b 2 ] J J j j j J } 2 2 ..} } ..} K } K } K K 1 K ..2 3 O 1 1 } ........O } } R l S &.b H C 8 ) d k $.R M >.l ) ) 8 ) ! H x x Q K U J P K P K K P M '.F F '.'.$._.n o o n A n n n n o y n p m m  .x ! ~ 0.$.N   : @ + + . .                                             . . . ",
"                                            . . . .       . . . .   + + +   . :   N ; R D A _.,.]._.^.A A _.,.].s ! ! 7 d C 9 6 I } ] | j } f % - % q+0 f 0 e f e = $ d 7 7 }.}.}.c.c.}.}.}.}.}.}.}.}.}.}.}.8 d d 8 8 8 8 8 8 8 8 C 9 9 9 6 6 b 5 4 4 3 5 b b 2 1 J j J j J 1 ..2 2 ` } } O } O O O } 1 K 1 ] O b 6 I K } K ` ....} ] ..M R F l k b H C d ) 8 l '.'.R R k ~ ) ) c ) H s w U J U J U P M P P M M R $.F M R '.].].o p n n n n n o o p /.z z !.m ) -.,.$.#   : : . . . .   .                                         . . . . ",
"  .                                                 .     . . . .   . . + . . :   N ; $.y ].,.,.,._.A /./.].,.w ) -.-.7 C 2 } } J j J f | } e T $ T o+0 e 0 e e e W +.5 }.7 c.}.}.c.c.}.}.}.}.}.}.}.}.}.}.c 8 d 8 d 8 8 8 8 8 8 8 C 9 6 9 9 6 b 5 5 4 3 5 b 4 O 1 J J J j j 1 ..4 I O K } I 4 3 } K M ..} 1 1 I 3 I } } 1 ] } R } M K P E R S k &.S 6 d ) ! ) l M R P R w 8 ) ! }.) k 8 k V J U J U U P M M P U P >.>.O R $.'.$.,.n y A A n z n o o o z !.!.~ -.~ ,.<   @ @ + . .                                             .     . . . ",
"  .                                                 .       . . . . . . . . + :   # ; ,.p ].].n _.,._./.n ,.H d ! ) ) d 2 O ] J J K K J V K e W - (.q+| $ 0 e 0 e #.+.6 -.7 c.}.}.c.c.}.}.}.}.}.}.}.}.}.}.}.8 d d d 8 8 8 8 8 8 8 C 9 6 9 9 b b 5 5 S 2 5 5 4 } J j J J j | j O 2 ` K M } ` 3 K 1 1 O O M 3 I O I O O K K ..O K ....M R E E l l k 5 6 x d ) ) k R F R E k 8 7 ) ! d k ) x U U U U U U P M R R P P P >.R >.>.>.'.[._./.A n n n o o n o y !.x ! ~ z <   + + @                                                 .       . . . ",
"                                                            . . + + + + .   + : @ < F.~.q ,.,._._._.n p y x C ) 8 C b ..1 1 J j j M } J | J e T & q+o+j - $ 0 0 ; o+y+j -.7 }.}.c.c.c.}.}.}.}.}.}.}.}.}.}.c 8 d d d 8 8 8 8 8 8 8 C 9 6 6 6 6 b b S 3 2 5 5 2 ] J j J j J j 1 2 E ..P M P F 5 ..K K K ..b 6 R ` O ] ..} K } ..} O } ..S F F l l 6 C w 9 C ) ! w F F F $.l d ) ~ 8 s l r w M P P K P P R $.'.'.P P P P >.>.>.P >.$.[.5./.^.A /.n o A o ~.y ! ) z g . : _ @ . . .                                               .   . . . . ",
"                                                                + + . . .   + : h *.T.q p ].,.]._.o o y y ' ) C b 5 O 1 J j K R M F ..K j e $ Y - r+(.j & - 0 e & r+z+% -.7 7 }.c.c.c.}.}.}.}.}.}.}.}.}.}.c.8 d 8 8 8 8 8 8 8 8 d C 9 6 6 6 b b b 5 3 3 5 4 ..] J J J J j J 1 S E R E } R &.S F K U K O ..E ......3 E } 1 K M K } K K M R l l k H H b C 8 ! ! H F F F E F C ) ~ ) x l s F U M P K K P '.$.$.'.K P P P >.'.>.P >.'.6.l.U.^.^.A /./.o !.3.' c r |._ @ _ : . .                                                 .     . . . . ",
"                                                .       . . . . . .     . @ @ + g /+F.' A ]._.,.,.y ,.o ' C 5 3 4 I ] J J } l 5 M ..1 O J - & T W w+(.f * - 0 e = s+u+Y -.7 7 }.c.c.c.}.}.}.}.}.}.}.}.}.}.c 8 d d 8 8 8 8 8 8 8 8 C 9 6 6 9 b b b 4 3 3 4 3 ..] J j j j j j J E E E E M E &.E M K K M U U J } 2 3 2 E U 1 O R S E M K K M l k H 6 H 6 s ) ) ) s l F F E l w d 8 ~ w H ~ M M E M P P M '.$.'.'.P P P P R >.P P P >.0.s.[._._._.^./././.q c ) a i @ _ :                                                           . . . . . ",
"                                                          + + + + . .   . _ ( < /+Z.B.r /.3.].,.w w s s l } } O O O 2 2 S 5 &.F } R K ..J & * T +.u++.$ Y & 0 e % s+x++.;.7 7 c.c.c.c.c.c.}.}.}.}.}.}.}.}.c 8 d 8 d 8 8 8 8 8 8 8 C 6 6 b 6 b b 5 S 3 3 3 2 ..K J j j j j j 1 ..3 E E ` I k E K M K K U U K 1 } 3 ..K ] ..I ..k k E M P R E b 6 H H C H 8 ) ~ s l l F $.l &.C ~ d C 8 s F k P M R M M R ].].'.0.>.K P '.P K P K P >.s.l.U.5._.n B /.r c ! q #   _ @ +                                                     . . .     . . . ",
"                                                          + + + .     @ : ( < h.8+Z.k.B A ,.].,.s s S P } ] ] J O 6 3 l l F &.k S k ..E j % % T #.x+W & T & 0 e T t+B+#.;.7 7 }.c.c.c.}.}.}.}.}.}.}.}.}.}.c ) d 8 8 d 8 8 8 8 8 8 9 9 6 6 6 b b 5 4 3 2 4 3 ` ] J j j j j J ] O I E E E ` E F P M M J K K P P K M E ......3 I R k F M M R 3 b k H H k l s ' s x l l l l F C s ~ ~ d 8 x k R M R R M M R $.$.'.'.'.R R P P P K P U U 0.6.[.[._./.B p ~ ) ! ).( @ @ @ .                                                   .     .       . . ",
"                                                  .     . + . .   . +   _ < /+8+q.Z.l./.].,.y w l F ..` } 1 ] 2 6 5 P R '.l w s H H E 4 J T Y W (.x+T = T & 0 e T t+z++.7 7 7 }.c.c.c.}.}.}.}.}.}.}.}.}.}.c 8 d 8 d d 8 8 8 8 8 d C 9 6 6 6 6 b 5 4 3 3 4 2 ..] J J J j J 1 O 3 3 2 I ..O O E E } M K P M P M } ..P 3 3 ..I ` } E E } M ..4 6 H 6 k 5 F s ' ~ s F F l 5 k x d ) 8 d ~ C E K R R R M E R l F R E R '.R P P P P P P U >.E.s.[.5.A o p ' ! 2.#   : @   . .       .                                                     .   . ",
"                                                  . . + + + .       : h < /+u.x.z.,+U.B ].].l U J K J 1 ..I 5 9 &.l F >.$.z s r s H E l J T T X b.u+T & T & $ e +.w+x+%.) 7 7 c.c.c.c.}.}.}.}.}.}.}.}.}.}.c ) d d 8 d 8 8 d 8 8 8 C 9 6 6 9 6 b b 5 S 3 3 E I K 1 J j J J 1 O 5 3 I ..P } O } R E R K P M M R P I K E I ..I I O I 5 } 1 ....5 H 6 k H l 8 ! r s k F F k H x ~ 8 ~ s s H E P P R M R E E F F F F E P } } P P P P U >.>.T.E.s.[.U._.A ) ! }.Z   _ +   + .     . . . . .           .                                   .   . ",
"                                                    . + + + .   @ : h g /+i.w.&+^+,+5.p '.P V V J 1 K 3 6 C 8 8 l w ].[._.o p r s w F 5 j T W W :.u+T = T - 0 V #.w+z+(.d 7 8 c.c.c.c.}.}.}.}.}.}.}.}.}.}.c 8 d d d 8 d d d 8 8 d d 9 b &.6 6 b &.E E F ` O } } 1 J K 1 j | ] ` } ] } I R R } M F E U K K M M M } } I R S S E M S 6 3 ] K O 5 H 6 H 9 5 ' ! r ' x l k l w x s s ~ x x H w F P K } M M R l S l l E O M M P P K P K P '.J.J.T.6.[.[.,.q ! 2.Z   (   . + .         .               .                                   .   . ",
"                                                . . . + + . + @ + ( < Z.Z.h.u.}+(+|+l.'.U V f J } E 6 C d 7 2.) w ,.[.U.^.o q r y w S 5 | T W W o+t+% & T - 0 V C+u+z+b.d 7 7 c.7 c.c.c.}.}.}.}.}.}.}.}.c c ) d d d d d d d d d 8 d &.E R F M M K P P M E S 6 C 9 6 C C 3 I M K 1 K O F F F ..E E F P K K M P M M K M 3 I ..M ..S 5 b ..} ..5 k k 6 b l ~ ) r ' ~ l l l k s s x s x H w H k P ..} ....R l l l E I M R R P P K P K '._.6.J.T.J.3./.,.x 7 }.Z   ( . . + .                                                               . . ",
"                                            . . . + . @ +   . _ ( < /+Z.j.u.|+(+6+z.k.> V f J E 6 C d ) 7 }.2.! ].].[.l.^./.q q s w S b | T W X q+t+= & T - ; V b.z+x+b.d 7 7 c.c.c.c.c.c.}.}.}.}.}.}.}.}.c ) C d d d 8 d d d d C l M P M F l H C d d d ! }.2.2.2.2.}.2.2.}.) C ` S k &.k S l &.k k F P K P P P R K K ..K K K M ..4 b 2 } O 4 S l 5 k k ~ ) d ) r S l F l s r s t 8 d k k w } ..} ..R E k k l I O ..R } M M M ` } k D [.J.> > >.3.!.s ) 2.N   : + . + .         .               .                                       . ",
"  .                                           . . . .   . @ _ ( g 8+/+f.G.p.I.%+3+,+k.'.'.l ~ r s d ) c }.2.2.! ].$.U.6.5.p q q s H S b f T W X y+t+% - T - ; V b.z+z+:.C 7 7 c.7 c.c.c.c.}.}.}.}.}.}.}.c c ) s d d d d d 8 d d l U P K l ' ! c 2.2.2.2.}.}.2.}.}.}.}.c c }.2.2.) H 9 5 3 S S k 5 &.H F M P R M K J U U K P M O O 3 9 4 ] 1 ..F &.5 H &.~ ' s x k l F $.l x ~ ~ ' ' ) x H l M M M M M F l l S S O M M P P P O } } ` F ,.n ].>.>.$.y w w ) g   @ @ + . . .                                 .                             . ",
"  .                                           . .   . @ @ @ _ # i.Z.w.w./+}+^+%+L.|+^.z o s ' D x s ) 2.2.c 2.! [.[.5.6./.p q q s H S 6 f T W +.D+t+% - T - ; V <.B+z+<.C 7 7 c.c.c.c.c.}.}.}.}.}.}.}.}.c c ) C d d d d d d d C R U M k ' ! c 2.2.c 2.2.2.2.}.2.}.c 2.2.}.}.}.2.2.) 6 E 4 b &.k &.l l M R P E E U J U K K K M ..R ..5 5 ..O 2 b b k b b ~ s w l F E F l k x s d d ~ x w H k F R R R I I F l 3 S I M O M P M M K } 1 } k w w ].'.>.'.$.k x 8 h : : . . . .                             . . . . .                         . ",
"                                            . . + .   @ _ ( / f+,+q.q.Z.,+,+%+9+2+i.r y o o o y y s ) 2.c ! c ' [.[.5.6./.q s q t x &.b e T W +.r+s+& - W & e V p+B+z+v+C 7 7 c.c.c.c.c.}.}.}.}.}.}.}.}.c c ) C d d C d 8 d d x P J E ) ! ! ! c }.c c c }.}.}.}.}.}.}.}.2.}.c c c }.C ` S 5 &.k F &.F M P E k k E K U K U P ....} I 5 b 3 ..4 4 5 b b k C x 5 E E F I F w x t ~ d ) C l x H k F F F F E 3 3 E E E I } M M M P P K K ..I K P R F '.>.'.x H 8 |.: ( + . .                           .       . . .                         . ",
"                                            . . . . + ( @ / f.Z.y.q.,+z.,+M.%+9+2+w.s y r o n A D D 8 2.c c ! ' 3.3.3.s._.p q r s x l k e T W #.r+s+- 0 T - e V p+B+z+q+C 7 7 c.c.c.c.c.}.}.}.}.}.}.}.}.}.c ) C d d d d 8 d C C U V w ' ! ! ! c c c c }.}.}.}.}.}.}.}.}.}.}.c c c c ) b &.5 S S l F F F ..9 6 S l R P P P P ....M E F S S O O 3 4 4 l 4 9 9 S E E E E l w w C ~ ' ) d s ~ H l F F l l R I F E E 3 ` M ..M P } } P O O K P M R F R '.l '.$.k C < + ( .                                   . . . .                         . ",
"                                        . . .     . _ _ i G z.p.8+Z.}+,+,+M.%+9+L.w.8 y D ^.n A o s ) 2.2.c ! q [./.3.6./.D q q y w l l e T T %.r+r+- f % $ e ; y+B+z+p+C -.7 c.c.c.c.c.c.}.}.}.}.}.}.}.c c ) C d d d 8 d d C C J V s ! ! ! c 2.}.}.}.}.}.}.}.}.}.}.}.}.}.}.}.}.}.}.}.c k R F l &.S H &.5 b H S M P R M M P M ..4 3 F 3 3 ` } 2 3 5 5 4 H C &.E E E F l w x x s ~ ' ) ! ' ' 6 l F 3 I R E l F E 4 3 ` O } } } O } ..O } 1 } F F R F l $.$.l $.k N   _ . @                                 . . .                         . ",
"                                        . . .   . + _ : *.|+|+|+,+}+}+,+}+H.%+2+2+f.r n D B o n y r ! 2.c c ! B [.U.5.6./.B p q y m l l e T Y (.s+D+0 e Y = ; ; r+B+z+p+C -.7 c.c.c.c.c.}.}.}.}.}.}.}.}.c }.) C d d d d 8 8 d H U U x r d ! }.2.}.2.2.2.}.}.}.}.}.}.}.}.}.}.}.c }.c -.}.) E M R 5 3 5 6 k 6 E M K U E R P M } I b S S b b E } ..3 5 6 5 b C C 3 R F l F l k x x s ' ! ! ) ~ s w w l F E F l F S S S ` O O } } } } M } ] P ..I M R R R F k w x k ).N @ ( + .               . .             . . .                         . ",
"                                        . .   . + @   ^ /+/+p.,+}+}+,+}+1+I.d+>+d+m.r o D B A n o ' c c c c ' B [.U.U.6./.p q q y !.l l e Y Y (.s+D+f | % - e ; r+B+z+p+L -.7 c.c.c.c.c.}.}.}.}.}.}.}.}.c }.) C d d d 8 8 d s x P 1 &.q C ) }.2.2.}.}.}.}.}.}.}.}.}.}.}.}.}.}.}.}.c ! -.}.) E } 5 F } S 9 b F K P M M M M M E 4 k 5 ` 3 6 4 ..O ..b 6 6 b C d l M R M '.l ].w s d ~ r ) ) d ) d w !.!.S S l l b 4 3 I ..` ` } } } } } } ......M M R R F F '.].$.$.].< @ _ .             .                   . .                         . ",
"                                        .     + @   N /+/+i.Z.1+1+H.H.}+I.%+d+{+%+m.s y r B _.n o ! c 2.2.! ' B U.U.[.6./.p p p ~.w l F f Y % b.s+D+0 | % - e & s+B+z+p+ .-.7 c.c.c.c.c.}.}.}.}.}.}.}.}.c }.) C d d 8 8 8 d s s l &.' r x C ) c 2.}.}.}.}.}.}.}.}.}.}.}.}.}.c.}.}.}.7 ! }.}.8 l l P K 5 C C k M P R M M M E S 3 &.3 O O 4 4 I O ..b 6 6 6 C ~ k } O M R w w y s ' ) 8 ) ) ~ 8 s w ].].k l l k 5 4 S E 2 2 I } } K } } M O ..} M R R ..M >.'.'.$.'.$.w N   @ : @       .   .                   . .                       . ",
"                                  . . .     . . . h f+/+i.z.z.}+H.H.M.}+I.%+]+[+%+T.d y r B n o D c c 2.c ! ' ^.[.[.[.[./.n p p ~.w $.F f Y * :.s+p+0 0 T * ; % t+B+z+p+=.-.7 c.c.c.c.c.}.}.}.}.}.}.}.c }.}.) C d d d d r ~ s s d q y x 6 9 C d ! 2.}.}.}.}.}.}.}.}.}.c.c.c.c.}.}.c -.-.}.-.! C l J J E C d H P M R P M M R E F &.l K } b 6 4 4 4 3 4 6 k w ~ ~ l l F $.w w z x s ) 8 ) ) ) ) s l l k w &.&.k 5 S 5 3 2 3 I M O } O O O ..} M M R M P P P $.$.$.].$.].a Z : : . .         . .                 .   .                     . ",
"                                  . +     . : + _ _+/+v.q.z.}+H.M.H.1+M.I.%+>+V.^+'.8 x r D B D r 2.c 2.c c ' ^.[.U.[.[./.o ~.p y w $.F f % = :.s+v+f | = = e % t+B+B+p+=.}.7 c.c.c.c.c.}.}.}.}.}.}.}.}.c }.) d d d 8 d 8 8 d s x x H H H 6 9  .d ! 2.}.}.}.}.}.}.}.}.c.c.c.c.}.}.-.-.8 7 7 7 ) H j | U 2 3 ..M ..M R M M M R F k H 4 E S 9 C 5 4 3 4 k H &.s ~ q x $.$.].z n k s d d 8 d d d s k l w k k k &.&.5 5 S E 3 3 I O ` } ` ..O } O M P P P M P >.'.$.].$.].].].# + @ +       .                       . .                     . ",
"                              . + . + +   + + + g /+i.v.|+1+H.I.M.H.M.I.^+%+>+P.}+6 8 s r D o o ' ! c 2.2.c ' ^.U.U.6.[./.z p p z w $.E f * = o+s+o+| f * = V T w+z+B+q+;.-.7 c.c.c.c.c.}.}.}.}.}.}.}.}.c }.) d d d 8 8 8 d d s C H H 9 x x x 9 6 9 7 2.}.}.c.}.}.}.c.c.c.c.-.-.-.5 j j I 8 -.! ~ 6 M K K M K M F ....E E I M R E 5 6 &.6 C C S 3 b 6 H k d ~ s s x ,.].,.~.y w ' ! 8 ) C H H w &.&.w k &.S &.&.b S 3 4 3 E I ` ` ` I ` O ..K K K M M P M >.'.'.6.$.$.0.6.|.: _ @     .           .             . .                     . ",
"                          . . . + + + +   +   # h.h.v.j.}+M.M.O.H.M.M.I.^+d+>+3+i.8 8 x s o n D r ! c 2.c ! ' ^.U.[.6.3.p z p ~.z w l E f = = o+s+o+f e % Y ; X w+z+B+o+;.7 c.c.c.c.c.c.}.}.}.}.}.}.}.c }.}.) d d d 8 d 8 d d d 9 H H H H 9 9 6 6 6 C ) }.}.c.c.}.}.}.c.}.c.}.c.2.2 $ U I 6 7 ) ) ! ~ C 6 6 R K 3 ..O I I E ..R ..E l b 9 C C 3 2 S 6 C H d s ~ s w ,.A /.!.y w x ! ) ) ) C H k k 3 3 k S S 5 &.b 3 3 5 3 E 2 E I ` ` I ` O K K M P ..P K >.'.0.6.[.].0.0.$.i . _ .   . .     .   . .             .                     . ",
"                            . . . . .   @ . Z G h.r.u.p.1+M.O.M.)+O.I.^+^+d+>+(+N.7 8 y D o o D ' c 2.}.c ! r 5.[.[.6.3.~.z ~.~.m w l E V = * o+s+:.| f = % ; +.u+x+B+<.;.7 c.c.c.c.c.c.}.}.}.}.}.}.}.}.}.2.) d d d 8 8 8 8 d d C H H H x 9 9 H 6 C 8 9 9 7 c.}.}.}.c c }.c.}.c 2.6 J O 4 C ) 8 ) ) ~ x d ~ k 3 3 E ..} } R I ..} K M &.6 b b b b 6 &.x s C d ~ s k $.]./.!.!.w k ' ) 8 ! d &.k {.I 2 k F 5 5 b b 3 3 3 3 2 2 I ` ` O ..` ..} } } } P K K M >.>.0.0.3.0.0.$.N   _ @   .       . . . .             .                     . ",
"                            . .   + @ @ + h *.|+w.r.w.z.1+K.O.O.)+)+(+^+%+9+e+3+N.8 d y D o D D ' c c c c ! D 5.U.U.6.3.p z ~.~.m ].l '.V = * o+s+#.] 0 * * ; %.w+x+B+b.7 7 c.c.c.c.c.c.}.}.}.}.}.}.}.c }.2.) d d d d 8 8 8 d d C 9 9 9 H H C H 6 C C C 9 C 7 c.}.c c c c }.}.c -.}.R R C k 6 7 ) ) H F m k k H C H M } } M E ` ..M } b 6 5 6 6 b 6 6 C C C C d s !.].$.].,.z w w s d r ) ~ k l l k l k &.&.b b b 5 4 3 3 3 I I M O } ..I O } } O K K } K P '.>.J.0.6.0.0.6.g . : .           . . .               .                     . ",
"                          . . . . . @ _ _ g /+/+v.G.w.Z.H.O.O.:+:+:+(+:+%+2+Y.3+F.) s w y o A r r ! c }.}.! D 5.U.U.6.].z z ~.~.!.w w R V - * o+r+X ] $ = * - C+w+x+B+(.-.7 c.c.c.c.c.c.}.}.}.}.}.}.}.}.}.2.) d d d 8 8 8 d 8 d 9 9 9 9 H H H H 6 9 6 C C b 6 4 b ) 7 }.}.c c c c 7 1 O C l M d ) -.l P F E F w C d &.O O } E K I ....5 5 4 6 k b 6 4 6 6 d C C d y z ,.A /.t w l w s s s ~ l R l k k b 6 b b b 5 5 4 4 3 S 2 M M } } O E I I ....K K K K U >.0.0.0.6.0.0.6.6.h   @ .           . .               .                     . ",
"                          .   . . . ( + # m.h.t.f.u.j.z.H.O.)+%+6+%+6+%+6+2+Y.4+A.) r x n n D r s ! 2.}.}.! D 5.U.U.6.3./.z ~.~.z w w R f $ * o+D+Y ] 0 - * & C+t+u+B+#.-.7 c.c.c.c.c.c.}.}.}.}.}.}.}.}.}.2.) d d d 8 d 8 d d d 9 9 9 9 9 H 9 9 H 6 b &.S 5 3 ` M ..S 9 ! ! 7 c 7 1 e ` m l F b 9 C k F l l l &.k w x k E O I ....I 2 S 5 3 5 k C 9 b 5 9 C C d r y z y o B ' {.P l ~ w l t k R l l S 5 6 6 b b 5 S 4 5 3 3 2 ` ` O O O ..I 2 I O } K K K P R '.0.0.0.0.0.0.0./   _ +             .                                     . ",
"                        + .     . _ _ i G h.t.t.g.w.j.|+1+)+:+%+7+9+L.2+%+9+Y.4+T.8 s y n o o D x ' c }.}.c D 5.[.5.6.3.~.z ~.z z w w M f ; % o+y+= ] e $ = = C+t+u+B+X -.7.c.c.c.c.c.c.}.}.}.}.}.}.}.}.}.2.) d d d d 8 8 8 8 8 C 9 9 9 9 9 9 9 b b S S 3 2 2 3 I } J J } } O I ..j j x w k y k S 2 I w k l l &.3 R w x k M I 2 ....2 5 b 2 3 &.9 6 9 b 6 b 6 C s ].].].,.n m ].R w s w ].w x F E E S S S 6 b 5 5 3 4 4 2 I 2 ` O ` } ..I I ..I O O O M M M '.>.0.0.0.`.0.J.0.^   _ +   . .                                             . ",
"                    . . . .   . . _ _ G /+r.n./+/+w.8+-+1+:+%+6+9+9+2+d+6+9+Y.4+J.r y A y D n p x s ! }.}.c D _._.5.0.3.~.m z z !.,.w P f e % o+q+- J f 0 & % b.t+w+B+T -.7.c.c.c.c.c.c.}.}.}.}.}.}.}.}.}.2.) d 8 d d 8 8 8 8 8 d C C 9 6 6 6 6 &.5 3 3 S 3 3 3 ..} } K J J 1 1 K O C ) m k t ~.4 O 2 4 k &.l k l M F l k ..` I ..O I I b 5 O 4 b C C C b 9 9 C w '.$.].,.!.w t r ) s w t q ~.l F S F S S &.S 5 4 3 3 3 3 I ` I ..O O ....I ....M O ..I E E F '.0.0.0.6.0.`.s.G h @ :   .                                               . ",
"                      . .   . + @   ^ /+8+B./+i./+w.j.|+M.%+9+2+L.L.L.9+2+2+Y.4+l.r y A y y n p y s ! }.2.c D _.A 5.0.3.z z z z !.w k R V e Y o+:.$ | e 0 & T :.s+w+B+% -.7.c.c.c.c.c.c.}.}.}.}.}.}.}.}.}.2.) d 8 8 8 8 8 8 8 8 d C C 9 9 9 9 6 &.5 S S 3 3 3 2 O K K K K 1 ] P M ..C ' ' t ~ s w b F M 4 5 &.k &.l F l 6 } } I O O ..I 3 2 2 ` 5 6 C 9 9 8 b b w '.'.$.].!.~.~ ) ) s F ~.r p ~.].l F &.S 3 3 3 5 4 3 3 3 2 2 I ..O ............O } ....I E R >.>.0.0.s.0.6.J.J./   _ +   .                             .               . ",
"                    . . .   . +   N i.h.d.f.j.p.q.w.q.z.I.9+9+2+L.L.e+L.2+6+Y.4+_.r o y n y y p p q c }.2.c D _.A _.0.,.~.z z z !.w w R f ; T o+:.$ | e 0 & W :.s+w+B+* -.7.c.c.c.c.c.c.}.}.}.}.}.}.}.}.}.2.! d 8 8 8 8 8 8 8 8 d C C 9 9 9 9 6 b S 3 3 S 3 3 2 O K K K 1 1 1 ] O E ) ~ ~ r x !.~.~ w l k 4 S &.S &.l l 5 K K I 2 3 O I S 2 4 2 4 E b 9 d C 6 8 ' ].'.].z ,.z ~ ) ) d R !.q !._.w l R I 5 5 5 4 4 4 2 2 2 I ..........` ..O ..` ..I 2 I ..I R M >.'.0.0.s.6.J.J.g   _ :   .                             .               . ",
"                  . . .   . . . h _+Z.F.t.w.p.q.w.8+|+1+I.9+]+2+L.L.P.2+2+%+Y.4+D D o o A n o o p q ! }.2.c r _./._.$.3.z z z z !.w k M V ; W o+b.e j | 0 & X :.r+w+z+& }.8 c.c.c.c.c.}.}.}.}.}.}.}.}.}.}.2.! d 8 8 8 8 8 8 8 8 8 d C 9 9 9 9 6 5 S S S 3 3 2 2 ..K K 1 1 1 1 1 ] I d H w p  .w w H d x H 3 S &.k F &.C 6 M O 3 5 3 O O R S S 3 ..M &.C 8 C 8 2.) ,.].,.p ].k ~ ! ! x $.!.m ].].k l F S S S 3 S 3 5 3 ..` O } M O } } ..M ` ` ` ` E I I 2 ....M M >.0.0.0.6.0.0.G h : : .             . . .             . .           . . ",
"                      . . @ @ + < Z.B.F.v.p.Z.x.-+1+1+H.^+>+e+e+L.e+L.2+2+%+Y.,+' o n n A y o p p r ! }.2.c r _.B _.'.].~.~.z z m w k R V f W o+(.f | f 0 = +.<.r+w+x+$ 2.8 c.c.c.c.c.c.}.}.}.}.}.}.}.}.}.2.) d 8 8 d 8 8 8 8 8 8 C C 9 9 9 9 6 b 5 4 4 S 3 2 I ` } K 1 1 K 1 1 ] 3 6 k l w t m k w d x 9 &.6 C w 2 6 ) d k 5 I O ` ..] } E E M R F F &.C 9 C d C ].,.A z $.w ) ! -.~ y y s l ].w l l S S 3 I 3 S 3 3 I ..O O } } } O ..} ` O ..E I ` ` I I ..E R >.$.0.0.6.6.0.T.N . _ +             . .               . .             . ",
"                .     + + : . N /+N.s.g.p.Z.|+-+,+I.O.O.:+>+e+e+2+d+9+2+2+6+Y.,+' A A n A y o o y r c }.2.c D _./.3.'.].~.z z z !.w l R V V W <.#.f f f $ * +.:.D+t+w+e 2.7 }.c.c.c.c.c.}.}.}.}.}.}.}.}.}.2.) d 8 8 8 8 8 8 8 8 8 d C 9 9 9 9 6 b 5 S 3 S 3 3 2 I O K } 1 K 1 K } 4 d ~ m  .s x k k k l 6 d 6 H F I 5 k x d H M J ..4 M ` E l l H &.S k 9 C H H C ].].,.z $.H ! 7 ) x r 8 d F w H l l F 3 S 3 E E 4 3 I I ..O } } } M ....` } ..` I ..O } I ..M R R '.>.0.0.0.0.J.<   : .     .       . .               . .           . . ",
"              . . . . . + : ( f+N.s.D.u.|+Z.,+H.H.^+:+:+9+>+>+9+9+d+2+L.L.6+Y.k+' ,.A n ,.y p p p r c -.}.c D ,.A ,.'.].z !.z z !.w k R V | W b.+.| | j ; * +.:.D+t+s+] }.7 }.}.c.c.c.}.}.}.}.}.}.}.}.}.}.2.) d 8 8 d 8 8 8 8 8 8 d C 9 9 9 9 6 5 4 S S S 3 3 2 2 O K K K K 1 } } I C 8 ~ t ~ x l E R ..E &.k &.E E I I H H k I K ..E 3 &.k C ) ) s H ) d C C s x $.'.,.A ].t ) 7 ! 9 C ~ 5 E b &.l 5 &.F &.5 F F S S I I O } } O O ` O 2 I O ` ` 2 ` K O ..M } } } P M '.0.6.].].[ (   @ .           . .                 . .           . ",
"                      + ( . # N.e.e.S.w.p.,+M.M.I.:+%+2+L.>+9+9+9+2+2+L.L.%+Y.Z.' A n n ,.y o p p r c -.2.! o A A A '.$.z z z m m w l R | | X (.W j j V ; % %.:.D+s+D+{ 2.7 2.}.c.c.c.}.}.}.}.}.}.}.}.}.}.2.) d 8 8 8 8 8 8 8 8 8 d C 9 9 9 9 6 5 5 4 4 S 3 3 2 I ` K K 1 K 1 K ] 3 d 8 w {.x s b F F E E E F S 4 E I I b 6 6 b 3 } M S 6 E S C 6 6 x C C C ~ d m k '.].,.$.C 7 7 c 8 ) C R S S l k 5 &.k S F &.F E S 3 I I ..} } 3 2 ` 2 2 O ` I E I O O } K P M R M R $.$.$.].$.$./   _ .   .                           .   .       . . ",
"                    . : : Z /+e.e.u.v.q.z.,+H.O.^+:+d+L.e+{+>+>+e+e+>+e+2+%+W./+' _.n A ,.y y q p ~ c -.2.! o A A z $.$.z ~.z z m w l R j | X C+W J j V ; T #.b.p+r+y+{ 2.7 }.}.c.c.c.}.}.}.}.}.}.}.}.}.}.2.) d 8 8 8 8 8 8 8 8 8 d C 9 9 9 6 b 5 4 4 4 4 3 3 2 2 O K } K K 1 1 } 5 ) c t l t ~ H b 6 H b 3 S l &.k S 3 b 9 9 b C E 3 C 9 ` ] ` ` 2 5 b 6 d ;.~ ) r ].].,.k t 7 7 7 -.-.9 &.H 6 5 b k &.b 5 F F E E 3 5 5 3 4 I ` 2 I 2 I ..` ` ` ..I ..O P M M R R E F F $.$.$.0.0.^   _ +   .                           . . .       . . ",
"          . .       . @ _ f+g.l.S.8+q.,+M.1+M.^+%+%+9+e+e+[+[+e+P.P.e+P.2+6+++N.' _.A n A y p q y ~ c -.}.! y n D ,.>.$.z y z ~.m {.l R j | X (.W J j f ; W #.(.v+r+v+4 2.7 2.}.c.c.c.}.}.}.}.}.}.}.}.}.}.2.) d 8 8 8 8 8 8 8 8 8 d C 9 9 6 9 6 b 5 S S S S 3 3 3 ` K K K K 1 K O 4 8 c '  .x s x 6 6 6 6 5 6 b l &.b b &.5 9 6 b b b 9 &.5 ..R 2 4 S 3 I 6 C t ! ) A 3.y s ~ -.-.-.-.7 S 6 d 6 l &.b b 5 &.5 F F 3 E S b S E 2 ..I ....E E I O ` I I ..O } ..M R R R R R F $.$.$.0.a ( @ @   .               .           . . .   . .   . ",
"          . .   . + @   g m.6.E./+z.}+M.H.H.I.^+%+6+]+e+e+P.P.P.e+e+e+P.]+2+Q.T.r _.n A ,.y p p p ~ c -.}.) A D r ,.> $.~.y y ~.x {.l R | V +.(.T J j V ; X %.%.v+D+b.9 2.c.2.}.c.c.}.}.}.}.}.}.}.}.}.}.2.}.) d 8 8 8 8 8 8 8 8 8 d C 9 6 9 9 6 b 5 5 4 S S 3 3 3 I } } K K 1 ] O 3 8 ! ~ {.w x x b 5 5 b 5 5 k l S 5 5 &.5 b 6 S S S 4 3 2 E E 4 5 5 2 I 5 9 C ~ ~ ,.[.!.t ~ 7 -.-.-.7 5 &.9 b 4 S 5 b b b 5 S l E I 3 I E ..O 3 2 I I ....I 2 I 2 3 2 ..} P P K P M M R R $.l ].$.{./   _ .     .           . .         . . . . . .   . ",
"      .           .   N m.d.l.e.|+}+M.H.M.M.O.^+%+%+2+e+L.P.W.P.e+e+e+P.]+L.Q.k.q ,.n A ,.y y q ~.~ c -.}.) n o o ].> $.z z y y m k l ..| | X %.* j V ; ; +.%.#.:.p+%.d 2.-.2.}.c.c.}.}.}.}.}.}.}.}.}.}.2.}.) 8 8 8 8 8 8 8 8 8 8 d C 9 6 6 6 6 b 5 5 S 4 S 3 3 2 I } } } } K } O 3 ) -.' {.w ~ C k 3 4 6 6 5 &.b 5 5 4 S S 6 6 b b 4 4 5 I I 4 3 5 4 5 4 3 9 b C x $.6.$.{. .7 }.7 -.-.c d &.&.9 5 5 b b &.3 3 S ..2 ......O O O I I ..I E I I E O E E E ..M } K M M R F l l ].l $.l g . _ @     .           . . .       . . .   . .   . ",
"    . .         . . ( *.l.s.k.j.}+I.(+I.H.H.O.%+%+6+>+e+L.e+W.e+e+e+e+P.e+W.Q.D.q ,.n ,.,.z z p ~.~ -.-.}.! y n y ].> $.z y y t x k 5 ..j f X X - ; f - - %.%.X C+v+X 8 2.-.2.}.c.c.}.}.}.}.}.}.}.}.}.}.2.}.) 8 8 8 8 8 8 8 8 8 8 d C 9 9 9 6 6 b 4 4 4 S 3 S 3 3 ` } O } } K O } 2 ) }.' L w ~ x k 5 5 b 9 b b 6 b b 5 S E 6 C b b b 5 4 3 3 5 4 3 4 b S 5 b b C H '.[.!.m t -.}.-.-.-.-.) C 6 6 6 b 6 b b &.2 4 4 3 I ..M M ..} } O O ..2 I ` ..M ..I I E I I E S S E F l l $.l l l [ h @ :     .         . . . .       . . .   . .   . ",
"    . .       . + . < >.0.k.w.1+^+(+^+I.H.H.O.^+%+6+L.e+L.e+P.P.e+P.P.V.e+Q.Y.D.q _.n A ,.w z z y ~ -.-.-.! z y p $.P $.z y p y m {.5 ..J 0 +.T $ ; V ; - %.#.W C+o+W 7 }.-.}.}.c.}.}.}.}.}.}.}.}.}.}.}.2.c ) 8 8 8 8 8 8 8 8 8 8 d 9 9 9 9 9 6 b 5 4 S 4 S S 3 3 I } } } } } } ] 2 ) }.7 m w ~ t 6 b 4 4 b 5 b 6 5 5 b 5 S b b 6 b b b 3 4 4 4 4 4 3 4 5 4 2 6 C s ].3./.m ~ -.}.-.-.-.9 C ) 6 5 b 9 b b 6 b E b 5 3 S 2 } M P } M M ` } M I I ` I ` I ..E E F E 3 S E R E F l k l l {.N   : .   . .       . . . .         . .     .   . ",
"    . .     . +   / @.,.J.u.z.1+6+(+)+^+O.I.^+%+%+2+e+P.e+L.e+P.e+P.W.W.e+Q.L.l.q _.A ,.,.,.z !.x ~ ! -.-.! !.~.q $.P $.!.y s y m k l ..J e W Y - - V ; & C+#.W (.<.Y -.}.c.}.}.}.}.}.}.}.}.}.}.}.}.}.}.2.c ) 8 8 8 8 8 8 8 8 8 8 d C 9 9 9 9 9 b 5 5 5 S S S 3 3 2 O } O } } } ] 2 d -.-.m ].~ 7.b b b 3 5 b b b 5 5 b S 5 4 5 6 6 b b 4 4 4 3 4 4 4 4 b E I 6 C s l ].].{.t -.}.-.-.-.d C ) 9 3 5 6 b 6 6 5 4 2 I 4 2 ..3 E M } M ..M K O I 2 I 2 ......I 3 3 E I E R M E S H w l k l <   @ +   . .     . . . . .           . .   . . . ",
". . .         . i G >.l.k.p.1+M.6+7+:+O.O.%+6+%+%+2+e+P.e+e+e+P.e+P.P.W.P.X.Y.U.p _._.,.,.,.!.w x ~ ! -.-.! !.y s ].P $.y m s x w k 4 M 1 0 % $ - % ; - % b.%.T #.:.* -.}.c.2.}.}.}.}.}.}.}.}.}.}.}.}.}.2.c ) 8 8 8 8 8 8 8 8 8 8 d C 9 9 9 6 6 b b 4 5 4 3 3 3 3 2 O } O O O O ] I d -.}.x l ~ 7.5 b b 5 b 5 b b b 4 5 4 6 5 3 b 6 b 5 b b 4 4 4 5 b 5 b b 5 9 d 9 k ].].l a.-.-.7 -.-.9 C d 9 b 6 9 6 5 5 4 3 2 2 5 5 5 C C H ` } O O } } ..I I I ........I I E E E E E I l w k l l $.a _   + .           . . . .               . .   . ",
". + .     @ @ h ^ T.k.e.v.|+M.(+6+%+^+O.K.%+2+6+2+>+[+P.P.P.e+e+P.e+e+V.P.X.3+U./._._.,.].,.z k k d ) -.}.) x s q $.P $.z m p y w l E R ..$ - J ; % - - Y b.+.% #.b.= }.}.c.2.2.}.}.}.}.}.}.}.}.}.}.}.}.2.c 8 8 ) 8 8 8 8 8 8 8 8 d C 9 9 9 9 9 b b 5 S S S 3 4 3 I } } O O O ` } ` 7 }.}.~ w t 7.l &.5 b 6 4 4 6 b 4 3 5 9 b 5 6 6 5 4 4 b 5 5 b b b 6 6 6 9 6 C H x x !.k 7.-.7 7 -.) &.6 6 3 4 b b 6 5 2 4 5 3 3 5 6 C C C 9 9 6 I } O O I I I I ....I ..` I 3 2 2 3 3 ` R E F k k F F Z   : .   .         . . .           .         . ",
"@ + . + : + ( g F.l.k.r.8+Z.I.(+6+%+%+:+O.%+6+d+2+e+[+V.W.W.e+e+P.e+e+Q.W.#+6+l./._.A ,.,.x ' ~ d ) ) -.}.) x s s $.P '.z !.y ~.w l R ....& ; U & % - ; W :.X Y #.b.- 2.}.c.}.}.}.}.}.}.}.}.}.}.}.}.}.}.2.c 8 8 8 8 8 8 8 8 8 8 8 d C 9 9 9 9 9 6 5 5 S 4 S 3 3 3 I O } O } K ..] ` 8 }.-.s w t 7.x H k b 5 4 5 5 k b 4 5 b 5 9 9 6 b 5 S 5 5 5 4 5 b 9 6 6 6 6 C 6 x x x 6 7.;.;.7 -.7 8 ;.C b 2 4 5 3 3 5 4 3 3 5 I 2 9 C 6 &.6 9 b 4 2 O I I ..I ..` O ` ` 2 2 2 2 3 I I ....R l H S l g   _ +   . .       . .     .                 . ",
": . + @ _ h g N.t.D.G.w.j.,+^+^+%+%+%+:+)+%+6+9+L.e+5+V.V.W.P.e+e+e+P.=+W.X.6+5.^._.A ,.,.' c }.2.}.-.}.2.! y s s $.P '.z z o !.w b ..} ..& f J % Y = - +.<.W % #.(.0 2.c.c.}.}.}.}.}.}.}.}.}.}.}.}.2.c 2.c 8 d 8 8 8 8 8 8 8 8 8 d C 9 9 9 9 9 9 b 5 5 5 3 S 3 S ` } } } } } O O 2 d -.-.d k x ~ C H 6 b 5 5 5 b 6 b 4 5 S &.C C 9 6 &.5 4 5 b 5 5 6 6 6 6 6 6 H 6 5 l 4 5 6 5 8.;.;.7.) 7 7 7 9 5 I I 3 3 4 3 3 4 3 2 5 6 3 3 9 H b 5 I O O ....I I ` I I I 2 2 2 3 2 E I ..I I F C C S a ( @ @                 .                   . . ",
"@ + : _ h g t.B.A.N.i.p.p.,+M.%+6+%+^+^+:+%+6+2+e+5+5+V.V.P.e+P.W.e+e+#+V.X.^+5.^._.A ,.,.) c c }.2.-.}.2.) y s s $.U '.!.p p o F 3 E ....& U J T Y = ; %.<.Y & +.%.| 2.c.}.2.2.}.}.}.}.}.}.}.}.}.}.}.c 2.c 8 d 8 8 8 8 8 8 8 8 8 d C 9 9 9 9 6 6 b 5 5 5 S S S 3 ` O M P } M O ` I C }.}.) H C C H 6 b 6 b b b 6 9 b b &.b 6 9 C C 9 b 3 5 9 9 9 C 9 b 6 b 9 C C 6 4 E 4 b 4 Q 8.C w $.w 8 8 -.d l E I E I I 2 2 2 2 3 3 S S 5 I 3 5 5 3 I } I I ....I ` ` ` ` 3 3 2 2 2 R I I ..I 5 b F E / + : .     .     . .                       . ",
"@ : _ ( < T.f.r.w.i.j.q.p.}+I.^+%+%+)+:+:+%+9+2+P.V.5+V.V.P.P.V.Q.W.P.#+W.Q.^+5.^.5._.,.].) c ! }.}.-.-.2.! x y s $.U '.z y z q J J E ..} = U e X T % ; %.<.Y & +.%.j 2.c.}.2.2.}.}.}.}.}.}.}.}.}.}.}.c 2.c 8 8 8 8 8 8 8 8 8 8 8 d C 9 9 9 6 9 6 6 5 5 S S 3 3 3 ..} } } M ` ` I ` d 2.}.}.~ x H H 6 6 H 6 k k k 9 C 9 6 5 &.6 6 9 9 b b 6 C C C d 9 b b 6 C 8 8 5 E 3 5 b 4 4 k {.$.>.Q 9 d 6 E R E F R 3 ..I E 2 2 2 2 5 6 S K } ....I E 3 2 ..I I I I I ....I 3 2 I 2 3 I R ..E E E ..E < @ _ @             .                         ",
"_ _ ( < T.n.G.q.q.q.-+-+-+z.M.O.:+:+)+)+:+6+9+2+W.V.V.=+W.W.V.W.=+=+V.=+P.Q.^+^.^.5._.A ].8 c ! c }.-.7 2.! x y s $.J '.t y ].A ; ; M } U = J $ X T % ; C+:.% = +.#.1 2.c }.2.}.}.}.}.}.}.}.}.}.}.}.}.c 2.c 8 d 8 8 8 8 8 8 8 8 8 d 9 9 9 H 9 6 6 6 b 5 S S 3 3 3 M } } K K O O O O d c ! c c d 9 H w 6 k k k b b C C 9 9 9 k &.6 C 9 S k H 9 C C C 9 6 5 b d 8 d F E E F 4 4 3 4 '.0.0.{.~ 8 k M U U l w x F M ....O 2 4 b b R O } } P } } E 3 I ..E ............` 2 I I 3 I M R I R R M E G i @ @ +   .                                 ",
"h ( < s.g.g.q.p.p.p.p.|+z.}+1+I.^+:+:+:+%+6+9+>+W.V.V.W.P.W.V.V.V.=+V.V.[+Q.I.^._.^.^.n x ) c c }.c }.7 2.-.x x y $.J '.~ p ,.z ; V R R J - U - W T * = <.b.= = X X } 2.c.2.2.}.}.}.}.}.}.}.}.}.}.}.2.}.2.c 8 8 8 8 8 8 8 8 8 8 8 d C 9 9 9 9 9 6 6 b 5 4 5 3 3 3 ..O O } M O O } } d c ! c }.7 9 6 6 6 6 k b 4 6 C C 9 9 9 C C d C k S &.b 6 C C C 9 6 6 9 C 6 9 k R R E 3 4 5 9 w ].0+0+L d ].>.'.Q $.w r s F E ..I 5 6 &.R ......M P } M } I 4 2 I I ..........` ..I E 2 I M ..I ....R R M / . : .     . .   .                         ",
"h g 3.g.f.g.Z.p.|+|+p.}+1+H.M.M.I.:+:+7+7+d+9+>+P.W.P.W.P.V.V.W.V.V.V.V.W.#+M.y _.^.n w C 7 c }.}.}.}.-.2.-.s x x '.U F ' ~ ' k ; U ..F V $ M = X T * % <.C+= * X X M 2.c.}.2.}.}.}.}.}.}.}.}.}.}.}.}.}.2.c 8 d 8 8 8 8 8 8 8 8 8 d 9 9 9 9 9 6 6 6 6 5 5 5 4 4 4 ` O O } O O O } } 8 -.-.}.2.) 6 6 6 b 9 &.5 5 9 C 9 C d C 6 9 d C b b b 5 b C C C C 9 9 9 b 5 9 9 3 ` I 2 S 8 -.) ' 3.`.{.8 ].].t t m w w z y z $.l x 6 l I M S b b &.E P ..` 2 3 I ......I ....` ..` 2 3 2 I ` I ` ..E ..I g   @ .   . . . .                           ",
"< x N.h.h./+p.|+Z.|+|+1+1+M.M.H.I.I.)+:+7+%+9+2+P.P.P.P.P.=+V.W.V.=+=+V.V.!+O.7.A o s 9 d -.}.}.}.}.}.-.}.-.s x C '.U l ) 7 ! '.; J R 5 e $ ..Y +.X % % v+b.% * W X 3 2.c.}.}.}.c.c.c.}.}.}.}.}.}.}.}.}.}.}.8 d 8 8 8 8 8 8 8 8 8 d 9 9 9 9 9 9 6 6 6 b 5 5 5 5 4 I ..` O ` } O O O 7 -.c }.}.7 9 b 6 9 6 b b 5 6 C C C C 9 6 9 C C b b b S 6 9 C 9 9 d 6 6 6 9 9 9 b S 5 ..5 7 ) ~ d x {.].w m t w ].z ,.].].,.,.,.].m C C 5 E 5 C 9 C b M } ..I I 2 I ....I 2 I ..I I I 2 3 E ..I 2 ` I I 5 [ i . @   + .                               ",
"t m.Z.i.Z.Z.i.p.|+/+/+Z.1+1+H.M.M.O.)+:+%+%+6+2+P.P.e+L.L.V.V.V.Q.Q.V.V.P.=+R._.,.D s C d -.}.-.-.}.}.7 }.! C s C R U k 7 7 ) R ; U Q 5 e $ 1 Y +.X Y W <.C+Y % W Y 9 c.c.}.}.}.}.c.}.}.c.c.}.}.}.}.}.}.2.}.8 8 ) 8 8 8 8 8 8 8 8 d C 9 C 9 9 6 6 6 6 b 5 b 5 4 3 I ` ..` ` M ` ` I 8 7 -.-.7 8 9 9 9 9 C C 9 b 9 d C C b C 9 9 C d 9 9 9 9 9 9 C 7.9 9 9 C C 6 9 d C 9 6 b C d t C C s y z w x ,.3.!.!.x A z y ,.,.$.x d 8 d 6 &.C 6 b 6 E E ..E 3 3 I I 2 3 3 2 ..I I 2 2 ..M M ..2 I I E E I / . _   + . . .   .   .                   "};
