/* XPM */
static char * reload_7_xpm[] = {
"345 393 252 2",
"  	c #FF00FF",
". 	c #FD00FD",
"+ 	c #FE00FE",
"@ 	c #FB00FB",
"# 	c #B90AB9",
"$ 	c #4C514D",
"% 	c #3A3B37",
"& 	c #040301",
"* 	c #0A0A07",
"= 	c #070603",
"- 	c #010301",
"; 	c #000000",
"> 	c #060A05",
", 	c #0C0E0C",
"' 	c #0F1110",
") 	c #151413",
"! 	c #343431",
"~ 	c #23231F",
"{ 	c #171817",
"] 	c #17170F",
"^ 	c #21211D",
"/ 	c #171715",
"( 	c #870987",
"_ 	c #C806C7",
": 	c #F600F6",
"< 	c #FA00FA",
"[ 	c #F101F1",
"} 	c #AB07AB",
"| 	c #4A2449",
"1 	c #0A0903",
"2 	c #030602",
"3 	c #10140D",
"4 	c #1C1B15",
"5 	c #211F18",
"6 	c #1A1B1A",
"7 	c #1D1E1C",
"8 	c #6B1C69",
"9 	c #282724",
"0 	c #100D07",
"a 	c #0D0B03",
"b 	c #16140B",
"c 	c #14120F",
"d 	c #12100C",
"e 	c #1C1911",
"f 	c #2F2B22",
"g 	c #31312E",
"h 	c #2E2E2B",
"i 	c #E902E9",
"j 	c #982197",
"k 	c #3E3F3B",
"l 	c #111008",
"m 	c #141005",
"n 	c #14100A",
"o 	c #1B150B",
"p 	c #141207",
"q 	c #373734",
"r 	c #793B78",
"s 	c #100F03",
"t 	c #161208",
"u 	c #131509",
"v 	c #151008",
"w 	c #201C12",
"x 	c #2A271F",
"y 	c #282A28",
"z 	c #484A46",
"A 	c #101608",
"B 	c #171109",
"C 	c #434440",
"D 	c #111405",
"E 	c #150E06",
"F 	c #191918",
"G 	c #D307D3",
"H 	c #373329",
"I 	c #2B2A28",
"J 	c #980C98",
"K 	c #292418",
"L 	c #1A1507",
"M 	c #25231C",
"N 	c #1E1B0A",
"O 	c #252013",
"P 	c #1C1C1A",
"Q 	c #242524",
"R 	c #231F0C",
"S 	c #191109",
"T 	c #1E1F1E",
"U 	c #DF04DE",
"V 	c #470C46",
"W 	c #170F07",
"X 	c #222322",
"Y 	c #6B096B",
"Z 	c #140D03",
"` 	c #191104",
" .	c #292826",
"..	c #0D1007",
"+.	c #262521",
"@.	c #181A09",
"#.	c #12180A",
"$.	c #161607",
"%.	c #262726",
"&.	c #161005",
"*.	c #202120",
"=.	c #131908",
"-.	c #091004",
";.	c #535754",
">.	c #6C716C",
",.	c #858981",
"'.	c #81207F",
").	c #757972",
"!.	c #7E827B",
"~.	c #636761",
"{.	c #0C1406",
"].	c #0E1708",
"^.	c #131513",
"/.	c #0F1809",
"(.	c #151616",
"_.	c #A627A3",
":.	c #1F1505",
"<.	c #5B5F59",
"[.	c #231A08",
"}.	c #131312",
"|.	c #585444",
"1.	c #101211",
"2.	c #969690",
"3.	c #8C9088",
"4.	c #9AA098",
"5.	c #B7BBB1",
"6.	c #AAABA0",
"7.	c #C8CCC3",
"8.	c #E4E9E0",
"9.	c #D8D9CC",
"0.	c #2E1F08",
"a.	c #281C07",
"b.	c #3D2F14",
"c.	c #433419",
"d.	c #473519",
"e.	c #4F3B1C",
"f.	c #543D1D",
"g.	c #5B401F",
"h.	c #443014",
"i.	c #37230A",
"j.	c #33270E",
"k.	c #3E3118",
"l.	c #48391C",
"m.	c #583E1C",
"n.	c #5F421F",
"o.	c #6A4825",
"p.	c #714B26",
"q.	c #764E28",
"r.	c #644522",
"s.	c #2B240F",
"t.	c #28210D",
"u.	c #372D15",
"v.	c #3B2C12",
"w.	c #382910",
"x.	c #462A0E",
"y.	c #583818",
"z.	c #694521",
"A.	c #8B5B32",
"B.	c #352911",
"C.	c #2C220D",
"D.	c #32240C",
"E.	c #2A200A",
"F.	c #2F230C",
"G.	c #4F3718",
"H.	c #6D4723",
"I.	c #7F552E",
"J.	c #976136",
"K.	c #A26133",
"L.	c #784B25",
"M.	c #4B2F13",
"N.	c #3E260D",
"O.	c #2F2510",
"P.	c #85562E",
"Q.	c #A4683A",
"R.	c #A96B3C",
"S.	c #3F2D12",
"T.	c #BF7E4D",
"U.	c #C7804E",
"V.	c #BA7948",
"W.	c #9F6437",
"X.	c #835129",
"Y.	c #533919",
"Z.	c #413014",
"`.	c #64411E",
" +	c #935C31",
".+	c #DF925C",
"++	c #D7905D",
"@+	c #CD8655",
"#+	c #AC6E3F",
"$+	c #8A562D",
"%+	c #734621",
"&+	c #633919",
"*+	c #312913",
"=+	c #E89F6B",
"-+	c #F1A978",
";+	c #E39762",
">+	c #B57444",
",+	c #8F582E",
"'+	c #6C401E",
")+	c #493718",
"!+	c #7C512A",
"~+	c #FEB686",
"{+	c #FEAC79",
"]+	c #F2A36D",
"^+	c #CC7C47",
"/+	c #B36D3D",
"(+	c #9B5E31",
"_+	c #533214",
":+	c #703061",
"<+	c #FFBE92",
"[+	c #FFC59D",
"}+	c #DB8D57",
"|+	c #CF814D",
"1+	c #C57946",
"2+	c #5D3D1B",
"3+	c #9C663B",
"4+	c #FFCBA7",
"5+	c #FFD2B0",
"6+	c #EB9B65",
"7+	c #AF7244",
"8+	c #A75D78",
"9+	c #C234B9",
"0+	c #FFD6B8",
"a+	c #F29E65",
"b+	c #D48955",
"c+	c #933480",
"d+	c #D6854E",
"e+	c #C3725A",
"f+	c #BA713F",
"g+	c #FAA46D",
"h+	c #BF7644",
"i+	c #905E35",
"j+	c #E69159",
"k+	c #4B3416",
"l+	c #4C381A",
"m+	c #7E4C26",
"n+	c #A26B40",
"o+	c #A94691",
"p+	c #DF8851",
"q+	c #DD9775",
"r+	c #D49197",
"s+	c #C1689E",
"t+	c #AB6737",
"u+	c #423216",
"v+	c #EC975F",
"w+	c #BE8062",
"x+	c #463316",
"y+	c #28240E",
"z+	c #806A50",
"A+	c #D9DED6",
"B+	c #FBFDF7",
"C+	c #F2F7ED",
"                                  . . + +   + . @ @   # $ % & * = - - ; - > , ' , ) % ! ~ { ] ^ / ( _ :   : : : < + . . . . + + + +     +                                                                                                                                                                                                                                                                                                                                                                                                                                                                                                                                                                       + ",
"                                  . . + + + @ :   [ } | ! ' ; 1 1 2 ; ; ; ; ; ; & & 3 4 5 ~ ~ 6 4 ~ 7 ( _   : [ : @   + .         + + +     +                                                                                                                                                                                                                                                                                                                                                                                                                                                                                                                                                                     ",
"                                  + +   + < . : # 8 9 { & * = 1 1 = * 0 0 0 1 1 a 1 1 a 0 b c d e f g h 9 } [ : < < < +   + +                                                                                                                                                                                                                                                                                                                                                                                                                                                                                                                                                                                   + ",
"                              +     . @ < @ i j k 9 5 a l m a a a 0 n b n b ] ] ] o 0 0 l n 0 0 p e f q q h 8 i   [ < @ @ . + +                         +                                                                                                                                                                                                                                                                                                                                                                                                                                                                                                                                                         ",
"                          +   + + . + : [ _ r % e s a a 0 0 a s l l l 0 l l t u b v v o e n 0 a s a p w x g y | # : : : . + + +                                                                                                                                                                                                                                                                                                                                                                                                                                                                                                                                                                                   ",
"      +                   +   +   @ < : } z f A u l 0 0 0 0 0 l p p l s s l 0 p B B b e 5 e d l p l s p ] h h h h ( i + @ + @ +                                                                                                                                                                                                                                                                                                                                                                                                                                                                                                                                                                                   ",
"                        + +   @ @   @ } C f D b n E o n 0 0 l 0 l n 0 s l l a E m ] 4 4 5 ^ F 4 e p s l b w x ! % ! | G   < + @   .                                                                                                                                                                                                                                                                                                                                                                                                                                                                                                                                                                               ",
"                      + @ + + . < [ } H f m 0 b ] n b E v l 0 s s s l n d a l 0 0 e 5 ^ 4 5 7 7 ^ e s a n o e ^ I ! h | # . < . +               + + +     + +                                                                                                                                     +           +           +           +                                                                                                                                                                                                                                               +           +           +           +   +       +   +                                                                       ",
"            + +         + + @ < : J f K L e M 5 l n B v n n l s p p m p b n B n 0 N O ^ P 5 5 ^ ~ ^ ] s 1 1 ] / 4 y q ! Q } : <   @ +         + +                                                                                                                                                 +           +           +                                                                                                                                                                                                                                                           +           +           +   +     + +         + +           +                                                             + ",
"          + +       +   + @ <   # w x R N w f 5 a d n v v v m m l D t b B l E o n S b 4 ^ P ^ ~ M M 4 a = 2 2 d P ~ 9 y h T _   @ @ <                                                                                                                                                                         + +         + +         +                                                                                                                                                                                                                                   +           +           + +         + +         + +         + +         +           +                                                 + ",
"          +     + + + + . + @ U V O N K O N x 5 l l n n n v v n l l B W v v B w e s s 4 ~ 4 X ~ 9 ~ u 1 1 1 2 & l ^ 7 ~ y y | G + :           +     + + +                                                                                                                                                     +           + +       + + + +     + + + + + + + + + + + + + + + + + + + + + + + + + + + + + + + + + + + + + + + + + + + + + + + + + + + + + + + + + + + + + + + + + + + + + + + + + + + + + + + + + + + + + + + + + + + + + + + + + + + + + + + + + + + + + + + + + + + + + +     + + +       + + +       + + +       + + +       + +           +                                                 + ",
"              + + +   . @ @ @ Y K O O K O O f K b s b 0 n u n n B B W Z Z s m o ` s D 5 ~ T 7 X  .4 ..a a a 1 = & * ^ +. .y y | U @ @ +     + +   + + + +                                                                                                                                         +           + +       + + +     + + + + + + + + + + + + + + + + + + + + + + + + + + + + + + + + + + + + + + + + + + + + + + + + + + + + + + + + + + + + + + + + + + + + + + + + + + + + + + + + + + + + + + + + + + + + + + + + + + + + + + + + + + + + + + + + + + + + + + + + + + + + + + + + + + + + + + + + +   + + + +     + + + +       + +                                                             + ",
"            +         . <   G @.w N N O K O x x l l p l t t t b b b B Z B e 5 5 5 M 5 5 w y X 7 P u s s ..u ] l a = 0 ^ 9 y y Q ( < < .     +     +   + +                                                                                                                                         +           + +     + + + + + + + + + + + + + + + + + + + + + + + + + + + + + + + + + + + + + + + + + + + + + + + + + + + + + + + + + + + + + + + + + + + + + + + + + + + + + + + + + + + + + + + + + + + + + + + + + + + + + + + + + + + + + + + + + + + + + + + + + + + + + + + + + + + + + + + + + + + + + + + + + + + + + + + + + + + + + + +           +                       +                         + ",
"                        . < ( #.@.N N O K O K e u u u D v n B t b b v s M g q h x  .9 9 ~ ~ ^ 7 4 n D u l u 4 c l l a 1 P I y y X U   . +             + +                                                                                                                                         +   +   + + + + + + + + + + + + + + + + + + + + + + + + + + + + + + + + + + + + + + + + + + + + + + + + + + + + + + + + + + + + + + + + + + + + + + + + + + + + + + + + + + + + + + + + + + + + + + + + + + + + + + + + + + + + + + + + + + + + + + + + + + + + + + + + + + + + + + + + + + + + + + + + + + + + + + + + + + + + + + + + + + + + +   + +   + +                                                 + ",
"                      @ @ U V A $.L R w K K 5 u p b u l l l l l n n s t M h q g y 9 %.y %.~ ^  .~ p a ..s ..A s s n t 1 = ^ g y Q J @ @ @ + +                                                                                                                                                     +   +     + + + + + + + + + + + + + + + + + + + + + + + + + + + + + + + + + + + + + + + + + + + + + + + + + + + + + + + + + + + + + + + + + + + + + + + + + + + + + + + + + + + + + + + + + + + + + + + + + + + + + + + + + + + + + + + + + + + + + + + + + + + + + + + + + + + + + + + + + + + + + + + + + + + + + + + + + + + + + + + + + + + +     +   + +                                                 + ",
"        + +       . + + < ( @.@.u &.L $.e e b p ..s s 0 0 l E E n 0 c Q 5 ] 5 y g g y Q %.y %.g ! 4 a ..s ..l 0 0 l l n a a *.y %.%._ . < + +     +       +                                                                                                                                       +   + + + + +   + + + + + + + + + + + + + + + + + + + + + + + + + + + + + + + + + + + + + + + + + + + + + + + + + + + + + + + + + + + + + + + + + + + + + + + + + + + + + + + + + + + + + + + + + + + + + + + + + + + + + + + + + + + + + + + + + + + + + + + + + + + + + + + + + + + + + + + + + + + + + + + + + + + + + + + + + + + + + + + + +   + +   + +                       +                         + ",
"            +     . <   G s @.@.$.o &.p $.p a l D ..0 0 l t 0 a d 0 / ! g 7 3 =.w ~ Q Q y 9 %.h ! +.u -.s ..l 0 0 l v n l 1 * %.g I 8 [ . @ +             +                                                                                                                               +       +   +   + + +   + + + + + + + + + + + + + + + + + + + + + + + + + + + + + + + + + + + + + + + + + + + + + + + + + + + + + + + + + + + + + + + + + + + + + + + + + + + + + + + + + + + + + + + + + + + + + + + + + + + + + + + + + + + + + + + + + + + + + + + + + + + + + + + + + + + + + + + + + + + + + + + + + + + + +   + + + + +   + + + + +   + +   + +                                                 + ",
"            +   + . @ . Y D =.$.$.@.p p L m 0 s m E d n 0 c 0 = , c 7 C ;.$ z z % ~ 7 T X %.%.g q I ] u b b c l 0 l l n n n & 0 h ! h _   : .                                                                                                                                                     +   +     + +   +     + +   + + + + + + + + + + + + + + + + + + + + + + + + + + + + + + + + + + + + + + + + + + + + + + + + + + + + + + + + + + + + + + + + + + + + + + + + + + + + + + + + + + + + + + + + + + + + + + + + + + + + + + + + + + + + + + + + + + + + + + + + + + + + + + + + + + + + + + + + +   +   + + +   + + + + +   + + + + +   +                               +                         + ",
"                  @ + [ ..D D D D $.$.D n 0 0 l 0 = 0 B l d a 1 , 7 h $ $ $ >.,.,.>.! 7 ^ ^ 7 ^ 5 e @.e ] ] ] d l a = = a a & ; e q ! '.@ < <                                               + + + + +                                                                                                 +       +   +     + +   +   + + + + + + + + + + + + + + + + + + + + + + + + + + + + + + + + + + + + + + + + + + + + + + + + + + + + + + + + + + + + + + + + + + + + + + + + + + + + + + + + + + + + + + + + + + + + + + + + + + + + + + + + + + + + + + + + + + + + + + + + + + + + + + + + + + + + + + +   + + + + +   + + + + +   + + + + +   +                                                         + ",
"                  @   G -.D D D $.p $.u l 0 0 0 * a 0 s l d * 1 ..{ k ;.$ ;.).,.!.).~.g 4 e m s s s s ..l l l l 0 = & 2 2 2 & & & 4 ! % U   < + +             +         + + + + +         + + + + + + + +                                                                                             +       +   +       +   +       + +     + + + + + + + + + + + + + + + + + + + + + + + + + + + + + + + + + + + + + + + + + + + + + + + + + + + + + + + + + + + + + + + + + + + + + + + + + + + + + + + + + + + + + + + + + + + + + + + + + + + + + + + + + + + + + + + + + + + + + + + + + + + + + + + + +   +   + + +   +   + + +     + + + +                                                             + ",
"                  <   _ A D D D #.u D u 0 0 l l l 0 l l 0 0 0 1 1 a y ;.>.!.!.!.!.>.$ 5 ] ] @.e N @.b ..D l a 0 0 = 1 * * & & = ; ; 7 q '.@ @ @ +                               + +     +     + +           +                                                                                                             +   +       + +     + + + + + + + + + + + + + + + + + + + + + + + + + + + + + + + + + + + + + + + + + + + + + + + + + + + + + + + + + + + + + + + + + + + + + + + + + + + + + + + + + + + + + + + + + + + + + + + + + + + + + + + + + + + + + + + + + + + + + + + + + + + + +   + + +   +   + + +   + +   + +   +     + +                                                             + ",
"+ +         + + + <   _ =.=.D D =.u D D 0 l l 0 l l 3 n m p d l d 3 #.O H k k q % H e s $.$.b e e o e w ~ ^ e 0 1 1 = 1 1 = * > = ; & ~ X G + : +           +     + + + + +   + + + +                         +                                                                                                   +       +   +     + + + + + + + + + + + + + + + + + + + + + + + + + + + + + + + + + + + + + + + + + + + + + + + + + + + + + + + + + + + + + + + + + + + + + + + + + + + + + + + + + + + + + + + + + + + + + + + + + + + + + + + + + + + + + + + + + + + + + + + + + + + + + + + + + +   + + +   +     + +   +     + +   +     + +                                                             + ",
"+ + +     +     + :   _ =.A {.].].D =.u 0 n l 0 l n b p v p p b ] t s s D s s s s s s m $.$.$.@.o o w M +. .I ~ 5 / d 1 1 1 * * * = ; ^.h '.@ @ .               + + + + + +     + + +                   + + + + + + +                                                                                                     +     + + + + + + + + + + + + + + + + + + + + + + + + + + + + + + + + + + + + + + + + + + + + + + + + + + + + + + + + + + + + + + + + + + + + + + + + + + + + + + + + + + + + + + + + + + + + + + + + + + + + + + + + + + + + + + + + + + + + + + + + + + + + + + + + + + + + + + + + + +   + + +   + +   + +   +     + +                                                             + ",
"+ + +       +     :   _ =.D {.].A D D D l t t d l n u p n t t b t p B o o o L L L L L t p p $.L $.] M M 5 M +.I h I 9 { 1 * * = * * & * q q G   < +     +                   + +   + + + + + +               +       +                                                                                                     +   + + + + + + + + + + + + + + + + + + + + + + + + + + + + + + + + + + + + + + + + + + + + + + + + + + + + + + + + + + + + + + + + + + + + + + + + + + + + + + + + + + + + + + + + + + + + + + + + + + + + + + + + + + + + + + + + + + + + + + + + + + + + + + + + + + + + + + + + + + +   + + + + +   + + +   + +   + +                                                             + ",
"  + + +         + <   } =.D {.{.D {.A D l b b n p u ] p d t t t W W ` ` t t t t &.t p m m v b L o w x x M 5 M  . .9 I %.F d 0 1 * c , 2 C z } + < @     +                   + + + +   + + + + +               + + + +                                                                                                     + +       + + + + + + + + + + + + + + + + + + + + + + + + + + + + + + + + + + + + + + + + + + + + + + + + + + + + + + + + + + + + + + + + + + + + + + + + + + + + + + + + + + + + + + + + + + + + + + + + + + + + + + + + + + + + + + + + + + + + + + + + + + + + + + + + + + + + + + + + + + + + + + + + + +   + +   + +   +                                                         + ",
"    + + + + +   . < < ( /.{.{.{.].A A D l ] o p t p t n l v t B B B &.&.B p m m m t m m W t u t o 5 x x x M ^ ^ +.+.~  .g g g T * = , 2 h $ % i   < +                 + +   +               +           +               + +                                                                                   +   +     + +   +   + + + + + + + + + + + + + + + + + + + + + + + + + + + + + + + + + + + + + + + + + + + + + + + + + + + + + + + + + + + + + + + + + + + + + + + + + + + + + + + + + + + + + + + + + + + + + + + + + + + + + + + + + + + + + + + + + + + + + + + + + + + + + + + + + + + + + + + + + + + + + + + + + + + + + + + + +   +       +                                                 + ",
"    + + . . + + @ . U V /.{.A {.A D #...t w o b t t p v t n t B t t B B t t t t t t &.t v p n ` L w K x x +.M ^ ^ ~ ~ I % z $ C  ., 2 * (.k C _   < @   + +                     + + +         + + +   +                 + +                                                                                   +       + + + + + + + + + + + + + + + + + + + + + + + + + + + + + + + + + + + + + + + + + + + + + + + + + + + + + + + + + + + + + + + + + + + + + + + + + + + + + + + + + + + + + + + + + + + + + + + + + + + + + + + + + + + + + + + + + + + + + + + + + + + + + + + + + + + + + + + + + + + + + + + + + + + + + + + + + + + + + + +   +       +                                                 + ",
"  + + + . +   @ . . J #.] {.A A A D u s s N o b o b S L m E &.n v v W v t v p t p v B m t t v ` B o w M x x +.M 7 ~ 9 9 q z $ $ ;.z X c (.+.k _.  @ @ + + +             + @ < < < < < < < @ @ .     + +   + +                     +                                                                           +   +   + + + + + + + + + + + + + + + + + + + + + + + + + + + + + + + + + + + + + + + + + + + + + + + + + + + + + + + + + + + + + + + + + + + + + + + + + + + + + + + + + + + + + + + + + + + + + + + + + + + + + + + + + + + + + + + + + + + + + + + + + + + + + + + + + + + + + + + + + + + + + + + + + + + + + + + + + + + + + + + + +     + +                                                 + ",
"+ + + . + + . @   i 3 @.#.A #.A D A u 1 1 t o L b o o L ` W B n B W W W v &.m m m m v m &.m B W &.t o w M 9 M 5 5 ~  .I h % C z ;.;.$ y , T z r +   @ + + +       + . .                         < < @   + + +               + + + + + + + +   + +                                                           + + + + + + + + + + + + + + + + + + + + + + + + + + + + + + + + + + + + + + + + + + + + + + + + + + + + + + + + + + + + + + + + + + + + + + + + + + + + + + + + + + + + + + + + + + + + + + + + + + + + + + + + + + + + + + + + + + + + + + + + + + + + + + + + + + + + + + + + + + + + + + + + + + + + + + + + + + + + + + + + + + + + + + + + + +                                                 + ",
"  + . .   . < < . J ~ P {.A A A A #.l > 4 l o o o o o o L S t v t t W W B &.t t m m v m m m m B t m &.B o w +.~ ~ ^ ~ g q ! k z $ ;.;.z 6 { k C <   < +   . @ . : .   . i G # } } } J } } } # U < .   + + . + .   + +         + + + + +   + +     +                                                           +   + + + + + + + + + + + + + + + + + + + + + + + + + + + + + + + + + + + + + + + + + + + + + + + + + + + + + + + + + + + + + + + + + + + + + + + + + + + + + + + + + + + + + + + + + + + + + + + + + + + + + + + + + + + + + + + + + + + + + + + + + + + + + + + + + + + + + + + + + + + + + + + + + + + + + + + + + + + + + + + + + + + + + + +                       +                         + ",
". + + +   . . @ : 7 g ] {./.#.#.#.] ..+.z 1 l N N o L o :.:.t B ` ` B W t t t &.&.m m v v m m t t &.L o b o ^  . .^ ^ q k k C z $ ;.;.<.% , ^.y i   @   + @ < :   [ _ J | g k z $ ;.<.;.$ $ $ k '._ [     + . . @ +   +           + + +     +     + +                                                         + +       + + + +   + + + + + + + + + + + + + + + + + + + + + + + + + + + + + + + + + + + + + + + + + + + + + + + + + + + + + + + + + + + + + + + + + + + + + + + + + + + + + + + + + + + + + + + + + + + + + + + + + + + + + + + + + + + + + + + + + + + + + + + + + + + + + + + + + + + + + + + + + + + + + + + + + + + + + + + + + + + + + + +   +                   +                       + + ",
"@ + + + < <   + } h X #.#.#.#.#.#.] -.! ;., = l 0 b o N :.[.L v ` L B t t t t t m v m m m m v t t b o b t b b 4 ^ X ~ h % C C C $ ;.<.<.;.*.' { _   [ [ < @   : _ r z $ $ $ ;.;.<.<.~.>.).>.>.>.>.<.r # G . @ < @ + + +           + +               +     +                                                   +   + + + + + + + + + + + + + + + + + + + + + + + + + + + + + + + + + + + + + + + + + + + + + + + + + + + + + + + + + + + + + + + + + + + + + + + + + + + + + + + + + + + + + + + + + + + + + + + + + + + + + + + + + + + + + + + + + + + + + + + + + + + + + + + + + + + + + + + + + + + + + + + + + + + + + + + + + + + + + + + + + + + + + + +   +                   +                       + + ",
"< + < @     i j g g e 3 ] /.#.#.#.] -.C $ 1 = 0 1 n N N [.[.:.L t B t t m &.t &.m m m m m p m v t B b p p p ..1 ..^ ^ F +.! % k z $ ;.~.~.z 6 * Y [ @ . @ [ } Y C ;.z h T { ) ) ' ' }.6 I z $ <.>.,.,.).<.j i : . . + @ +           +                                                                         + +   + + + + + + + + + + + + + + + + + + + + + + + + + + + + + + + + + + + + + + + + + + + + + + + + + + + + + + + + + + + + + + + + + + + + + + + + + + + + + + + + + + + + + + + + + + + + + + + + + + + + + + + + + + + + + + + + + + + + + + + + + + + + + + + + + + + + + + + + + + + + + + + + + + + + + + + + + + + + + + + + + + + + + +   +                   +                       + + ",
": <   @ U # g h g ^ A #.#.].#.#.#.3 3 <.|.= * b 0 o b S o o L L S t L t p t &.t &.p m m m m v n E v c n s a = 2 1 ..] ^.F I ! % C ;.~.~.>.).C ^.* Y _ _ Y * 2 3 z h , ; - - ; - ; - - & - - * , h ~.>.~.>.~.r U : + @ @ @   + +         +   +                                                                 +   + + + + + + + + + + + + + + + + + + + + + + + + + + + + + + + + + + + + + + + + + + + + + + + + + + + + + + + + + + + + + + + + + + + + + + + + + + + + + + + + + + + + + + + + + + + + + + + + + + + + + + + + + + + + + + + + + + + + + + + + + + + + + + + + + + + + + + + + + + + + + + + + + + + + + + + + + + + + + + + + + + + + + + + + +       +           +                     + + + ",
"[   U J  .! % Q 4 {.{.{.].].#.#.#.A #.<.k & d ] n o $.m m m $.L L L t L $.p &.p v &.p v v m m m n l v n p a 1 > > > .., , F %.I k $ ~.>.).>.).C 1.> 2 - - - 3 P { - 2 * = 2 & ; - ; & & = 2 - & ; 1 % $ ;.~.<.$ j G < < +   +   +         + +                                                                 + +   + + + + + + + + + + + + + + + + + + + + + + + + + + + + + + + + + + + + + + + + + + + + + + + + + + + + + + + + + + + + + + + + + + + + + + + + + + + + + + + + + + + + + + + + + + + + + + + + + + + + + + + + + + + + + + + + + + + + + + + + + + + + + + + + + + + + + + + + + + + + + + + + + + + + + + + + + + + + + + + + + + + + + + + +       +         + +                   + + + + ",
": _ | ! ! % %.A {.].].]./.{.#.#.] ].M <.x 2 d * = = 0 0 a a -.* l $.$.$.$.p p m m &.m m v v m v E m v n b l -.-.> 2 > > > - * 7 g % ;.).).!.,.>.h > > > 2 - 6 , 2 , b l , , 0 , * 1 1 a 0 n d l 0 & = w I C ;.~.<.y # < <   @ +       + + +                                                                       + + + + +   + + + + + + + + + + + + + + + + + + + + + + + + + + + + + + + + + + + + + + + + + + + + + + + + + + + + + + + + + + + + + + + + + + + + + + + + + + + + + + + + + + + + + + + + + + + + + + + + + + + + + + + + + + + + + + + + + + + + + + + + + + + + + + + + + + + + + + + + + + + + + + + + + + + + + + + + + + + + + + + + + + + +     +   +   + + +                   + + + + ",
"# ~ g ! h 5 ..{.A ].].].].{.=.A #.A h |.#.1 e = & ; - - ; - ; ; ; & ..D D $.$.m &.m m &.&.m v m E m l E l l s -.-.2 - > > - ; = / ^ k >.,.,.,.,.;.1.2 > - >  .> * ] t 0 0 d c ] 4 4 b b e n n n l 0 = * ] e g $ <.;.y _   < @ < +   + + + +                                                                     +       + + + +   + + + + + + + + + + + + + + + + + + + + + + + + + + + + + + + + + + + + + + + + + + + + + + + + + + + + + + + + + + + + + + + + + + + + + + + + + + + + + + + + + + + + + + + + + + + + + + + + + + + + + + + + + + + + + + + + + + + + + + + + + + + + + + + + + + + + + + + + + + + + + + + + + + + + + + + + + + + + + + + + + +   + +   +   + + +   +       +       + + + + ",
"8 g h ~ #.{.{.{./.].].{.].A A #.#.{.! % 2 l x * = & & ; ; ; ; & & ; & a $.$.m &.t m &.m m E m m E l l s a l ......> 2 > > > - - 1 0 5 <.2.3.4.4.!.! 2 > ; ' Q & l b c b n E 0 0 B ] o e w b n b b 0 a = > l 4 +.% <.~.| _ < < . .     + + + + +                                                               +     + + + + + + + + + + + + + + + + + + + + + + + + + + + + + + + + + + + + + + + + + + + + + + + + + + + + + + + + + + + + + + + + + + + + + + + + + + + + + + + + + + + + + + + + + + + + + + + + + + + + + + + + + + + + + + + + + + + + + + + + + + + + + + + + + + + + + + + + + + + + + + + + + + + + + + + + + + + + + + + + + + + + + + + + +   + +   +   + + +   +       +       + + + + ",
"g h 5 ..{.D {.A ].{.].A {.A D #.A ].C h - ] f * = ; ; & & & & & & - & s $.t &.&.p m t t m m t v m E n / 6 6 { 3 1., > > 2 = 2 & * 0 0 ! ,.5.5.6.4.;.> > - 2 , = 0 c e 0 a 0 0 a 1 1 a a a l v n ] e e 0 2 c ~ M 5 g <.~.I _ . < @   + + +                                                                     +   + + + + + + + + + + + + + + + + + + + + + + + + + + + + + + + + + + + + + + + + + + + + + + + + + + + + + + + + + + + + + + + + + + + + + + + + + + + + + + + + + + + + + + + + + + + + + + + + + + + + + + + + + + + + + + + + + + + + + + + + + + + + + + + + + + + + + + + + + + + + + + + + + + + + + + + + + + + + + + + + + + + + + + + + + +   + +   +   + + +   +       +       + + + + ",
"4 #...A D ].].{.{.{.{.{.].A A =.{.P z x - b 5 - = ; ; - & & & & ; 1 Z ` m m &.p m p m t m &.t B m s o X Q X X *.T 6 ^.^.' , * - & * d M ).7.7.5.6.;., > - ; - = d ] P Q h ! % q h  .+.4 l 0 a 0 b 4 x M e b ] e x h ! ;.<.8 : . < + + + +                                                                     +   +   + + + + + + + + + + + + + + + + + + + + + + + + + + + + + + + + + + + + + + + + + + + + + + + + + + + + + + + + + + + + + + + + + + + + + + + + + + + + + + + + + + + + + + + + + + + + + + + + + + + + + + + + + + + + + + + + + + + + + + + + + + + + + + + + + + + + + + + + + + + + + + + + + + + + + + + + + + + + + + + + + + + + + + + + + + +   +   + + +   +       +       + + + + ",
"..{.A #.#.].{.].{.].{.{.{.A ].=.{.+.C 4 - 4 3 ; 2 & - ; - & ; - 1 m ` p Z m &.m m m m v m &.W B B m &.4 *.X X X Q Q *.Q y y Q ^.& = ' { ;.5.8.7.6.<.}.> 2 ; - & * ..I C C C z z $ $ z C k ! 5 b B 5 f I g g I P ] ^ y k <.z U   < .   . +         + +                                                               + + + + + + + + + + + + + + + + + + + + + + + + + + + + + + + + + + + + + + + + + + + + + + + + + + + + + + + + + + + + + + + + + + + + + + + + + + + + + + + + + + + + + + + + + + + + + + + + + + + + + + + + + + + + + + + + + + + + + + + + + + + + + + + + + + + + + + + + + + + + + + + + + + + + + + + + + + + + + + + + + + + + + + + + + + + +   +   + + +   +       +       + + + + ",
"V -./.] #.].].{.A ].].{.A =./.=.{.~ % ..2 3 > - & = - ; ; ; - a s m &.m s m m m m m m m m E m t B m s m 7 X *.X %.Q Q y g q q g 6 > , ^.Q ,.8.9.5.3.y 2 > - - & 3 ] 9 % ! q % % % % % k z z q P * , c / 7 +.g k ! *.^ % C <._   : @   + +       + +   +       +       + +                                         + + + + + + + + + + + + + + + + + + + + + + + + + + + + + + + + + + + + + + + + + + + + + + + + + + + + + + + + + + + + + + + + + + + + + + + + + + + + + + + + + + + + + + + + + + + + + + + + + + + + + + + + + + + + + + + + + + + + + + + + + + + + + + + + + + + + + + + + + + + + + + + + + + + + + + + + + + + + + + + + + + + + + + + + + + + + +   +   + + +   +       +       + + + + ",
"U } V ].=.#.]./././.{.{.A A A =.{.y k 3 - 2 - - - - - ; ; ; a n l l s Z E m m m m m m m m E m t t t v m b T *.X Q Q X X h q % % q %.(.6 F q ,.7.5.2.*.- 2 - - - d 7 5 M M M M M M M M M f f 9 ^.; ; - - ; ; & { y q ! +.I z _.. < @   + +       + +   +       +   +   + + +                                             + + + +   + + + + + + + + + + + + + + + + + + + + + + + + + + + + + + + + + + + + + + + + + + + + + + + + + + + + + + + + + + + + + + + + + + + + + + + + + + + + + + + + + + + + + + + + + + + + + + + + + + + + + + + + + + + + + + + + + + + + + + + + + + + + + + + + + + + + + + + + + + + + + + + + + + + + + + + + + + + + + + + + + + + + +   + + + + +   +       +     + + + + + ",
"[   U J /.{.V /.].#./.].].A #.=.{.h k -.- - - - - - - - - - 0 n n v Z Z m &.&.E E m m m m v t t t B B B t ] ^ ~ Q %.Q X y q k k k k g X Q 6 +.!.4.<.> - 2 - 2 - * e 4 M M M M M K K M M x x M P > 2 > 2 ; - 2 & ; d ! 9 +.% ;.<   @             + + + +       + + +   + +                                         +   + + + + + + + + + + + + + + + + + + + + + + + + + + + + + + + + + + + + + + + + + + + + + + + + + + + + + + + + + + + + + + + + + + + + + + + + + + + + + + + + + + + + + + + + + + + + + + + + + + + + + + + + + + + + + + + + + + + + + + + + + + + + + + + + + + + + + + + + + + + + + + + + + + + + + + + + + + + + + + + + + + + + + + + + + + +   +   + + +   +       +     + + + + + ",
": :   @ U ( ].{.#.#././.].D D s #.g h 2 - - - - - - ; * = 2 1 0 v W E E E E &.E m m m m m m v t &.&.B t t B e ~ Q Q %.y y y % C C k % g X Q F g ~.% , 2 2 = 2 - > l 4 x x f f f K K K K f K +.+.3 = 2 & - 2 > > = ; d q y h q i + < +           + + +             +                                                 + + + + + + + + + + + + + + + + + + + + + + + + + + + + + + + + + + + + + + + + + + + + + + + + + + + + + + + + + + + + + + + + + + + + + + + + + + + + + + + + + + + + + + + + + + + + + + + + + + + + + + + + + + + + + + + + + + + + + + + + + + + + + + + + + + + + + + + + + + + + + + + + + + + + + + + + + + + + + + + + + + + + + + + + + + + +   + + + + +   +       +     + + + + + ",
"< < < <   . G Y ].].#.]./.A D s e ! X ; 2 2 & - - ; l c * 2 = 1 0 v W E Z m E m Z E m m m E &.E E E &.B B v B 4 ~ +.%.y y %.g C z C C q Q %.y g ;.C T = ; , 2 - = l e 5 x f x x K M O w w w w o 0 1 & & & & - 2 2 = 2 (.g g h # . : + +         +   +   +     + +                                                   + + + + + + + + + + + + + + + + + + + + + + + + + + + + + + + + + + + + + + + + + + + + + + + + + + + + + + + + + + + + + + + + + + + + + + + + + + + + + + + + + + + + + + + + + + + + + + + + + + + + + + + + + + + + + + + + + + + + + + + + + + + + + + + + + + + + + + + + + + + + + + + + + + + + + + + + + + + + + + + + + + + + + + + + + + + +   + + + + +   +       + +   + + + + + ",
"@ @ @ @ @ <   : # Y ].V /.#...A ~ g T - 2 & & ; & c 5 c l 1 - & 1 v W E Z E E E E m E m m v E m E v m &.B B E ] 7 ^ 9 %.y %.y k z z $ k h h y y % C 6 - = 1.* ; > l b b 5 f K O O O O w N w N e t d / d & ; = = 2 2 ; - q z % 8 < < @ +       + +   + + +     + + + + + + +                                           + + + + + + + + + + + + + + + + + + + + + + + + + + + + + + + + + + + + + + + + + + + + + + + + + + + + + + + + + + + + + + + + + + + + + + + + + + + + + + + + + + + + + + + + + + + + + + + + + + + + + + + + + + + + + + + + + + + + + + + + + + + + + + + + + + + + + + + + + + + + + + + + + + + + + + + + + + + + + + + + + + + + + + + + + + +   + + + + +   +       + +   + + + + + ",
". + @ @ < @ < @   U Y {.V #.{.3 I g F ; - ; & ) M 5 4 d 0 * = & = 0 S W E E E E E E E m E E E E E v v v E v t B ] 5 Q y %.y y q z $ ;.z q h h %.y y > ; , ^.^.- > ..l s t M w w O w e w M K K f x x ! % q 7 & ; ; - = - (.C ;.k #   [ +   +   + + + + +       +   + + + + + +                                       + + + + + + + + + + + + + + + + + + + + + + + + + + + + + + + + + + + + + + + + + + + + + + + + + + + + + + + + + + + + + + + + + + + + + + + + + + + + + + + + + + + + + + + + + + + + + + + + + + + + + + + + + + + + + + + + + + + + + + + + + + + + + + + + + + + + + + + + + + + + + + + + + + + + + + + + + + + + + + + + + + + + + + + + + + + +   + + + + +   +     +   +   + + + + + ",
"@ . . + . @ < < < . [ J {.] ..^.h h ' ; - & ^ h +.7 / 0 a * = & 1 0 W E Z E Z E E E E E E &.E E E E v E E t v v b 4 ~ %.%.y y g k $ ;.$ z k h %.6 ' 2 ; 2 / 6 > 2 ..l 0 a t o e e e w e w 5 5 x f h % C $ $ q 7 , ; ; = - * % <.z U   @   . +   + + + +           + + + + + + +                                           + +       + + + + + + + + + + + + + + + + + + + + + + + + + + + + + + + + + + + + + + + + + + + + + + + + + + + + + + + + + + + + + + + + + + + + + + + + + + + + + + + + + + + + + + + + + + + + + + + + + + + + + + + + + + + + + + + + + + + + + + + + + + + + + + + + + + + + + + + + + + + + + + + + + + + + + + + + + + + + + + + + + + + +   + + + + + + +     +   +   + + + + + ",
"@ . + . + + + . < : : < ( u 3 ] y %.' ; * P 9 M ~ ~ 5 4 * & & = a Z E Z E E Z E E E E &.&.&.&.E E E W v E v W W v ] ^ Q %.y h h q z ;.;.$ $ q y F > ; ; ; 3 F ..> ..l l s m t B B S S S o o L e 5 x H H C z $ z C g , ; = = > ! <.r U . @ @ +       +   + + + +     + + + + + +     + +                                   + + + + + + + + + + + + + + + + + + + + + + + + + + + + + + + + + + + + + + + + + + + + + + + + + + + + + + + + + + + + + + + + + + + + + + + + + + + + + + + + + + + + + + + + + + + + + + + + + + + + + + + + + + + + + + + + + + + + + + + + + + + + + + + + + + + + + + + + + + + + + + + + + + + + + + + + + + + + + + + + + + + + + + + + +   + + + + +   +     +   +   + + + + + ",
". . + + + +   + @ < : @ i Y ..7  .*., ' ~ X +.+.~ ~ 7 +.c ; 1 E E Z E m Z E Z Z E E &.&.&.&.E &.&.&.&.&.&.W ` W W B 5 Q +.y h h g C ;.;.$ $ C ! 7 , 2 - - 2 ] 3 2 > l n m m m &.&.m E ` o o t S o e x f f q C z $ ;.k 6 = & & & g ;.k # . < @     + +   + + + +     + + +   + +       +                                 + + + + + + + + + + + + + + + + + + + + + + + + + + + + + + + + + + + + + + + + + + + + + + + + + + + + + + + + + + + + + + + + + + + + + + + + + + + + + + + + + + + + + + + + + + + + + + + + + + + + + + + + + + + + + + + + + + + + + + + + + + + + + + + + + + + + + + + + + + + + + + + + + + + + + + + + + + + + + + + + + + + + + + + + + +   + + + + + + +     +   +   + + + + + ",
". + + + + + + + . @ < : @ G , ^ %.T *.X %.%.9 +.~ ^ T ^ c , B S v E E m m Z Z Z E E E E &.E &.m &.&.&.&.&.W W W B S e ^ ~  .h g g % z ;.;.;.z % X ^.> - - - A ] > 2 ..l s m v E E E E &.S S o o o w O x x M H z $ ;.<.<.% , & = * k ;.r [ . . + + +     +   + +   +   + +   + +                                         + + + + + + + + + + + + + + + + + + + + + + + + + + + + + + + + + + + + + + + + + + + + + + + + + + + + + + + + + + + + + + + + + + + + + + + + + + + + + + + + + + + + + + + + + + + + + + + + + + + + + + + + + + + + + + + + + + + + + + + + + + + + + + + + + + + + + + + + + + + + + + + + + + + + + + + + + + + + + + + + + + + + + + + + + +   + + + + +   +     +   +   + + + + + ",
"+ + + + + + + + . . < : <   ( Q y X Q 9 Q  .9 X X T 7 F c c B B v E Z Z E E Z Z E E E E &.&.&.m m Z E &.E &.v B B B o e ^ +.I h ! q C $ ;.;.z k h *.' 2 - - -.#...> -.l v m v m m E m E &.W W S o L N O x x M ! z ;.<.~.~.z ^.; & ) k ;.G   . +       + +   + + + +   + + + + +       +                                   + + + + + + + + + + + + + + + + + + + + + + + + + + + + + + + + + + + + + + + + + + + + + + + + + + + + + + + + + + + + + + + + + + + + + + + + + + + + + + + + + + + + + + + + + + + + + + + + + + + + + + + + + + + + + + + + + + + + + + + + + + + + + + + + + + + + + + + + + + + + + + + + + + + + + + + + + + + + + + + + + + + + + + + + + + + + + + + + +     + + +   + + + + + ",
"+ + + . + + + . . . . < :   } y %.Q y Q  .Q X X X T 7 / c n E 0 E Z Z Z Z Z Z Z E E E E E E E E E E E E E &.W W B S S b 4 M  .h ! q k $ ;.;.$ C g Q ^.> - - > #.u -.1 0 m m m m m E v E m B W W S o o w 5 x M ^ ! z ;.<.~.~.z c - ; , z r < . @ +   + + + + + + +         + + +                                         + + + + + + + + + + + + + + + + + + + + + + + + + + + + + + + + + + + + + + + + + + + + + + + + + + + + + + + + + + + + + + + + + + + + + + + + + + + + + + + + + + + + + + + + + + + + + + + + + + + + + + + + + + + + + + + + + + + + + + + + + + + + + + + + + + + + + + + + + + + + + + + + + + + + + + + + + + + + + + + + + + + + + + + + + +   + + + + + + +     + + + + + + + + + ",
"+ + . . + + + . . . . @ [   _ y %.Q Q Q %.Q Q *.X *.7 F c c v E Z Z E E E Z Z Z E E E E E E E E E E E m E E &.W W B B B B 4 +.h ! q % $ ;.;.;.C ! Q { 2 - ; 2 #.#...1 s m m s m m m E E m &.E &.t o e e w 5 M ~ I k C $ ~.<.~.% = = ; 7 $ _   : +   + + + + + + +           + +   + + +                                             + + + + + + + + + + + + + + + + + + + + + + + + + + + + + + + + + + + + + + + + + + + + + + + + + + + + + + + + + + + + + + + + + + + + + + + + + + + + + + + + + + + + + + + + + + + + + + + + + + + + + + + + + + + + + + + + + + + + + + + + + + + + + + + + + + + + + + + + + + + + + + + + + + + + + + + + + + + + + + + + + + + + + + + + + + + +     + + +   + + + + + ",
"+ + . + +     + . . . @ :   U %.%.Q %.Q Q Q X X X *.7 F c c v E Z E E E Z E Z Z E E E E &.E &.E &.&.E E E E &.&.W W W S S B 4 9 ! ! ! z ;.;.;.z q I T * - ; - ] ] ..-.l t m m s m m E &.&.W E B B B o o e 5 M +.+.! k z <.~.~.~.7 , = = C r : . .         + . + + +           +     +   + +                               + + + + + + + + + + + + + + + + + + + + + + + + + + + + + + + + + + + + + + + + + + + + + + + + + + + + + + + + + + + + + + + + + + + + + + + + + + + + + + + + + + + + + + + + + + + + + + + + + + + + + + + + + + + + + + + + + + + + + + + + + + + + + + + + + + + + + + + + + + + + + + + + + + + + + + + + + + + + + + + + + + + + + + + + + + + + + + + + +     + + +   + + + + + ",
"+ + . +       + . . . @ <   [ |  .Q %.%.%.Q X X X *.7 / c d n E Z E Z E E Z Z Z E E E E m &.&.&.&.E E E m E &.W W W ` S S o e +.h ! ! k $ ;.;.$ % h X , - ; ; u ] D ..l p p m s m m E E W v v v t t S o o w M M M +.k $ ;.~.~.>.y & * ; y $ #   < +     + + + + +                     +   + +                             + + + + + + + + + + + + + + + + + + + + + + + + + + + + + + + + + + + + + + + + + + + + + + + + + + + + + + + + + + + + + + + + + + + + + + + + + + + + + + + + + + + + + + + + + + + + + + + + + + + + + + + + + + + + + + + + + + + + + + + + + + + + + + + + + + + + + + + + + + + + + + + + + + + + + + + + + + + + + + + + + + + + + + + + + + + + + + + + +     + + +   + + + + + ",
"  + + + +       + . . . : . : '.I Q %.%.%.Q X X X *.6 ) ) d l E Z Z Z Z Z E Z Z E E E &.E &.&.&.&.&.E m E E E W W W B W W o 4 ~ h g ! % z ;.;.;.k g %.' - - ; > A A a ..p m s m m m m m W v W v B B S S o w M M +.+.h z $ <.~.>.z - > 2 F $ '.< < @ + + + + + +               +           + +                               + + + + + + + + + + + + + + + + + + + + + + + + + + + + + + + + + + + + + + + + + + + + + + + + + + + + + + + + + + + + + + + + + + + + + + + + + + + + + + + + + + + + + + + + + + + + + + + + + + + + + + + + + + + + + + + + + + + + + + + + + + + + + + + + + + + + + + + + + + + + + + + + + + + + + + + + + + + + + + + + + + + + + + + +   + + + + + + +   + + + + + + + + + + ",
"  + + + + + + + + + + . < + @ '.h Q Q  .Q Q X X X T F / ) d d 0 Z Z Z Z E Z E E E E E Z E E E E &.&.&.E E E E E E W W S W o e ^ I h ! q C $ ;.;.z ! I { - - - - ..D 1 a p p s m m m E m &.E W v B B B o o e 5 M +.~ +.% $ ;.~.>.;., - - > C k U   < . + + + + + + + +         + +     + + + +                               + + + + + + + + + + + + + + + + + + + + + + + + + + + + + + + + + + + + + + + + + + + + + + + + + + + + + + + + + + + + + + + + + + + + + + + + + + + + + + + + + + + + + + + + + + + + + + + + + + + + + + + + + + + + + + + + + + + + + + + + + + + + + + + + + + + + + + + + + + + + + + + + + + + + + + + + + + + + + + + + + + + + + + + + + + + + + + + +   + + + + + + + + + + ",
"  + + +   + + + + + + . < @ + j h %.Q  . .Q X X *.7 F / c c d 0 Z E Z Z Z Z E E Z E E E E E E E E E E E E m E E E &.v W B S e ^ I h ! ! k $ ;.;.$ % g T = - 2 ; ..] a 1 m t m m m m E E E &.W v v t B b e e w 5 +.9 ~ I C ;.~.>.~.~ 2 , -  .z _   < + + + + + + + + +         + +         + + +                             + + + + + + + + + + + + + + + + + + + + + + + + + + + + + + + + + + + + + + + + + + + + + + + + + + + + + + + + + + + + + + + + + + + + + + + + + + + + + + + + + + + + + + + + + + + + + + + + + + + + + + + + + + + + + + + + + + + + + + + + + + + + + + + + + + + + + + + + + + + + + + + + + + + + + + + + + + + + + + + + + + + + + + + + + + + + + + + +   + + + + + + + + + + ",
"  + + + + + +   + + + . . <   # h %.9  .I Q *.Q *.P / ) c d d 0 E Z Z E Z E E E E E Z Z E E E E E E E E E E E E E E W W B o e ^ I g ! ! % z ;.;.;.C q %., - 2 ; * w s 1 l b m m m m &.E E &.&.E v B B b e e e 4 M 9 +.%.g $ ~.>.>.z * , & * % #   < + + + + + + + + + +         +         + + +                                 +         + + + + + + + + + + + + + + + + + + + + + + + + + + + + + + + + + + + + + + + + + + + + + + + + + + + + + + + + + + + + + + + + + + + + + + + + + + + + + + + + + + + + + + + + + + + + + + + + + + + + + + + + + + + + + + + + + + + + + + + + + + + + + + + + + + + + + + + + + + + + + + + + + + + + + + + + + + + + + + + + + + + + + + + + +   + + + + + + + + + + ",
"+ + + + + + + + + +   + + <   _ g I  .9 I +.X X X 6 / / }.d d 0 E Z E E E E E E Z E E E E E E E E E &.E E E m m E v W B B e 4 ^  .h ! ! q C ;.<.<.z k g (.- 2 ; = e s 1 s b p m t &.W &.E &.v E t S S S e e e w 5 ~  . .Q k ~.>.).>.*.* = = g j + @ +   . + + + + + +                       +   +                               + + + + + + + + + + + + + + + + + + + + + + + + + + + + + + + + + + + + + + + + + + + + + + + + + + + + + + + + + + + + + + + + + + + + + + + + + + + + + + + + + + + + + + + + + + + + + + + + + + + + + + + + + + + + + + + + + + + + + + + + + + + + + + + + + + + + + + + + + + + + + + + + + + + + + + + + + + + + + + + + + + + + + + + + + + + + + +   + + + + + + + + + + ",
"+ +     + +     +     + + <   U h h I 9  .+.Q ~ *.7 (.) }.c d d E E E E E E E E E E E E E E &.E E E &.E m m E m m m v B B S e ^  .h ! q q k $ <.<.$ C ! 7 2 2 ; ; b t 1 a p t m &.t v &.&.E &.v t B B B o e e w 5 ^ +.9 ~ q ;.).).>.% > = * h j + . . + . + +     + +           +           + +                                 + + + + + + + + + + + + + + + + + + + + + + + + + + + + + + + + + + + + + + + + + + + + + + + + + + + + + + + + + + + + + + + + + + + + + + + + + + + + + + + + + + + + + + + + + + + + + + + + + + + + + + + + + + + + + + + + + + + + + + + + + + + + + + + + + + + + + + + + + + + + + + + + + + + + + + + + + + + + + + + + + + + + + + + + + + + + + +   + + + + + + + + + + ",
"+ + +     +       +   + + <   U  .h I  . .Q Q X *.7 (.) }.1.1.d v E E E E E E E E E E E E E &.&.E E E E E m m m v v E B B W B 5 9 g ! q q k $ <.~.<.C q X > - ; ; 0 e p s p p t &.B &.E E m m &.&.t S L L o o e 5 ^ ~ +. .I C ).).>.<.) * , ~ _.+ @ .   . + +       + +         +     +   + +                                   + + + + + + + + + + + + + + + + + + + + + + + + + + + + + + + + + + + + + + + + + + + + + + + + + + + + + + + + + + + + + + + + + + + + + + + + + + + + + + + + + + + + + + + + + + + + + + + + + + + + + + + + + + + + + + + + + + + + + + + + + + + + + + + + + + + + + + + + + + + + + + + + + + + + + + + + + + + + + + + + + + + + + + + + + + + + + +   + + + + + + + + + + ",
"+ + + +   +     + +   + + @   i | h I h  .9  .Q X T 6 F ) }.}.c n E Z E E E E E E E E E E E E &.W E E E m m m E E v E W B W B 4 +.h g ! q % z <.~.<.z k y , - ; ; 1 w b a n t &.S B &.v &.&.m t t B o o o N w w 5 ^ +.+.9 9 q >.).>.>.I = (.X _.+ < .   . . +       + +     + + +     + + + + +                                 + + + + + + + + + + + + + + + + + + + + + + + + + + + + + + + + + + + + + + + + + + + + + + + + + + + + + + + + + + + + + + + + + + + + + + + + + + + + + + + + + + + + + + + + + + + + + + + + + + + + + + + + + + + + + + + + + + + + + + + + + + + + + + + + + + + + + + + + + + + + + + + + + + + + + + + + + + + + + + + + + + + + + + + + + + + + + +   + + + + + + + + + + ",
"+ + + +   +     + +   + . @ + . j ! h h I  .I X X T T P (.}.1.1.n E E 0 E E E E E E E E E E E E E E E E E E m E E m E v v B v 4 ~  .h ! ! q z <.~.~.$ k g (.- - ; 1 M 5 0 s t B ` t &.W &.m v p t t S o o o w 5 5 ~ ~ X Q %.h ~.!.).).C * / *.j . < . + . . +       + +     + + +       + + +                                       + + + + + + + + + + + + + + + + + + + + + + + + + + + + + + + + + + + + + + + + + + + + + + + + + + + + + + + + + + + + + + + + + + + + + + + + + + + + + + + + + + + + + + + + + + + + + + + + + + + + + + + + + + + + + + + + + + + + + + + + + + + + + + + + + + + + + + + + + + + + + + + + + + + + + + + + + + + + + + + + + + + + + + + + + + + + + + + + + + + + + + + ",
"+ + + +   +     +     + . @ .   _ g h I I 9 %.%.X X T P F ^.c c n E E E E E E E E E E E E E E E E E E E m E E m m E m v B t v e ~ 9 h ! ! q C ;.~.>.;.C q *.= - ; & c n = 1 t &.W W &.&.&.&.v &.t v S o o o w 5 5 ^ ~ Q Q %.y z ).).!.<.4 ) ~ j @ @ @ + . . +     + + +     + + + +       + + +                                           + + + +   + + + + + + + + + + + + + + + + + + + + + + + + + + + + + + + + + + + + + + + + + + + + + + + + + + + + + + + + + + + + + + + + + + + + + + + + + + + + + + + + + + + + + + + + + + + + + + + + + + + + + + + + + + + + + + + + + + + + + + + + + + + + + + + + + + + + + + + + + + + + + + + + + + + + + + + + + + + + + + + + + + + +   + + + + + + + + + + ",
"+ + + +         +     + + + +   [ 8 I I  .%.9 %.Q *.T P 6 (.c c n v E E v v E E E E W E E E E E E E E E E E E m E E E W B v v ] ^ 9 h ! ! q k ;.~.>.<.C k y * & ; ; ; - ; = &.W B B W W &.m m &.t v &.o o o w 5 ^ ^ +.Q %.y %.q ~.!.,.).! e 9 r @ @ @ + . . +     + + +     + + +     + + + + +                                 +   + + + + + + + + + + + + + + + + + + + + + + + + + + + + + + + + + + + + + + + + + + + + + + + + + + + + + + + + + + + + + + + + + + + + + + + + + + + + + + + + + + + + + + + + + + + + + + + + + + + + + + + + + + + + + + + + + + + + + + + + + + + + + + + + + + + + + + + + + + + + + + + + + + + + + + + + + + + + + + + + + + + + + + + + + + + +   + + + + + + + + + + ",
"+ +           + +   + + . + .   : '.h I I %.Q Q X *.*.7 6 { ) c d v E E v E E E E E W E E E &.E &.&.E E E E E m E E E W W B B b 7 +.I ! q q q z ~.).<.z k h , & - ; ; = = = E W &.S &.m m m m m m m &.o o N N 5 M M M +.Q %.y h ;.,.,.!.|.K ! '.: . @ + . + +   + + + +     + + + +     + + + +                                 + + + + + + + + + + + + + + + + + + + + + + + + + + + + + + + + + + + + + + + + + + + + + + + + + + + + + + + + + + + + + + + + + + + + + + + + + + + + + + + + + + + + + + + + + + + + + + + + + + + + + + + + + + + + + + + + + + + + + + + + + + + + + + + + + + + + + + + + + + + + + + + + + + + + + + + + + + + + + + + + + + + + + + + + + + + + + +   + + + + + + + + + + ",
"+ +       +   +     + + + + . + @ '.h y  . .Q Q X X T P 6 { }.c c n v E v E E E E E E E E E &.E &.E E E E E E E E E E W W W m v 4 ~  .! q ! q z ~.).~.$ C ! c & - ; & , > 2 s t &.m m m m m m Z Z E t o o o o e 5 ^ ~ +.+.+.y h z ).3.,.>.H H | [ + <   . + +   + + + + +   + + + + + + + + + + +       + +                     +     + + + + + + + + + + + + + + + + + + + + + + + + + + + + + + + + + + + + + + + + + + + + + + + + + + + + + + + + + + + + + + + + + + + + + + + + + + + + + + + + + + + + + + + + + + + + + + + + + + + + + + + + + + + + + + + + + + + + + + + + + + + + + + + + + + + + + + + + + + + + + + + + + + + + + + + + + + + + + + + + + + + + + + + + + + +   + + + + + + + + + + ",
"+ +           +     + + . + + @   '.h y  .%.%.Q Q X T 7 6 / }.}.c n v E E E E E E E E E E m &.E E E E E E E E E E E E E v v E E 4 ~ 9 g ! ! ! C ~.).~.$ C q { = & ; ; > > ; a m p m m m m m m m m &.t b o o o e w 5 M +.+.+.9 h C ~.3.3.!.|.q M i   < + . . + + + + + +     + + + +     + + + + +       + +                     +       + + + + + + + + + + + + + + + + + + + + + + + + + + + + + + + + + + + + + + + + + + + + + + + + + + + + + + + + + + + + + + + + + + + + + + + + + + + + + + + + + + + + + + + + + + + + + + + + + + + + + + + + + + + + + + + + + + + + + + + + + + + + + + + + + + + + + + + + + + + + + + + + + + + + + + + + + + + + + + + + + + + + + + + + + +   + + + + + + + + + + ",
"+ +       +         + . . + + <   J h %.%.%.Q %.Q *.*.P F / ) c c n E E W W E E E E E E E E E E E E E E E E E E E E E &.W W W &.e ^ Q g ! ! ! k <.>.>.;.z % T * & - ; = * ; 1 s t m m Z m E E m E E B b b o o e w 5 M +.9 +.X h k ;.!.3.,.).z w U   <   + . + + + + + +         +   + +     +                                               +   + + + + + + + + + + + + + + + + + + + + + + + + + + + + + + + + + + + + + + + + + + + + + + + + + + + + + + + + + + + + + + + + + + + + + + + + + + + + + + + + + + + + + + + + + + + + + + + + + + + + + + + + + + + + + + + + + + + + + + + + + + + + + + + + + + + + + + + + + + + + + + + + + + + + + + + + + + + + + + + + + + + + + + + + + + + + + + + + + ",
"+ +     + +         + + + + . <   } I %. .%.Q %.Q X T P F / ) c c c n E E W E E E W E E E &.E E E E E E E &.E E m E E W &.W W W o ^ +.h g ! ! % ;.>.>.<.$ k Q , & - ; 2 ..& = s v m m m Z E m E E E v B n S o o o e ^ M +.+.+.h % z ).3.,.!.<.f _   :   + + + + + + + +       + + + +       + +                                           + + + +     + + + + + + + + + + + + + + + + + + + + + + + + + + + + + + + + + + + + + + + + + + + + + + + + + + + + + + + + + + + + + + + + + + + + + + + + + + + + + + + + + + + + + + + + + + + + + + + + + + + + + + + + + + + + + + + + + + + + + + + + + + + + + + + + + + + + + + + + + + + + + + + + + + + + + + + + + + + + + + + + + + +   + + + + + + + + + + ",
"+ +     +     + + + + + + + + <   # h %.%.%.%.Q Q *.7 7 6 / ) ) c n E E E E E E E m W E E E &.E E E E E E &.&.E E E E E E W W &.o P +.I g ! ! q z ~.>.<.$ C h }.> - ; 2 , = - a B &.m Z E W &.E E E E m E W S S S o 4 ^ +.+.+.I q C ~.,.3.!.~.C J   : +   + + + + + + +     + + + + +     + + +                                           + + + + + + + + + + + + + + + + + + + + + + + + + + + + + + + + + + + + + + + + + + + + + + + + + + + + + + + + + + + + + + + + + + + + + + + + + + + + + + + + + + + + + + + + + + + + + + + + + + + + + + + + + + + + + + + + + + + + + + + + + + + + + + + + + + + + + + + + + + + + + + + + + + + + + + + + + + + + + + + + + + + + + + + + +   + + + + + + + + + + ",
"+ +       +         + + .   . <   G  .Q %.Q Q %.Q X *.P P F ) ) c n n E E E E E E E &.&.W W &.E E E E E &.&.E E &.E E E E W B &.W e Q I h ! q q C ~.>.~.$ C g { * - ; ; * * ; 1 B t Z Z &.E E E E Z E &.W W S L S S e w +.+.^  .g k ;.).,.).>.<.( + < . + + +   + +           + + +     +   +                                           + + + + + + + + + + + + + + + + + + + + + + + + + + + + + + + + + + + + + + + + + + + + + + + + + + + + + + + + + + + + + + + + + + + + + + + + + + + + + + + + + + + + + + + + + + + + + + + + + + + + + + + + + + + + + + + + + + + + + + + + + + + + + + + + + + + + + + + + + + + + + + + + + + + + + + + + + + + + + + + + + + + + + + + + + +   + + + + + + + + + + ",
"+ +   + + +           + . + . <   U %.X  . .9 9 Q Q *.P 6 / ) }.c d n v E E W W E E E E v W W E E E E &.&.&.E E E &.&.E E B B W W o ^  .h ! ! ! k <.>.>.;.k ! P , - ; ; 1 3 = 1 B &.` ` &.Z &.E E E &.&.&.W S S S S o e M ^ 5 +.h % $ ~.!.).>.~.'.  < . + + + + + +           + + +     + + + + +                                         + + + + + + + + + + + + + + + + + + + + + + + + + + + + + + + + + + + + + + + + + + + + + + + + + + + + + + + + + + + + + + + + + + + + + + + + + + + + + + + + + + + + + + + + + + + + + + + + + + + + + + + + + + + + + + + + + + + + + + + + + + + + + + + + + + + + + + + + + + + + + + + + + + + + + + + + + + + + + + + + + + + + + + + + +   + + + + + + + + + + ",
"+ + + + + + +   + +     + + + @   [ |  .9 9  .+.Q X *.P { ) ) c c d n E E W W W v E m E &.&.&.E E E E E v W &.E &.&.E E v &.W W W o ^ 9 h ! q q k ;.~.>.;.k % Q ) & ; ; & d 0 1 0 E &.W E &.E &.&.Z &.m E &.W W S S o e 5 M ^ M h k $ <.>.).>.>.r [ . @ +         +     +       + +       +   + + +     +                                   + + + + + + + + + + + + + + + + + + + + + + + + + + + + + + + + + + + + + + + + + + + + + + + + + + + + + + + + + + + + + + + + + + + + + + + + + + + + + + + + + + + + + + + + + + + + + + + + + + + + + + + + + + + + + + + + + + + + + + + + + + + + + + + + + + + + + + + + + + + + + + + + + + + + + + + + + + + + + + + + + + + + + + + +   + + + + + + + + + + ",
"+ + + + + + +   + + + + + + . @   @ 8  .%. .9  .9 *.7 6 F ) ) ) c d n W W E &.v E E m E E v &.E E E E &.E W &.E &.E E &.E &.B B &.B 5 9 h g q q % ;.~.>.~.C % I F * ; ; ; , d 1 1 v &.&.W &.&.&.&.m &.&.&.W W E W S o o e M x M ~ q $ ;.~.).).>.~._   < .   + +                   +                                                                         + + + + + + + + + + + + + + + + + + + + + + + + + + + + + + + + + + + + + + + + + + + + + + + + + + + + + + + + + + + + + + + + + + + + + + + + + + + + + + + + + + + + + + + + + + + + + + + + + + + + + + + + + + + + + + + + + + + + + + + + + + + + + + + + + + + + + + + + + + + + + + + + + + + + + + + + + + + + + + + +   + + + + + + + + + + ",
"+ + + + + + +   + + + + + + . @ @   J  . . .9  .9 Q 7 6 F ) ) ) ) c n W W v W v E v E E m v E E E E &.E E &.E E E E E E E &.t B &.B 4 ~ I ! q ! q $ >.>.~.z % g T d - ; ; > , = 1 W W E &.&.&.&.&.&.&.&.&.W W W W B o B S 5 9 +.5 I z $ ;.>.).>.>.# + : @ + +         +                   + +                                                           + +       + + + + + + + + + + + + + + + + + + + + + + + + + + + + + + + + + + + + + + + + + + + + + + + + + + + + + + + + + + + + + + + + + + + + + + + + + + + + + + + + + + + + + + + + + + + + + + + + + + + + + + + + + + + + + + + + + + + + + + + + + + + + + + + + + + + + + + + + + + + + + + + + + + + + + + + + + + + + +   + + + + + + + + + + ",
"  +   + + + +   + + + + + + . @ <   } h  .I  .9 I X *.P F (.}.) ) }.n v W &.v v v E m v m m v E E &.E E W &.E E &.&.E E &.E t t v B e ^ y g q q q z >.>.>.$ % ! Q }.& ; ; = * > = W W E W E &.&.&.&.&.&.W W W W B B B o o w M x 5 M k z z ~.>.).).r [ : <     +   +   +     +           +                                                               + + + + + + + + + + + + + + + + + + + + + + + + + + + + + + + + + + + + + + + + + + + + + + + + + + + + + + + + + + + + + + + + + + + + + + + + + + + + + + + + + + + + + + + + + + + + + + + + + + + + + + + + + + + + + + + + + + + + + + + + + + + + + + + + + + + + + + + + + + + + + + + + + + + + + + + + + + + + + + + + + +   + + + + + + + + + + ",
"  +   + + +   + +     + + + . . <   # I  .I 9 9 +.Q *.P 6 (.(.}.}.c d n v v W v v E E v E m E E E W W W &.W &.&.&.&.&.E &.E W W W S ] 5 9 g q q % C <.>.>.$ C q  .) = ; ; 2 * * = W E &.E &.Z E &.E E &.&.W W W W W S S o e M x 5 ^ % z z ;.<.>.>.>.U @ : +   + + +   + + + +           + +                                                             +       + + + + + + + + + + + + + + + + + + + + + + + + + + + + + + + + + + + + + + + + + + + + + + + + + + + + + + + + + + + + + + + + + + + + + + + + + + + + + + + + + + + + + + + + + + + + + + + + + + + + + + + + + + + + + + + + + + + + + + + + + + + + + + + + + + + + + + + + + + + + + + + + + + + + + + + + + + + + + +   + + + + + + + + + + ",
"  +   + + +   + +     + + + + + <   _  .I  . .9 +.Q *.*.6 { (.(.(.}.d n v v E E W E E E E m m v E W E W W W &.E &.&.&.E &.E W W W &.B 4 +.h q q % C <.>.>.<.z k y / , & - 2 > ..1 Z S Z v &.&.E &.&.E E &.W &.E W W t B B o M 9 5 ^ g C z $ $ <.>.).G   < +   + +     + + + +   + +     + +                                                                       + + + + + + + + + + + + + + + + + + + + + + + + + + + + + + + + + + + + + + + + + + + + + + + + + + + + + + + + + + + + + + + + + + + + + + + + + + + + + + + + + + + + + + + + + + + + + + + + + + + + + + + + + + + + + + + + + + + + + + + + + + + + + + + + + + + + + + + + + + + + + + + + + + + + + + + + + + + + +   + + + + + + + + + + ",
"  +     + + +       + +     + + <   _  .I I I  .I  .%.X *.T 6 F { (.c n B v E W v E E p v m E m &.E E W W W &.&.&.&.E E E E v W E m B e ~ h ! q % k ;.).>.~.;.k h P ' * - 2 = ..1 a B &.&.m &.&.&.&.&.&.W W &.W W W W S o e 5 x ~ ^ +.q z z C z <.~.r @ . + +   +       + + +     + +   +                                                                           + + + + + + + + + + + + + + + + + + + + + + + + + + + + + + + + + + + + + + + + + + + + + + + + + + + + + + + + + + + + + + + + + + + + + + + + + + + + + + + + + + + + + + + + + + + + + + + + + + + + + + + + + + + + + + + + + + + + + + + + + + + + + + + + + + + + + + + + + + + + + + + + + + + + + + + + + + + +   + + + + + + + + + + ",
"  +     + + + +     + +     . . <   G 9 g I I I  .%.Q X X *.6 6 F (.) d n v m m v E E v v m E E E E E W W E E E &.v E E E &.E E E W B ] ^ h ! q % % $ ).).>.<.C h ^ ) , 2 - 2 l ..1 E &.E E E &.&.&.&.&.&.&.W &.W W t v S e w +.+.~ ~ I k z C C $ ~.<.U + < +   +   +                                                                                                                       + + + + + + + + + + + + + + + + + + + + + + + + + + + + + + + + + + + + + + + + + + + + + + + + + + + + + + + + + + + + + + + + + + + + + + + + + + + + + + + + + + + + + + + + + + + + + + + + + + + + + + + + + + + + + + + + + + + + + + + + + + + + + + + + + + + + + + + + + + + + + + + +   + + + + + + + + + + ",
"  +     + + +   +     +     . . <   U 7 h y I  .9  .%.X X T 6 F F ) c d n n E v v v m B v l l v E E E E W W W E &.v E &.&.E &.W E E v ] ^ I g q % % z ).).>.>.$ g ^ / }.* ; & ..l 1 s W E W &.&.&.&.E &.&.W W W W W W v B e w +.+.~ +.9 q C z k z <.<._.  : .   + +       +                                                                                                                                       + + + + + + + + + + + + + + + + + + + + + + + + + + + + + + + + + + + + + + + + + + + + + + + + + + + + + + + + + + + + + + + + + + + + + + + + + + + + + + + + + + + + + + + + + + + + + + + + + + + + + + + + + + + + + + + + + + + + + + + + + + + + + + + + + + + + +   + + + + + + + + + + ",
"  +       + +   +     + +   + + @   i P I %.I I  . .%.X *.7 P 6 { ) }.c n v v v v t t t v p l v W E E E E W &.E E &.v E E Z E E E &.W ] 5 9 h ! q q C >.!.).>.;.q ~ F / ' ; & = u ..a S W E W &.&.E E &.&.W W W W B W B o e w x +.~ +.9 ! k C k C z ;.r : @ @ +           +                 + +                                                                                                                     + + + + + + + + + + + + + + + + + + + + + + + + + + + + + + + + + + + + + + + + + + + + + + + + + + + + + + + + + + + + + + + + + + + + + + + + + + + + + + + + + + + + + + + + + + + + + + + + + + + + + + + + + + + + + + + + + + + + + + + + + + + + + + + + + + + +   + + + + + + + + + + ",
"          + +         +     + . @ + < ( h I I I 9 %.Q X *.T 7 P { (.) c n v v v E v B v v m v v W E E W W E E &.W E E E E E E m E W v B 4 9 g ! q % k ~.!.!.).<.% Q 7 6 (.- 2 & u 3 1 E W E &.E E &.E &.&.&.W W W W &.W S o w x +.~ +.+.h % k C C C $ <.G + < +     +                         + +                                                                                                                         +   + + + + + + + + + + + + + + + + + + + + + + + + + + + + + + + + + + + + + + + + + + + + + + + + + + + + + + + + + + + + + + + + + + + + + + + + + + + + + + + + + + + + + + + + + + + + + + + + + + + + + + + + + + + + + + + + + + + + + + + + + + + + + + +   + + + + + + + + + + ",
"            + +       + +   . . @ .   _ h y I  . .%.X X *.T T 6 { (.) c n v W E E E E v m E v v E W E &.W &.E &.&.E E W E E E E W v E B 4 +.h ! q % C <.!.!.!.~.C I X P { = = = ..] a E W S S W E &.W &.&.&.&.&.W W W S o o w +.x ~ +.+. .g % C k C $ <.#   : @                             + + + +                                                                                                                             + + + + + + + + + + + + + + + + + + + + + + + + + + + + + + + + + + + + + + + + + + + + + + + + + + + + + + + + + + + + + + + + + + + + + + + + + + + + + + + + + + + + + + + + + + + + + + + + + + + + + + + + + + + + + + + + + + + + + + + + + + + + + +   + + + + + + + + + + ",
"            +   + +   + + + + . + .   [ 8 y I  . .%.X X X *.T 6 { ) ) c n n E E E m Z E W v E m W W E W W W m E E &.E &.&.E v v W v v B e ~ I g ! q k <.!.!.!.>.$ g %.T 6 * & > ..3 1 v W W S ` Z W &.&.&.&.&.&.&.` &.S o o N x x ^ ~ +.9 I q k k k z ;.r : < < +                           + +   +                                                                   + +                                                       + + + + + + + + + + + + + + + + + + + + + + + + + + + + + + + + + + + + + + + + + + + + + + + + + + + + + + + + + + + + + + + + + + + + + + + + + + + + + + + + + + + + + + + + + + + + + + + + + + + + + + + + + + + + + + + + + + + + + + + + + + + + + +   + + + + + + + + + + ",
"              + + +   +   + + . + @   [ 8 y I 9 Q %.%.X Q *.7 6 { ) }.c n W E E m E v W v &.m W E W E E W E E E E &.E &.E v E E W B v v ] ^ y g ! q k ;.).,.!.).;.! I *.7 1.= 2 > ..a m W W W ` ` m &.&.&.&.&.W &.&.&.S o o e M 9 M +.+.9  .! % % % C $ <.U + : +   +       + +                                                                                                                                                       +     + + + + + + + + + + + + + + + + + + + + + + + + + + + + + + + + + + + + + + + + + + + + + + + + + + + + + + + + + + + + + + + + + + + + + + + + + + + + + + + + + + + + + + + + + + + + + + + + + + + + + + + + + + + + + + + + + + + + + + + +   + + + + + + + + + + ",
"              + + + +     + . . + . + < '.%.%.Q Q Q Q Q X T 7 6 { (.}.) n n W W v v E E v v W W E E &.W E E E v &.E E &.m E E m v v v v b 7 y g q q % z ).,.!.!.<.q I X 7 { > - 2 l l s W W W W &.&.&.&.&.E &.` &.&.&.S o o o 5 x M +.9 9 9 g q % % C C ;._   < + + + +     +   +                                                                                                                                                               + + + + + + + + + + + + + + + + + + + + + + + + + + + + + + + + + + + + + + + + + + + + + + + + + + + + + + + + + + + + + + + + + + + + + + + + + + + + + + + + + + + + + + + + + + + + + + + + + + + + + + + + + + + + + + + + + + + + + +   + + + + + + + + + + ",
"                +         + . . + + .   '.%.%.Q Q Q Q Q Q *.T 6 (.^.) c n v E v W v v v E E E E E W E &.W W E W &.&.E &.E E E v v v v v ] 7  .g q q % C ~.!.,.!.~.% h Q 7 7 * - - * l v Z &.B W &.&.E &.m &.&.&.&.&.&.S S o o e x M ~ 9 9  .h ! q % C k C r @ @ . +   +       + +   +                                                                                                             + + + + + +   +                               + + + + + + + + + + + + + + + + + + + + + + + + + + + + + + + + + + + + + + + + + + + + + + + + + + + + + + + + + + + + + + + + + + + + + + + + + + + + + + + + + + + + + + + + + + + + + + + + + + + + + + + + + + + + + + + + + + + + + +   + + + + + + + + + + ",
"                + + +     + . . + . @   '.%.Q Q Q 9 %.Q X *.7 6 (.(.) c n n E E E E W W W W E E W E E W W E &.W &.E W &.E E m E E B W E b P 9 h q q k C <.!.,.!.>.C h %.7 *., ; ; 2 3 o Z W B m &.&.m Z m m &.m m E &.W B L L o M 9 M +.9 I I I q % k C k $ U + < +                                                                                                                               + +       + + +                                 + + + + + + + + + + + + + + + + + + + + + + + + + + + + + + + + + + + + + + + + + + + + + + + + + + + + + + + + + + + + + + + + + + + + + + + + + + + + + + + + + + + + + + + + + + + + + + + + + + + + + + + + + + + + + + + + + + + + +   + + + + + + + + + + ",
"                + + +     + + . + . <   '.%.Q %.%.Q %.Q Q *.T 6 { (.}.}.n n E W E W W W W W &.E W E E &.W W E E &.&.&.&.&.E E E t B B v n / Q h ! q % C <.!.,.,.>.$ h %.T *.^.- ; & a 0 Z t &.&.&.E E E m m m &.m m m t B t L N 5 x 5 M +.%.y I ! % % C C z _.  : .                                                                                                                                           +                                   +         + + + + + + + + + + + + + + + + + + + + + + + + + + + + + + + + + + + + + + + + + + + + + + + + + + + + + + + + + + + + + + + + + + + + + + + + + + + + + + + + + + + + + + + + + + + + + + + + + + + + + + + + + + + + + + + +   + + + + + + + + + + ",
"  +             +   + + + + + . + + <   J  .%.Q %.Q Q %.X *.T F { (.}.}.c n E E v W E E W &.E Z E E E W W W E E &.&.&.&.E E E E t v W v n / 9 h ! q q k ;.!.3.!.>.;.h y *.*./ ; ; & = = a E &.Z E &.&.&.m m m m m m &.t &.t ` L e w 5 5 +.+.%.I h q % C C z r [ . @ +             +                                                                                                                                                               +           + + + + + + + + + + + + + + + + + + + + + + + + + + + + + + + + + + + + + + + + + + + + + + + + + + + + + + + + + + + + + + + + + + + + + + + + + + + + + + + + + + + + + + + + + + + + + + + + + + + + + + + + + + + + + + +   + + + + + + + + + + ",
"                    +     + . . + + @   } X Q %.y 9 Q Q X T T 6 (.) ) ) d n v v v E E E E E E E E E &.W W W E E E &.E &.&.&.E E v v v v n ] ~ h ! q q % $ ).,.!.>.<.! y X T 6 ; ; & = 1 a E B &.E E &.m m m m m &.&.v &.t B t B L e ^ 5 ^ 9 %.%.y q k k C z $ _   < .             +                                                                                                                                                                                       + + + + + + + + + + + + + + + + + + + + + + + + + + + + + + + + + + + + + + + + + + + + + + + + + + + + + + + + + + + + + + + + + + + + + + + + + + + + + + + + + + + + + + + + + + + + + + + + + + + + + + + + +   + + + + + + + + + + ",
"                    +     + + . + . <   # X %.%.%. .%.Q %.*.7 6 (.) }.) c c B W E E v v v v E v E E E W W &.E E E &.E W &.E E W v v v v n b T I ! q % % $ ).3.,.).~.% y Q 6 7 & & & & a v E W &.W &.&.m m m m &.&.&.m &.&.&.&.t L N M ^ 5 +.%.%.y g % k C $ $ _.@ < @ +   +         + +                                                                                                                                                                                   +       + + + + + + + + + + + + + + + + + + + + + + + + + + + + + + + + + + + + + + + + + + + + + + + + + + + + + + + + + + + + + + + + + + + + + + + + + + + + + + + + + + + + + + + + + + + + + + + + + + + + +   + + + + + + + + + + ",
"  +             + +   + + + + + + . <   _ Q y 9 Q I 9 Q Q *.T 6 { (.) ) c d v E E v E E E m E m E W W W &.W W W W &.E v m E E E v B B v n n 7 I ! q % k $ >.3.3.).~.k y y *.*.* ; = - 1 v v &.B &.W &.&.m &.&.m &.&.&.&.` W &.S S o 5 ^ 5 X %.y y y h k C $ $ $ i . @ + + +           + +                                                                                                                                                                                 +         + + + + + + + + + + + + + + + + + + + + + + + + + + + + + + + + + + + + + + + + + + + + + + + + + + + + + + + + + + + + + + + + + + + + + + + + + + + + + + + + + + + + + + + + + + + + + + + + + + + +   + + + + + + + + + + ",
"  +             + +   + + + + . + . <   G T  .%.%.%.%.%.*.X *.*.6 { (.}.d d n v E E E E E E E E v E E W W v W E &.&.v W W E E v E v B B B t P I ! q % k $ ~.,.2.!.>.C y y X *.1.; & ; = a v W ` ` &.` &.m m &.&.&.Z Z ` &.Z ` &.B &.o 5 5 ^ +.y y y y % C $ $ $ _.  @ @ .                                                                                                                                                                                                 +         + + + + + + + + + + + + + + + + + + + + + + + + + + + + + + + + + + + + + + + + + + + + + + + + + + + + + + + + + + + + + + + + + + + + + + + + + + + + + + + + + + + + + + + + + + + + + + + + + + + +   + + + + + + + + + + ",
"              + + + + + + + + . + . <   i P I  .%.%. .%.Q X X *.6 F { (.) d n n E v v E E v v E v v E W W W W W E E W v W &.W W E W W v v t e 9 g q % % z ;.!.3.!.>.z y X Q Q }.; & - & = E B L L ` ` &.m m &.m &.E &.&.E &.W W S B S S b o 5 %.9 y h ! k k $ z $ i . < +                 + +                                                                                                                                                                             +         + + + + + + + + + + + + + + + + + + + + + + + + + + + + + + + + + + + + + + + + + + + + + + + + + + + + + + + + + + + + + + + + + + + + + + + + + + + + + + + + + + + + + + + + + + + + + + + + + + + +   + + + + + + + + + + ",
"                + +   + + + + + + . <   [ 7 h y  .y %.Q %.Q X T 7 6 F { / c n n W W E E E E E E E E E W E W E W W W E &.W &.&.W W v W E v v ] ~ g ! q % C ;.!.3.,.>.z h *.Q %., ; & - ; & a W o ` ` ` &.m m &.&.Z s Z Z Z E Z W ` o o S B &.] 5 +.I h h % % z $ $ _.. . @                 + +                                                                                                                                                                             +         + + + + + + + + + + + + + + + + + + + + + + + + + + + + + + + + + + + + + + + + + + + + + + + + + + + + + + + + + + + + + + + + + + + + + + + + + + + + + + + + + + + + + + + + + + + +   + + + + + + +   + + + + + + + + + + ",
"                + +   + + + + + + . @   < Y h y y 9  . .Q %.Q X *.7 F { ) c c v E v W E E E E E W W E E W W W W W &.W m &.&.W W &.W W W B B ] ^ ! q ! % C $ !.3.,.).z g Q  .P = ; ; & ; & 0 t o :.:.:.` &.&.Z ` [.:.:.0.a.[.:.o ` W S L o o o o 5 9 I g q k C $ $ ;.U   < .                                                                                                                                                                                               +   +   + + +   + + + + + + + + + + + + + + + + + + + + + + + + + + + + + + + + + + + + + + + + + + + + + + + + + + + + + + + + + + + + + + + + + + + + + + + + + + + + + + + + + + + + + + + + + + + + + + + + +   + + + + + + + + + + ",
"                + + + + + + + + + . @ + . (  .y y %.I %.%.%.Q X *.T F (./ }.c n v v W W E E E E E E v B B W &.v W E W &.W &.&.W &.&.W v v B ] 5 g q ! q k $ !.,.!.).z I 7 / 4 ..& & & ; = l 0 Z L ` ` ` ` :.0.b.c.d.e.f.f.f.g.f.h.i.[.:.:.w [.o o 4 ~ h ! % C $ $ ;._.  @ . . + +           +   +   + +                                                                                                                                                                   +           + +       + + + +   + + + + + + + + + + + + + + + + + + + + + + + + + + + + + + + + + + + + + + + + + + + + + + + + + + + + + + + + + + + + + + + + + + + + + + + + + + + + + + + + + + + + + + + + +   + + + + + + + + + + ",
"              + + +   + + + + + + + @ @   J I I y y y %.%.Q Q X T 7 6 F (.}.c 0 E W W E E E E E E v B W &.v E v W W m B B W &.E E E E v v v ] 5 h q ! ! % z ).3.!.).k 7 / ..] 3 = & & ; & 1 1 a a Z a.j.k.l.l.e.e.e.f.m.g.n.o.p.q.p.r.d.s.t.t.O w e 4 +.! q % z ;.;.$ i   .     .         + . + + + +     +                                                                                                                                                                           +       + + + + + + + + + + + + + + + + + + + + + + + + + + + + + + + + + + + + + + + + + + + + + + + + + + + + + + + + + + + + + + + + + + + + + + + + + + + + + + + + + + + + + + + + + + + + + + + + + + + + + + + + + + ",
"              + + +   + +   + + + + . <   } I h y I y %.%.Q X X T 7 7 F ) ) c n v W W E E E E E S B v v E W v W W W W v &.&.&.&.E E &.W v v b 4 h q q q % C >.3.!.).q ^.^...d ..= ; & & & = a 1 t u.l.l.d.d.c.v.w.w.i.w.w.x.y.z.q.A.A.A.r.v.B.C.O O 5 5 y ! q k $ ;.;._.  @ @ +   +                                                                           +                                                                                                           +           +       + + + + + + + + + + + + + + + + + + + + + + + + + + + + + + + + + + + + + + + + + + + + + + + + + + + + + + + + + + + + + + + + + + + + + + + + + + + + + + + + + + + + + + +   + + + + + + + + + + + + + + + + + + ",
"                + +   + + + + + + + . <   # ~ h  .I  .%.%.Q X X *.7 7 6 ) ) c n E W W W E W E E W E v t W E m t W W W W &.&.&.&.&.&.E W B B b 4 9 q q q % k ~.!.!.).% c }.1 l ] * - ; & & 1 1 Z c.c.u.D.0.0.0.a.a.a.a.E.E.F.D.G.H.I.A.J.K.L.M.N.B.O.K M ~ %.! % z ;.;.C i . <     +                                                                           + + +       + + + +                                                                                         +           +       + + + + + + + + + + + + + + + + + + + + + + + + + + + + + + + + + + + + + + + + + + + + + + + + + + + + + + + + + + + + + + + + + + + + + + + + + + + + + + + + + + + + + + + + + + + + + + +   + + + + + + + + + + ",
"                + + + + + + + + + . . <   # 5 I  .I %.%.%.%.Q X *.T 7 F ) }.c n n W W W W W W E E E t t t v m m W W E W &.&.&.&.&.v v v v B b 4 9 ! q q % % <.).).).% ^.) 2 a ] 0 2 & & = = m B.u.j.F.0.a.a.a.a.a.a.a.E.C.E.a.0.G.H.P.Q.R.R.J.L.g.d.S.f x f g % k z ~.C ( < < . +     +   +     + +           +   + + + + + + + + + + + + + + + + + + + + + + + + + + + + + + + + + + + + + +     + +                                     +   +                                       +         + +   +   + + + + + + + + + + + + + + + + + + + + + + + + + + + + + + + + + + + + + + + + + + + + + + + + + + + + + + + + + + + + + + + + + + + + + + + + + + + + + + + + +   + + + + + + +     + + + + + + + + + ",
"                      + +   + + + + + <   # M I 9  .9 %.%.Q X X T T 6 F }.}.c d E v W E W W W E E E B b m B t E B W E &.E m &.&.&.&.v B B v v e 9 ! q q % q <.!.).).! }.c = a b 0 1 = & & o u.O.E.D.j.F.F.F.F.C.E.E.E.a.E.C.[.t.w.m.q.Q.T.U.U.V.W.X.r.Y.h.u.H H H % >.~.3 #   < + + + +       +                                   + + + +     + + + +   + + + +   + + +       + + +                           +                                                                                         +     +   + + + + + + + + + + + + + + + + + + + + + + + + + + + + + + + + + + + + + + + + + + + + + + + + + + + + + + + + + + + + + + + + + + + + + + + + + + + + + + + + + + + + +     + + +   + + + + + ",
"                      +     + + + + + <   _ x h 9 I  .Q %.%.X X *.7 6 { (.) c n v S W W W W &.E &.t $.u p t p t n W &.m v E E W E E v v v v v ] ~ g q q % q ;.!.).).! ^.] 0 0 b l = - ; a K C.E.F.F.D.F.F.F.F.C.E.E.E.E.t.s.E.O.O.Z.`. +U..+.+++@+T.#+$+%+&+c.u.u.k.|.|.H V U     + + . . + . . + +       +   + +     +                               + + + +     +   + +   +                         + + + + + + + + + + + + + +                                         +             +         + +       + + +     + + + + + + + + + + + + + + + + + + + + + + + + + + + + + + + + + + + + + + + + + + + + + + + + + + + + + + + + + + + + + + + + + + + + + + + + + + + + + + + + + + +   + + + + + + + + + + ",
"                  +   + + + . +   +   <   _ x h 9 9  .9 %.%.X X T 7 P { (.) ) c n B W W W W W &.t p $.$.p p m p v v &.v &.v &.&.&.v v v v v n c ^ h ! q q q $ ).>.).k ] P u 1 l d 1 & - o *+t.E.C.F.E.C.F.C.C.C.F.0.E.s.t.R E.C.C.v.Y.P.U.=+-+=+=+;+++U.>+Q.,+'+y.x.i.)+n.k.Y # i   :   @ + + . +           +     +                                     + + + + +       +     + + + + + + + + + + + + + + + + + + + + + + + + + + + + +                   +   +   + +     +         + +           +         + + +   + + + + + + + + + + + + + + + + + + + + + + + + + + + + + + + + + + + + + + + + + + + + + + + + + + + + + + + + + + + + + + + + + + + + + + + + + + + + + + + + + + + + + + + + + + + + + + + ",
"  +               + + + + + . +   + . <   G 5 h  .9 9 9  .%.Q X *.T 6 (.) }.c n n v W W W W W v v p p $.D p t m v v v &.E W W &.E v v W B B v b ^ h q q % q C >.>.).C 3 4 l 1 a b a 2 2 o s.C.E.F.C.F.C.C.F.F.C.F.F.E.E.E.C.C.C.F.j.h.!+V.;+~+~+{+{+-+]+;+++^+/+(+X._+`.I.I.o.f.:+_ @ < + + + + +       + + +   + + + + + + + + + + + + + + + + + + + + + + + + . + +     +           +     +     +   + + + + + + + + +       + + + + +                       + + + + + + + +     + + + +       + +           + +     + + + + + + + + + + + + + + + + + + + + + + + + + + + + + + + + + + + + + + + + + + + + + + + + + + + + + + + + + + + + + + + + + + + + + + + + + + +   + + + + + + + + + + + + + + + + + + ",
"  +               + + +     . +   + . <   U 4 h 9 9 9 9  .%.Q X X T 6 (.) }.c c n v W W W W W W v t u u u p t m n B B v E t v &.v W t v B B m b ^ h q q % q % ~.>.).C d 4 l 1 1 l -.2 a N C.E.E.C.C.C.C.C.F.C.E.C.C.C.a.E.E.C.F.F.C.N.H.#+@+-+<+<+[+<+~+~+-+;+}+|+1+R.X.%+%+p.&+L.&+# [ + @ . . .   +   + + +   + + + + + + + + + + + + + + + + + + + + + + + + + + + +     +                           + + + +               + + + + + + + +                 + + + + + + + + +   + + +           +           + +       + + + + + + + + + + + + + + + + + + + + + + + + + + + + + + + + + + + + + + + + + + + + + + + + + + + + + + + + + + + + + + + + + + + + + + + + + + + + + + + + + +   + + + +   + + + + + ",
"                + + + + +   + +   +   @   U c f I I  .9  .Q Q X *.7 6 6 (.) c d n B E W B B W W v t u u D D t t p p B B m p t v E E v m v v v n P y g q q q q ;.).).z ] 4 l 1 = l p 1 1 o t.a.C.C.C.C.s.C.C.E.C.F.F.C.a.E.E.E.C.E.a.D.2+3+@+]+~+[+4+5+4+4+[+<+{+]+6+=+;+V.(+X.%+&+(+7+8+9+i @ < +       + + +             +               +         + +   + +               + + +         +   +   +   +   + +   +               + + + + + + +                 +   + + + + + + + + + + +           +           +         + + + + + + + + + + + + + + + + + + + + + + + + + + + + + + + + + + + + + + + + + + + + + + + + + + + + + + + + + + + + + + + + + + + + + + + + + +   + + + + + + +     + + + + + + + + + ",
"                    + +     + +   + . @ + < ( +.I I 9  . .%.Q X *.7 6 F ) ) }.c n B W W t B W W E p $.u D D t $.p p p t v m m E E v E W B B E v 4 9 g ! q % ! z >.).$ ] e b 1 = ] @.a 2 p t.E.t.C.C.C.C.s.C.E.C.F.O.F.E.E.E.a.E.E.E.D.Y.A.U.=+{+<+4+0+0+0+0+0+4+[+~+{+{+a+;+++U./+b+;+}+/+c+i . @ + + + . +                                                       +   + + . + . + + +   + + + + + + + + + + + + +                                                         +   + + + + +                                   +     + + + + + + + + + + + + + + + + + + + + + + + + + + + + + + + + + + + + + + + + + + + + + + + + + + + + + + + + + + + + + + + + + + + + + + + + + + + + + +     + + +   + + + + + ",
"                    +     + + +   + . @ .   G ~  . . . . . .Q Q T T 6 { ) ) c ) n v S W W W v W E p b u u A $.$.D D u u p l p E E E v t B B v v 4 9 h ! q ! g C >.).<.4 l p a 1 $.$.a 2 s R C.C.C.O.C.s.C.C.C.C.F.F.F.C.E.E.E.E.E.E.F.M.!+>+;+{+~+[+4+5+0+0+0+0+0+4+[+<+~+{+{+{+]+d+|+|+e+f+c+[ + . < : < < < < < < < < < < < < < < < < < < < < < < < < < < < < < @ @ +     + .       +   +     +   + + +   + +   +     +   + +         +   +     + . + +       +       + +   + + + + +                                   + +   + + + + + + + + + + + + + + + + + + + + + + + + + + + + + + + + + + + + + + + + + + + + + + + + + + + + + + + + + + + + + + + + + + + + + + + + + + + + + +   + + + + + + + + + + ",
"                  + + +   + + + + + + + .   : 8  . . . .9  .Q X *.7 6 { { ) ) c n B W v v v B E n B p A u $.b u p u u t t p p v m m m &.t B E v e 9 h ! ! ! g k >.).~.+.l p l 1 b @...= a R O.C.O.O.C.s.s.E.E.F.O.O.O.O.F.C.E.E.E.E.0.S.o.3+}+g+{+<+4+5+0+0+0+0+0+0+5+5+[+<+~+~+~+]+d+^+1+h+K.'.G i @       + . + . + + + + +   +                       + + + + + + . @ : : @ + + +   + + +   + + + + + + + + + + + +   + + +           +   + + + + + + + + + + +   +   + + + + + + + +                                   +     + + + + + + + + + + + + + + + + + + + + + + + + + + + + + + + + + + + + + + + + + + + + + + + + + + + + + + + + + + + + + + + + + + + + + + + + + + + + + + + + + + + + + + + + + ",
"                  + + + + + + + + . . + @ + : 8  . . . .9 9 Q Q X 7 6 { { (.) }.n n v B v v B W v b b u u b p u $.u u t t m v v v &.p m t B v v ] ~ h ! ! ! ! % ~.).~.g b l 0 = b e D = a [.O.C.O.C.s.s.s.C.E.F.O.j.B.j.j.C.E.C.E.0.0.N.g.i+@+g+{+~+4+5+0+0+0+0+5+5+0+0+5+[+<+<+~+g+j+|+|+|+1+ +_+8 ( J } _ G G G G _ _ _ # # # # # } } } } } } } } } # _ G G U U G i : [ < + @ @ . . + +         +                   + +     +                         +     +               + + + + + + +   + +                                   + + + + + + + + + + + + + + + + + + + + + + + + + + + + + + + + + + + + + + + + + + + + + + + + + + + + + + + + + + + + + + + + + + + +   + + + + +   + + + + + + + + + + + + ",
"                  + + + + + + + + . . + + + @ 8 %. .9 9 9  .%.Q *.T 6 { { { (.) d n v v W v v v v n b p u b t p p p t t B E v v v v v m B b B v n ~ h h ! ! ! q ~.).>.! 0 1 1 = l ] u 1 s [.s.F.F.C.C.s.s.C.C.s.*+B.B.u.B.F.E.C.E.0.0.D.k+I.V.6+{+<+[+4+0+5+0+0+0+0+0+0+5+5+4+[+~+{+.+U.1+U.h+V.7+7+J.`.M._+l+i.i.N.i.i.N.N.N._+_+&+'+'+m+m+m+m+m+m+%+'+&+_+x.N.0.[.V V Y _ . @ +   + + . @ < < < < < < < < < < < . +         + +       +               +     + +   +           + + + + + +     + +                                 + + +     + + + + +     + + + + + + + + + + + + + + + + + + + + + + + + + + + + + + + + + + + + + + + + + + + + + + + + + + + + + + + + +   + + + + + + + + + + + + + + + + + ",
"                  + + +   + + + + . . + + .   (  . . . . .%.%.%.Q *.6 6 F F { / c n v E E B W W v n n t p b B v v v v S B v v t B t v v v t t v l ^ g g ! ! ! ! <.).>.k 0 1 1 = 0 ] @.a a N O.O.s.O.C.s.s.s.s.O.j.B.u.u.u.O.E.E.E.a.0.0.S.H.R.j+g+<+<+4+5+0+0+0+5+5+5+0+0+5+5+4+<+{+b+1+/+/+>+#+n+J.i+P.q.q.q.%+ +W.(+K.R.R./+U.T.@+++b+++.+.+.+;+;+.+.+.+}+d+d+|+1+/+/+R.i+o+U U i [ : .               +     + +     @ < . + + + +                     + + + + +   + + +       + + + + + +   +                                       +       + + + + + + + + + + + + + + + + + + + + + + + + + + + + + + + + + + + + + + + + + + + + + + + + + + + + + + + + + + + + + + + + + + + + + + +     + + + + + + + + + ",
"                    + +     + + + . . + . @   ( *.I %. .9  .%.%.Q Q X T P 6 F / c n n v B B W S S v v p p b B W W B B B B t ` m v &.m v v S S B v 4 Q g ! ! q g C >.>.z c a 0 & 1 e e s a L s.s.s.C.O.F.O.O.O.O.j.B.b.b.b.u.D.E.E.a.0.F.w.2+J.|+a+~+<+[+5+5+0+0+0+5+0+0+0+5+5+[+<+{+}+h+>+#+(+,+!+`._+_+_+x._+n+V.T.@+b+@+b+}+}+}+d+|+d+d+d+d+d+d+d+d+d+d+d+d+p+j+j+j+j+j+a+g+.+q+q+r+r+s+o+o+o+_._._.# # _ _ U U U i < .   + + . + . +   + +     + +     + +   +         +         + +                                                         + + + + + + + + + + + + + + + + + + + + + + + + + + + + + + + + + + + + + + + + + + + + + + + + + + + + + + + + + + + + + + + + + + + + + +   + + + +   + + + + + ",
"                      +   +     + + . + . <   ( F  .y y Q %.Q %.Q X *.T 6 F { ) c c B B S B B S B v v v t b B W W B B B B B t t t p v m W B B t t e ^ I ! ! ! q k >.>.;.4 a 0 & & n e p a &.s.O.O.F.F.O.O.O.O.F.j.B.b.k.k.b.B.D.0.a.0.D.F.k+P.h+;+{+~+[+5+5+5+0+0+5+0+5+5+5+5+[+<+{+d+f+7+#+W.m+z.y.x.M.x.M.%+T.f+^+.+.+}+.+.+.+}+}+.+b+}+}+b+}+}+}+}+p+}+j+j+j+j+j+p+}+p+d+}+.+6+]+-+]+{+{+{+~+-+]+]+.+b+|+t+,+m+'+:+'.# U :     + + . . +       + + +     + + + +           +     + + +   + +                                                   + + + + + + + + + + + + + + + + + + + + + + + + + + + + + + + + + + + + + + + + + + + + + + + + + + + + + + + + + + + + + + + + + + + + +   + + + + + + + + + + ",
"                  +   +   + + + + + . + + <   J (.y y y I %.Q %.Q X *.7 7 6 { }.}.c n v W W E W B v v v v t S W &.&.v v B &.E W E m E E v v W &.v ] 5 I g ! ! ! k ~.).<.~ 0 * & ; ..N l a m s.O.O.O.O.F.O.O.O.O.B.B.b.u+c.u+b.w.D.F.0.D.0.x.%+Q.b+{+~+<+4+5+0+0+5+5+5+5+0+5+4+[+<+a+h+t+Q.J.P.p.H._+N.x.2+$+T.@+}+;+]+6+6+6+;+;+;+.+.+++;+;+++.+.+.+.+}+.+.+.+j+j+j+v+j+j+j+j+.+}+}+.+h+.+]+;+=+-+-+=+=+=+-+-+=+=+]+;+++U.n+o+9+U + . < @ + . .   + + +         + +   + + + + + +   + + + + + + + +                                               +   + + + + + + + + + + + + + + + + + + + + + + + + + + + + + + + + + + + + + + + + + + + + + + + + + + + + + + + + + + + + + + + + + + + + + + + + + + + + + + ",
"                    + +   + + + + + . + . <   } * %.y %.y  .9 %.Q X *.T 7 6 { ) }.c n n v W W W B W v B B B B v W &.v v E m E E m v v E m E B B t B e %.g g ! q q ;.).~.+.0 * & ; 0 e t s s t.O.O.C.O.D.O.O.s.j.u.u.b.c.c.c.u+v.D.D.0.0.0.N.`.,+V.6+~+<+4+4+5+5+5+5+5+5+0+5+4+[+~+v+/+W.,+I.p.2+_+N.N.M.!+T.U..+=+;+]+]+=+=+=+;+;+.+;+.+++++@+@+b+@+@+@+@+@+|+b+b+@+++;+}+;+;+b+.+6+;+@+b+;+.+;+v+a+a+v+v+v+a+v+v+v+v+a+g+{+~+-+w+_.i : @ + . . @ +   + +       + +       +           + + + + + + + +                                                   + +   +   + + + + + + + + + + + + + + + + + + + + + + +   + + + + + + + + + + + + + + + + + + + + + + +   + + +   +   + + + + +   + + + + +   +   + + + + ",
"  +               + + +   + + + + + . + . <   # ; ' %.%.y  .Q %.Q X X T 7 P F ) ) c n v v W W W v W B W B B W v W &.W W v v v m E v &.E m E W B B B b T h g g ! ! z >.<.9 0 * & ; 1 e @.s a R F.O.F.O.F.O.O.s.j.u.u.b.b.c.d.u+b.w.D.0.0.a.i.y.m+R.}+g+~+4+4+5+0+5+5+5+0+0+5+4+<+{+d+R.J.X.p.n.M.N.i.i.2+7+@+++=+]+]+-+]+]+=+6+6+;+;+;+.+++b+@+U.U.U.U.U.U.|+|+@+@+|+b+}+b+}+}+}+}+.+.+}+b+++b+}+v+]+]+]+]+6+]+a+]+a+a+a+g+g+]+{+~+{+w+G :     . . + + +       + + +         +   +   + + + + + + + + + +                                                                   + +       + + + +   + + + + +   + + + + + + + + + + + + + + + + + + + + + + + + + + + + +     + + +       + + +   + + + + +   + + + + + ",
"                    +     + + + + + . + + <   _ ; 2 7 y I  .Q Q Q Q X *.7 6 F (.) c n v v E E W W v W W B v W v W v &.v t W v v &.v &.&.E m &.B B B B 4  .h g g g % ~.<.I 0 0 = ; & p b a 1 N s.O.F.F.F.j.O.O.B.u.u.b.b.u+d.d.u+S.w.F.0.a.0.G.%+ +U.6+g+[+4+4+5+0+0+0+5+0+5+[+<+]+h+Q.A.'+2+Y.h.i.0.N.P.T.b+;+=+=+]+]+]+]+]+]+=+6+;+.+.+b+b+@+U.U.U.U.1+U.1+U.U.U.1+|+b+b+b+b+p+d+}+}+}+}+b+++b+;+]+g+]+]+]+]+a+]+]+]+g+g+g+{+{+g+g+a+=+r+9+U . @ < @ . + +   + + +       + + + + + + +       + + + + +                                                       +       + + + + + + + + + + + + + + + + + + + + + + + + + + + + + + + + + + + + + + + + + + + + + + + + + + + + + + + + + +       + + + + + + + + + ",
"                    + +   + +   + + .   . <   G - - T y y %.Q Q Q X X T T 6 { ) c c n n v v W W v v v v B B v v &.m E m v W &.&.&.W E E m m E W B B v o ~ h g g g q <.~.! c 0 = ; & 1 a 1 a N O.O.F.F.F.F.F.j.B.v.v.b.k.u+d.l.d.Z.S.j.F.a.a.M.H.X./+.+]+~+[+4+5+5+5+5+0+5+4+[+~+.+t+ +L.2+y.G.v.0.a.x.i+T.b+++;+;+;+;+;+;+;+;+}+b+|+U.1+h+V.V.h+V.V.h+h+h+h+h+h+h+V.h+U.d+|+|+@+b+b+b+b+b+b+++}+++;+]+g+]+]+]+]+=+=+=+=+6+;+]+6+a+g+a+a+g+-+q+9+i < . + . . @ +     +       + +           +                                                                   + +     + + + + + + + + + + + + + + + + + + + + + + + + + + + + + + + + + + + + + + + + + + + + + + + + + + + + + + + + + + +   + + + + + + + + + + ",
"                    + +     + + + + . + . <   U = & ~ I %.%.Q Q Q Q X *.T 6 { (.) c n n B B W ` W &.E v &.t m v v W W W v W &.&.&.&.&.E m m E B B B &.E 5 I h g h ! <.~.% ] d = ; ; & 1 = 1 N O.s.O.F.F.D.B.B.w.v.b.b.u+u+d.l.d.Z.v.w.D.a.[.S.2+%+K.b+]+~+<+4+5+5+5+5+5+5+[+<+]+1+(+I.`.y.Y.d.F.[.a.k+I.J.#+(+3+3+J.n+3+3+n+Q.Q.W.W.W.W.W.W.W.Q.Q.Q.R.R.Q.Q.#+#+#+>+f+#+V.U.U.U.@+|+d+@+b+++++@+|+++;+6+]+g+]+]+=+]+=+;+@+V.@+U.h+d+a+6+6+]+{+{+8+G :     . + . . +     + + +       + + +                                                                     +         + + + + + + + + + + + + + + + + + + + + + + + + + + + + + + + + + + + + + + + + + + + + + + + + + + + + + + + + + +   + + + + + + + + + + ",
"                  + + +   + + + + + + + + <   [ * ; 7 I %.%.%.%.X Q X *.T 6 (.) }.c n B W W W v B W E v W t v p v W W v W W &.&.v W &.v m E &.v B W W E e +.I h g g z ~.k c c * - ; ; 2 & = o t.C.F.F.j.j.j.B.b.b.b.b.Z.u+)+l+d.h.S.b.B.0.[.v.Y.'+$+h+6+~+<+[+5+5+5+5+0+5+<+~+.+t+$+H.2+M.x+b.a.:.0.Y.o.P.$+m+q.p.z.n.n.n.r.p.P.P.$+A.A.i+i+J.i+ +J.J.J. +W.W.(+W.t+/+Q.W.h+U.1+^+|+|+|+b+b+b+b+@+b+b+.+]+]+]+]+a+6+;+T.K.$+ +W.Q.>+b+v+v+g+g+]+;+@+8+9+U   < < < . + + + +         +     +   + + +                                                           +         + + + + + + + + + + + + + + + + + + + + + + + + + + + + + + + + + + + + + + + + + + + + + + + + + +   + + + + + + + + + + +   + + + + + + ",
"  +               + + +   + + + + + + + + @   < V ; /  .%.Q %.%.Q X X *.*.6 (.) ) c d n E E E W B W W v v v B v v v v W W W &.&.W W v E E E &.E &.W W W o ^ I h g h k ;.z 4 ) , & ; ; & & & m [.C.F.F.D.j.D.w.v.b.b.Z.u+u+d.l+d.x+u+Z.w.D.0.D.G.'+X.K.|+-+~+[+4+4+5+5+5+4+~+-+U.(+m+`._+x.S.j.[.:.0.f.p.P.m+%+H.`.2+2+y.m.n.p.!+!+!+P.I.X.P.,+A.P.,+ +,+,+J.(+ +(+(+W.W.K./+>+h+T.U.U.U.|+|+}+}+b+@+b+b+;+]+]+a+]+6+++#+ +,+X.X. +7+T.}+j+j+a+a+6+a+g+=+8+# [ @   + + < .     + +   + +   +               + +                                                                               + + + +   + + + + +   + + + + +   + + + + +   + + + + +   + + + + +   + + +   +     + +   +     + +   +   +   +   + + ",
"  +               + + +   + + + + + + + + @ . . ( ; ^.9 %.9 %.Q Q Q X *.*.6 { (.) ) d n E W W W B &.m W B W v v v W W &.W W W W W W &.v E E &.E E W W W S 5  .I I I ! ;.z ~ ] , & ; - 2 & ; a [.F.j.j.O.j.j.w.v.v.b.Z.u+u+)+)+l+d.x+u+v.j.j.D.N.`.L.(+f+6+{+<+[+4+5+5+4+<+~+]+f+,+!+r.G.S.w.E.:.:.0.Y.q.P.L.H.z.n.Y.Y.m.g.n.`.p.q.H.p.q.q.!+!+!+X.X.X.X.P.X.$+$+$+,+ +(+J.W.Q.R.f+h+h+h+1+|+b+d+p+d+d+d+}+;+6+a+a+;+b+>+J.P.p.L.P.Q.R.h+;+j+d+j+a+j+j+6+-+++c+U :     + @ +     + +               +       + +     +                                                                               + +       + + +   +   + + + +   + + + + +   + + + + +     + + + +     + + +       + + + +     + + +   + + +   + ",
"                  + +     + + + + + + + + @ @ + ( - 4 9 9  .%.9 +.Q Q *.T 6 { (.) ) c n v W v E B v t t W v v v B B W W W W W W W W &.&.v E t v W B S W v e +. . .9 g $ z 9 c , & ; - > = 2 = :.F.O.j.j.D.j.v.b.b.b.b.u+u+d.)+l+)+d.u+S.w.B.0.i.y.%+$+t+}+g+{+<+4+5+5+4+<+~+.+t+,+L.g.k+v.B.a.:.` F.Y.p.I.H.`.n.Y.k+h.G.f.g.g.n.z.z.`.z.p.q.q.L.m+!+!+X.X.X.I.X.X.P.$+,+$+ + + +Q.#+>+V.h+U.@+d+d+d+|+|+d+b+}+;+;+d+^+1+Q.I.'+%+L.$+(+Q.|+j+d+}+j+a+v+v+;+;+.+7+c+# : + + +     + +   +                       +   +                                             +         +         + + + +   + + + + + + + + + + + + + + + + + + + + + + + + + + + + + + + + + + + + + + + + + + + + + +     + + +   + + + + + + ",
"                  +   +     +       +   + . @ + J 0 x ~ +.9  .9 Q Q X X 7 { (.) }.) c n v W v m p t b p m B t E W W W W W W W E W W &.v v E &.v W W B W E v M I I 9 h z z I e c = ; ; 2 > 1 & &.E.F.O.O.F.j.v.b.b.u+b.u+c.)+l.l+l.d.u+Z.b.w.D.D.G.z.m+,+1+6+g+~+[+4+4+[+~+-+1+(+X.z.G.S.F.E.:.L :.D.f.p.q.r.2+f.k+S.Z.h.k+G.e.g.n.r.`.z.z.H.p.p.q.q.q.q.q.q.q.!+!+!+I.P.P.P.P.$+,+W.W./+h+T.1+|+|+|+|+d+^+h+h+@+}+d+^+^+#+X.'+z.'+m+$+(+/+|+.+;+j+a+a+j+j+p+v+g+}+'+} + @ .     +       + +                                                                   +   +       +         + + + +   + + + + + + + + + + + + + + + + + + + + + + + + + + + + + + + + + + + + + + + + + + + + + + +   + + + + + + + + + + ",
"                  + +     +       + + + . . <   } ] +.+.+.9  .9 Q X X X T F ) ) ) / c c B v E m p p b t p t m p p v v W E v W v W B v W m E v E E v B W &.E 4 9  .h g k $ q 5 ] * - ; > > = & s a.D.j.F.D.D.v.b.S.Z.b.u+d.)+l+l+l+x+Z.Z.b.v.i.0.N.`.%+X.t+}+]+{+<+[+[+~+]+.+/+$+L.`.h.D.[.:.s m ` D.G.o.p.n.Y.k+Z.w.w.S.h.h.k+f.n.n.r.r.`.r.z.H.H.p.H.p.p.p.p.p.q.p.q.!+!+!+L.X.$+$+ +R.>+>+f+1+^+^+|+|+/+K.K.#+U.^+^+1+#+m+`.`.`.%+m+,+J.K.T.}+}+v+g+v+j+j+v+p+p+d+y.[ + + . . +     + + + + +                                                               +           +           + +       + + + + + + + + + + + + + + + + + + + + + + + + + + + + + + + + + + + + + + + + + + + + + +   + + + + + + + + + + ",
"  +               + + +   + + + + + + + + + <   } / 9 +.9  .9  .9 Q X X *.6 (.(.(.) c d n v m v t $.t p t m m v v v v W W E v v E t v E v m v v E v W W B &.] ~  .h I ! $ C M e ..- - > > 2 ; Z C.O.j.j.D.j.v.v.b.b.Z.u+u+)+)+l+l+d.Z.Z.u+Z.w.0.0.2+z.%+,+h+6+{+~+<+[+-+}+h+(+X.z.G.v.a.L D s s &.F.)+r.o.Y.k+u+w.F.D.j.v.S.x+l+f.m.g.n.n.r.r.z.o.z.z.o.o.H.H.o.H.z.H.H.%+%+%+%+L.m+m+J.#+/+/+f+1+^+1+f+K.m+L.X.W.>+1+1+#+X.`.`.n.`.H.q.X.,+K.h+d+}+a+g+v+j+d+d+d+|+Q.U   <     + + + +   + + +       +                                                                   +         + +   +     + + + + + + + + + + + + + + + + + + + + + + + + + + + + + + + + + + + + + +   + + + + + + + +   + +       + + + + ",
"  +               + + +   + + + + + +   . + <   # c +.+.9  . .9 9 Q X X X T F (.^.}.c d d B B B t t t u p v v m B B W W E W W E &.v E v m m m v m E W B W &.S ^  .I M h z $ f e d 2 - - * * & Z [.O.j.D.D.w.v.v.b.Z.Z.Z.u+d.)+l+e.)+Z.Z.x+u+w.0.a.G.z.'+X.K.U.-+~+~+-+;+U.#+X.H.y.N.E.:.p s -.s ` F.)+n.n.k+S.w.F.C.F.F.j.w.b.Z.x+l+G.Y.m.m.g.g.r.n.n.n.n.`.z.z.z.z.z.z.'+'+H.z.'+'+'+m+ +R.7+f+1+1+1+/+(+L.&+'+L.,+Q.>+Q.L.`.`.g.n.r.`.L.$+(+R.h+b+b+j+v+.+}+1+h+h+T._.  @ @ +   +     +                                                                                                                                       + +   +     + + + +   + + + + +     + +         + +   +     + +   +   +   +   + + ",
"  +               + + + + + + + + + + + + + <   _ c ~ +.9 9  .9 9 Q X X Q *.7 F { (.) d n n B b u t t p m m v E v W W W W W v &.v &.v v m m m E m E B B v &.W 4 +.I x h z $ g 4 d 2 ; - 3 e $.` :.C.D.D.D.w.v.v.S.b.Z.Z.c.d.)+l.l.d.u+Z.u+c.v.F.[.S.2+2+%+X.(+T.++++@+7+W.A.H.Y.S.0.:.m s -.a m ` 0.)+g.m.h.w.j.E.y+y+E.s.j.j.u.w.v.S.h.k+G.Y.f.m.f.m.Y.m.g.n.n.n.n.`.n.n.r.r.`.2+y.2+`.%+ +7+>+f+h+h+f+Q.X.'+'+'+L.!+m+%+&+y.2+Y.G.y.y.z.q.i+J.Q.T.h+1+;+j+j+|+/+(+R.A.U . : .       +                                                                                                           +           + +       + + +   +   + + + +   + + + + +     + + +         + +       + + + +       + +   +   +   + ",
"  +               + + + + + + + + + +   . + <   _ c ~ +. . . . .%.%.Q Q Q X T P 6 7 F ) n n E v v E E v m E E &.W &.W S &.W W W W &.v v v E m E &.v W t W &.Z b 5 +.x f C $ q 5 c * - - ] b o L L t.O.F.D.w.v.S.S.Z.Z.u+c.d.)+l.)+d.x+h.u+u+b.j.a.j.k+y.`.%+X. +W.J.$+m+L.z.Y.S.i.[.` s 1 > -.s ` 0.)+m.e.S.D.E.[.E.t.R E.C.s.F.F.C.F.D.w.S.h.x+k+G.k+k+l+G.k+k+k+G.e.G.Y.y.y._+y.y.y.&+`.m+3+#+7+/+/+#+W.$+%+'+'+&+&+&+y._+_+Y.M.k+G.Y.2+`.q.$+ +W./+/+h+.+}+d+K.%+m+n+c+@ @ .     +                                                                                                 +           + + +     + + + +   + + + + + + + + + + + + + + + + + + + + + + + + + + + + + + + + + +       + + + + + + + + + ",
"                        + + +   + +     + + <   G c +.+. . .9  .%.%.Q Q Q X T P 6 6 6 ) c B E E W W &.t W W W B v W W W t W W W W E m t v m m t &.E v t E Z Z t e M M x % $ k 5 c * - ; ..b o L L R C.F.D.w.v.S.S.b.Z.u+c.d.d.)+l.)+x+u+u+u+u+Z.j.D.x.Y.2+'+%+L.L.L.%+&+`.y.h.i.0.:.` s = 2 -.` ` 0.h.)+Z.i.0.a.a.E.a.a.[.E.E.E.E.E.E.E.E.D.D.i.v.S.S.S.Z.Z.v.v.S.h.h.x+h.M.M._+y.&+&+`.%+m+A.J.Q.Q.Q.W.,+X.m+%+%+'+'+&+y._+_+_+x.h.x+k+k+Y.`.m+X.,+Q.R.t+T.@+U.$+L.I.%+i+G   < .     +                                                                                             + +         + + + +   + + + + +   + + + + + + + + + + + + + + + + + + + + + + + + + + + + + + + + + + + +     +     + + + + + ",
"                          + + +   + +     + <   U d ^ +.I 9  . .%.Q Q Q Q X T P F { / c c c B S S W W B W v W W B B E E ` W W W W E &.&.v m m v m E v E E Z Z &.o 5 M M f k k 5 ] l - ; * e $.$.m L R F.F.w.v.S.S.S.b.Z.c.x+)+l+l.)+x+u+Z.u+Z.Z.v.i.N.G.2+2+&+`.z.z.2+2+Y.l+S.j.E.:.m a = > s :.:.F.Z.Z.v.D.a.a.a.a.[.a.R E.E.E.E.E.E.E.a.E.E.0.F.F.D.j.w.w.w.w.S.h.h.x+M.M.G.y.`.%+L.m+P.,+,+$+$+ +J. +X.X.X.X.X.m+L.'+&+y._+M.x.N.N.S.Z.k+y.`.%+X.J.3+#+7+>+T.X.'+!+H.$+_.+ @ @ + + +         + .   + +                             +                                               +         + + +       + + + +     + + + + + + + + + + + + + + + + + + + + + + + + + + + +   + + + + +       +   +   + + + + ",
"  +                 + + + + + + + . +   + + @   U d ^ +.I  . . . .%.Q Q X X *.T 6 F / c d n B S B E W S W W v &.B W v S W W W &.B B t v v v E E &.v m m v v &.&.S w O K K f k x 4 ] = ; & b @.$.m &.R O.B.w.v.S.S.S.Z.u+u+d.)+l.l+)+x+Z.Z.Z.Z.Z.b.i.i.G.n.2+2+r.`.`.g.Y.G.)+v.D.E.:.p a > 2 a L :.E.S.v.i.0.a.a.a.E.a.a.E.E.E.E.a.a.a.E.E.0.0.0.0.a.0.0.0.0.D.N.N.M.Y.y.2+`.H.p.!+P.,+ +J.(+(+(+,+,+K.R.Q.K.W.Q.Q.Q.W. +$+m+%+&+_+x.x.x.h.h.M._+`.L.$+ +W.Q.3+n+m+&+z.q.q.I.i   . +   +         + . . +   +   +                                                                                   +     +   + +   + +   + +   + + + + + + + + + + + + + + + + + + + + + + +   + + + + + + +   +   +   +   +   + + ",
"  +                 + + + + + + + +   + . . < . < ( P %. . . .I  .%.%.Q Q X *.T 7 6 F / c n v W B W W S W B v m W B S W v &.&.W &.W B W v v &.E m v v v v W ` &.&.o O K x f % H 5 ] = ; ; 0 e $.$.p N C.O.B.v.S.S.Z.Z.x+x+d.)+l+l+)+x+h.u+u+u+u+u+j.0.N.f.g.2+m.m.Y.Y.G.)+x+v.F.E.N ` s = - 2 m :.a.F.D.0.a.a.a.a.E.a.a.a.E.0.0.0.D.D.F.D.D.i.i.i.w.i.i.S.h.h.G.y.`.p.L.q.I.P.A.A. +J.J.W.W.Q.R.t+t+/+h+1+1+1+1+U.1+T.U.T.>+t+(+$+%+&+_+M.M.M.M.y.H.q.!+P.i+J.A.z.2+_+`.n.p.#   . . +               + +       +                                                                                                                                           +   +     +           + +   +     +     +             + ",
"  +               + + + + + +   + + + + . . @ .   G P Q  . .9  . .%.%.Q Q Q *.T 7 P F / ) n W W B W B S v B v E &.t v p S W E t v v W W v t &.E v m m v n v E W Z ` [.K x f q ! 5 b = ; ; a e @.$.p L R C.j.w.v.b.S.Z.h.x+d.)+l+l+d.x+u+Z.S.u+d.c.v.i.0.N.M.Y.G.G.G.G.)+u+Z.w.O.t.t.L a > - - 1 ` :.[.:.:.[.a.a.a.0.0.a.0.0.0.D.w.w.w.w.S.S.v.N.S.h.M._+z.H.p.q.q.L.!+I.I.I.P.A.A. +J.W.W.Q.Q.R.R./+h+h+1+1+1+|+d+d+b+}+}+}+}+|+U./+(+%+`.y._+M._+y.2+H.q.I.i+p.y.m.M.N.l.e.o.[ . . +   + +                   + +   + + +                                                                                                 + +         + +       + + +       + + +         + +       + + +         + +   +   +   + ",
"  +               + + + + + +     + + + + . . +   [ Y X I  . . .9 9  .%.Q X *.7 6 { / ) c n v B W W S S W B v W B v l S S W W W B S W W W W W E &.W t v E &.v W &.` :.w O x H g 5 ] 1 - ; 1 e @.$.p L [.s.B.B.v.b.S.S.Z.h.d.l+)+l+)+x+u+Z.Z.Z.x+x+x+Z.i.i.i.h.x+k+x+k+S.S.b.B.*+s.t.R s > 2 2 & a &.` ` :.:.a.a.0.i.N.N.x.M.M.M.k+G.y.2+2+2+2+2+2+`.H.q.I.I.A.P.X.X.X.!+!+!+I.!+P.i+J.3+Q.Q.R.R.t+#+f+h+h+h+h+1+|+|+b+.+;+6+6+6+;+;+b+1+Q.J.L.&+y.y.2+`.`.p.q.n.k+j.j.R K c.n._.  < . +               + +     + + + + + + + + + + + + +                           + +                             +           +             +       + + +     + + + + +   + + + + +   + + + +     + + + + +       +   +   + + + + ",
"                    + + + + + +   + + + + . + @ + : Y X y I I  .9  . . .%.Q X P ) ) ) ) c n B B W W v W B B v v B S S S v W S W S S S E &.v &.W m &.&.W E m v W ` :.:.[.O x f h +.4 0 & ; & b @.$.p L N t.*+B.w.v.S.Z.u+h.x+)+l+)+d.x+Z.Z.Z.S.Z.Z.h.)+S.i.i.i.w.N.N.w.j.j.u.j.C.s.t.t.R $.s a = Z ` ` [.0.i.x.M.y.2+z.%+!+A.i+i+J.J.3+J.J. +,+ +,+i+ +i+i+$+A.A.$+P.!+L.L.L.!+P.P.A.J.3+3+n+R.R.R.R.t+/+/+f+h+1+1+1+1+|+b+.+;+6+v+v+v+j+p+d+1+K.m+2+y.2+y.y._+h.j.R y+K s.O.w.r.G   @ + .                       +     +     + + + + + +                             +   + +     +               + +         + +           +         + + +     + + + + +   + + + + +   + + + + + + + + + + +       +       + + + + ",
"                    +   + + + + + + + + + + + . + @ Y 7 %.y I 9  . . . .Q *.P ) c ) / / ) c v v W W v W B o v b B E W b S W W W W W t W &.&.t v &.m W B n E Z W S S ` :.K x f g x 5 0 & ; - b @.@.p $.L N s.j.j.w.S.Z.u+u+d.)+l+l+)+x+Z.Z.Z.Z.Z.Z.d.l+l+N.0.i.w.D.0.D.D.C.C.O.C.E.E.F.s.s.` a a Z Z a.y.H.q.P.i+3+n+7+V.T.@+@+++++++++@+@+U.V.V.#+7+R.W.W. + +i+A.P.I.!+!+L.X.A.i+i+i+i+i+,+ +W.(+Q.K.R./+f+h+1+1+h+1+h+1+b+}+}+j+v+a+v+a+j+j+p+1+(+%+&+M.h.S.B.s.y+t.[.` :.:.&+c+i   @ + @ +       +   +                     + + + + + + + + +                         + + +     +   +           +           +           +           +         + + + +   + + + + +     + + + +   + + + + +       +         + + + ",
"  +                 + + + + + + + + + + + + + + .   ( { y  .I I 9  .9 9 X F }.d d c }.}.c c n v v t t B W b p n B t v t b B B &.m &.t B &.&.B v m W t W n &.E E &.` ` :.O K x h f w 0 & ; ; u ] =.$.@.$.L t.O.F.w.b.Z.Z.x+d.)+)+l+)+x+Z.Z.u+u+Z.Z.)+l+l+x+N.i.0.F.F.0.F.E.E.t.t.s.C.*+u.a.:.Z :.0.N.q.J.3+n+n+7+>+T.@+++;+=+=+;+=+=+;+;+;+++@+@+V.7+R.W.J. +i+i+A.P.I.I.!+!+P.J.3+3+i+P.m+m+X.X.P.,+ + +W./+f+f+h+1+h+h+h+1+|+b+}+j+v+v+a+a+a+a+v+j+U.K.X.L.&+x+S.i.*+L n ` 0.z.w+c+i + <     +       +                   +   + + + + + + + + + + + + +                     +         +           +           +                       +         + +         + +   +     + +       + + + + +       +   +   +   + + ",
"  +                 + + + + + + +     + . . + + @   ( * y h y I 9  .I +.+.F ) c c c c c c c m v b b p p t b t p B S t B b t t t t t m t t t t m m p t t B v m v ` S W ` N O K f h M l = ; ; ..@.$.D @.@.L R s.j.j.v.Z.Z.Z.x+)+)+l+)+x+h.Z.Z.Z.u+Z.d.l+k+x+S.D.D.E.E.F.E.a.a.t.s.u.O.E.t.[.:.i.G.H.X.J.n+#+R.Q.R.>+V.U.@+b+.+.+}+.+.+b+}+}+@+U.V.#+Q.(+J. +i+i+A.A.I.!+!+m+m+!+i+3+n+n+J.X.L.%+&+&+&+'+'+m+,+W.R.#+/+/+h+h+^+1+|+|+d+p+p+j+v+a+a+a+v+v+p+d+|+f+#+W.m+M.0.D.v.q.J.7+w+I.G @ < + + + +   + . +   + +               + + +   +     + + +   +                               +                                                                                                                         + ",
"  +                 + + + + + + + +   + . .   . <   ( ; 1.9 %.I I 9  . .~ P ) c c ) ) ) ) c 0 0 p u u u u u p u p B n b b v t v v B p $.p p p p m m m t B t &.E B W W &.L O K f h x c * 2 ; > ] #.D @.@.t N C.*+j.v.b.Z.u+h.x+)+l+d.h.Z.u+Z.u+u+u+)+k+k+x+h.v.F.a.E.O.a.t.t.t.t.R N ` &.:.i.o.I.P.$+ +W.Q.Q.Q.R.7+/+V.U.@+b+@+b+b+b+@+@+@+U.V.#+R.Q.J. +A.A.P.P.P.X.!+m+m+L.m+,+Q.#+7+7+W.$+%+y._+_+M.x.y.z.L.P.(+Q.t+f+f+1+1+1+^+|+|+d+p+j+j+j+j+j+v+v+j+j+.+;+;+++b+T.7+n+n+(+,+U.]+!+U   . .   + . +       . . . . + + +       + +   +       + + + + + + + +   +                   +                                                 +           +           +           +         + +           +       +   + ",
"  +                 + + + + +   + + + + . . + + <   J ; = P  .I  . .9 9 X 7 / c c / ) ) c d l n b b u #.u u u u t n t t b u p &.m p t b p D u u p v m &.n t t E v &.&.` o 5 M f f f e 0 > - = #.D u $.@.u o t.O.D.u.Z.Z.x+x+d.)+)+d.h.Z.Z.Z.c.c.x+x+)+k+)+d.Z.j.a.E.t.R L $.$.p s ` o :.0.r.I.!+P.i+J.J.J.W.W.Q.R.#+>+V.T.U.U.U.@+U.U.U.U.V.7+#+n+3+ +i+i+A.P.P.I.I.I.!+m+%+m+ +#+>+>+>+V.R.,+%+&+_+x.N.N.x.M.2+L.$+(+R./+/+h+1+1+^+^+d+d+d+d+d+p+p+j+v+a+a+a+]+]+]+a+a+6+;+b+@+}+d+^+U.8+G [   : . @ . +     +   + .   + +               + + + + + + + + + + + + + +               + + + + + +   + +   +                                         +         + + +         + +       + + +         +   +   + + + + ",
"                        + + +   +     + + . + + <   } ; & 7 I  .9  .9 Q X F ) ) ) ) ) ) c c b b ] o ] u u $.#.b v t t t b b m t t p p p t p p m m p t t v t t m W &.&.` L w M f f f w n * - 2 ] #.b @.@.u $.R t.E.w.Z.S.u+x+)+d.l+)+x+Z.Z.Z.u+d.x+x+d.k+d.)+Z.v.E.:.L m - 2 = 1 Z $.:.w.n.q.!+I.!+,+ +J.J.J.J.J.J.3+R.#+7+>+V.V.V.T.T.V.>+7+R.n+W. + +i+A.P.P.X.!+!+m+m+L.%+L. +R./+/+f+T.V./+(+X.'+_+N.N.N.i.N.M.&+%+X.(+R.#+f+h+h+1+^+^+1+1+1+1+^+p+j+j+v+v+v+v+a+a+v+a+a+a+g+g+a+v+}+j+]+r+G @ @ @ + . + + @ . +     + + +   +                   + +     + + + + +                   + +   + + + + + +     +                                   +           +           +         + + +                 + + + + ",
"                        + + +   +     + + . + + <   _ ; & ~ I  .9 +.9 Q *.{ ' }.) }.}.) ) c n B b b b u u u u p t B B E l B v v B p m p t p p m t t E v t t &.&.W &.W &.Z L O f x x e 0 = ; - ] e =.@.=.$.$.L t.O.D.v.v.h.d.d.)+l+)+d.h.b.u+x+d.x+x+x+l+)+)+d.v.E.m = ; - 2 - = &.` E.m.p.p.q.!+P.i+i+i+ + + +J.J. +3+n+3+R.7+7+7+>+>+#+R.R.Q.W.J. + +$+I.!+m+m+m+m+L.L.%+%+%+X. +Q.t+/+h+h+h+/+(+L.2+M.S.w.D.D.N.M.y.&+m+ +(+K./+f+h+1+1+1+h+/+t+f+^+^+d+p+}+j+v+6+a+a+g+a+g+a+v+v+v+v+j+;+-+]+9+i @     . < @       + +   + + + + . + + +         + +       + + + + + + +                 + + + + + +                                           +           +           +           + +                   + + + ",
"  +                 + + + + +   + + + + + + + + <   G - & ^ I  .9 +.Q  .Q 6 (.(./ }.) ) ) c n n n v p u b t p t t v W v E E S W W m v p v B m p t v m &.&.t t W v W W Z Z W w x f x 5 0 > 2 - ..] #.#.#.@.$.$.[.O.F.j.b.h.x+d.)+l+)+d.u+S.Z.d.d.x+x+)+k+)+)+x+S.E.1 ; ; 2 2 = s :.a.c.o.q.p.L.!+A.A.i+i+ +i+J.J. + +J.J. +J.W.Q.R.#+#+Q.W.W.(+ + + +,+X.!+X.m+m+L.q.q.L.H.'+'+%+X.,+(+t+f+f+h+h+/+,+%+2+x+w.0.0.D.D.B.N.M.&+'+m+(+/+h+f+1+U.h+Q. +K.t+f+U.b+b+}+.+6+a+a+g+a+]+a+a+a+6+6+v+j+j+}+.+@+s+9+U <   < : @ + @ + + +   + + . .       +     + +       + + + + + + + +                     + +                                                         +           +           +                         + ",
"  +               + + + + + + + + + + + + + + . <   i 2 - 7  .9 9 %.X %. .*.T T P { { ) }.}.c d n B b b b v b b B B v B v W S W E W v B t S B m p p t &.&.t t m m m W ` W W N K x x f c * 2 - > #.#.A A #.@.L L t.B.w.b.Z.x+)+x+d.l.d.Z.S.Z.x+d.d.d.)+l+d.k+x+S.O.= - - - - 1 &.[.v.l+p.q.p.L.!+A.A. +i+i+ + +,+ + + + + +,+,+(+J.W.W.W.J. +,+,+$+$+$+$+X.!+L.q.%+%+H.H.`.`.`.'+%+L.X. +t+/+f+1+1+/+ +%+_+N.0.a.a.[.[.[.F.i.x.2+m+(+#+V.h+h+f+K.X.X.,+(+7+h+U.|+}+j+v+v+v+a+a+a+g+a+a+a+v+j+p+j+}+j+a+g+-+r+9+[ @   + . . < @ + @ @   +   + + + + + +             +                                                                                                                                           + + ",
"  +               + + + + + + + + + + + + + + . <   [ V - ^  .9  .%.Q %.%.Q Q X T 7 F { (./ ) c o b o b v v B B B B v W B v t W S W Z t t t t p p p p t m p t m E v E W W W L x x x x n * > - - A =.#.#.A @.L t R B.w.v.h.x+k+)+)+)+d.Z.Z.Z.Z.u+d.)+)+l+)+)+d.S.*+s - - ; ; 2 m E.x+m.o.q.p.p.q.P.$+A.A.,+,+,+$+,+,+ + + + +,+,+,+,+,+ +,+,+$+P.X.P.X.!+m+L.L.q.H.z.z.`.g.g.n.n.2+&+`.L.$+(+t+f+1+h+t+X.&+x.D.E.E.E.[.a.D.j.w.M.`.m+ +W.W.#+#+K.$+m+m+$+J.Q.#+V.U.d+}+j+j+v+a+a+a+a+a+v+v+j+|+|+}+|+d+@+q+-+{+q+s+U i @     . : < +   + + + +   + + + . . + + +   +   +   +     + + +                                                               +           +                       +                       + ",
"  +                 + + + + +   + +   + + + + . @   < Y ; P I 9  .%.Q %.%.Q Q X *.*.7 6 6 F c b B B B v n W B W W W W W W t t S S E E t L p m t $.t t t t &.t v t t v &.E E ` K x x M n * > ; ; #.@.A ].A =.@.&.[.C.D.v.u+x+x+l+l+)+x+h.Z.S.Z.Z.x+u+)+l+l+l+l+Z.u.o = - ; ; 1 m j.e.n.q.p.z.H.p.!+A.P.$+$+$+,+$+$+$+$+$+,+,+$+$+P.X.X.X.X.X.X.!+!+!+m+m+L.L.p.p.z.z.r.n.g.m.y.Y.y.y.y.&+'+m+ +t+f+h+/+ +!+m.u+O.s.D.0.0.0.0.0.i._+`.L.,+ +W.W. +X.%+'+'+m+$+(+Q.>+h+^+d+p+j+j+v+a+g+v+v+6+j+|+V.f+^+d+p+^+|+b+@+=+=+w+s+9+G [   @ : < + @ + @ + + +   + +                       + + + + +   +   +   + + + + + + + + + +                                       +           +           + +                 + +   + ",
"                                + + +     +   + @ +   ( ; 3 +.X %.%.Q %.%.Q Q X *.T P 6 F { c c E B S B B v B B B W W W v &.B B E E W t t p t &.p t m &.t t t t v v W v W W &.N M x M ] d > - ; ..] A ].A @.@.&.:.a.F.w.Z.x+x+)+)+d.x+Z.S.Z.h.h.c.d.d.l+l+)+d.d.u.R & ; ; = ` :.v.g.r.q.p.z.`.H.q.P.P.$+P.P.P.P.X.$+P.X.X.X.m+m+X.X.X.!+m+m+L.L.q.L.L.L.%+H.H.`.`.`.n.2+f.Y._+k+G.k+k+_+y.2+%+,+(+t+f+Q.$+z.m.Z.0.0.0.0.a.a.0.0.N._+`.X. +J.J.X.L.`.y._+&+%+m+$+W.#+h+1+b+}+}+j+a+6+v+a+v+}+1+>+f+U.d+d+}+p+p+1+1+^+j+{+~+4+r+o+G <     + . < @ . . .       +       +       + +       +               + + + + + + + + + + +                       + +         + +         +           +                     + + + ",
"                        + + + +   +     + + + . @ @   J ; ' +.+.9 %.Q %.%.Q X X *.*.6 6 F F ) c n v S b v l B B B W v W S E W B E &.W v p p t p m p p t p t t t t v W W v W W o K x x 5 d * 2 ; 2 #./.].D @.@.&.S t.*+B.b.Z.x+)+)+)+x+Z.Z.Z.Z.u+x+l.)+l+l+k+x+u+u.w ; - ; s R 0.Z.g.r.o.o.n.2+z.p.!+I.I.X.X.X.X.X.X.X.m+X.!+m+L.L.L.L.L.L.p.p.%+H.z.H.H.o.o.z.r.n.2+2+f.e.G.k+k+d.x+x+k+k+G.2+%+m+$+(+,+X.L.r.m.x.i.D.0.0.0.0.0.i.N._+H.X.P.A.!+z.y.x.x.M.&+'+L.A.W.R.>+h+U.|+d+.+j+j+a+6+@+#+t+f+1+d+|+^+1+^+^+^+|+1+h+e+q+~+<+-+s+G i :     @ : < +     + +       + +       +       +                 + + + + + +                                                                   +                       + + ",
"  +             + + + + + + + + + + + + + + + . . @   } ; }. . .y %.%.%.%.Q Q Q X X T 7 P F ) c n B B t n t t B v E B B B m m B B S W E p m m B B p E v t t v v t B &.W W E W N K x x M ] * 2 ; & #././.A =.$.t ` [.*+w.b.Z.x+l+l+d.x+h.Z.Z.Z.u+x+x+)+l+l+d.h.Z.u.O & - = ` a.j.x+m.r.o.r.2+m.2+H.p.p.!+!+m+L.L.m+!+m+L.!+L.L.%+H.%+%+H.H.H.H.z.`.`.r.`.`.r.n.r.g.2+f.e.e.)+x+x+u+h.u+h.h.M._+y.2+`.%+H.L.!+p.n.m.G.h.i.0.0.0.0.0.i.N._+'+L.!+%+n.M.i.N.N.M.2+'+L.X.(+W.t+/+h+1+d+}+}+j+v+b+t+(+K.t+f+1+f+1+1+h+1+U.U.|+|+1+1+U.U.-+-+@+s+9+G [   + < < . @ + + +       +                 + +             + + + +                                             +                       +                         + ",
"  +             + + + + + + +   + + + + + + + . . <   # ; ' I y  .%.%.%.%.Q Q Q X *.T 7 P 6 ) c n b B t t b m m v v B B p p m v W W W &.B v E B B t m p t t t &.v t m &.W W ` o O M M x P 0 > - - #.#.A A =.$.t S :.E.B.k.x+k+G.)+d.h.h.Z.Z.Z.c.x+x+)+l+l+)+x+Z.w.u.m = s :.E.D.k+g.n.r.n.m.m.y.2+`.z.H.p.p.p.p.p.p.p.%+p.p.H.H.z.z.z.`.`.`.`.`.`.n.g.n.2+2+m.m.g.y.Y.l+)+x+x+S.h.h.Z.Z.x+M.G.G.Y.2+`.`.`.z.`.r.r.n.m.M.S.0.0.a.0.0.0.N.M.y.2+y.G.S.N.S.N.x.G.y.`.'+X.,+(+Q./+h+^+d+|+d+j+}+t+,+ +(+W./+f+f+h+h+1+1+1+^+|+d+d+|+h+h+^+.+g+~+[+r+s+G :   +   + . . @ +   + +               +                                                                                                                   + + ",
"  +               + + + + + + + + + + + + + + . + < + _ ; }. .y %.%.%.y %.%.Q Q X *.T 7 6 F ) c d n b b u =.u p t v v l S S W v W W B W W B v W B W W m t B v v t &.&.t v W m &.w M M x ^ d * 2 ; ..#.A u =.$.b L :.[.*+v.u+d.k+k+)+x+u+Z.Z.Z.u+x+)+)+)+)+d.h.u+v.u.[.1 a ` E.F.h.m.g.r.g.f.Y.Y.Y.m.n.n.`.z.z.z.z.z.z.z.r.z.z.`.n.n.`.n.2+n.g.n.g.g.g.n.m.f.Y.e.e.k+l+)+x+u+S.S.Z.h.Z.Z.h.k+l+e.f.g.2+g.n.n.2+`.n.r.n.m.G.S.i.a.0.0.0.D.i.N.N.N.N.i.N.S.S.S.h._+2+`.%+X.,+(+t+f+h+1+^+d+j+.+R.$+,+J.J. +t+t+t+>+h+h+h+^+1+^+^+^+^+|+b+^+1+U.q+-+~+~+r+9+i :     . @ + + + + +   +   + +   +                       +                                             +           +           +                       + ",
"  +               + +   + + + + + +   + +     . . <   _ ) Q Q %.%.%.%.y %.%.Q Q X T T 7 F (.) c d c b p p =.@.u t p v S S W W E E W S W Z E W E v &.W t m m &.&.t t &.W &.&.Z &.w 5 x x M ] , > ; > #.{.u $.$.b t L :.t.j.b.k+k+)+d.h.u+Z.u+Z.Z.c.)+)+l+)+x+x+u+b.B.t.m a L E.B.S.f.m.m.G.G.Y.Y.G.Y.y.g.2+n.`.`.`.n.r.`.n.n.n.n.2+2+2+g.m.m.m.m.m.g.m.m.f.Y.G.)+x+x+x+Z.S.b.S.b.b.S.Z.h.x+l+l+l+l+e.f.Y.Y.Y.f.g.g.n.n.g.f.)+Z.v.j.F.0.0.0.i.0.i.D.0.w.w.N.N.S.h.Y.2+`.%+X.,+K.t+/+f+1+d+j+}+R.X.X.X.$+A.,+ +(+t+/+f+f+h+^+1+^+U.1+^+U.U.|+d+^+^+d+b+=+-+++s+9+G +   : @ + + . +   + +     +     + + + +     + + + + + +                                                               +                     +   + ",
"                        +   + + + +   + +     + + <   G h %.X 9  . . .y %.%.Q Q X T T P F (.}.c d B t b b b #.u $.t t B v W S W E B W W Z E B W v W v t W &.m m v v m &.m &.&.&.o M f x +.4 d > ; 2 A A =.u $.b L L :.R w.S.h.d.x+x+x+h.Z.Z.Z.c.u+x+)+)+l+)+x+Z.v.B.O.L 1 :.E.B.Z.x+d.x+k+k+k+k+G.G.Y.Y.Y.m.m.g.g.m.m.2+m.g.m.m.m.G.Y.Y.f.Y.f.f.Y.G.G.G.l+l+G.)+x+c.c.Z.Z.b.v.b.v.b.S.Z.Z.h.h.h.Z.x+h.S.S.h.Z.h.)+)+Y.e.e.)+d.u+Z.j.w.D.0.0.D.F.E.0.D.D.i.i.N.S.h.G.y.`.%+X.,+(+t+/+f+1+p+}+/+$+X.X.P.A.$+,+ +(+K.t+/+/+h+1+1+1+1+1+1+U.|+d+d+p+d+1+1+|+v+g+{+-+s+U < @ + . + . +   +           +       +     + +                   + +                     + + +         + +         + +                       + ",
"                        +   + + + +     + +     + <   U I y %.9  . . . .%.%.Q Q X *.T P F (.) c c c n t b u u u t m p t B W S B E B S S E E S W W B B v v &.E m p B v v m &.W &.W 5 x x x 5 d > - - ..#.#.u $.$.L L ` [.B.v.Z.k+k+k+x+Z.Z.u+h.u+u+)+l+)+l+)+x+Z.b.B.C.` a :.[.j.v.v.v.b.h.x+x+k+k+l+e.G.G.Y.f.Y.e.G.Y.Y.Y.Y.f.Y.f.l+k+G.G.G.G.Y.e.k+k+k+x+)+d.d.x+d.c.u+u+u+v.v.w.w.j.D.i.w.w.w.N.N.w.i.i.w.i.D.i.w.w.v.Z.c.d.)+c.c.Z.w.j.0.E.E.a.a.a.F.D.i.i.w.S.h.G.y.`.%+X.,+(+K.t+f+|+}+/+$+m+!+P.P.$+A.,+ +(+(+t+/+/+h+h+h+1+^+^+^+^+^+^+^+^+^+d+}+d+^+@+=+<+q+9+i     + + + .           + +   +   +     +                                               +                       +                       + + ",
"  +                 + + + + + + + + +   + +   + + @   i I  .y  .I I  .%.9  .%.%.Q *.T P F (.}.) d n l l m p u A p p v B B B B W E B W W E E W E W B B v v &.E m p B B t t B t W &.w x f M M d * 2 - > #.#.u u t $.` ` [.F.D.Z.)+l+d.x+Z.Z.u+Z.Z.u+)+)+l+l+d.x+Z.b.j.C.R s L [.E.j.w.j.j.v.Z.Z.h.x+x+k+k+k+G.l+l+)+l+l+G.G.k+G.G.G.l+x+d.k+k+x+k+k+k+x+x+x+x+x+h.Z.h.Z.S.S.Z.w.w.i.0.0.0.i.i.i.i.i.i.i.i.N.N.i.i.i.D.D.D.F.w.v.Z.c.d.d.c.u+w.j.F.E.E.E.F.0.F.F.i.w.S.x+k+y.`.%+X.,+ +(+t+1+d+/+X.L.q.L.!+X.P.X.$+,+,+K.#+t+/+f+f+h+1+1+1+^+^+^+|+^+^+|+|+d+p+p+p+p+.+=+r+9+U   @   @ .       +         +           +                                           +                       +                       + + ",
"  +             + + + + + + + + + +   + +     . . < + @ J Q y y I I I 9 Q  .%.%.X X 7 7 6 ) ) ) c n v m p u $.u p t p v v B B W W S W W E E W E W B n m m B W m m W v v v B S B &.:.M x M I }.* 2 - 2 A #.u u u $.L ` :.E.j.Z.x+l+d.x+Z.b.Z.Z.u+u+)+l+l+l+)+x+Z.v.j.F.s.` L [.E.O.j.j.D.j.b.v.v.h.h.h.x+x+x+k+k+x+)+)+)+k+k+k+k+k+k+x+x+x+x+h.x+k+h.h.k+k+h.x+x+h.S.S.N.N.N.N.i.i.i.i.i.N.N.N.x.M.x.x.N.x.x.N.x.N.i.i.0.F.F.j.j.b.u+d.x+x+u+b.v.j.F.0.0.0.F.F.F.j.w.S.S.M._+&+'+m+X.,+(+f+U./+X.%+H.p.L.!+!+X.X.X.$+ +W.K.t+/+f+f+h+1+1+1+^+^+^+^+^+^+|+d+p+p+p+d+d+}+a+{+-+9+[ < . + . +     +       +             +                                                                                         + + ",
"  +               + + + + + + + + + + + + + + . . @ .   G P X y I y  .9 %. .%.Q X *.7 7 F (.}.}.c n v b t $.u u u t t p E B B B B B S W W W W v W t t v m &.v m t W v E &.W W W Z S 5 M 9 h 4 * 2 - - ..@.u u u $.L &.` E.w.v.x+)+x+h.Z.b.Z.u+u+u+)+)+l.l+)+x+Z.w.j.O.O.` &.:.E.O.O.O.O.j.B.B.w.S.Z.u+u+u+u+c.x+x+x+x+x+x+x+d.d.)+)+k+x+k+h.h.h.M.k+k+M.k+M.x.M.M.M.M.M.x.M.x.x.M._+y.y.&+&+'+'+'+%+m+L.L.%+%+'+y.M.N.i.i.0.0.F.w.w.c.d.d.d.u+Z.v.B.F.E.0.C.C.F.D.B.v.v.h.M._+y.`.%+m+$+t+1+R.m+'+`.`.H.p.%+L.!+m+X.$+$+ +(+Q.t+/+f+f+h+h+1+^+1+1+^+^+^+|+|+^+^+d+d+d+}+;+-+~+s+i @ < . @ @ . +   +       +   +   + + + +     +                   +                         +           +                       + ",
"  +               +     + + + + + +     + +   + + + .   [ Y (.y h y  . .9  .9 Q *.*.T 6 (.(.}.) c d l l p D u A t b t t v B B B v W W B E W B W W &.$.b t m m t t B t E E v W v E S x x I I ^ ' 2 - ; ..@.A D D $.L &.S E.D.w.x+d.x+h.Z.Z.u+u+Z.Z.)+)+l+l+)+x+u+w.D.D.O.[.s :.C.O.O.O.O.D.j.j.j.v.v.b.b.Z.k.Z.Z.u+u+u+x+x+d.)+)+x+k+k+k+k+G.G.Y.y.n.`.2+n.`.`.`.`.`.z.`.z.H.'+'+%+L.L.m+X.X.$+,+ + +Q.R.#+>+>+#+t+(+m+&+x.i.i.D.D.D.j.Z.u+c.u+u+c.Z.v.j.F.E.0.0.F.F.i.w.N.x.h.M._+y.&+%+,+>+R.m+`.2+2+`.z.H.H.%+q.!+L.m+X.P.,+J.Q./+/+f+f+h+1+1+1+^+^+^+^+^+|+1+1+U.d+p+p+}+.+;+q+9+: : . @ + + +           + + +         + + +                 + + + + + + + +                       +                     +   + ",
"                        + + + + + + +   + + + + . + .   : Y > %.h  .%. . . .9 Q X T 7 F (.) ) / / d 0 p p u A u b t m t t B W B B v W W W W B v v v t t v v W &.t v t v t v B B ` S O x I  .9 / = 2 - = @.u D D $.$.` ` [.D.j.S.l+x+h.Z.Z.Z.Z.Z.Z.d.)+)+)+)+d.u+v.D.j.F.s.L :.C.C.s.O.O.O.O.O.j.j.B.w.v.v.v.b.b.Z.u+u+u+x+x+x+x+k+k+Y.g.n.z.r.o.o.p.p.q.!+!+I.I.I.I.I.I.P.P.X.P.P.P.X.$+,+,+ +(+W.t+t+/+f+U.|+^+|+|+d+1+K.L.M.i.0.a.E.D.B.w.v.Z.c.u+Z.c.v.0.E.E.E.E.F.j.j.w.N.M.M.k+y.&+%+W.Q.L.y._+_+Y.m.n.n.n.z.H.%+H.p.L.!+P.i+W.t+R./+f+f+1+1+1+1+1+1+^+^+^+1+|+|+d+d+d+|+d+;+{+s+[ : . @ +           + +   +   +       +                   + + + + + + + +           +         + + +                       + ",
"                    + + + + + + + + + + +   + + . + +   @ Y ; ,  . . . . . .9 Q X *.T { (.(.) ) ) d l p $.$.#.u u t p E E B B S B B v B W S B W B v t b u t &.p v B t v B v B B ` ` w 9 h I I ^ = - - 2 #.u u D $.L ` &.:.D.w.w.Z.c.h.h.h.Z.Z.x+u+d.)+l+l+)+)+x+v.D.j.F.O.L L [.t.E.s.O.O.O.O.F.j.j.j.B.B.B.w.v.b.Z.u+u+u+x+x+k+h.Y.n.o.p.p.q.q.!+!+I.I.I.P.P.P.P.P.P.P.P.$+$+$+$+$+,+ +J.(+Q.R.R./+/+f+1+d+|+b+p+b+p+d+1+h+(+_+S.0.0.0.E.j.w.v.Z.x+x+c.Z.w.F.E.E.C.C.F.F.D.D.i.S.h.G.y.`.$+A.`.M.h.h.h.x+k+Y.f.m.n.r.r.z.p.q.!+X.P. +(+W.R./+f+f+h+h+h+1+1+1+1+^+^+^+|+U.h+1+|+1+e+;+s+[ : @ : @                 + + + + + +                     + + + + + + +           +           +                       + + ",
"  +             + + + + + + + + + + + + + + + + + + + .   ( ; = ^ I I  . .9 9 Q X X X 6 (.(.}.}.) c d p b ] #.u u t B t v B B B v v W B S S B W v B L b u p p t t t t W W E E m &.` O h h g h  .* - ; - u =.u p $.L ` &.:.D.w.w.S.h.x+h.h.Z.Z.Z.u+d.)+l+l+l+)+x+v.D.D.F.*+&.` t.[.t.O.O.O.O.O.F.O.F.O.F.O.O.O.F.B.v.Z.u+u+u+u+S.M.n.o.q.!+!+!+!+I.I.P.P.P.P.I.P.P.P.P.P.P.P.P.$+$+$+ +J.J.W.Q.R.t+/+>+V.U.d+}+}+}+p+p+d+d+|+|+t+'+x.N.i.F.F.j.B.B.Z.x+d.d.Z.B.F.C.C.C.E.C.C.C.F.D.i.N.M.y.p.p.y.Z.v.S.Z.u+x+x+k+G.m.m.2+n.`.z.p.q.q.!+I.$+J.W.Q.R.#+f+h+h+f+h+h+1+1+h+1+1+>+f+>+1+1+7+++o+[ : < @ +             + + + + + + + +                   +   + + + + + + + +     +           +                         + ",
"  +               + + + + + + + + +   +     + . . + + @   ( ; & ^ I I 9 %.Q Q Q X X %.*.6 { (.(.) c n t t b #.A b b m B B B B B v v W W W S S E m t o b t p m t t &.t W W v m &.&.L O f h H h I c & - ; ..#.u p $.L ` ` ` E.D.w.u+h.h.x+h.h.u+Z.Z.)+l+l+)+l+)+c.w.D.F.D.b.O.` [.[.L a.*+*+O.C.j.O.C.F.C.F.O.F.F.F.j.B.u.b.b.j.h.f.z.p.!+I.I.I.I.I.P.I.I.I.I.I.I.P.P.I.P.P.P.P.$+P.$+$+$+,+J.J.W.W.Q.R.#+h+1+|+b+}+p+p+p+p+d+}+1+/+m+G.x.i.0.C.F.*+B.b.S.Z.d.u+w.j.O.E.E.t.t.t.E.E.E.D.N.x.Y.m.M.w.j.w.b.u+u+Z.x+k+k+G.e.f.m.y.g.r.r.r.r.q.!+I.A.W.Q.R./+/+/+f+f+h+h+h+f+>+/+#+#+V.>+>+n+Q.c+U < @ < .             +     + +     +                             +   + + +   +                                   + + ",
"  +                 +   + + + + + +   + + + + + + + . <   ( ; & ~ h %.%.%.y %.Q Q X X *.6 6 7 6 F ) b B t t u b b B p t B B B W S S B B E W B v n v t p b p p m &.m B t t v t p &.L w x f H h h 4 & & ; = u u $.$.t ` L ` a.O.F.w.d.x+h.h.u+Z.u+u+)+)+)+l+l+)+u+w.F.F.v.l.l.j.E.t.:.L R C.C.O.O.C.O.E.C.O.O.F.F.C.F.F.C.E.0.0.d.n.p.q.I.I.I.I.I.I.P.I.I.I.I.I.P.P.I.I.I.P.P.I.P.P.P.P.$+$+ + +J.W.W.W.Q.W.K.Q.f+U.^+d+p+p+p+p+|+d+f+'+y._+N.j.F.t.C.O.D.j.Z.Z.w.j.F.E.t.t.R y+t.E.E.C.D.D.N.x+v.D.F.j.v.k.u+Z.u+d.x+x+l.l+e.e.e.f.m.m.n.r.r.z.H.q.P.$+ +K.W.Q.R./+/+f+/+#+#+/+#+J.W.W.m+%+#+:+i + @ : <   +         +   + + +     + + +   + +   +   +         +   + + + + + +           +                       + ",
"                + +     + + + + + +   + +   + + . + + <   J ; & 7 h Q %.%.%.%.Q Q Q Q X 6 6 6 F { ) c B b n n n n b t v v W S B S B B B v t B v n B t t u t t p m &.t p v m E m m m o f f H ! g +.* 2 - & l p $.L t &.&.` :.E.E.D.Z.x+h.h.u+Z.u+u+d.l.e.l+l+d.u+w.j.D.v.l.l.b.O.O.t.N N R E.C.O.O.O.C.C.O.s.C.C.C.s.s.C.[.` a.b.n.p.q.!+I.I.I.I.I.I.I.I.I.I.I.I.I.!+I.I.I.I.I.P.P.P.X.P.$+,+ +i+J.J.W.(+(+(+(+K.R./+h+^+^+^+^+^+p+^+f+m+%+&+M.S.D.F.0.0.D.v.v.v.w.D.C.E.E.y+C.t.t.t.C.F.0.D.j.F.C.F.*+B.B.b.v.b.u+Z.c.x+)+l+l+e.e.e.G.m.m.f.g.n.n.r.o.L.X.I.P. +Q.#+t+t+t+R.W.,+m+!+m+m+'+%+q.Y i < < + + . +           + . + + + + + + + + + + + + +         + + + + + + + + + + + + +                     +   + ",
"                              + + +   + +   + + .   + <   # - - '  .%.Q Q %.%.Q Q %.%.Q T 7 6 F F }.d n v l n b n n B B B B B B W B B B B S S W n B B t b t t t v &.t v v E E p &.&.L x f H q H g ] = - ; a b b t t t &.` ` :.O.w.S.u+h.Z.Z.Z.Z.u+)+l.l+)+)+)+u+v.D.F.B.x+c.v.j.F.*+y+N B [.O.O.O.C.s.O.C.t.t.E.s.R R y+L ` F.x+n.p.q.!+!+!+!+!+q.!+!+!+!+!+!+!+!+!+!+!+!+!+!+!+!+!+!+!+P.$+A.A.,+ + + +(+(+K.K.K.t+t+/+/+f+h+f+1+|+^+f+,+%+y._+x.w.j.D.i.w.S.x+S.w.w.F.C.C.a.R E.E.E.E.F.0.a.a.a.E.F.O.j.B.B.v.v.b.u+u+u+d.x+d.l.l.l+)+G.e.f.m.m.m.g.r.z.o.p.I. +K.W.Q.R.t+J.P.X.L.%+L.L.%+H.e.Y U : @ . .         +     + + + + +     +     + + + +         + + + + + + + + + + + + +                     + + + ",
"                          + + + + +   +     + + . + . <   _ & ; , 9  .Q %.%.%.%.Q Q Q Q *.7 6 6 F }.d n B n c n n n n n B B B B W B B B S B W W v B v m v b t v B v v p W W B t t t S K f h q ! H e * - ; & B o t p p ` L &.L C.v.v.Z.h.Z.Z.Z.Z.Z.d.)+l+)+l+)+u+v.j.D.u.l.l.w.B.E.B.*+v 1 0 w t.t.s.C.t.t.t.t.t.t.t.O N s L v.e.r.H.H.p.p.p.p.p.p.p.p.q.p.p.q.q.p.p.p.p.p.q.p.%+p.%+p.L.!+!+!+L.m+!+X.$+,+J.(+(+(+K.K.K.K.t+/+/+/+1+h+h+t+m+&+&+&+2+y.M.x.S.S.h.N.S.N.i.F.0.a.E.E.a.E.C.E.E.E.R E.t.C.s.C.F.O.B.u.b.b.b.Z.Z.Z.Z.c.c.d.c.x+l+e.e.f.f.m.g.n.`.r.o.L.X.,+J. + +X.!+X.m+%+&+H.I.r.p.r.V U   < @ @     + + +       + +               + + + + +     +         + + + + + + + +           +           + + ",
"  +               + +   + + + + + +   + + + + + + + . <   G = ; , I I Q %.%.%.%.%.Q Q X *.T P 6 F ) d d B B n n n b B n B B B W W B B W W W E W B E v v v b L t W t &.t &.B B t t m Z O f h % q ! 4 0 = & & v B t t t t ` t ` [.B.w.S.Z.u+u+h.h.Z.d.)+l+l+l+)+Z.w.j.F.u.l.l.B.O.O.O.s.o E * 1 B R O.s.s.C.t.y+s.t.t.N s 1 N u+e.r.z.`.`.H.H.o.p.H.H.p.p.H.z.H.H.H.H.H.H.H.H.H.H.H.H.H.H.H.z.'+'+H.H.%+L.%+m+m+X.X.X.,+,+ +(+Q.K.K.t+t+/+K. +$+m+L.L.%+L.`.&+y._+x.M.M.N.i.i.i.0.0.E.C.F.E.E.E.a.[.a.E.E.E.E.C.j.B.w.u.b.v.v.b.b.b.k.k.k.c.c.d.)+G.e.Y.f.2+n.n.`.z.%+m+I.!+X.p.q.!+!+L.'+z.z.y.S.k.5 Y U . : . +         +           +       + + +   + +                 + + + + + + + +           +           + + ",
"  +               + + + + + + + + +   + + + + + + + . <   i , ; & Q I Q y %.%.%.%.%.Q X *.T 7 P F ) c d B B n n n n n b v E W B S W W W W S S S B E W t t L o t &.&.t m v E v m t E Z N f f q % % ~ * = & ; l b t m m L ` ` L :.E.B.v.S.Z.h.Z.h.x+x+)+l+l+)+d.u+v.j.C.u.l.l.w.F.j.O.*+t.p l a & 0 w R t.s.O.K s.K R a 1 a E.x+e.n.z.`.r.o.o.o.z.z.z.o.o.z.z.z.z.z.z.z.z.z.z.z.z.`.`.z.z.`.`.`.`.`.`.`.`.`.`.'+&+'+'+'+'+'+L.%+m+m+X.$+m+$+X.X.X.X.L.L.X.$+,+ +X.X.'+&+_+x.x.x.N.i.i.0.0.0.E.E.[.[.a.R E.E.E.E.E.C.F.j.B.w.v.v.b.v.b.k.k.v.v.b.x+k+k+G.Y.2+2+`.z.%+%+m+m+X.!+p.%+H.H.z.z.n.G.k+x.D.O Z V _ : < + + + +     + + + + +                                                   +                         + ",
"  +                 +   + + + + + +   + + + + + . + . <   [ V & ; P h Q y %.%.%.%.%.Q X *.T 7 P F / c d n B t p p p v B B v v B B B B B B B B W v W n v t B L v v t p m E v m m E W v Z o x ! % q 9 * & & ; a o t b &.` ` &.` :.a.D.j.v.Z.h.S.h.x+x+)+)+)+l+d.u+v.j.E.u.l.l.B.F.j.B.u.s.N $.s = ; & a E N N O O w b 2 > a E.k+e.m.z.r.`.z.r.`.`.`.`.r.r.z.z.z.r.`.r.`.r.z.r.`.`.`.n.2+2+2+2+n.n.2+n.g.m.2+y.y.y.y.y._+x.x.M.M._+y.&+&+&+'+&+&+&+'+%+'+L. +W.Q.#+V.V.7+K.$+%+&+x.i.w.B.O.a.E.E.[.[.a.a.a.a.a.a.a.a.a.E.E.0.F.F.j.j.w.v.w.j.D.D.B.v.S.x+_+y.`.'+%+L.L.m+X.m+m+L.H.z.`.z.z.g.k+k+g.r.M.N.*+-._     . + . + +   +   + + . + + +     +   +         + + + + + +   +     + + + +     + +               + ",
"                  +     + + + + + +   + + + + + + + + @   < Y - - F h Q %.%.y %.%.Q Q X *.T P F / ) c d v B b $.p p v b B B B B v t W W B B W E B B v E E t t v v p &.v v v v v W W E Z o M H % g +.) = = ; = o t t B ` L S ` ` :.E.D.j.h.h.S.S.x+)+)+)+l+)+x+Z.w.j.F.u.l.l.B.C.*+u.*+C.:.@.$.$.0 & = & & & a b l 2 ; - a D.G.G.Y.r.n.n.r.r.`.`.n.`.`.r.r.`.`.`.`.n.n.n.n.n.2+n.g.m.m.m.m.Y.m.m.m.m.m.Y.Y.G.k+G.G.G.M.x.N.i.N.i.N.x._+_+_+_+M._+M.M.x.M.p.i+J.3+@+++++;+++U.>+K.,+L.&+_+N.i.i.0.0.i.D.i.i.i.i.i.D.F.F.F.D.D.C.y+O.F.E.j.j.b.Z.Y.p.!+I.A.i+3+n+n+#+R.#+/+/+/+f+/+/+#+R.#+t+t+W.W.Q.K.(+P.k+V } U   : . . . . +   +   + +   + +       + +       + +   + + + + + + + + + + + + + + +           + + + ",
"                                +       + +     .   + @ . + ( & - 1.I  .%.%.y  .Q Q Q X *.T P F (./ c d v B o o u p p t p B S S W B B W B B t v B B E E W ` t E v m m t B t v v v W W o e e g q h h ~ a * & ; v t &.L ` L S L L L E.D.D.S.Z.Z.h.x+d.)+)+)+)+d.u+u.j.C.u.l.e.v.E.*+*+*+s.L o N @.$.s = & ; ; ; = = & - - p b.e.m.m.m.g.g.n.n.n.g.g.g.g.g.g.m.m.2+m.m.f.Y.m.f.Y.Y.Y.Y.m.G.G.G.G.Y.G.G.G.k+G.k+k+G.k+M.h.h.0.D.i.i.N.N.G.M.x.k+M.M.S.v.v.S.G.q.!+L.3+V.@+b+}+.+.+.+d+|+h+t+#+ +,+m+H.H.`.y.m.y._+M.k+k+x+M.)+Y.f.n.q.I.i+3+n+7+7+T.@+@+++++++.+.+;+;+.+;+;+;+j+j+j+j+j+j+j+j+j+j+j+d+|+|+f+|+#+n.V # < @ @ + @ + + @ @     + +           +   +               +   + + + + + + + + + + +           + + ",
"                          + + + + +     + + +   + + . @ @   } = & , I  . .9 I  .%.Q Q X *.T P F / / }.n n v B $.u D p t p B S S W B v W W S W W B W E W W W W E B &.&.&.v v v W v S W t Z a f % g ! I 0 = & ; a t W S ` S S L :.L [.j.i.v.h.Z.h.x+x+)+l+)+d.x+u+b.j.F.u.l.e.b.F.B.u.*+s.:.L N @.p $.D l a = & & ; - ; - L S.G.G.f.f.f.f.Y.Y.Y.Y.Y.Y.Y.Y.G.k+k+k+k+k+G.l+l+k+k+k+l+G.G.l+k+l+G.k+l+l+k+)+k+l+G.G.G.x+S.v.D.w.0.F.0.S.l+e.N.x+g.g.h.v.j.S.G.g.r.z.p.i+3+R.U.b+}+j+.+.+}+;+;+}+++b+@+@+U.T.U.V.>+#+/+/+/+#+>+@+@+++++;+=+;+=+=+;+;+;+;+;+6+6+6+a+a+6+a+a+6+a+a+a+a+v+v+v+.+d+}+b+@+U.1+|+h+t+1+f+(+_+J U <     + : @       + +       + + +                 + + +   + + + + + + + + + + +         + + ",
"  +             + + + + + + + + + +   + + + + + + + . . @   } , & * h I  .9  . .9 Q Q X *.T P F / ) ) n n v v n p u u b p v S B W W W W W W B v S W E E W W W &.t t t v E m t B B B m v ` a e ! % % I d & & ; 1 B E W S S ` L :.` [.j.j.v.Z.h.h.x+d.d.)+l+)+c.Z.u.j.O.u.l.l.w.0.B.u.*+*+:.L @.p p $.@.$.@.D = = = ; ; - ` w.k+k+G.G.G.k+x+h.h.h.h.x+x+h.h.h.h.h.h.h.x+h.Z.h.x+x+h.h.u+x+h.x+)+k+)+l+)+)+)+l+k+k+h.h.w.a.0.D.F.a.0.S.l+h.i.N.m.g.l+b.D.i.M.G.Y.Y.2+y.&+m+(+7+++.+;+;+v+v+a+;+;+;+;+=+]+]+6+6+]+]+]+=+=+=+=+=+;+6+=+=+=+=+=+=+]+]+]+]+]+]+g+]+]+g+g+g+]+g+]+a+g+g+g+g+g+a+v+v+;+;+.+b+b+d+|+|+U.U.U.n+I.o+# G :   @ : < + . + +                 + +       + + +   +   + + + + + + +     +       + + ",
"  +             + + + + + + + + + +   + + + + + + + . . <   # , & = I h  . .9  .9 Q Q X *.7 6 F (.) ) n v v t v b u p t t p B W &.W B W W W v W S S E W &.W W &.t v m m W &.&.W B B m S S S o I k q 9 P & ; ; & E B S W S W L :.` :.E.D.v.S.h.h.d.x+)+)+)+d.u+u+u.B.O.*+l.l.w.E.B.u.*+*+[.L $.$.L p p m $.u & - 2 - ; 2 :.w.x+)+)+k+k+x+Z.S.Z.S.S.S.N.N.N.v.v.w.w.v.w.v.w.v.b.b.Z.Z.Z.S.S.S.Z.u+x+x+x+x+x+k+k+x+h.Z.w.0.a.F.F.0.i.v.Z.N.w.i.G.g.)+v.D.i.h.G.Y.f.y.y.2+`.L.$+Q.#+h+b+b+.+}+d+}+;+v+j+a+g+g+g+g+g+]+a+a+a+a+6+6+6+6+=+=+;+6+6+6+6+6+a+]+a+a+]+6+]+]+]+]+]+]+g+]+]+g+]+g+g+g+g+g+g+{+g+]+g+]+}+.+}+}+d+j+v+@+w+8+9+i <   + + + @ @ . +   + +     +         + + + + +     + + + + + +     +         + ",
"  +             + +     + + + + + + + + + + + + + + . + <   _ 0 & - ^ I  .I I  .Q Q Q X X T P 6 F ) c c n n b b p $.u u p t t v B B v B B B B B B B W W B v v W t m m E E m t W v W m Z E S e I q q h 9 , ; ; ; 0 S B S S S L L ` L a.D.v.S.S.h.x+x+)+)+)+)+x+Z.b.B.O.B.l.l+v.F.u.B.B.*+[.L L $.t p p t p t 2 ; ; ; ; 2 :.w.h.)+x+x+x+u+S.v.w.w.w.w.w.j.j.B.D.D.D.j.D.j.D.j.B.B.w.w.w.b.v.S.u+u+u+h.x+d.x+k+k+x+h.v.j.F.E.E.0.B.D.S.w.j.j.D.k+g.d.w.D.i.N.h.k+g.g.m.Y.2+z.L.P.$+,+W.Q.#+V.U.b+d+j+}+v+v+a+a+a+g+]+g+]+a+v+j+6+6+j+}+++.+}+}+.+.+}+}+.+}+}+;+}+.+;+.+;+;+;+6+6+6+6+v+6+6+6+a+a+6+a+a+a+a+6+v+a+v+j+.+}+.+++++++@+e+o+G i <     . . + + +   +   + + +     + + +   + + + + + + + + + + +   +   + + + ",
"              + + + +         + + + + + + + + + +   . . <   _ ) > ; ] 9  .I I  .+.Q %.Q X 7 P P F ) ) ) n n n p p u #.p p p t p B B W B B W v v B W E W B E E W B W t &.W E E E E W s a 0 Z B +.q ! h h 5 = & & 0 B W L ` W L L ` L [.D.w.v.S.h.x+)+)+l+l+)+)+u+u.B.s.B.l+l.v.F.B.B.B.O.t.:.L m m b p t n m 0 & - ; - = :.w.S.x+x+h.h.Z.w.j.j.D.D.D.F.F.F.C.E.C.C.C.C.C.E.t.C.E.0.F.D.O.B.v.k.k.c.u+Z.d.x+x+x+u+Z.v.F.0.F.0.0.0.v.S.i.0.0.0.k+f.l+w.i.N.N.x+e.g.g.f.f.Y.2+'+L.X.$+$+J. + +,+ +(+t+@+}+}+.+a+a+g+g+]+a+;+.+.+}+b+b+@+@+b+@+b+}+@+@+b+b+b+b+b+b+b+b+@+b+}+b+b+b+.+.+;+v+j+v+;+;+.+;+v+6+6+6+a+6+6+6+6+v+j+.+}+.+.+@+b+|+7+o+# U   . : @ + . .     + +       + + . + + + + + + + + + + + +   + + + + ",
"                              + + + + + +     +     + + <   G P d ; ] 9  .I I  .Q Q 9 X *.7 P F / ) c c n n v p u u b p u u p p t S B W W W v v B v W B S E W W B B W &.v E m E E E m E E v Z e q g h g  ., & & = v &.S ` ` L L ` ` :.E.j.v.h.h.k+)+k+)+l+)+d.u+u.B.O.B.d.l.b.F.j.B.u.B.*+N m m t o b m 0 v t Z 1 1 1 s :.B.b.u+x+S.b.v.j.j.D.D.F.0.E.a.a.a.a.a.[.[.[.R R t.t.[.a.E.C.C.C.F.B.B.w.v.b.Z.Z.h.S.v.w.F.E.F.O.E.D.i.d.S.v.0.0.i.l+m.g.h.0.i.h.f.f.m.n.n.m._+y.`.!+P.X.X.$+P.m+'+'+'+L.3+V.b+;+]+]+a+g+a+j+b+@+@+U.U.U.U.U.U.T.U.U.U.1+1+1+1+1+1+1+1+T.1+T.T.U.U.|+|+@+b+}+}+}+j+.+.+j+v+v+v+v+;+6+v+j+v+6+6+;+6+;+;+}+}+d+j+a+;+w+_.i @ . + . + . +   + +         + + + + +   + + + + + + + + + + + + ",
"                    +     + + + + + + + + +   + +     + <   U P c ; ] h I I I 9 Q 9 Q X *.7 P F { (.) c n n n t $.u u p $.$.m t B t B W v B W W B v W B B E W v W B W W m m E m &.E v E n S E a g ! h h 4 > ; ; ; E o S B B L L ` :.:.[.D.i.S.Z.h.x+k+)+l+)+d.u+b.B.O.B.d.l.b.j.j.j.u.u.u.R ` t t b b s 0 b $.$.$.p m D N O.v.c.x+v.w.B.j.F.F.F.F.C.E.[.:.:.` ` W ` ` ` L :.:.N R t.C.F.E.C.F.F.F.j.b.v.b.u+b.D.0.E.E.F.F.D.w.S.f.l+S.w.D.w.G.m.e.h.0.i.S.G.g.n.o.p.o.2+2+z.P.P.P.i+A.A.L.`.y._+_+%+,+#+U.++;+;+.+}+b+|+T.V.>+V.V.V.>+>+V.V.>+V.V.>+h+f+>+>+>+>+>+V.V.>+V.1+h+V.U.|+|+b+b+}+}+.+.+;+;+;+.+.+j+.+.+;+;+6+v+;+.+}+b+.+;+}+@+++=+=+i+_ [     + + + .             + + + + +   + + + + + + + + + + + + ",
"                    + + + + + + + + + + + +   + +   + + @   i 9 5 & n f I I I 9 +.%.%.Q X *.P 6 { / ) c n n n n u A D $.$.t t t t W S B v W W W v v W W W E E W S W W W &.&.m E v v v 0 Z S S a +.! h h * - & & & W w o ` ` L L o L ` :.C.D.j.S.h.x+)+)+)+)+d.u+b.B.O.*+d.l.b.j.j.B.u.u.u.s.L t m p u l m $.$.p $.@.$.=.N O.u.u+h.v.B.D.F.O.F.F.F.C.[.:.` &.E Z E Z Z Z Z Z Z v ` L :.a.C.E.E.E.E.B.B.v.k.v.j.F.F.E.E.F.F.F.j.)+G.f.)+h.N.N.m.r.Y.h.N.S.S.h.Y.r.q.!+q.r.`.H.P.P.i+n+3+i+%+&+y.M.x.y.L.,+#+V.U.|+|+|+|+V./+/+7+7+7+7+#+7+7+#+7+#+#+7+>+/+#+>+7+#+7+>+7+#+#+>+7+7+>+V.V.V.1+U.|+d+b+b+}+.+.+.+.+.+.+;+.+6+6+v+6+;+.+}+b+}+}+.+@+1+^+T.8+9+U + @ + @ + +           + + +   +   +   + + + + + +     + ",
"  +                 + +     + + + + + + + + + +     . . @ + < J +.1 n 9 9  . . .X 9 Q Q X T P 6 { / / ) n n 0 v ] u A =.u p t B B S B W v v v W W W W W W W Z W S W S W E E &.m B n m E a W S a b g ! h }.= = & & a o ` ` ` ` L o o ` :.E.j.B.b.Z.h.x+d.l.d.c.k.u.B.O.*+u+d.b.j.j.j.B.B.u.*+N m m p u s p $.m v p $.$.u D t.u.k.Z.w.B.j.O.C.C.C.C.t.:.` W E Z Z Z E W Z Z Z E Z Z Z Z :.:.[.R F.j.j.j.u.u.j.F.C.C.F.j.F.j.0.D.)+f.g.m.k+h.k+o.I.p.n.G.k+k+Y.q.H.!+A.P.%+H.m+A.J.n+#+R.J.m+'+H._+M._+`.'+X.Q.R.>+U.U.>+R.7+R.R.R.Q.R.R.R.R.Q.Q.Q.R.R.R.R.R.R.R.R.Q.Q.Q.Q.Q.R.#+#+R.n+#+#+7+>+h+1+U.U.U.|+@+b+b+.+++.+.+++.+.+}+}+.+}+@+b+++U.h+t+Q.>+p+6+w+9+: < . . + @           + + +     +     + + +   +     + ",
"  +                 +     +   + + + + + +   + + + + . . @ .   _ 4 0 b 9 9  .I 9 9  .Q ~ ^ ^ P P P 6 F / c d n b $.=.u #.b p p t t B S B B W B S B v W B B &.W W S v W W W v W v W t m m W Z W s t h ! h 0 * * = ; = S S L L S o o L ` L R O.B.u.w.b.S.b.k.k.k.u.u.*+O.s.w.k.u.j.j.j.*+B.u.*+y+$.m t $.$.p $.p p p p D D D N *+v.b.B.B.O.C.t.E.t.R [.:.` W E Z Z E E Z Z Z Z Z Z Z Z Z &.` Z ` s.F.E.F.s.C.E.E.C.F.F.j.j.j.j.v.)+g.n.g.Y.G.Y.n.I.I.P.p.2+n.p.i+i+P.A.I.'+`.%+A.i+J.7+#+R.,+L.!+H.n._+_+y.`.X.,+3+7+>+Q.W.#+Q.W.W.W.W.(+W.W.W.(+W.W.W.W.Q.W.W.3+W.J.3+3+J.3+3+3+Q.n+n+R.#+R.#+/+>+>+>+>+V.V.V.V.U.T.U.@+U.V.V.V.T.T.T.T.V.U.V.,+(+R. +,+3+w+;+o+i < . @ @ @   +       +   + + + +     + + +   + + + ",
"                  + +         + + + + + +     + +   + + + +   [ Y l n M +.I I +.Q  .%.X X X T 7 7 P F F c d n b u u #.#.b l p t p B S v t W B S W t B B W v W v W B W t p v m m v &.&.E E W W E m f q  .* a * & ; = B S S S S L o o ` L [.s.O.O.B.B.B.j.O.*+*+*+B.*+C.s.*+u.*+O.*+*+*+u.u.*+s.@.p $.@.u u $.p t p D $.$.D $.s.u.v.u.*+O.t.[.[.N L L ` W Z Z Z E Z Z Z Z Z Z Z Z Z Z s Z Z Z Z L E.E.E.E.[.E.t.y+s.O.j.j.j.b.b.k.l+g.m.e.l+k+G.I.A.3+I.m.m.q.3+n+J.i+i+L.'+'+q.!+ +>+>+R. +!+z.`.y.y._+M._+&+'+!+A.3+3+ +J.J.J. +J.J. +J.J. +,+ +J. +,+ + +,+i+i+i+i+i+i+i+i+i+i+i+i+J.J.i+J.W.W.Q.n+R.R.Q.#+R.Q.K.W.Q.Q.W.,+J.W. +,+ +,+$+J.X.%+%+m+m+%+%+i+V.>+_.U < < +   +   +         . +     + + + + + + + + ",
"                              + +   + + + +   + + + + + + @   : 8 5 0 5 9 I I 9 Q %.%.Q Q Q *.T 7 6 F F c d d b u u #.u p l v t B B S B B W B B B W W W W E W B v &.t v p p &.&.p p &.E E S o B Z M ! I 7 c * = ; ; 0 W S S S S o o L L o R t.t.R R R R [.[.N N N R t.s.t.R R t.t.y+*+u.*+*+y+N @.@.] u u $.u p D u u $.$.$.[.u.u.B.*+s.[.[.:.` L ` E E E E Z E Z Z Z Z Z Z Z Z Z Z Z &.&.Z a Z [.[.:.[.a.[.t.E.E.s.E.F.E.j.j.j.u.u+l+x+)+e.l+o.!+i+I.Y.G.n.i+J.i+3+3+A.%+z.H.p.P.J.W. +!+`.G._+G.Y.h.x+k+_+y.&+H.I.i+A.A.$+A.$+P.P.X.P.$+X.P.P.P.X.P.P.P.P.P.P.P.P.A.P.A.A.P.P.P.P.P.P.P.$+A.i+i+i+J.J.(+W. +(+J.J. + +i+A.i+X.m+m+L.L.L.%+H.&+y.&+&+&+&+y.L.V.=+I._ < < + @ .   +     + + + +       + + + + + + ",
"                    +         + + + + + + + + + + + + + + .   < '.M 0 ] +.I  . .Q Q %.Q Q Q *.T P 6 F F c d n b b b u u p n v t B B S B W W B B B W W W W W W W W v m t t p t p p p m v E E S W Z w q ! g 5 = = & ; 1 E S o S L o o L L L L N @.L $.$.$.$.$.$.$.$.p $.$.L p $.@.$.$.N O y+y+O O @.u u $.$.$.D D u D u $.@.$.L O.u.O.O.t.N N L o o E E Z Z s E Z Z Z Z Z s s E m Z Z Z Z ` Z Z Z ` :.[.[.[.[.a.a.a.a.a.a.E.E.F.F.B.B.j.w.Z.)+e.m.n.I.q.M.G.k+q.q.q.I.I.q.o.r.2+2+p.p.z.y._+x.N.S.S.v.v.S.h.k+G.G._+2+z.p.q.!+!+!+!+!+L.L.%+L.q.m+L.m+!+m+L.!+!+L.q.!+!+q.!+!+q.q.!+!+I.!+X.P.!+!+I.I.!+$+X.X.P.$+$+P.P.P.P.P.!+L.L.L.L.L.p.H.z.`.2+_+y.y.M._+y.r.3+++,+_ + < @ @ +       +   +         + +     + + ",
"                    + + + + + + + + + + + + + +   + + + + + .   '.x a b +.I 9  . .Q %.%.Q Q X *.P P F F ) c d n b $.u u u p t b t S B W B W v B B W B W S W W W W B t b $.u p p t p p &.v m W t &.o h % ! +.* & & - = E S S B L o o o $.t $.L $.@.@.$.$.$.$.$.=.$.u D D p p u $.u =.D =.@.R K R =.D A $.$.u u u u D u $.@.$.D [.O.O.s.y+N o L b m Z s 0 0 0 Z s s s m m s m &.Z Z E Z Z Z Z ` ` a.0.0.0.a.0.0.a.a.a.a.0.0.E.E.F.j.F.E.F.B.v.u+x+k+n.o.G.k+x+m.n.2+r.g.n.n.m.Y.k+m.m.y.h.N.S.i.j.D.j.w.b.S.h.h.h.x.M._+y.y.`.H.p.p.L.L.p.H.H.p.H.'+H.H.H.H.H.H.z.H.H.z.H.H.p.p.o.H.p.q.p.q.q.p.p.q.q.p.L.L.p.q.L.L.L.L.q.L.q.p.%+p.p.H.H.z.`.`.`.2+M.x.M.x.M.M._+`.3+@+i+# : < @ +       + + + + +     + +     + + ",
"  +                 + +       + + + + + +   + +   + + . + + @   '.f a n +.I  .I y %.y %.Q Q X *.7 T 6 { ) c c c $.$.u u $.u v t B S B t B v S W B B v v W W W W E m t L t p D D p t t &.&.&.S S S W w q ! I ^.; & - & 0 S S t L L L @.b $.$.@.@.@.@.@.$.@.=.#.#.=.=.=.@.@.@.b @.=.=.$.=.D $.N N @.=.#.@.=.u u A A A D D $.=.D L t.O.s.O L b @.$.p m m s a a s s s Z m m &.W L ` Z ` Z ` :.[.a.0.N.i.N.N.N.i.N.i.w.w.S.S.w.w.v.j.D.F.j.j.B.j.j.w.Z.k+l+x+S.Z.x+k+k+G.G.G.)+x+h.S.h.k+x+x+S.v.w.B.B.B.u.b.b.Z.Z.Z.x+h.h.x._+Y.2+n.`.z.H.z.`.`.`.`.`.n.`.`.`.`.`.`.`.r.`.`.`.`.`.`.r.r.r.`.r.o.r.o.H.z.z.H.o.z.H.H.H.H.H.H.H.H.H.z.z.o.H.z.z.r.n.2+y.Y.x.N.N.N.h.x.x.r.i+7+m+J < @ @     + +   + +       +       + + ",
"  +                 +         + + + + + +   + + + + + + + . <   J H 0 d ^ I 9 %.Q %.y %.Q X X *.7 7 6 F ) ) n n b u $.$.$.u d p B b B v W t v n S S W t B W W W E v t $.p p u p D p t v m &.W W S B B h ! I P = & & ; 1 W S o $.$.$.$.b u u b $.b b $.$.=.u u #.#.#.A #.#.#.#.#.=.=.=.=.=.].=.@.=.u #.@.$.#.A D D A D D A =.=.$.y+s.R @.u @.$.p D l s s s D s m s &.$.m &.` ` Z ` :.i.N.x.x.N.x.x.x.x.M.M.M.k+G.G.G.G.G.G.G.M.h.S.w.w.u.j.F.B.v.b.u+Z.w.b.v.w.b.S.u+Z.b.b.v.w.w.S.b.S.v.b.B.j.j.j.u.v.v.b.b.S.b.x+u+x+Z.k+f.Y.Y.2+2+n.2+2+2+2+2+g.n.g.g.g.2+g.n.g.g.n.n.n.n.g.g.g.g.g.n.g.n.g.n.r.n.n.r.r.r.r.r.r.o.o.r.z.o.o.r.`.r.r.r.`.n.r.g.y.f.G.x.h.h.Z.S.v.G.o.A.U.&+U   < +   +     +                   + ",
"                    +               + + +   + +   + + . + + <   j H 0 l ^ I  .y %.%.%.%.Q X X *.7 T 6 F ) c c b b p D u =.#.t t t t b B B v B S S B W v W v B W Z E B B p p p u p p &.t t t W W S S &.M ! 9 4 0 = = ; & W S b b p $.@.@.u u $.$.u $.$.u u A u #.#./.A #.u =.#.A =.=.=.=.=.].A @.=...u $.=.u =.=.A A =.D =.=.=.{.@.@.u ..D D D A ..a s -.-...s $.D m p S L ` :.S.G.o.q.q.L.L.%+%+%+%+%+'+%+'+%+%+%+%+%+m+m+L.'+`.2+_+M.S.D.j.u.v.u.w.B.w.B.B.j.B.w.B.w.w.u.u.B.u.B.w.B.j.B.j.B.O.O.j.B.B.v.v.b.v.b.Z.u+Z.x+)+d.k+Y.y.Y.Y.y.y.m.y.y.m.m.f.f.f.f.f.f.f.f.f.m.m.m.f.f.m.m.m.m.m.m.m.g.m.g.g.g.g.n.n.n.n.n.r.r.r.r.`.`.n.n.n.n.n.r.g.f.Y.l+S.h.x+w.j.w.w.x.p.n+7+#   < +   . +     + + +           + + ",
"                                    + + +   + +   + + +   + <   # H a 0 P I  . .%.%.%.%.Q Q Q *.T T 6 / ) c c c b u u u #.u b b b p B B B b S S W B W W W W B E E v t o t t p p u p t B t B B B S o W 4 ! ! +.c = = = & 0 B b u l u b u u u u u u u u #.u #.A #.A /.#.A A #.#.u =.=.=.=.@.=.D $.@.@.@.#.#.A #.#.=.A A A A A =.].> * -.-.....D u D s s D {.s s p u s L N &.B.o.I.P.i+A.i+A.i+J.J.J.i+J.J.J.J.W.W.R.>+>+/+/+/+K.,+X.%+&+M.x.S.w.B.B.w.w.u.B.B.O.O.j.j.O.O.O.s.s.O.O.O.s.O.*+*+*+*+*+O.j.B.u.v.v.v.v.b.b.b.S.Z.Z.h.x+k+G.G.Y.Y.Y.Y.Y.Y.G.l+e.Y.e.f.e.e.e.f.f.f.f.Y.f.f.f.f.f.f.f.f.f.f.f.g.f.g.g.g.g.n.m.g.n.n.n.`.n.n.n.n.2+2+g.m.Y.G.)+S.x+Z.D.F.E.E.0.i.m.w+c+@ + @   . +     + + +           + + ",
"                    +         + + + + + +   +     + + + + . <   _ H n * P I  . .y  .%.%.Q Q Q *.T 7 6 { ) c c c u u =.D u u u b b p B B B B B S S S W W W W B v E W B t m t t t p p t t B t B B o S W e f h 5 3 2 2 & & 1 b b u p u u u u u p u u b u u u A A /././.#.#.A u #.u #.=.=.=.@.=.D $.N R @.=.=.=./.A =.#.A A #.A #.{.- - 2 > > l u D ......A s s {.-.1 a t m M.I.P.!+P.A.i+A.i+i+A.A.A.A.$+$+J.(+W.R.V.1+U.|+|+|+1+1+h+t+$+L.'+Y.h.w.j.j.C.C.O.y+s.s.y+s.s.s.s.t.t.t.y+y+s.s.y+s.s.*+y+*+*+B.B.B.u.u.w.u.v.v.v.v.v.S.S.Z.d.h.x+l+)+)+l+)+d.d.l.l.d.l+l.l+l.e.e.e.e.f.f.e.e.f.f.f.e.e.f.f.f.f.f.f.f.g.f.g.g.g.g.n.n.n.n.n.n.r.n.g.g.m.f.e.h.Z.c.k.u.O.E.R a.[.F.i+z+[   @   . +   + + + + + + +   + + + ",
"                      +   +   + + + + + + + + + + + + + + + <   G q 4 0 5  .9 9  . .%.%.%.Q X *.T 7 F / ) ) c n b u $.=.A ].=.$.p p S B B S B W B S W W W v v v v W v B t p $.t p v p b b t t B S W &.` $.b e u * 2 - ; = b ] b u u u u D D p u u u u #.#.A A A A #.#.#.A u #.u #.=.=.@.$.D $.N t.y+@.=.=.=.=.=.].=.#.A #.A A ..- = 2 - -.D D ....D D {.A {.> 2 a s &.k+i+P.X.A.$+A.P.I.I.L.!+!+m+m+m+m+$+,+(+R.T.|+b+}+}+}+.+.+}+}+|+/+(+m+`.k+b.j.F.E.R [.R t.t.t.t.t.R R R R R R y+y+y+y+y+y+t.y+s.O.*+*+*+*+*+O.B.B.B.j.B.B.u.u.b.v.v.k.Z.Z.u+c.k.c.c.c.c.c.d.d.d.)+l+e.e.e.e.e.e.f.e.f.f.e.f.e.f.f.f.f.f.f.f.g.f.g.n.g.n.n.n.n.n.n.n.r.g.m.f.f.x+S.c.k.u.O.R :.N [.:.x+I.i   @ + + + +   + + + + + +   + + + ",
"  +                 +         + + + + + + + + + + . + + + . <   i x b l 5  .I  . . .9 9 Q Q X *.T 7 6 / ) / c n b u D =.=.D #.$.D t B W B S B v v W W W v v W S S S v &.&.b $.t t ` &.t p B B t S S ` ` $.e e ] ..> - ; & n b p D u u u u u D p $.D u u A A A A A #.A #.u u #.u b @.@.@.$.p N R t.y+N =.A #.=.=.=.A #.#.A A A ..-.= 2 -.{.]...{.{.{.].#.A > 2 1 s R n.I.!+I.A.P.A.P.P.!+!+!+!+m+X.!+X.$+ + +(+Q.#+f+U.@+d+d+}+j+}+p+p+p+d+h+(+%+d.v.i.D.E.t.t.t.R N [.R R R R R R R R t.t.t.R R y+t.t.R y+y+t.y+s.y+s.O.s.O.O.O.*+*+B.B.*+*+j.B.u.u.k.k.k.k.c.c.k.c.c.d.d.d.l.l.l.e.e.l+e.e.e.f.f.f.e.f.f.f.f.f.f.f.f.g.f.n.f.n.g.n.n.n.n.r.n.g.g.f.)+x+c.v.*+s.R N L R L a.r.i   <   + +     + +     +       + + ",
"  +                 + +       + + + + + + + + + + + + + . . <   [ | w t 5 I  .9  .y %.%.9 Q X X T T P { ) ) ) b p D #.#.A =.=.=.=.p l b b S S W W B t B W W v v W W W E v t $.t c p W v t L B B m W S w O N @.e 3 > - ; & 0 b p u u u u u u p p $.=.D u =.A A A #./.A #.u u @.#.] $.L $.m N y+t.t.s.R =././.=.#.A A A #.A A A #./.-.-.=./.{...{.{.A ..-.2 2 = 1 &.r.I.!+p.L.I.p.!+!+z.p.p.H.q.q.!+!+P.i+ +W.R.Q.R.#+/+h+1+|+|+d+d+p+j+p+j+p+d+1+X._+h.v.O.F.C.t.[.[.R t.R t.t.C.C.E.E.t.a.E.a.R R t.t.E.R R t.s.s.y+t.y+y+s.s.*+*+*+O.*+*+s.O.O.*+O.*+*+*+*+u.u.u.b.k.k.k.u+c.x+c.d.)+)+l.e.l+)+l+e.l+e.e.e.e.f.f.f.e.f.f.f.f.f.f.f.m.m.m.m.f.f.f.l+d.c.b.F.y+t.N N $.N L R |.[   < + .         + + +           + ",
"                    +               + + +   + + + + + + + . @   < 8 f w w  .I 9 %.%.9 %.9 Q X X T 7 6 F ) ) c n l A @.=.].=./.=.=.u p t S S W B t B B W W W v v W W B E m S L $.d $.S t p v W v &.t e M K N ] ] #.> ; ; ; * u u u u u u u u p p u u D A =.A A #.=.=.=.#.u u u u $.L t &.N s.O.t.E.s.R @.#.=.=.=.A =.A =.A A A /.]./.=.=./.{.{.{.A {.{.- - 2 1 s S.!+q.H.p.H.`.o.z.z.`.r.o.2+z.H.p.L.!+P.$+,+J.W.J.W.R./+/+f+1+^+|+d+d+p+p+j+j+.+^+K.%+y.M.v.j.D.F.F.F.F.C.E.0.0.F.D.F.0.0.F.E.a.a.E.E.C.E.R t.t.a.E.E.t.t.y+y+t.y+s.y+s.s.s.s.s.s.s.s.s.O.O.*+B.u.u.u.k.k.k.k.k.k.u+c.)+l.l.l.)+l.e.l+l.e.e.e.e.e.e.e.f.f.f.f.f.f.f.e.e.e.e.e.e.l.d.k.b.u.s.y+s.R R @.@.@.@.f.[   <   .         + + +         + + ",
"                                    + +     + + +   + +   + @ +   '.f w e +.I 9  .9 9 9 9 9 X *.T P { (./ ) ) n l u =.#./.=.#.].A $.u B B B W B t B W B W W B B W W B E m ` L t t p t t t n v B S B e K K @.u ] #.* ; - ; = l u u u u u u u u u u u D A =.=.=.=.=.=.#.#.#.#.b $.b o o t.O.*+s.s.s.s.y+@.=.#.=.=.A A #.A ].].A ].{./.A /.].].{.].{.A -.- ; = s a.n.z.p.z.`.`.r.`.2+n.n.n.n.y.2+`.`.`.p.H.L.P.P.$+ + +W.Q.R.R./+h+f+1+1+^+^+|+|+d+d+d+f+(+X.%+&+G.x.x.h.N.N.N.N.i.N.N.S.N.N.N.i.D.D.i.D.0.F.F.C.E.a.a.E.E.E.s.y+y+y+y+y+y+y+s.s.y+t.y+s.s.s.O.O.O.O.O.*+B.u.u.u.u.k.k.k.k.k.c.c.l.l.d.l.d.l.l+l.l+l+l+e.e.e.e.e.e.e.k+l+l+l+)+)+c.u+k.u.*+O.y+R y+R @.=.=.=.@.:+:   <   +                         + ",
"                      +   +   + + + + + + +   +     + . + . @ @   } H O W M h  . . . . .9 9 X X T 7 F (./ / ) c l u #././././.=.].$.p t b S S W t v v B W B S B B B B v v v t p B b B t p u B S o m t K x N ..b e l ; - - & ..u u u u D p u u u A $.D $.@.=.=.A =.#.u $.=.$.b $.t L s.u.*+*+s.s.s.s.s.N =.=.#.#.#.#.A =.].{.#.].].].].{.{.{.{.{.{.> - - ; & s Z.z.y.2+n.g.2+2+2+g.m.n.n.Y.Y.m.Y.Y.2+`.2+`.L.!+L.X.$+$+$+(+Q.Q.#+/+/+/+f+h+1+f+f+h+1+h+f+/+t+(+$+L.'+'+`.&+&+y.y._+_+_+_+_+M.M.M.M.M.S.N.N.w.i.D.0.D.D.F.F.O.C.E.s.t.t.t.t.t.t.t.t.t.t.t.y+y+y+y+s.y+y+s.s.s.*+*+*+*+B.u.u.u.u.u.u.v.v.b.b.Z.Z.u+c.c.x+d.x+d.d.d.x+h.d.c.c.c.c.k.b.k.v.j.*+s.R R @.@.A {.{.{.8 < . <   +                     + + + ",
"                    + + + + + + + + + + + + + + + + + + + . . @   } H K L w I I  . . .9 9 9 Q X *.7 6 { ) / ) c l u #.=.]./.=.=.A b B t b S S W W B v W B W B W W W B t v B t t n S b b p p b S o m m K f O @.b ] l - - - - * u #.A u D u u D u u u D u =.$.u u $.$.u $.@.@.$.$.L t.B.B.*+*+O.t.y+s.s.R @.@.@.#.#.=.=.=.].{.].].].].].{.{.].]./.A - ; & - & ` f.2+_+n.g.m.m.m.m.g.m.m.f.k+G.G.M.M.G.Y.y.y.`.z.z.p.L.%+m+P.,+,+ +W.Q.R./+/+f+/+f+/+/+h+h+h+f+/+t+Q.K.(+ +,+$+X.$+$+X.m+m+m+L.m+L.L.L.'+`.2+y._+k+k+M.h.h.x+N.D.D.F.C.F.C.C.C.C.C.C.C.t.C.C.t.t.s.s.C.t.t.s.t.C.C.E.C.s.F.O.F.F.j.j.j.j.j.B.v.v.Z.Z.Z.S.Z.x+x+x+x+x+x+)+x+u+Z.b.v.w.u.B.*+*+s.R R R @.u u #.{.'.<   < . +             +       + + + ",
"  +                 + + + + + + + + + + + + + + + + + + + . . <   # q u.N o 9 I  .9 9 9 +.9 Q X 7 6 F F (.{ }.c n t #.]./.=.=./.A p S b t B B S W W B W S W v v W W S W E t S t v B b t t v t S o m s O f K O u l ..> - ; ; = u u D D l p u D u u $.$.$.@.$.$.@.u $.@.p $.$.$.L t.*+B.u.B.*+*+y+t.s.y+R @.@.@.=.#.#.A D ]./.].].].].].].{./.].A A ; ; ; ; 1 l.m._+n.n.m.m.m.m.m.m.Y.Y.Y.Y.G.k+k+k+k+k+k+G.Y.Y.2+`.`.`.H.H.%+m+m+$+,+ +(+(+Q.Q.R.t+t+/+/+f+f+/+/+t+K.K.K.K.K.K.K.K.t+/+f+>+>+/+#+#+t+(+,+,+$+m+L.%+%+z.`.r.m.M.d.S.v.b.b.B.B.u.*+O.O.O.s.O.s.s.O.O.O.O.O.O.s.O.O.j.B.B.B.B.v.b.b.b.v.b.Z.u+u+h.x+k+l+G.M.G.G.Y.Y.m.2+2+r.H.%+m+m+%+!+I.z.`.2+Y.S.D.:.` -.m p J < . @ + +       +                 + ",
"  +       +         + + +     + + + + + + + + + + + + + + + + < + _ H H R o f h  .9 9 9 Q Q X X T 6 F F F F / c n b u A /.=.=./.A p o B B S B B t W W v v p B B S S W W t S L b p b t u $.$.t $.$.&.` R x K K N t ] ..2 - ; & s @.u D D u u u $.$.$.$.$.$.$.b $.@.@.$.$.N R R y+*+u.u.u.u.*+*+s.t.t.O.y+N @.@.@.@.#.=.]./././.].].].].{.]./.{.]...; & & ; ` e.k+Y.g.g.g.g.g.m.f.f.Y.Y.f.Y.f.e.f.f.f.G.l+Y.k+l+G.y.Y.y.2+`.`.'+H.H.L.m+X.X.$+ +J.(+K.K.t+t+t+t+/+t+t+t+t+K.(+(+(+K./+f+1+|+b+U.U.U.U.1+h+h+f+/+R.K.(+X.%+L.%+y.G.k+h.c.c.k.u.k.u.*+*+O.O.O.O.O.*+*+*+*+*+*+*+u.u.u.u.u.u.u.k.k.k.c.l.e.f.2+n.H.L.X.P.P.$+,+J.W.R.V.V.U.++++++=+;+.+=+=+;+++b+U.T.Q. +L.G.v.m ( < < .   + . +   . +               + ",
"          +       + +     +         + + + + + + + + + +   + + <   _ H H O e x I I I 9 9 Q Q X X X 7 F F 6 { ) c d n u u #.=.=./.l v B t B W S S B B S B t t B W B W W W t t t p p $.$.b $.$.#.=.$.p m w K K K w o e ] > - - & 0 ] u D u u u p $.$.u D u $.@.$.L $.L N R s.O.s.O.*+u.b.u.B.*+O.s.y+y+u.*+y+N N @.=.=./.#.#.].]././.].].].]./.].A A ; ; ; & a.S.Y.Y.m.g.m.m.m.Y.Y.G.Y.Y.Y.f.f.f.f.f.e.G.k+l+k+x+k+M.k+k+G._+_+y.2+2+n.z.%+H.%+L.m+X.$+,+ +(+(+K.Q.R.t+K.K.(+,+,+,+(+/+h+U.b+}+++}+}+.+}+}+}+b+}+}+++}+b+U.>+#+J.m+L.H.z.2+2+n.m.g.g.m.g.f.f.f.f.f.e.e.e.l+f.f.f.g.g.g.r.r.q.I.I.J.n+n+#+>+V.U.b+.+.+.+;+=+;+=+=+]+-+-+-+-+=+]+]+6+=+-+]+=+=+6+6+]+]+-+6+.+T.3+o.G     : < < + + . .     +     + + + ",
"                                    + + + + + +   + +     + + <   G H H x e M  .I I 9 Q %.%.X Q Q *.7 7 F (.{ }.d b u D A =.=.].l B v B W v W S S S W B B B W W v B B W v v t $.u t b b b t u $.b p m N x K x K e w ] * - ; & a u p D u u u p u $.$.$.$.$.@.$.L N R y+y+s.O.*+u.u.b.k.b.u.*+O.s.t.y+u.*+s.y+y+N =.=.#./././.A /./.].].].].].].A ] & ; ; & C.u+e.f.m.g.m.f.f.f.Y.Y.Y.G.G.G.G.Y.e.)+k+l+x+k+x+k+d.k+k+x+x+k+k+G.G.G.Y.Y.m.2+`.'+z.%+L.m+m+X.$+,+X. + + +,+,+X.X.$+ +Q./+h+|+U.@+b+}+b+}+}+}+}+.+.+.+.+j+.+.+}+b+@+T.T.U.V.T.T.V.T.T.T.V.7+7+n+7+7+#+>+V.V.T.T.T.T.U.@+@+b+}+.+;+;+v+6+a+g+a+g+]+g+]+g+{+{+g+g+g+]+]+a+6+6+6+;+;+6+6+=+=+a+a+a+a+a+a+a+v+v+v+v+6+@+o+G @ @ + + + .           + + + + ",
"                      + + +     + + + + + + + +     + +     + <   U H % x o M 9 I  .Q Q Q %.Q Q Q *.T P F { / 1.d b b u =.=.#.l l B B W B v t S B B W W W S S B W W W &.E t b b u p u b t u p u b t p o K x x x w ] u a - ; & 1 u u u u u u p u $.$.$.$.$.$.L [.s.t.t.t.s.C.*+u.k.k.k.b.w.B.O.C.t.E.*+O.t.s.s.y+@.$.=.#./.#.#./././.].].{./.].#.] & ; ; & R Z.l+m.m.g.f.f.Y.e.l+e.e.G.G.k+)+k+)+d.x+d.d.)+l+x+x+l+d.l+x+d.)+d.d.)+d.l+G.G.G.Y.g.`.`.`.'+H.%+L.m+m+m+!+m+L.m+m+X. +W.R.7+T.V.T.T.T.U.U.U.U.U.U.U.|+|+|+|+b+b+b+b+}+++.+.+++++.+.+.+.+;+.+++++;+++++;+;+;+;+;+;+;+6+6+6+6+6+6+6+6+6+6+]+a+a+a+]+]+a+]+6+.+.+;+.+;+}+b+}+}+.+.+.+v+;+6+a+]+a+g+g+a+g+g+a+a+a+a+6+6+=+w+_.i <   + @ @ +         + + + ",
"                      + + + + + + + + + + + + +   + . +   + + @   U h k f w M  .I  .9 %.%.%.%.Q Q X T 6 F 6 F 1.d n t b u #.u p t B B B W B W B S B S B t B W B W W W W t t b b $.$.u u $.t p b $.$.p $.O x x f O b b 0 1 - ; = b b u u u u u u @.u $.$.p $.[.C.s.s.s.s.C.*+u.u.k.k.k.b.v.u.O.C.t.s.B.*+y+s.s.y+y+N @.@.#.#.A =./.=.=.=.{.].{.=.#.= ; ; & L v.h.G.f.m.G.e.e.)+x+k+)+x+x+x+Z.u+u+Z.Z.d.h.c.d.x+x+d.)+d.x+c.c.u+c.x+Z.Z.h.x+d.x+k+G.Y.m.2+`.`.z.z.'+'+'+%+%+%+%+X.,+ +J.R.7+>+>+V.>+V.V.V.h+V.f+f+h+f+f+h+f+f+|+b+++.+;+;+;+;+6+=+=+6+=+=+=+;+=+=+=+]+-+-+-+-+]+]+]+]+]+]+g+g+g+g+g+g+g+g+g+a+6+;+j+b+U.U.U.T.T.T.T.T.U.U.U.U.U.@+b+}+.+;+6+a+]+a+g+g+g+g+a+a+a+a+6+=+@+n+j G + .     +   +       + ",
"  +       +         + + + +     + + + + + + + +   + +     . . @ + @ J C % K x  .h 9 9 %.%.%.%.%.%.X T P 6 6 6 }.' n l t b b m p b t v E W v E v S S B v v B B B v v B S B t t p u u u p t t u b $.$.t m w M K f x 4 b d ..- ; ; n u D u D p p $.@.$.@.$.p N s.O.s.s.O.s.s.B.u.b.c.c.k.b.u.B.O.C.E.O.u.u.*+O.s.t.y+O N @.@.=.#./.=./.=.=.=.].{.=.#.1 ; ; ; a 0.S.h.e.e.e.)+d.d.u+Z.Z.b.b.Z.b.b.k.b.b.b.k.b.b.b.b.v.v.v.S.b.v.v.b.b.b.b.Z.Z.u+Z.S.h.x+k+Y.Y.m.y.2+2+2+2+&+'+&+'+%+X.P.,+J.3+n+Q.n+#+#+/+>+>+/+f+f+/+/+/+/+/+t+/+f+h+T.U.b+b+++.+.+.+.+;+;+=+6+=+=+=+]+=+=+=+=+=+=+=+=+=+=+;+=+=+=+;+;+;+;+.+++++@+U.T.T.T.T.V.V.V.V.V.T.V.V.V.V.T.T.T.T.U.b+.+.+a+]+g+{+g+{+g+a+a+v+]+a+v+f+M._   .   + +       + + ",
"  +       + +       + +   +     + + + + + + + + + + + + + . . @ .   _ H k K K  . . .%.%.y y %.Q Q X T 7 6 6 F ) c B b b b p B n v p v S S S v m B S S S W v B B W v B B B t t p u u u b u S b t b b $.$.L w M x f w b B 0 & ; ; = ....=.u t p $.$.$.$.$.L R s.s.t.s.s.s.O.u.k.k.k.u+k.k.b.B.O.E.E.O.u.u.*+*+O.s.*+y+R N @.@.$.$.@.=.A =.A {.{.=.@.p 2 ; ; = :.w.Z.x+u+u+u+v.b.u.u.u.u.B.B.j.B.B.*+B.*+*+j.O.*+j.B.B.B.B.u.B.*+j.*+B.B.B.u.B.u.j.B.w.v.S.Z.x+k+k+Y.Y.y.y.2+&+'+%+L.m+X.A.i+J.J.3+3+Q.R.R.#+R.#+#+R.#+R.#+#+R.R.#+R.#+7+7+#+>+V.V.V.T.U.U.@+b+@+@+@+b+@+@+@+@+U.@+U.T.@+@+T.T.U.T.T.T.U.T.T.T.V.V.V.V.V.V.V.V.V.V.>+>+V.>+>+V.>+V.V.V.V.V.T.@+b+++;+a+g+{+{+{+g+a+a+g+g+6+.+h+M.G   < . @   +   + + ",
"                    + +   +           + + + + +   + + +   + . + +   [ 8 % f K 9 I  .%.%.%.%.%.Q Q X T 6 6 F F ) d n B t v n B B n n v W t t t t t b S S W v v B t v v B B t t b u u u #.$.b b u p t t t t o w K x w v B 0 2 ; ; & > l ] u b b $.$.@.$.$.L t.C.C.C.s.s.O.j.b.k.c.c.c.c.k.u.B.O.C.E.O.u.b.u.B.O.*+*+y+y+R N @.@.@.@.@.@.=.A D D =.@.@.p = ; = m a.j.v.b.v.B.C.O.*+s.t.s.C.t.t.y+y+y+y+t.s.y+R t.s.s.s.C.O.O.t.C.t.s.t.t.t.t.C.O.F.F.O.j.w.w.v.v.S.S.S.h.x.M.y.y.`.z.L.L.I.P.$+A.A.,+ +J.(+W.Q.Q.Q.Q.Q.Q.W.Q.Q.Q.Q.W.W.Q.W.R.Q.W.Q.Q.Q.R.#+7+>+V.>+V.V.>+V.V.V.V.V.V.V.V.V.V.>+>+7+#+>+7+7+7+7+7+7+>+7+7+7+/+/+>+7+7+7+7+7+>+V.7+7+7+>+>+V.>+1+U.|+|+}+.+v+v+g+{+{+g+a+a+g+v+d+U.:+_   : . .       + ",
"                                      +   + + + +   + + + + + + .   : '.C f O 9  .9 %.%.%.%.%.Q %.Q T 7 P 6 F ) d 0 E v B v v B B B t W W t t t B S B B B W v t B S W W W B t p b u #.b u p u u u p b o L t B K f 5 S b l * - ; - 2 ..b p p b u $.$.$.L N s.s.C.O.s.s.O.j.b.c.c.c.c.c.k.v.B.F.C.C.s.u.k.u.u.O.O.s.s.y+R y+R R R @.@.@.@.=.D D =.@.$.$.s = = m L L R *+O.t.N N R R N N N N @.@.N N @.N N N R N N N N N N R R R R R R N R [.R R t.t.C.O.O.j.j.B.w.w.w.v.S.h.G.y.2+`.z.H.p.q.q.!+I.P.P.$+,+ +J.J.J.J.J.J.(+(+J.J.W.W.W.W.J.J.W.J.W.W.W.W.W.W.n+#+n+R.#+R.R.R.#+7+7+#+R.#+R.R.Q.n+n+3+Q.n+n+n+Q.n+n+n+R.n+R.R.R.R.Q.#+#+#+#+7+#+#+7+#+7+7+>+>+>+h+1+1+U.|+}+.+j+v+a+g+a+j+v+a+6+}+h+&+# + < + + . + + ",
"                        + + + +     + + + + + + + + +   + + + + +   @ '.C f O 9  . .%.%.%.%.%.Q %.Q T 7 7 F { ) c n E W B v v v W v B v B B B W W W B S S B W W B S W &.W B m p b u #.u =.$.$.u u u b @.o &.m O f M e b b l = - - - 1 d u m b p p $.$.L R s.s.C.C.s.O.O.j.b.c.c.c.c.u+u+v.j.F.E.E.F.u.b.u.u.*+s.s.s.y+y+y+y+y+y+R N N @.@.@.$.D $.$.$.D a a &.$.$.p $.L $.p $.@.@.$.$.$.A D D u =.=.u #.u u D $.=.=.$.u @.@.@.o L o N N N R R R t.C.C.C.O.O.O.O.B.v.b.x+l+G.f.m.2+2+`.`.z.o.q.q.q.!+!+P.P.$+$+,+ + +J. + + + +J.J. +J.J. + +J.J.J.J.J.J.J.J.3+3+J.3+n+3+3+n+3+n+3+3+3+3+n+3+3+n+n+3+3+n+n+3+n+n+3+3+n+3+3+3+Q.3+n+R.Q.n+R.n+R.#+R.n+n+7+7+#+7+>+V.V.U.@+b+}+d+d+}+j+j+d+j+v+d+|+f+_+U   @ < < . . ",
"                      + + + + + + + + + + + + + + + +   + + + + + .   '.k f O 9 I  .y %.%.%.%.Q Q X *.T P F / ) c n n v v W B B B W W W B B v S S W W S S W W W B B W W B t m p $.#.u u =.$.b u $.u @.@.b t m o M x 5 e ] b > - - - & 1 l l p $.$.$.$.[.s.s.s.C.C.s.C.O.B.b.c.c.c.c.c.u+v.j.F.E.E.F.u.b.u.u.u.O.s.y+t.s.s.y+s.y+y+y+y+y+N N @.$.D @.L @.p a m $.$.$.s p $.A D D u D D D {.A {.{.{.A {.{.A A D D A A A u u $.$.$.$.$.N N N R R R R t.t.t.C.C.F.F.j.w.S.h.l+G.Y.f.f.Y.m.m.m.n.r.r.r.o.p.p.q.q.L.I.A.P.$+ + +,+,+ +,+ + + +,+ + +i+ + +i+i+i+J.J.J.J.J.J.J.J.J.J.3+J.J.J.J.J.J.i+3+3+J.J.3+3+3+3+3+J.J.3+J.J.J.J.J.3+Q.Q.3+Q.n+R.R.R.n+R.#+#+R.R.#+#+7+>+h+1+^+|+d+^+|+p+d+^+^+d+|+h+/+:+U @ < . . . ",
"  +       + +         + + + + + +   + + + + + + + +     + + + + + @   '.k f M 9  . .I  .%.%.%.Q Q Q T T P F ) }.c n E E W W S B E W v B W S W W W W W W S S S S W W W v t t t p $.$.$.#.=.=.=.$.$.b u u b S t m e M M e ] b > - - - - = 0 0 m $.u $.@.R s.s.C.C.C.O.C.F.u.k.c.d.c.u+c.b.w.D.F.C.E.F.u.b.b.k.u.O.s.s.s.O.O.y+y+s.y+s.y+y+y+R N @.$.L L L t s a s u $.u u #.u D {.{.{.{.{.{.{.{.{.{.{.{.{.{.D D D D u #.u u $.$.@.@.N N N [.[.R t.t.C.C.O.D.j.B.v.B.v.S.S.x+d.e.e.G.G.G.l+Y.Y.f.m.g.n.n.`.`.z.z.p.!+I.P.P.A.,+$+$+A.,+,+,+,+,+,+ + + + +i+i+i+i+i+i+A.i+i+i+i+i+J.i+i+i+i+i+i+i+i+i+i+A.,+i+i+i+i+i+A.i+i+A.i+A.i+i+J.J.J.J.3+W.W.Q.Q.Q.3+Q.K.W.Q.Q.R.#+/+/+/+1+1+^+|+|+|+1+^+|+^+1+f+K.:+U < < @ + ",
"  +       + +         + + + +         + + + + + + + + + + + + + + <   j C H M +.I y %.%.%.%.%.%.Q X T 7 7 6 / ) c c n E W B t v v v t B t B B v W B v t W B W W W W v B B t v m t b u u #.#.$.u u u b u b o S &.S M M e b l * 2 2 - ; 1 b l b o p $.N R y+t.E.C.*+O.C.C.u.k.u+c.d.c.u+b.w.j.C.E.E.C.v.b.b.c.u.j.C.s.s.O.s.s.y+y+s.y+s.s.s.y+R N N L L N $.p 1 1 s p D #.#.u A ].{.{.{.{.{.{.{.{.{.{.{.{.{.{.A A A A #.$.$.@.@.N R R R R t.t.t.t.E.F.O.j.B.v.b.k.k.k.Z.u+u+x+x+d.d.d.d.)+e.f.f.f.m.m.m.g.g.g.n.z.H.q.q.q.P.P.P.$+A.$+$+$+$+$+A.,+A.A.A.A.A.i+i+A.A.A.A.A.A.i+A.i+i+A.i+i+A.A.A.A.$+A.$+$+$+A.A.A.A.P.A.A.A.A.A.A.A. +i+i+A.,+ + + +J. + + +(+(+W.W.W.(+K.Q.Q.#+f+h+1+1+1+h+f+t+h+h+f+#+K.J : : : . ",
"                    + +   + +             + + + + + + + + + . + + <   j C g 9 9  . .%.%.%. .%.Q Q Q *.7 7 F (.) c c n W W E v B b B v B B t t v W W t B B S S B B W W W W v t t p p b u b b b b t b b b B B S &.W 5 M e p n 0 = = & ; = e m s p D @.R t.y+t.C.s.s.F.C.F.u.k.c.c.c.c.c.b.v.j.F.C.E.C.B.v.v.k.u.j.E.C.s.s.s.y+y+y+s.s.s.y+y+s.t.R [.[.:.@.o p a > a D $.=.#.A ].].].].].{.{.{.{.{.{.{.].].].].A A u =.$.@.@.L N R R t.t.C.C.C.O.F.F.j.w.v.v.k.u+c.c.c.c.c.u+x+u+x+u+x+x+x+)+e.f.Y.f.f.f.f.m.g.g.n.r.z.o.H.q.!+!+!+X.X.P.P.P.P.$+$+$+$+$+$+$+A.A.$+$+A.P.P.A.A.P.A.A.P.$+$+A.$+P.P.P.P.X.P.X.P.P.P.P.X.P.P.P.P.P.P.P.P.P.$+$+X.$+A.,+,+,+,+,+ + + + + +,+ +W.J.W.K.#+/+t+#+f+f+t+t+/+/+#+W.X.U + : < ",
"                                          + + +   + +   + + .   + <   # q h I 9  .I %.%.%. .%.Q %.Q T 7 P F ) ) c n E W v W B t t v t B v v B W v W B S S W B S B B W B B B B t v t b b b b u p t b u b n B S B t e K 5 b b b * & = - ; l m s p D N t.t.t.t.E.C.s.C.F.j.v.k.c.c.c.d.c.b.w.j.F.C.C.O.B.b.b.b.b.B.E.E.s.s.s.s.y+y+s.s.s.y+s.s.s.s.t.[.[.N N $.m a = -...{.A {.{.].].{.{.{.{.{.{.{.{.].].].].A A #.=.$.@.N N N [.R t.C.O.O.O.j.B.w.v.v.b.k.k.u+c.c.u+c.x+d.x+d.d.d.d.d.)+)+l+G.e.Y.f.e.f.f.f.m.m.m.n.2+n.r.z.H.p.q.L.L.!+!+I.I.X.P.P.P.P.X.X.P.P.X.X.P.I.P.P.P.I.I.I.I.I.I.I.I.X.X.X.X.!+!+m+m+m+!+m+m+m+!+!+!+!+m+m+X.X.P.$+X.P.$+$+$+,+$+,+,+,+,+,+,+,+ + + + +J.W.K.K.W.t+R.#+Q.t+t+R.W.(+c+< : : ",
"                        + +           + + + + +   +     + + . + . <   _ q h I 9 I I y %.%. .%.Q %.X T 7 7 F ) ) ) c n B W W v t t t t t v v B v v W W W S W S S S B W B B B W t v B B t t b p p b b b b B B B S W W w 5 b 0 b 0 - & & ; = b p p m @.y+t.t.C.C.C.C.C.F.j.v.k.c.c.d.l.c.b.w.j.F.C.C.O.B.b.k.k.k.k.F.E.y+s.s.s.s.s.s.O.s.s.y+C.s.s.s.R [.N L L $.p 1 -.-...].=.A {./.].{.{.{.{.{.{.].{.].A /.A #.=.@.N R R R R t.t.s.s.O.*+B.B.v.b.b.u+u+c.c.c.d.d.d.d.d.d.x+)+)+l+l+l+G.G.G.G.G.Y.G.e.e.f.Y.Y.m.g.g.g.g.n.r.r.r.z.H.H.H.p.q.q.q.L.!+!+!+!+!+!+!+!+!+!+!+!+!+!+!+q.!+q.!+q.q.q.q.q.q.q.q.L.q.q.q.q.p.p.p.p.p.q.q.L.q.L.q.!+I.I.I.X.I.I.P.P.P.P.P.$+$+$+,+,+,+,+,+ + +(+J.(+J.W.K.K.(+(+(+J.P.m+_ : : ",
"                        + + + + +   + + + + + +   + + + + + + + . <   G % % h +.I I y %.%. .9 9 %.X *.T 7 F ) ) ) ) n B v W v b u p p p v t B W B W v W W W W S S S W W S B W W v B t t $.$.u p t b p B B S B B W E &.S v 0 b 3 - ; & ; & ] e p s $.y+s.s.C.C.O.O.O.F.D.v.k.c.c.d.d.c.b.w.j.F.C.E.O.B.v.b.v.Z.k.B.C.y+s.s.t.s.t.s.s.y+C.s.C.s.C.C.C.a.[.L L @.$.D D {.-.{.=.=.].{.A A ].{.{.].A ].].A {.A #.A @.N R R t.t.s.s.O.O.O.*+B.u.v.b.k.u+c.x+d.d.d.d.)+)+)+d.)+l+)+)+l+l+l+l+G.G.G.G.G.G.e.e.e.e.f.f.f.m.m.m.m.m.g.n.n.`.z.z.H.H.p.p.H.p.p.q.q.q.q.q.q.q.q.p.p.p.p.p.p.p.p.p.H.p.p.p.p.p.p.p.p.p.H.p.H.H.p.p.H.H.p.q.p.p.q.q.q.q.!+!+!+!+!+I.X.I.P.P.P.P.P.P.$+$+$+$+$+$+,+,+,+$+,+ + + + +,+I.p.o.n.i : ",
"  +     + +           + + + +   +   + + + + + +   + + + . + + + . <   i g % h Q  .y %.%.%.%.Q Q %.Q *.7 P { (.) ) c n n E E B b t p p p t n v B W v W W W W W W S S B W W B B S B E &.t b t p p p p p t B B v S :.` W &.t B b 3 2 ; - - ; s e m s $.y+t.C.C.C.C.O.O.F.O.v.u+c.c.c.d.c.b.w.j.F.C.E.O.B.v.b.v.b.v.u.O.E.s.s.t.s.t.s.s.E.C.s.s.C.C.C.C.C.t.R N N @.u A {.{.-.-.{././.A #.A A A {.{.{.{.{.{.A #.=.=.@.R R t.t.s.O.*+O.*+B.B.v.v.b.S.Z.u+u+c.d.x+d.d.)+)+)+d.l.)+)+l+l+l+e.G.Y.Y.G.G.f.G.G.l+l+G.e.Y.G.e.e.f.Y.m.m.g.g.n.`.`.`.r.z.o.H.z.H.H.H.p.p.H.H.p.p.H.o.z.z.z.o.o.z.z.o.z.z.o.o.z.o.H.H.o.o.H.H.H.H.H.H.p.p.p.q.q.q.q.q.L.q.!+!+!+!+!+!+X.X.X.X.X.I.P.X.X.X.X.P.X.X.P.I.X.X.A.A.P.!+z.r.n.H._.i ",
"  +                 + + + + +       + + + + + + + + + + + + . + . <   [ | q g I I I y %. .%.Q Q Q Q X T 6 F { { / ) c n n B t B b p b b m l v n B B t p B B B W B B W B B B B B W v t $.$.$.u u $.$.u t n t v B B S W W &.t t b * ; - - - 1 t p p $.R E.E.C.C.C.s.O.O.j.v.k.c.c.l.d.c.b.w.j.C.C.E.F.B.b.b.b.b.S.b.B.O.C.s.s.t.t.t.s.t.C.O.O.s.y+t.C.E.y+R [.N @.$.$.D D A -.> > A u D #.#.A D {.{.{.].{.D A A =.=.@.R R R s.O.O.O.O.*+B.w.v.k.b.Z.Z.Z.u+c.c.x+c.d.)+)+d.d.)+l+l+e.e.e.e.G.G.G.l+l+)+)+)+l.)+l.l+l+)+l+e.G.e.Y.f.f.m.g.g.2+g.n.r.`.r.z.o.z.z.r.r.`.r.r.r.r.r.r.r.r.r.n.r.r.r.r.r.r.r.r.o.o.o.o.o.o.o.o.H.H.H.H.H.p.p.p.p.q.p.p.q.p.q.q.q.q.L.L.!+!+!+!+!+m+!+!+!+!+!+q.!+m+!+!+p.q.I.q.Y.y.2+`.r.# ",
"                + + +   +               + + + +   + + + + + + + . < + < '.% ! h h h  . . .%.Q Q %.Q X *.7 6 6 F (./ c d n B v n n u u b l m p b B v v v t S S B S S W B B W B S B W t L $.$.#.=.$.$.u t p t B v W W W E t t b u ..- - - - = t p p p R C.s.C.C.C.O.O.O.j.v.k.u+c.d.c.c.k.w.j.C.E.E.F.B.b.b.v.v.Z.u+u.F.C.C.C.t.t.s.s.y+t.s.s.s.s.C.E.t.s.t.R N @.@.$.D A #.].> - 2 ..s A #.#.A A #.A A A A D D A A D @.N R t.s.s.C.C.O.B.u.v.b.b.k.b.b.b.u+Z.u+u+c.x+d.d.d.d.)+l+l+l+l+e.G.G.l+l+)+d.x+u+u+c.c.c.u+c.c.d.d.d.k+l+Y.f.f.f.m.g.m.g.n.`.r.r.r.n.n.n.g.n.g.g.n.n.g.n.n.n.g.n.n.g.g.n.n.n.g.`.r.o.o.o.z.o.z.o.o.o.p.o.o.H.o.H.p.p.p.p.p.H.p.p.p.p.p.p.p.p.p.p.q.q.L.L.q.p.p.p.p.p.L.o.r.r.g.k+M.r.y.o.:+",
"                                            +       + +   + .   + @ . + '.k q h I I I  . .9 Q Q Q Q Q *.7 7 6 F { / c d n v v n n u u u p p t v v v v v B B S B B S B B B W v B B B v p b $.@.u u u u t B b B W B S W E m t b u l 2 - - ; ; l b p &.[.t.s.C.C.C.O.O.O.j.u.k.c.c.c.c.c.k.w.B.O.E.E.C.B.b.b.b.b.Z.u+k.j.C.C.s.s.y+y+s.y+s.s.s.s.y+C.t.C.s.t.R R N N @.$.D A A = 2 - 2 a D u #.A #.=.A A A D D {.D =.D $.$.@.N R t.t.O.O.O.u.u.b.b.b.v.b.b.b.k.k.u+Z.Z.k.u+u+c.u+x+u+x+)+e.l+l+)+)+)+x+u+v.B.v.k.k.k.c.c.c.c.x+c.d.)+)+l+f.f.f.f.f.m.m.g.m.g.n.g.g.n.g.g.g.g.g.m.g.g.g.g.g.g.g.g.g.g.g.g.n.n.n.r.z.r.r.r.`.r.r.o.r.r.o.z.z.z.z.r.z.z.z.z.z.z.z.o.o.o.z.z.o.o.z.z.H.z.z.o.z.r.r.`.n.n.f.l+k+x+f.m.e.e.",
"                          +   + +     + + + + +   + +   +   + . . @ @   } k q g I I I  . .9 Q Q Q %.Q X T 7 6 { F F c d n n n n l u b p p p v p B B B v v B S S S S B B S B W B B B B b b u $.u u p t t B B B B S B W E m b b u u > - - ; ; * e t m N E.s.C.F.C.O.O.O.j.v.c.c.c.d.c.c.k.w.j.O.s.C.F.u.b.b.b.b.u+d.Z.b.B.C.y+C.y+s.y+y+s.s.s.s.s.s.C.C.C.y+y+t.R R N @.$.D -.2 = = - & * ..D A A A =.A #.D D D A A D D D D $.L N R y+C.s.O.O.B.B.w.w.v.v.b.b.k.Z.b.b.v.b.k.u+k.b.v.b.b.c.x+u+x+d.d.d.b.j.C.t.O.*+u.k.u.k.k.k.k.c.d.d.c.d.)+)+l+l+e.G.Y.f.f.f.f.e.f.f.f.g.g.g.g.g.g.g.g.m.m.m.m.g.m.m.m.m.g.g.n.n.n.n.n.g.n.n.n.g.n.n.g.g.n.g.g.g.g.n.n.g.n.n.n.n.n.n.r.r.n.n.n.n.n.n.n.g.g.m.f.f.f.l+d.x+d.l.f.)+k+",
"                      + + + + + + + + + + + + + + + + + + + + + . . @   } k k q I I  . .y  .9 %.%.y %.X X T 6 { F F }.d n n v B l $.$.u l p t t t B W v v B B B S S B B B W B S B b B b b u $.$.b b t v b B B B S S W W E t b b u ..- - - - & e o &.L R O.O.F.C.F.O.O.D.u.c.c.c.c.c.c.k.v.j.F.C.C.F.u.v.b.b.b.S.d.d.c.k.B.s.s.s.s.y+y+y+s.s.s.s.s.s.s.s.C.y+s.y+R N N @.@.D ..* * = & & = > D =.A #.=.=.#.A A A A A D D D p p $.N N N t.s.C.C.D.j.B.w.v.v.b.Z.b.b.b.v.u.v.v.u.B.u.u.B.u.b.u+u+c.x+c.u.s.R N N o R O O O.*+*+u.k.k.k.k.c.u+x+d.x+d.l+l+l+e.l+)+d.e.l+l+f.f.f.f.m.m.g.g.m.f.f.f.f.e.e.e.e.f.f.g.m.m.g.g.g.g.g.m.g.g.m.m.m.g.g.g.f.f.m.m.g.m.m.m.m.g.m.g.g.m.g.g.m.m.f.f.f.f.e.l+l+l+x+b.S.u+d.)+l.l+",
"  +                 + + + + + + + + + + + + + +   + + + + + + + . + <   # k k q I  .I I  .y %.%.y %.%.%.X T 6 6 { { ) c c v v v t b b u p p u p v v B B B v W W W B W S S W W B W B b t t $.$.u b t b t t B B B B W W W E v t u b ..- ; & - ; n o &.L [.O.s.C.C.C.F.F.F.w.u+c.c.d.c.c.k.v.j.F.C.C.C.B.v.b.b.b.Z.d.l+)+u+b.*+C.s.y+t.y+y+t.y+y+s.y+s.C.s.C.s.t.y+R R N N @.$.$.u -.1 > 2 2 - = -.D A =.#.#.#.#.A A A D D D u u p L L L [.R t.C.O.*+j.j.B.B.B.u.u.B.B.B.B.B.u.B.B.B.B.*+j.B.v.v.b.k.u.*+t.N @.@.@.@.o N R O R O *+O.*+B.u.k.u+u+u+c.d.c.d.l+d.d.l.)+l+d.k+e.G.G.e.f.f.f.f.e.e.e.l+l+e.e.e.e.f.f.e.f.f.f.f.f.f.f.m.f.f.f.f.f.f.f.e.e.e.e.f.f.e.e.e.f.f.e.f.e.f.e.f.e.l+e.l+)+d.u+k.k.v.B.B.u+c.c.u+u+",
"  +             + + + + + + + +     +   + + + + + + + + + + + + . + < + _ ! k % g  .I I  .%.%.%.y y %.Q X T 6 F { { ) c n n n v t $.b u u b B m v B B B S t W B W B B S S W B S S B S t t b u u u u t t b b B S B B B B t v t u A u = ; ; & ; 1 o $.` L s.s.C.C.F.F.D.j.w.k.c.c.d.d.c.k.u.j.F.C.C.C.B.v.b.S.b.b.)+e.l+l+)+w.F.s.s.s.y+s.t.t.t.y+y+s.s.s.s.s.C.s.t.R N N @.$.$.$.A D {.> 2 - - - 2 ..{.A =.#.A #.A A A D A A A u u D D $.L L R y+s.C.C.O.O.C.O.O.*+O.O.*+*+*+*+O.*+*+*+O.s.j.B.*+*+O.t.N $.$.@.@.@.e N N N R N N R R y+O *+*+B.u.v.v.v.v.k.k.x+)+d.)+)+d.d.k+k+l+l+l+l+l+l.d.l+x+d.e.l+l+l+l+l+l+l+e.e.l+l+l+e.l+l+l+l+l+l+l+l+l+l+l+l+l+e.l+l+l+l+l+l+l+l+l+l+l+d.)+d.c.b.b.B.u.*+O.s.O.w.b.B.B.v.",
"                + + + +   + +   +     +   + + + + + + + + + +   . . <   _ g k % ! I I I  .%.Q %.%.%.Q Q X T 6 6 F { }.d d v v l B t u u p b v m t B S W B t t S B B B B o B B S S W B t t u u =.=.u u p u v v B B W v v &.E m D p A * ; ; ; ; & o L $.` t.O.O.C.F.F.j.j.w.b.c.c.c.d.c.k.v.B.F.C.C.C.B.v.v.Z.Z.b.x+e.e.e.)+v.D.O.C.s.s.t.t.t.t.y+s.s.s.s.C.y+s.y+t.t.t.R N $.$.=.D D A {.-.> 2 2 - 2 2 a u u u #.u #.A A A A #.u u D D $.t m L N [.t.t.t.t.s.s.t.s.s.s.s.s.s.s.O.s.s.s.C.E.s.s.y+s.O N @.u #.#.#.=.@.@.@.N N @.@.@.w R w R t.t.C.C.O.O.B.B.B.v.u+k.h.x+d.x+x+d.x+x+d.c.h.c.c.c.u+d.d.x+x+d.d.d.d.d.)+d.d.d.d.)+d.)+d.d.d.)+d.d.d.l.d.d.)+d.d.)+)+d.d.d.d.d.c.c.c.c.b.b.u.B.*+O.O.s.t.t.t.C.s.F.F.u.",
"                                          + + + + + +     +     + + <   G I C % q h I I  .%.%.%.%.%.Q Q X T 6 6 F { }.d n B B n t t t b t E m p p t S S B v B B B B B B B B B B B B B B B @.u =.#.u u u u l m B W W W v v &.m p u 3 ..- ; ; ; ; p N $.$.R O.s.s.F.F.D.j.w.b.c.c.c.c.c.k.u.B.O.C.C.C.B.v.b.Z.b.b.b.x+e.f.e.d.w.O.O.C.s.s.s.y+y+y+s.s.s.s.s.s.y+s.t.t.y+t.R @.@.@.u D A #.A -.> 2 2 - - - 1 ..u u #.A A A #.#.#.A A u D $.u p $.m p $.L o N O t.O y+K K O O O O s.t.t.t.t.R R R R R N @.@.=.#.#./.A #.u A A #.@.@.@.w w R O O t.t.C.C.C.O.O.O.O.O.j.j.B.b.b.v.u+u+u+d.c.c.c.c.u+u+c.h.Z.Z.x+d.u+h.u+d.x+x+d.x+c.d.d.d.d.c.c.d.d.c.x+c.c.d.x+c.c.u+c.u+x+c.u+u+k.b.v.B.B.*+O.O.s.y+t.R R N t.s.O.j.u.",
"                        + +   + +     + + + + + + + +     + +     + <   U P C % q h I  . .%.%.%.y %.Q %.X T 7 6 6 (.}.c d n B v v t p v B W W m p B t B S v B t B S B B B B B B B S B B t b u u #.A A =.#.D v B B B W W W &.m p u u ..- ; - ; ; 1 e $.&.N s.F.C.F.F.F.j.v.k.c.c.c.d.c.k.v.B.F.E.t.C.B.u.b.Z.S.Z.Z.x+e.f.g.f.h.w.D.F.C.s.s.y+y+y+y+y+s.s.s.s.s.s.C.t.t.y+t.R N @.=.D u D ..{.A ..-.> 2 - - - 1 l A u u =.#.#.#.A A u u u u u $.#.A u D D p $.@.@.e w w N w R O y+t.t.t.R R N N @.@.=.u #./.3 #.=.A A #.A ].{././.#.] ] e e w O R R t.s.s.t.s.O.O.O.O.O.*+B.j.B.w.u.k.k.k.k.u+u+Z.b.k.Z.Z.u+u+Z.Z.u+c.u+u+c.u+c.c.c.u+c.u+c.c.c.u+c.c.u+c.u+u+u+u+u+Z.k.b.v.v.u.B.*+O.O.s.s.y+R R R N N N t.*+B.j.k.",
"                      + + + + + + + + + + + + + + + + +   + +   + + @   i ^.k k % h I I  . .%.%.y %.%.%.Q T 7 6 F ) }.c c n v v v B B l t S W t t B S B S t B B S B B B B B B B B B S t t b @.=.=.#.=.A #.u p t B B W W W &.&.p u #.3 2 ; ; - ; & o $.p L s.O.C.F.F.F.j.w.k.c.u+c.c.c.k.b.B.O.t.t.F.B.v.b.Z.Z.Z.Z.Z.)+f.m.n.m.h.B.D.D.F.C.s.y+y+y+y+y+s.s.s.y+s.s.s.t.s.y+y+R N @.@.$.D D D A D D D -.> 2 - ; & 1 l u =.#.=.#.#././.#.A u #.#.A D u u A u D D D D A D D =.@.@.N N R R R N o ] ] b u #.#.A A #.#.].A #.A A /.].].].].A A u @.$.@.R R R y+t.t.s.s.C.C.O.O.O.O.O.D.B.B.B.B.B.v.b.v.v.v.v.v.b.b.v.b.Z.b.b.b.Z.k.b.k.k.k.k.k.k.k.b.b.k.k.b.b.b.b.b.b.b.v.b.u.B.B.B.O.C.C.s.t.t.R N N @.$.@.N t.O.*+B.c.",
"                    + + + + + + + + +   + + + + + + + + + +     . . < + @ ( C k % h I I %. .%.%.y %.Q Q X *.6 F { ) }.c n 0 B B W B W p b S W W W B B B t S B S S B B B B W B b B B B b B p $.=.=.=.=.=.=.#.p t B t W t W W &.m A #.#.> - - - ; ; ] N m L t.C.F.O.F.F.j.w.b.Z.u+c.c.c.c.b.u.O.C.t.C.j.v.S.S.Z.Z.S.S.)+g.n.r.r.f.l.w.w.D.F.E.C.y+t.t.y+y+y+s.s.s.s.y+y+y+y+y+R N N N @.$.@.$.s ..p D -.> 2 - - - - 2 1 ..A =.#.#.A A #.A A A {.A A A A D D D D u D u A D u u A u u $.@.@.N @.$.=.#.#.#.A ].].].].].].A A ].].].A A A A u u b u u ] @.@.N R y+y+y+s.s.s.O.s.O.O.O.O.O.*+O.O.j.j.j.B.w.w.u.v.v.v.w.v.v.v.v.v.v.v.v.v.v.v.u.u.v.w.u.u.w.u.w.w.u.u.w.w.B.B.j.O.O.O.C.t.t.R R N N @.@.@.$.$.R t.O.*+B.c.",
"  +             + + +   + + + + +     + + + + + + + +   + + + + . . @ .   G k C % h I I  .%.%.%.%.%.Q Q X *.6 6 F ) ) c c B B E W B B v B B B v B B B t v W S W B S S B B t t t b b b t t p b #.u u =.#./.u t &.B B B S S B t m p #.u ..2 - - - ; l e p L [.C.O.F.F.F.B.w.k.u+u+c.c.c.c.k.B.C.E.t.t.O.u.b.b.k.S.S.S.)+g.r.p.H.p.H._+x.v.D.O.F.O.y+y+y+y+y+s.y+s.s.s.y+s.y+y+t.R R N @.$.@.@.D D D ..> 2 2 2 = = - - - - > ..D A A #.A A A A A ].].].].].{.A A A A A #.#.A #.A A A A A 3 3 u #.#.#.#.#.A A /.].{.A ].A A A A /.A /.A A #.#.#.#.#.#.A u #.#.@.e w O O y+s.O.s.s.O.s.O.O.O.O.O.F.D.j.j.D.j.B.B.B.B.w.w.w.w.u.B.B.B.B.B.B.B.B.B.B.B.B.j.j.j.j.j.j.B.j.j.O.O.O.C.s.t.t.R N N @.@.$.@.$.$.@.R y+*+*+B.c.",
"                + + +   +       +         + + + + + +     + + + + . + +   [ r k % h I I  .%.%.%.%.%.Q Q X *.P 6 F / ) c c n E E B B B v B o B v v v p B B B B B B B W t t b t b b t t t p u b u u #.=.#.#.u t t B B W W B B t m p b #.l = - - - ; = ] m L N t.F.F.F.F.j.w.k.u+c.d.d.c.c.k.u.F.E.t.E.O.u.b.b.k.b.Z.b.x+f.r.p.!+P.P.A.'+Y.x.v.D.O.*+s.s.s.y+s.y+s.s.s.y+y+y+y+y+y+y+R N @.@.$.$.$.$.D ..1 2 = 2 2 2 2 2 - - & 1 ..D A A A A A /.].].].].].].A ].].].A /.A A ].A A A A #.].3 3 A A A A A A /./.].].]./.]././.A A A ]./.A A A A #.#.#.#././.3 A u u u $.$.N R O y+s.s.O.O.O.O.C.s.O.*+C.F.O.O.*+*+B.B.j.B.B.*+j.j.B.*+*+*+*+O.*+O.*+O.j.O.F.F.D.D.F.F.F.C.O.O.t.t.t.R N @.$.$.$.$.u #.=.$.R y+*+B.v.c.",
"                                            +   + + + +   + + + + . + @   : '.k % g I I %.%.%.%.%.%.Q Q X *.P 6 F / ) c d E E B S B B B B B v v t v t B S B S B v B t B b B t b b p t b b b b u u #.#.u u t t B B B B W W W v m p u #.u 1 - & & - & c t L N [.O.O.C.F.j.w.b.k.c.d.l.c.c.u+k.*+C.E.C.O.u.b.b.b.b.k.b.Z.)+n.q.P.n+@+@+w+i+`.M.S.v.j.O.*+*+y+y+y+y+s.y+y+y+y+y+y+y+y+y+R R N @.$.@.$.$.u D ..a * 2 2 - - - 2 2 - & 1 ..D A A A /././.].].].{.].].].].].].].].].A ].A A /.A A #.3 A A A A ].].].].{.].].].A A A ].].].].].].]././././.]././.#./.A u u u u u $.$.@.N R y+y+s.K O.O.O.O.O.C.O.O.O.O.O.O.O.O.s.O.C.C.O.C.s.s.O.s.O.s.O.O.F.F.F.F.F.F.F.F.C.C.C.t.t.R N o $.$.u u $.$.$.D =.$.R C.*+u.b.l.",
"                    +     + + + + + +     + + + + + + + + + + + + + + .   < r C k ! I I %.%.%.%.%.%.Q Q Q *.7 P F / ) c n v W v W v B B B n v B B v B S B B o B B B S B B t t b b B B b b B B b b ] u b b t b B W B S S B W t m p u u u -.- & & - ; 0 o L L N s.O.F.F.D.w.b.Z.Z.c.d.d.c.c.k.u.F.C.C.O.u.b.b.b.b.b.b.Z.c.Y.q.3+T.q+-+-+q+7+q.y.k+Z.B.F.O.s.s.s.y+y+s.y+y+y+y+s.t.s.s.y+y+R N L $.$.$.$.$.u D D ..-.> 2 & 2 2 & - - 2 = ....A A /.]./././././.]./.].].].{.{.].].].].A A A A A /.A A /./.].].].].].].].].A A A A ].].].].].].]././.].]./././././.#.#.#.#.#.#.u A A #.#.@.@.w O O s.s.s.s.s.s.C.s.O.s.s.s.s.s.s.s.s.s.s.s.s.C.s.s.s.s.C.s.s.s.C.C.C.C.C.C.t.t.R N b u u u u #.u u $.A D =.t.s.*+u.b.l.",
"                    + + + + + + + + + + + + + + + + + + + +   + + + + + .   '.z k ! I I %.%.%.%.y %.Q Q X *.7 P F ) ) c n v W v W B B B B v v B B W B S B o S S S S S B S o t b n B b b B t t b b b b p p t t S S B S S S t t v m p u u 3 2 - - - ; = @.N L L C.O.O.F.j.w.k.k.Z.c.d.d.c.c.k.u.O.C.C.O.u.b.b.b.k.v.k.k.d.Y.H.3+T.;+-+~+~+-+w+q.Y.e.Z.j.O.O.O.s.t.y+s.y+s.s.y+y+y+y+s.s.y+y+y+R N N $.$.$.$.$.u u D A A -.> 2 & & 2 - 2 2 > ..3 A A #.#././././.].]./.].].{.].].].].A A ]./.A ].]./.].]./.].].].].].].A A A A ]./././.].].].].].].].]././.].]./.A #.#.#.#.#.#.#.#.#.A A A u u $.N R R t.t.y+y+y+t.s.s.s.s.s.s.s.C.O.s.s.C.s.s.s.s.s.s.s.C.s.s.s.s.C.t.R R N L u u u u A #.#.u $.=.u =.@.R s.B.k.c.l.",
"                    + + + + + + + +       + + + + + +   + +   + + . + + @   '.C C q I y y %.%.%.%.%.%.Q Q *.7 P { }.1.c n n n B B W v E B B B B S S B S o S B B S o B B B b b B b B B p t t t u b b p u u t p t B W B B B B t v m p u u 3 > - - - ; ; $.N &.L t.O.F.F.D.w.b.k.k.c.d.l.d.c.c.v.j.O.C.O.w.b.Z.Z.b.v.k.k.h.Y.z.i+V..+]+~+<+~+-+7+`.Y.x+u+*+s.C.y+t.y+y+t.s.s.s.y+y+y+y+y+y+y+s.s.y+R N @.$.D $.$.D D A u A l ..a 2 - 2 2 2 2 2 > -.{.A #././.]./././.].].{.{.{.].].A ].A ].{.].{.].].]./.].].].].].].].].].A ].A /./.].].].].].].].]./.]././././.A A A u u A #././.A A #.#.#.#.u u $.$.L o N N R R O O y+y+s.s.s.s.s.s.s.y+t.t.t.t.t.t.t.t.t.t.t.R [.N L $.$.u u A #.A A A A D #.#.=.=.@.y+O.u.c.l.l.",
"                + + +   + + + + + +       + + + + + +   + + + + . . + . <   J C C % I I I %.y %.y Q Q Q Q *.T 6 { c ) ) c d n B ` W B B v v t B b b B B o B B B S o B B B B o b b u u b b b b t u #.#.#.b p u p p B B B B B t t m p D #.#...& - - - - 1 @.` L a.O.F.F.D.B.v.b.u+c.d.d.c.c.c.v.j.C.C.F.B.b.b.S.b.k.b.S.x+k+r.A.V.b+6+~+<+<+~+q+!+m.x+d.l.u.*+s.s.s.y+s.s.s.s.s.y+s.s.y+y+y+y+y+y+y+y+y+R N L $.$.$.$.D u D A u D -.1 2 2 2 2 - - 2 > ..].].=.#.A /./.].].].].{.].]./.].].].].].].].].].].].].].].].].].A A /././.].].].].].].]./.].].]././.A /.A #.3 u u u u #./.#.A #.#.#.b @.#.#.u u #.u t b L o o o o N N [.[.[.[.N [.N [.N N N N N N N L L L L t p p u u #.#.A A A A A A #.#.A @.N y+*+k.c.c.l.",
"                + + + + +       + +       + + + + + +   + + + + . . + + <   J C C q h I y y y %.%.%.Q Q Q *.T P / ) ) c c c n v W B b t n B b B B B B B S B B B B S B B S B o b $.$.$.$.$.b b t $.$.@.#.b u u p t B B B B B B t m D D #./...2 - - - - = t ` L [.O.O.F.D.j.v.b.Z.c.l.l.d.c.c.v.j.C.E.F.B.b.Z.S.b.k.k.Z.Z.h.Y.q.#+@+6+{+~+[+[+~+n+n.f.)+l.k.B.O.O.s.y+s.s.y+y+y+y+y+y+y+y+y+y+y+y+y+y+y+y+y+R N $.D $.$.D D u D =.=.A {.-.> 2 2 - - ; & 1 ..A ]././././././.].]././.].].].].].].].].].].].].].].].]././.]./././././.].].].].].]././.]././././.A #.u u u u u u #.#.u #./.A #.#.#.#.#.#.#.#.#.u u v v v v W W W B W S W S S W W W v t t v E t t t v t b b u u u A A A A ].A A A =.=.D @.R y+*+k.c.c.d.",
"                                                + + +   + +   + + .   . @   } k k q h I I y y %.%.Q Q %.%.X *.P { ) }.}.c c c b p t b p t b b t t v B B B B B B B B o o S S B b $.$.$.$.u u $.$.u u $.u u b u B t B B B S S B t p m D A #.A > - - - - & l L L :.C.O.O.D.j.w.b.u+u+d.d.c.c.c.b.B.C.E.F.B.b.Z.Z.b.k.b.b.b.h.G.r.J.@+;+{+<+[+[+<+q+P.2+m.d.b.k.u.O.s.s.s.s.y+s.y+y+y+y+y+y+y+y+y+y+y+y+y+y+y+y+R R @.$.$.$.$.$.D D u =.=.A {.> 2 2 2 2 & & = > -.{.A /.A /./.#././.].].].{.].].].]./.].].].].].].].].].]./.].]././././.].]./././././././././././.A u u u u u u A A /././.A A #.#.#.#.A #.#.#.u b b b b b B B B B B S W W W m v v v p v p p t p t b b b u u A A A A A A A A A A #.A D @.R s.u.c.l.l.l.",
"                          + + + +           + + + + +   + +   + + . + . <   _ % C % h I I y  .%.%.Q Q %.Q X T 7 F F / }.}.c c n p p p $.t t p t t t B B B B B B v B S B B B B t b b b b b b $.t u u u u u b u t t B B S S B B B t m D A #./...2 - - - - a o ` :.a.F.O.D.D.B.v.u+u+d.d.d.c.c.b.w.F.C.O.B.b.Z.Z.k.k.u.b.u+h.k+f.P.T.;+-+~+<+[+[+<+w+'+`.Y.x+b.b.B.j.*+O.s.s.s.s.s.y+y+y+y+y+y+y+y+y+y+y+y+y+y+y+y+R R N L $.$.$.$.D D $.u A {...a = 2 = & & & & = * ..3 #.#.A /.]./././.].]././././.]./.]./.].].].]./.].].].].].].].].].]././././././././.]././.A A u u u #.#.#./././././././.#.#./.A #.#.A A #.#.#.#.b b b b B B S S B B t t b u u u u u u u u u u u u A A ].].A /.A A A A =.=.#.@.N y+*+b.d.l.l.c.",
"                    + + + + + + + +       + + + + + + + + + + + + + + . <   G ! z % g h I I y y y %.%.%.%.Q X *.T 7 6 (.) ' d n n b b u D p u t t v B B v B B B v B B B B S B v B b b B B b b b b b b b b b t t t B S S S B B B p m D A #./.].> - - ; - 2 b S :.[.E.F.D.j.B.v.Z.u+c.d.d.d.c.b.w.D.C.O.B.b.Z.Z.Z.k.k.b.k.h.x+l+q.>+.+]+~+<+4+4+[+-+n+H.z.y.x+h.b.v.u.B.*+O.*+s.s.y+s.y+y+y+y+y+s.y+y+y+y+y+y+y+y+y+y+y+R N @.$.$.D $.u D D =.A D 1 2 = = 2 2 = & & & * ..A /.A ]././.#././././././././././.].].].].].].].].].].].]././.].]./././././././././././.A A u A A A /././././././.#.#.#.#.#.#././.#./.A /.#.#.u u p p t B v v t t $.u A u A A u A A u u u u D A A A ].{.].].].A #.A =.#.@.R s.u.k.l.l+l.k.",
"                  + + +     + + +         + + + + + + + + + + . + + + . <   i g z k ! I I y y y y %.%.%.%.%.%.Q *.7 6 { / }.d c b t b b $.u u p p n B B v B B v B B B v B B B v B b t t B b b b t b b b b b $.b t S W W W W W t v p D D /./.].* - - - - ; 0 S ` :.a.O.D.D.D.v.b.u+c.c.d.c.c.b.w.F.E.F.w.b.Z.h.h.u+b.S.Z.h.x+l+H.R.b+=+{+<+[+4+4+<+q+A.!+H.r.f.h.u+Z.b.v.B.B.*+s.s.s.y+y+y+y+y+t.y+y+y+y+y+y+y+y+y+y+y+y+y+R @.$.$.$.D u u =.#...a > > = & - & & & - & 2 = ..{.{.{./././.]././././.].].].]./.].]././.].]./.].].].].].].].].]./././././././././.#./.A #.A #./.A /./.]././././././././././.#./.#.A A A A A u u p u p n p p p u #.A A A A A A A u u A u A A A ].A ].].].A #.A /.=.=.@.R *+u.c.l+l+l.c.",
"                + + +     + + + +         + + + + + + + + + + . + . . . <   [ | C k ! I I y y %.%.%.y y %.y %.X T P F / (.1.d b b b b t b p u p W B t B B W S S B S S W B b t v B b o b B t b B B B S B t B B B S S S B B B B B v v l D A /.].-.2 2 - - ; * b L L [.O.F.F.F.B.b.Z.u+c.d.c.u+b.w.F.C.F.w.v.S.b.Z.Z.S.v.b.x+d.d.2+J.U.=+{+~+[+5+4+[+<+w+$+X.X.m+&+2+y.G.x+S.v.B.j.O.O.s.s.y+y+t.t.t.t.y+y+y+y+y+y+y+y+s.y+y+y+R N N @.$.p $.$.D ..-.* ..A ..> 2 - - & 2 - - & 2 > * .././.#./.].].]././.]./././.]./././././.]././.].].].].].]././././././././././.#.#.#.#.#././././././././.A /././././.#./.#.#.A /.A /.A A #.A u u u u u u #.#.A A A A A A A A A A A A A A A A /.].A A A A A #.@.N y+*+u.x+l+l+l.k.",
"                + + +     + +   +           + + + + +   + + + + + + + . <   < '.C k ! h h y y y y %.%.%.%.%.Q X T 6 6 { (.}.d n B n n n b b n t B B B W B S S B W B W v t b B W B b t v v B B W W W B B v S S B B S S B B B B B t v m l D A ].{.> 2 - - - 2 v L ` :.s.C.F.F.j.b.b.c.c.c.c.c.b.B.D.C.F.w.S.Z.u+u+c.Z.Z.Z.h.x+u+Y.P.>+++g+~+<+4+5+4+4+<+++>+W.Q.3+X.L.z.n.y.k+h.S.w.D.j.O.s.s.y+t.t.y+y+y+y+y+y+y+y+y+y+y+y+y+y+y+t.R N @.$.$.D s -.1 -.A ].=.].-.> 2 - 2 2 - - - - 2 > ..]././././.#./.].]./././././.]./.]./././././././.].]./././././.].]././././.#.#.#.#.#.#././././././.#.#./././././.#.#.#./././.#.#.#.#./.#.A u u D u #.A A A ].].].A A A A A A A A A A A ].A A #.=.A =.A @.R s.*+b.c.l+e.l.'.",
"                                                + + +     + + + + + + + @ +   '.z k q I I I y y y %.%.%.%.%.%.Q *.7 6 F F ) c d n n n b b b b u p n B W S o S S B B t W B S S B B B B v B S B W W B B S B B S B B B B B B t t t t v m l D A /.].-.> - - ; - a b &.L C.F.F.F.j.w.b.d.d.c.c.c.b.w.D.C.F.w.b.Z.Z.Z.u+u+Z.S.Z.h.c.G.p.n+@+a+{+<+5+5+4+5+5+[+-+q+V.#+W. +P.!+!+q.`.y.G.S.w.w.j.O.s.C.C.t.t.s.s.s.y+y+y+y+y+y+y+y+y+y+y+y+y+R N L $.D ..-.-.{.A #./.=./.{.2 - 2 & & - & - - 2 2 > -.{.{.A #.#././././.]./././././.].].].].].]./././././././.]./././././.#.#./././././././././././.#././././././././././././././.].A #.A /.A D A A /.].A A ].A A A A A A A A A A /.].]././.A =.=.A =.N R O.u.k.d.l+e.'.G ",
"                          +   + + + +     + + + + + + +   + + + + . + . @ @   } C k q h I I y %.y %.%.%.%.%.%.Q *.T 6 F { ) c d B n n n b u u u p n B S S b S S B t S B B S B S S S S S S S S S S S S B B B S b B B B b B t t t t v m l D u #./.{.> 2 - - ; = b m ` a.C.F.F.D.w.S.c.d.c.c.c.k.w.D.0.F.w.b.Z.u+u+u+h.Z.Z.k.Z.h.k+r.J.U.6+g+~+4+4+4+5+5+4+4+[+-+++U.7+Q.W.3+i+m+%+'+y.k+h.S.v.B.*+O.s.C.s.s.s.s.s.y+y+y+y+y+y+y+s.s.y+y+t.t.R R @.p D u ..{.A D {.A @./.2 & 2 & & & - - - - - - - 2 > * ..A A ]./.=.].]././././././././.]./././././././././././.]././././././././././././././././././././././././././././././.].].]./.A /.].].].].].A ].A ].A A A A A /././.A /./.]./.A =.=.A =.N y+*+u.c.l.l+e.U [ ",
"                  + +   + + + + + + + + + + + + + + + + + + + + + + + . . @   } k C % h I I I y y y %.%.%.%.%.Q *.T 6 { ) }.c d n n n v p $.u $.u p S b b S S S t B o S S B B S B B S t W S S B S S B B S S b t v t t b t p p t v v m p p u u u 3 ..2 - - ; & l m ` :.E.F.F.D.B.v.u+c.u+u+c.k.w.D.F.F.w.v.Z.u+u+c.d.x+d.c.k.h.M.2+I.>+.+g+{+<+4+5+5+5+4+4+4+4+<+<+=+U.V.7+R.W. +$+X.H.2+G.x+S.w.j.j.O.O.s.s.s.C.y+y+y+y+y+s.s.s.s.s.s.y+y+y+t.R R N $.D D {.{.{.A #.#.{.2 = = & - - & - - - - ; ; - - & 2 = -.{.{.]./.]././.#./././.#./././././././.]././././././././././././././././././././././././././././././././././././././././././././././.].A ].A A A A A A /./././././.#./.#.#.A =.@.R y+*+k.c.l+e.:+< i ",
"                + + + + + + + + + +   + + + + + + + + + + + + + + + + . . <   # k C k h I I I  .y %.%.%.Q Q Q X *.7 F (.) c c c n v v m p u t b u p o B n b S B B b B B S S v B B B B n v B S B S B B L B B t t t p p t l m p p n B t m m u $.D u ..2 - ; ; ; a l Z :.E.E.C.D.j.w.b.c.u+u+c.k.v.D.F.j.v.v.S.Z.Z.h.d.d.d.c.Z.h.M.y.p.3+b+a+{+~+[+5+5+5+5+4+4+[+[+~+-+]+]+=+q+q+@+T.t+ +!+'+m.x+u+S.v.B.j.j.O.s.s.s.s.y+y+s.s.s.s.s.s.s.s.y+y+y+y+y+R N @.$.u {.{.{.A ] 3 * * a 1 - - & & - - - - - & & - - - - 2 2 > -.{.A /.#./././././././.].].].].]./.].]./././././././././././././././././././././././././././././././././././././././././././.].].].].A A A A A A A /././././.#.#.=.=.@.N t.O.u.k.d.l+e.j   [ ",
"                + + + + + + + + + + +       + + + + + + + + + + + + + . + < + _ q C k h I I I  .%. .%.%.Q Q Q X *.7 6 F / ) c c b n n B p u =.#.u u b p v B S B t b b u B B v B o o B o o B B B S S B B b W t t &.m u p D p l p p v t t t p b u 3 3 > 2 - - ; & 0 m L R E.C.F.C.D.u+c.c.u+c.b.w.j.F.j.v.v.Z.Z.Z.h.h.d.d.u+Z.M.M.Y.r.A.T.;+-+~+[+4+5+5+5+5+4+[+<+~+-+~+~+~+<+<+~+-+++1+(+,+X.`.Y.k+d.S.b.u.*+O.O.O.s.s.s.y+s.s.s.s.s.s.y+y+y+y+s.y+y+R R R N $.D s D ..* a 0 0 l * - - - - ; - ; - - - & - - - - - - - 2 2 > * {.3 A /.#./././.]./././././././.].].]./././././././././././././././././.#.#././././././././././././././././././././.].].].A A A /./.A /.A /./.A ].A #.=.=.@.@.N y+O.u.k.l+e.l+_.+ [ ",
"                  + +     + +   + +             + + + + + + + + + +   . . <   _ ! C % h h I I  .%.%.%.y %.Q %.Q *.T P F / ) c c b n n b t $.#.#.#.#.t p t b b B t t b S S B v B o B B S S S B B S S B b B B $.b p p u D l D l l l b b l 0 0 n 0 ] 3 * 2 - - ; ; a v L L [.C.C.0.D.b.u+c.u+u+b.v.j.F.D.w.v.S.S.S.Z.k+l+l+x+h.h.M.k+m.!+7+}+]+~+<+4+5+5+0+5+5+4+[+~+g+{+~+<+[+4+4+[+~+=+@+f+3+X.H.2+f.k+u+k.B.B.B.*+O.O.s.s.s.s.s.s.s.y+y+y+y+y+y+y+y+t.y+y+R R N N N p > > 1 a l l 0 - - & - ; ; ; ; ; ; - - - ; ; - ; ; ; ; ; & > -.{./././.#././././././././././././././././././././././././././././.#.#././././.#././././././././././././././././.].].].A A A ].A A A /./.A #./.#.#.$.$.@.R s.B.b.k.e.)+e.G < [ ",
"                                                + + + + + +   + +     + + <   G h C % ! h I I I %.%.%.y %.%.%.Q *.7 6 { ) }.c d n n B B b b $.b #.#.t t b b b B S t t S o S B B o B B B B B B B B S B B b b u u $.A A A {.........3 b a 1 P w 1 ] c , 2 - - - ; & l L &.[.s.E.F.j.v.b.u+c.u+b.w.j.F.F.B.v.b.b.b.Z.d.e.l+c.k.S.h.l+e.o.3+@+6+{+<+[+5+5+0+0+5+5+4+<+{+]+{+~+<+[+4+4+[+<+]+b+>+W. +X.p.n.f.k+h.S.w.B.*+O.O.O.s.s.s.s.s.s.y+y+s.y+y+y+y+y+t.y+t.t.t.t.R R N p a a 0 0 a = ; & & - ; - - ; ; ; ; - ; ; - ; - - & & - - - & > ..{.]././././././.].]./././././././.]./././././././././.#.#./.#.#.#.#.#.#.#./././././././././././././././.].]./.]./././././././.].A A A #.#.#.$.$.@.t.O.u.b.d.l+e.e.[ : [ ",
"                              + +   + +     + + + + + + + + +   + +   + + <   U P k % ! h I I y y %.%.y %.%.%.Q *.T 6 F ) ) c c n n v B b b t t t p B S t b S B B t B S S B B B S B S S S B S B S B B t b u u #.u A /./.].{.{.A A ..u b b ! g w H 5 d 2 - ; - ; - 1 t &.N t.t.C.D.j.v.u+x+u+v.w.j.F.D.w.b.Z.u+Z.Z.l+e.l+x+S.h.x+l+l+2+A.T.;+]+{+<+4+5+0+0+0+5+4+[+~+g+g+~+<+<+4+4+4+[+~+;+U.>+R.W.i+!+o.g.f.k+S.v.u.*+O.O.s.O.O.s.s.s.s.s.s.y+y+y+y+y+y+y+y+y+t.t.y+t.t.t.R N p m p 0 ; & & & ; - - ; ; ; - - ; ; ; ; - - & & & & & & ; & = ..{./.#.#./.]././././././././././././././././././././././.#.#.#./.#./.#.#./././././././././././././././././././././././././.].A A #.#.=.u =.$.N t.O.b.b.d.l+e.c+< : [ ",
"                + + + + + + + + + + + +     + + + + + + + + + + . +   + + @   U c % % ! h I I I  .%.%.y %.Q Q Q *.T P 6 (.}.c c n n E n b b B t b n n S L S B B S b t B S S W B o S B S S S B S o S B b b $.u 3 A /././.].].].].A A ] e f ;.).4.).! ) > - ; - - - & Z t L [.C.F.F.D.v.Z.u+Z.b.v.B.D.D.B.v.Z.u+Z.h.k+G.Y.k+h.k+k+d.d.f.L.7+++]+{+~+[+5+0+0+0+5+4+[+~+{+g+{+<+<+[+4+4+[+<+-+b+1+>+#+Q.J.I.p.o.n.Y.d.Z.u.*+O.O.O.O.O.s.s.s.s.s.s.s.s.y+y+s.y+y+y+y+y+t.y+y+y+t.t.a.[.R w = ; & & ; ; - ; ; & - ; - & - - ; ; ; ; ; & & & & & ; & = -.A ].]././.#././././././././.]././././././././././././././././././././././././././././././././././././.]././././././.].A ]././.#.#.A $.@.N t.*+v.u+)+d.e._ . [ : ",
"                + + +   + + + + + + + +     + + + + + + + + + + +     . . @ + < ( % % q I  .I  .y %.%.y %.Q Q Q *.T 6 F }.1.1.c n n B S B B p t b b c b B S B B S S B S B W S S o S B B S S S B S B B t u b u #.A ]././.].].].{.{.A ] #.~.7.A+B+7.C P , 2 ; ; ; ; ; a m S N t.C.0.j.w.v.u+u+Z.u.j.F.j.B.v.Z.u+u+x+k+k+Y.Y.f.f.k+x+x+y.H.3+@+6+{+{+<+5+0+0+0+5+4+[+<+{+g+{+~+[+[+4+4+4+[+~+.+U.h+#+R.n+J.i+P.q.`.Y.l+x+b.v.u.*+O.O.O.O.s.s.s.s.s.y+s.s.s.s.s.y+y+s.y+y+y+y+t.t.a.E.t.C.o ; ; & ; ; ; ; ; ; - & ; ; ; - ; - - - - ; - - - & & ; & - > ..{.]./.#./././.]././././././././././././././././././././././.#.#././././././././././././././././././.].]././.].]./.].A A A A A A D @.R C.B.b.c.)+d.e.G . [ @ ",
"                + + + + + +   + + +         + + + + + + + + + + + + + . . @ .   G % % q h I I I y y %.%.%.%.Q Q X T 6 F d c c c c n B S S S B B b b B B B b B B B b B S S B S S S S S W &.t B B t b p u u #.A #.A /././.].].].].{.A ] 5 3.C+B+B+9.~.^ 1.2 ; - - ; ; = a &.R C.O.F.F.D.w.b.k.b.w.j.D.j.B.v.u+Z.u+x+x+M.f.n.r.2+k+x+d.G.z.A.T.;+]+{+<+4+0+0+0+5+5+4+<+~+g+g+~+<+[+4+4+4+[+<+=+@+h+/+R.Q.n+3+J.$+q.n.f.f.G.c.k.u.B.*+O.O.O.s.s.s.s.s.s.s.s.s.y+y+y+y+y+s.y+y+t.t.R t.t.t.t.1 ; & - ; - ; ; ; ; ; & - - - - - - - - & ; ; ; & & & & & & = * A ]./.#./././.]./././././././././././././././././././././.#.#./././././././././././././././././.].].]././.]./.].A A A A A #.#.=.@.R O.B.b.c.l+)+l.i @ : + ",
"                + + +     + +   +     +         + + + + + +     + + + + . + .   [ :+% H h I I I y %.y %.%.Q Q Q X T 6 { 1.c }.) c n B B B B B b B B B B B b B B B B B B S B W S S S S S v v b $.b p u u u u A A ]././.].{.].{.A b u ] h 5.B+C+B+C+4.h ^.- ; ; 2 ; ; & 1 m N t.C.F.F.F.j.v.k.v.w.B.j.B.B.b.u+u+Z.x+k+Y.r.q.p.`.G.x+h.k+n.X.7+}+a+g+~+[+5+0+0+5+5+4+[+~+{+g+{+<+<+[+4+4+4+[+{+.+1+f+#+Q.W.W.J. +A.q.r.m.f.e.d.c.b.w.j.*+O.O.O.O.C.C.s.s.s.y+y+y+y+y+y+y+y+y+t.t.R t.t.t.C.S ; - & & ; ; - ; ; & & ; ; ; ; ; ; - - & & & & & & & & & & ; & = * {./.]././././././.#./././././././././././././././././././././././././././././././././.]././.]./.]./.].A A ].].].A A A A =.$.N t.O.B.k.d.l+e.:+[ . : + ",
"                                                + + + + + + +   + + + + . + @ + : '.q H H f 9 I  .%.%.%.Q Q %.Q X *.P { ) ) c c c n B B v v B o t v B B B B B B v v B B B B B S S S S B B b p b b p t u u u u A {.{.]./.].{.{.#.l ..e q 5.B+C+B+B+9.|.4 > ; ; 2 - ; ; & s N R C.F.F.D.j.w.b.v.w.B.D.B.w.v.Z.u+Z.d.f.n.q.I.I.o.f.x+h.k+m.p.3+U.;+]+{+<+4+0+0+0+0+4+[+~+{+{+g+~+<+[+[+4+4+[+~+6+|+h+#+Q.W.W.W.3+J.P.q.o.g.g.f.e.d.h.Z.v.w.B.O.*+O.O.O.s.s.s.y+s.y+y+y+y+y+y+y+t.t.t.t.t.t.R = ; & & ; ; - - ; - & & - ; ; ; ; - - - - - - & & & & & & & & & & 1 ..].]./.]./.#./././././.#././././././././.#./././././././././././././././././././././././././.].]././.].].]./.].A A #.=.@.N t.O.u.k.d.e.l._.+ < < + ",
"                              + + + + +         + + + + + + + + + + + + . + + + < '.% H H H f I  .9 %.%.%.Q %.Q X *.7 P 6 { c c c d n B v B t B b t t t B B B B v v B B S B B B S S B v b t p b b t t p b u u u l A ].].]./.#.#.= a 4 H 5.C+C+B+B+8.).5 l & - & - ; ; & 1 L R s.F.F.F.D.w.v.v.w.j.F.B.w.v.S.S.Z.k+m.r.I.P.I.q.g.)+h.d.G.`.$+>+.+]+{+~+4+5+0+0+0+5+[+<+~+{+g+{+<+[+[+4+4+4+<+]+b+h+#+Q.Q.Q.W.W.J.A.I.q.o.r.n.g.f.e.G.d.Z.v.B.B.*+j.O.O.O.s.s.s.s.y+y+y+s.s.y+y+t.C.t.t.R s.t ; & & & ; ; - ; ; & = = ; ; - ; ; - - - - - & & & ; ; & & & & & & > ..A {.].3 , 3 A /.#./././././././././././././././././././././././././././././././././././././.]./.].]./.].]./.A #.A D @.R t.*+b.c.d.)+c.U   @ . . ",
"                  + + + + + + + +   + + + + + + + + + + + + + + +   + + . + + .   '.% H H f f I I  .%.%.%.%.%.%.Q X *.*.7 6 ) ) ) d n n n B v v b t t t t b b B B B B B S S W W B B S t B t t b b b v p D u u u u A ]././.{.{.1 & 1 0 x 5.C+C+C+C+C+6.H ] 1 2 & - - ; - = &.R C.C.F.D.j.w.v.v.u.B.j.j.B.k.Z.S.h.G.g.p.I.A.A.I.o.e.x+k+l+m.!+R.@+6+g+~+[+5+0+0+0+5+4+<+~+{+g+{+~+<+<+4+4+4+<+-+.+1+/+R.Q.Q.Q.W.J.J.A.I.q.o.o.r.r.n.g.Y.k+Z.S.v.w.B.B.O.O.O.O.s.s.s.y+C.t.t.y+s.y+t.E.t.t.t.t.1 ; & & ; ; ; ; ; & * = ; ; ; - ; ; ; ; ; ; & & & & ; & & & & & & 2 > ..-.-.* * * A =.A /./././././././././././././././././././././././././././././././././././.]./././././.].]./.A =.=.$.@.R t.*+v.k.d.l.'.@ @ +   + ",
"                + + + + + + + + + + + +     + + + + + + + + + + + + + . . + . @   ( H H H u.*+f I  .%.%.Q %.%.%.%.Q X *.7 6 F (.}.d B n v t l t b t t t b b b B B B B B S S E E t S B B W W b p p t B p D A u u u A ].].].{...= & 1 a O 6.B+C+C+C+C+9.|.e * 2 & - - ; ; & s N O.C.0.D.j.j.B.w.u.u.B.j.u.k.u+Z.h.e.n.p.A.A.A.A.o.f.k+M.l+f.%+(+1+.+]+{+~+4+0+0+0+5+4+[+~+{+g+g+~+<+[+4+4+4+<+{+;+U.>+#+R.Q.Q.Q.W.J.A.P.I.q.q.q.p.z.r.n.g.Y.)+u+Z.v.v.B.*+O.O.O.O.s.s.s.s.C.t.y+s.s.C.C.s.s.s.o & & - ; ; ; ; ; ; * * = ; ; - - - ; ; ; ; ; & & - & - & & & & - & & 1 1 1 0 ....{.].A A ]./././././././././././././././././././././././././././././././././.]././.].].].].]././.].=.=.=.N R s.*+B.c.d.l.j   < +   + ",
"                + + + + + + + + + + + +     +   + + + + + + + + + + + + + + . @   ( f H k.k.u.f I 9  .y %.y %.%.%.Q X *.7 6 { / c d n b b S B S B B n B B S S S S S S S S S W B S t b b t t t t t t p v t t t u p D ].{.{.A > & & 1 1 O 6.C+C+B+B+C+8.!.M d > 2 - - ; ; ; & N O.F.0.F.D.j.B.B.u.u.D.F.B.Z.Z.S.h.l+g.p.I.P.A.P.p.y.M.h.d.l+`.,+>+b+6+{+~+[+5+0+0+0+4+[+<+~+{+g+{+~+<+[+4+[+<+~+=+|+V.#+R.R.Q.Q.Q.3+i+A.P.I.I.I.!+p.p.o.r.n.g.l+x+Z.S.v.v.B.B.j.O.O.s.s.s.s.t.y+y+s.C.C.C.s.s.R 1 ; - - ; ; ; ; ; > * * = ; - ; ; ; ; ; ; ; ; & & & & & & & = & & & & = -.D A /./.].].].]./././././././././././././././././././././././././././././././././././././.]././././././.A =.$.N R s.*+u.c.d.l.j   < +   + ",
"                + + +     + +   + +   +         + + + + + + + + + + + + . + + <   ( f H u.k.u.f I 9 y y %.y y %.%.Q X *.T 6 (.) c c B n B W W B B B B B B S S S S S S S o S B t S B t b t t B t p p m p m m p D p D {.{.{.3 2 ; = 1 1 w 6.B+C+B+B+B+8.6.% d * - - - ; ; ; ; t t.C.E.F.D.j.j.u.u.B.F.F.B.S.Z.Z.Z.d.m.o.I.I.A.P.p.2+M.h.c.c.2+!+Q.U.;+g+{+[+5+0+0+0+5+4+<+~+{+g+{+~+<+<+[+[+<+<+]+b+V.#+R.R.W.W.W.J.J.i+A.I.I.P.I.q.!+q.p.o.r.g.Y.k+x+Z.b.v.u.B.j.O.O.C.s.s.s.t.t.y+C.E.E.C.C.t.L ; - - - ; ; ; ; 2 * * * - ; - ; - - - ; ; ; & & & - & & & = & & & 2 2 2 {.=.A /.].]./././.A /./././.]./././././././././././././././././././././././././././././././././././././.=.=.$.N y+s.*+B.u+u+l._.  <     + ",
"                                                  +   + + +   + +   + + . + + <   } K H u.k.u.f I %.y y %.%.%.%.%.Q Q X *.7 { ) ) c d n n W E B o S B B B B B b S B S S S S S t t B b S t p b t t t t p p p p p p D ..{..., 2 - = 0 0 O 3.C+B+C+B+B+C+9.~.c , 2 - - ; ; ; ; a R F.F.F.D.j.j.w.u.B.F.j.u.b.Z.u+Z.h.e.r.q.I.P.P.p.m.M.h.b.b.k+H.A.7+b+a+{+<+4+0+0+0+0+4+[+<+{+g+g+{+~+<+[+[+[+<+-+++V.#+#+#+R.3+3+J.J.i+A.P.I.P.I.!+I.I.!+q.p.o.n.m.e.x+u+b.v.w.B.j.*+O.O.O.s.C.C.s.C.E.E.C.t.t.R = ; - ; - - - ; - = * * > - - - - - - - ; ; & = = = & - & & & 2 > > 2 2 -.-.].].].#.#.A ].A #././././././././././.]./././././././././././././././././././.]./././././././.]././.=.=.@.N t.s.O.B.c.u+l.G   @     + ",
"                              + + + + +           + + + + +   +     + + . + + <   # O H u.k.u.f  .%.y y %.%.%.%.%.Q Q X T P { }.}.c n n B B v B B v n B B v v B b B S o B S B B B B p B b S t p p t t t t p p t p u A l * 2 - ; ; = * M ,.8.B+C+B+B+C+C+,.5 ] > - - ; ; ; ; 1 [.F.C.F.D.D.D.D.j.B.O.j.v.b.Z.Z.u+h.d.g.o.p.I.I.H.Y.h.v.j.j.S.g.q.J.U.;+{+~+[+5+0+0+0+5+4+<+~+g+g+g+~+<+[+[+<+<+-+++h+/+#+#+Q.n+3+J.J.i+A.A.P.P.I.I.!+!+!+!+q.p.o.`.g.e.d.h.S.v.w.w.B.*+O.O.O.s.s.s.s.C.C.E.E.t.s.m ; ; ; - - - ; - = * > > - ; & & - - - - - & 1 * > = & ; ; & = > > > > 2 2 -.]./.#.A A A #.A /./././././././././././././././././././././././././.]./././././.]./.].].].].]././.=.=.@.R y+O.O.v.c.Z.l.i   @     + ",
"                  + + + + + + + +   + + +   +   + + + + + +   + + + + + . + + <   _ o k.k.k.u.f  .%.y y %.%.%.%.%.Q Q X T 6 { ) c ) c n B B B B W B B b B v v B B S S S S B B v v B p p B b b t p p t t p m p t t p u ..2 - ; - ; & & e !.C+B+C+B+B+C+B+5.% e 0 2 - - ; ; ; & L s.C.E.F.F.D.F.O.*+O.j.u.b.u+Z.u+u+h.l+g.r.p.!+o.Y.h.v.j.F.v.f.o.$+>+}+]+~+<+4+0+0+0+0+4+[+~+g+g+g+{+<+<+<+<+<+{+.+1+/+R.R.n+Q.W.W.J.J.i+i+A.P.I.I.I.!+!+!+!+!+q.o.r.g.f.l+h.Z.v.v.B.B.j.O.O.O.F.F.C.s.C.E.C.s.O.R = ; - - - - - ; - > * * - ; & & & - - - - ; = * * * * 2 & & = 2 -.-.> = = > -.].=.A A #././././././././././././././././././././././././././././.]./.]./.]./.]./././././././.#.=.=.N t.y+O.j.b.c.Z.:+:   @     + ",
"                + + + + + + + + + + + +     +   + + + + + +   + + + + + . + . <   G S k.k.k.f f  .%.y y %.%.%.%.Q Q Q Q *.P (.) c ) n n B B v E S B b b m o b B B S b B B o o t t o b u b B t t t p p p p m m p p p b ..- - - & & & = W <.A+B+B+C+B+B+B+8.~.4 d 2 - - ; ; ; & m s.O.C.D.D.D.j.O.O.F.j.w.b.Z.Z.u+h.h.l+f.g.o.p.r.Y.h.u.O.C.w.G.n.L.R.@+6+{+<+[+0+0+0+0+4+[+~+{+g+g+{+~+<+<+<+<+{+;+U.f+#+R.n+Q.W.W.J.J.J.i+A.P.P.P.P.!+!+I.!+q.p.p.o.`.g.f.G.d.u+b.b.v.B.B.j.O.O.C.C.s.s.C.E.s.O.O.p ; - - - ; - ; ; & -., 2 ; - & - - - - - ; - 1 ......, > 2 2 2 2 > > = 1 = = ..A =.A /./././.].]./.].]./././././././././././././././././././././.]./.]./././././././././.#./.=.=.N y+F.O.j.k.u+Z.:+@ + +     + ",
"                + + + + + + + + +   + +         + + + + + +   + + + + . . . . <   i S k.k.H x x  .I  .%.%.y %.%.Q Q Q X T P / ) c ) b v v S W E B $.t p u $.$.$.b B b b B B b B b b b B b S v v &.&.t t &.m m v v t t a - - - & & & 1 s H 6.C+B+B+B+B+C+C+2.f ) & - - - ; ; ; a R s.O.F.F.F.j.*+O.O.O.B.v.b.S.Z.u+h.d.e.g.r.o.2+M.S.j.C.E.O.c.Y.z.J.T..+{+~+[+5+0+0+0+5+[+<+{+g+a+g+~+~+~+<+<+{+6+|+>+7+#+R.Q.3+W.W.J.i+i+A.A.P.P.A.I.I.I.!+q.%+H.o.r.g.g.m.e.l+d.u+b.v.v.B.B.j.j.O.F.F.C.E.F.*+*+[.& - - - - - - ; - ....* 2 ; - - - - - - - ; - * ........-.> 2 2 - 2 > = = = 1 a A =.]././././.].].]./././././././././././././././.]./././././.].].]./././.]./././././.#.#.=.=.@.N y+O.j.B.u+c.c._.+ .       + ",
"                + + +       +   +     +             + + + +   + + + + . . + . <   [ o u.k.f x f I I  .%.%.%.%.%.Q Q Q *.T P / c ) ) ] B v B S W v m $.$.$.u u #.t t t B t B B B b t p p p B B E &.E m t v m m m m m v 0 2 2 - - ; ; = & o 2.8.B+B+B+B+B+C+5.z 5 1 - - ; ; ; ; 1 L t.t.C.F.F.F.O.O.F.O.B.w.S.S.Z.u+u+d.)+Y.n.r.m.M.v.O.t.a.C.u.d.2+X.#+b+a+{+<+4+0+0+0+0+4+<+{+g+a+g+{+~+~+<+<+{+6+|+h+>+#+Q.n+n+3+W.3+J.i+i+A.P.P.P.I.I.!+!+q.p.H.o.r.`.n.g.f.e.l+x+u+Z.Z.v.v.u.B.j.D.O.O.E.C.j.O.C.Z - - - - - ; ; - ......* - - & - - - - - - ; 2 a ..{.A A ..-.1 & & 2 = = = = 1 l #././././././././././.].]./././././././././././././././.]./././.]./.]././././././.#.#.#.=.=.@.R y+O.j.w.u+c.d.#   <       + ",
"                          +                                   + + + + + + + + @   : V *+f f f I I  . .%.%.%.%.%.Q Q Q *.T 6 ) 1.) ) c n v B S S v p $.u u $.$.b p v b b b B B B B B t p p B B W B &.&.E &.E E &.v t t n 1 2 - - ; ; = 1 = <.A+C+B+B+B+B+B+A+).f , & - ; - ; ; = t R s.C.C.C.C.F.O.C.O.B.v.S.S.Z.Z.h.u+x+k+m.n.f.x+w.s.t.R C.u.k.Y.p.i+T.;+g+~+[+5+0+0+0+5+[+{+g+v+g+{+{+~+~+~+~+a+b+1+7+R.R.R.Q.Q.3+J.J.J.i+A.A.P.P.I.I.!+!+q.q.p.H.o.r.r.g.m.f.e.l+d.d.u+u+b.b.u.w.B.j.j.D.F.B.j.O.R & ; - ; - - ; ; > ......2 ; & & - & - & - - - 2 ..A {.{.A #.A ..1 = = = 1 = = ..#./.].]././././././././././././././././././././././././.]./././.].]././.]./././././.#.=./.@.N R F.j.*+u.u+u+c.G   <       + ",
"                    +         + + + + +           + + + + +     + + + + + + + @ + @ ( w f f f I 9  .9  .%.y %.%.Q Q Q *.T P ) 1.) ) c n v t t &.b t $.p p @.u p p b B B S S B B B B B t v B W W S B W &.&.&.E E v W v t 0 - - ; ; & & 1 & H 5.C+B+B+B+B+C+B+6.% / 1 2 - - ; ; & m t.s.C.C.C.F.C.F.C.F.j.B.b.b.S.Z.u+x+x+k+f.g.f.k+w.O.C.t.t.O.w.M.r.I.n+@+6+{+<+5+0+0+0+5+[+~+g+v+a+g+{+~+~+~+{+a+}+U.>+#+R.R.Q.Q.3+3+J.J.i+i+A.P.P.P.P.I.!+!+q.p.H.o.r.r.g.m.m.f.e.l+)+x+u+u+b.v.v.v.u.v.v.B.F.w.w.B.s - - - - - - - > ....{.-.; - & - & & & & - - - -.A {.{.{.].A A A ..-.a a -.D ]./.]./.].]./.]./././././././././././././././././././././././.]./.].]././.]././././.#.=.#./.@.N R O.j.B.v.c.c.l.U   <     + + ",
"                  + + + + + + + +     + + + + + + + + + + + + + + + + + + + + @ . + ( o K x f I  . . .9 %.y %.%.Q Q X *.T P / 1.) c c d b B W W n b ] b l $.$.t t t b S B B B B W W B v B B B S S B B W &.E E E W W E B n = - - ; ; & = = w 2.8.B+B+B+B+B+B+9.<.7 , 2 - - - ; ; a R s.C.O.F.F.C.F.j.C.F.j.v.b.S.Z.x+u+h.k+f.g.f.d.w.O.O.C.C.O.D.N.2+p.A.V..+g+~+[+0+0+0+5+[+~+a+v+v+a+{+{+~+~+{+a+}+|+V./+#+R.n+Q.3+3+J.J.J.i+A.A.$+P.P.I.!+!+q.p.p.H.z.`.n.g.g.f.f.e.l+)+x+u+u+b.b.b.b.b.b.b.B.w.b.c.R & ; ; - - - - 2 ..../.A & - & & - ; & & & 2 2 -.].{.].].].A #.#.#./.#.=.=.=.A ]./.].].].]././././.]././././././././././././././././././.]./.]././././././././././.=.=.=.@.R y+F.j.u.b.c.c.e.U   <     + . ",
"                + + + + + + + + + + + +     + + + + + + + + + + + + + + + + . . @   J o x x f x 9 9 Q %.9 %.%.%.Q Q X T 7 P / d 1.c n n v v B S n B b b b b b b b b B B W B B v W W v v v v B W &.&.W &.v E E &.E E E W b * - - ; ; ; & & a ).A+C+B+B+B+B+C+8.,.I ' 2 - - ; ; ; = L s.O.O.C.E.C.F.F.F.C.j.v.v.v.Z.c.x+x+k+G.f.e.h.B.O.O.O.O.F.0.i.Y.z.m+R.|+6+~+[+5+0+0+5+[+~+a+j+v+v+g+{+~+~+{+g+.+|+V.>+#+7+R.Q.Q.3+J.J.i+i+i+A.A.P.P.P.I.!+!+q.p.H.z.r.n.g.g.m.f.f.G.l+)+)+x+u+u+Z.b.v.v.Z.Z.S.x+l+k.s ; - - ; - - - -.{.#.#.> - & & & & & - & - 2 {.#.].{.].].].].A #././.=./.].].].].].]././.]./././././././././././././././././././.]./././.]././././././.#././.#.#.=.=.=.R y+y+O.j.u.k.d.c.e.U   <     + . ",
"                + + + + + + + + + + + + + + + + + + + + + + + + + + + + + + . . <   } o f x f 9 9  . .9 %.%.%.%.%.%.X *.*.P ) }.c c c d l v S S W B o b b b b b $.b v v B S S v v B t t t t m v W t W m &.E m E E Z &.W B 0 & - ; ; & ; = & z 5.8.B+B+B+B+C+8.6.g (.2 - - - - ; & E t.*+O.C.C.F.C.F.C.F.F.j.w.S.u+u+u+x+x+d.l+l+c.w.j.O.C.F.0.0.i.M.2+'+ +V.++-+<+4+5+5+5+4+~+6+j+j+j+g+{+{+~+{+g+v+b+T.>+>+7+7+Q.n+Q.3+J.J.i+i+i+A.P.P.P.I.!+!+q.q.p.o.o.r.n.g.m.m.f.e.l+l+l+)+)+d.u+Z.S.S.Z.d.x+x+e.e.a.& ; - - - - 2 ..A A #...2 & & & - & - 2 -./.].].].{.{.{.].].{.].].].].].].].A ].].A ]./.].]./././././././././././././././././././.].].].]./.]./././././.#.#.=.=.@.=.@.R y+t.j.B.v.u+d.c.e.i   <     + . ",
"                + + +       +   + + + + + + +   + + + + + + + + . + + + + + . . <   # o f K x x  . .9  .%.%.%.%.%.Q X *.*.7 ) d c c }.) c t B W B b b b t t u b b t v S B S S B B S B v E v v v W B t v v E m m E E W v W n 1 - - - ; ; & ; +.2.C+B+B+B+B+B+C+5.k { > ; - - ; ; ; a t.O.s.F.C.C.0.F.F.j.O.j.w.v.Z.Z.Z.h.x+x+d.l+d.v.j.C.C.C.F.F.0.N.y.'+m+Q.U.=+~+<+4+5+5+4+~+6+j+p+j+a+{+{+~+{+g+j+b+U.V.>+#+#+R.n+Q.Q.3+J.J.i+i+A.A.P.P.I.I.!+!+q.p.o.o.r.r.n.g.m.f.f.e.e.e.l+)+)+d.Z.Z.h.Z.d.l+G.f.Y.S.Z - - - - - 2 -.A #./.A ..2 2 & & 2 2 ..#./.{.{.].].{.].].].].{.].].].].].].A A A A ].]./.].]./././././.#./././././././././././.]./.].].].A /././././.#.#.#.=.=.=.=.@.R y+O.j.B.b.Z.)+c.e.i   <     + . ",
"                          +           +             + + + +   + + + + + +   + + <   # S *+K x x  .9  .%.%.%.%.%.%.%.Q X *.6 1.d c c ) ) c b v m v B b b b u p p b B o o S B W W B S B v v v t t W W W W v &.E m &.&.W W &.B 0 & ; - - ; ; & n |.7.B+C+C+B+B+C+A+<.P ' - - - ; ; ; 1 [.O.s.s.F.C.F.O.O.F.F.D.j.w.b.Z.Z.Z.h.h.h.d.d.v.j.C.s.O.B.w.D.i.x.y.%+$+7+++-+~+<+5+4+[+~+6+p+p+p+v+g+{+{+g+]+.+b+U.h+>+7+#+#+R.Q.W.3+J.J.J.i+i+A.A.P.P.I.!+!+q.p.H.z.r.r.n.g.m.f.f.e.e.e.l+e.l+l+l+)+k+k+)+Y.Y.m.m.e.F.& - - ; - 2 -.A #.A A A ..2 2 2 > -././.].]./.].].].].].].].].].]./.A ].].A ].].A A ]./.A /./././././././.]././.]././.]././././././././.A #././.#.#.#.#.=.@.=.=.@.N y+s.j.B.B.b.c.)+d.:+i   <     + . ",
"                    +         + + + + +     + +     + + + + + + +     + + + +   <   _ S *+K x x  .9  .9 9 %.%.%.%.%.Q Q X F 1.d c c ) ) c b b p B B B B b b p p B b b o S W W W B B B t v v W t t W W W W &.E &.&.W &.W &.S n = - ; ; ; ; = 1 ] 2.8.C+B+B+C+C+C+3.+.6 2 - - - ; ; & ` s.s.s.F.F.C.F.F.F.F.F.D.j.v.Z.Z.h.h.x+x+d.d.b.j.F.F.E.C.D.0.0.i._+%+X.(+V.;+-+<+[+4+[+~+v+d+d+p+j+a+g+{+g+]+;+b+U.h+>+7+#+#+R.Q.W.3+3+J.J.i+i+A.A.P.P.I.!+!+q.q.p.H.z.r.n.g.g.g.f.f.e.e.G.G.l+e.e.e.f.f.m.g.m.m.m.f.h.a - - - - 2 -./.A ].]./.A -.-.-.{.].].{.].].].].]./.].].].].].].]././././.]./././././.]./.A /././././././././././.].]./././.]././././.A /.#././.#.#.#.=.=.@.@.@.@.R y+O.O.B.b.k.c.l+l.:+[ . @     + + ",
"                + + + + +   + + + + + + + + + + + + + + + + + + +   + + +   +   @   _ S *+K K K 9 9 9  .9 9  .%.%.%.%.X X P ) }.c c ) c c ] b n B B B v v v m n l l v E W B S S B B B v B W t B W t W W W &.&.W E &.E W W W S 0 = - - ; ; = 1 1 <.7.C+C+B+C+C+B+7.q *.* - - - - ; ; s t.s.O.C.0.C.F.F.j.D.j.j.B.v.Z.Z.h.x+h.x+x+d.Z.j.F.F.a.a.0.0.0.N._+m+$+$+K.@+=+~+<+[+4+-+.+p+p+d+j+v+g+g+g+]+;+b+U.V.>+7+#+#+R.Q.Q.Q.3+J.J.J.i+i+A.A.P.P.I.!+!+q.p.o.z.r.n.n.g.g.m.f.f.e.e.e.G.e.f.f.m.n.n.r.r.`.2+m.g.[.& - - 2 2 -./.].].=.=.=.=././././.].{.{.{.].].].]./.]./.].].]./././.A ]./././.]././././././.]./.]././././.]././././././././.].]././.]././.=./.#.#.=.=.=.=.@.@.N R t.O.B.u.b.u+u+l+e.:+[ @ @       + ",
"                + + +     + + + + + + + + + +     + + + + + + + + + + + +   . . <   G B *+O O 5 x 9 9 9 %. .%.%.%.%.%.Q Q *.P F / c d }.] c b u n n v E 0 E E l n 0 0 E W B B B B B t B v W v B W W W W &.&.&.&.E E &.W &.Z W B = ; ; ; ; ; = = h 6.8.C+B+C+C+B+8.;.Q ' 2 - - - ; ; 1 R O.F.F.E.F.D.C.F.D.D.j.B.w.S.Z.u+x+h.h.x+x+Z.w.w.i.D.0.i.N.x.y.%+J.J. +,+Q.@+q+-+<+0+<+b+d+^+^+p+v+a+g+g+a+j+d+1+V.>+7+#+#+#+Q.Q.Q.3+3+3+J.i+i+A.$+P.P.I.I.!+q.q.p.z.r.r.g.g.m.f.f.f.e.G.G.e.Y.Y.m.m.n.r.o.q.q.p.H.r.d.Z & - - 2 > {.{.]./.].].].A ].].].].].].].].].]./././.]././././.]./././.].A /./.A /././././././.].].]./././.]././././.].]./.]./.A #.#././.#.#.#.=.=.#.$.@.$.@.R s.O.B.u.b.c.c.x+e.f._.+ @ .       + ",
"                + + + +   + + + + + + +     +     + + + + + + + + +   + +   + . <   U v K K K 5 M  . .9 9 9  .%.%.%.Q X X X T P P }., }.{ ] u $.B B B B E v B n n 0 0 0 l n B S B W W W W W B t W W W W W &.&.&.E E &.&.E E S S a - ; ; ; ; = a B ).A+8.B+B+C+C+8.3.g (.2 - - - - ; & N *+s.j.F.F.D.j.j.F.F.j.w.b.S.h.d.Z.Z.Z.d.l.x+h.S.h.x._+'+X.Q.#+R./+R.3+q.y.r.r.i+q+-+=+++1+|+^+p+j+a+a+g+]+.+|+1+V.7+#+#+#+#+Q.Q.Q.n+Q.3+J.J.J. +A.$+P.X.I.!+q.q.p.z.z.r.n.g.g.m.m.f.e.e.G.e.Y.f.f.m.g.r.p.q.I.I.!+q.n.a.& - - - 2 {././.].=./.].{.{.{.].].].]./.].]././.]./.]./././././././.].A ]././././././././././././././././.]./././././.].].]././.#.#.=.=.#.=.#.#.#.$.N R N N t.O.B.B.w.u+d.c.x+l.e.U + . +       + ",
"                + + +           +                     + + + + + + + + + +   + + @   i b K K K M M  . .9 %.%. .%.%.%.%.Q Q X T 7 P / }./ ^.3 u b B B B B B B b v 0 0 0 0 0 B S B W W S S W W W W W W W W W W &.&.E E E E E E B B 0 & ; ; ; ; ; = & z 7.C+C+C+B+C+C+5.$ { > 2 ; ; ; ; ; B *+C.j.F.D.F.F.j.B.j.j.B.v.h.x+d.x+u+x+x+k+G.Y.Y.2+H.I.n+T.@+T.7+ +L._+0.:.S Z :.N.`.n+T.@+1+h+1+p+v+v+v+a+;+@+1+>+7+#+#+R.R.R.R.Q.Q.Q.3+J.J.J. +i+A.$+P.I.!+!+q.p.H.o.r.n.n.g.m.m.f.e.l+l+G.G.Y.f.m.g.r.p.p.I.P.I.I.H.S.a 2 - - 2 -.{.#./.=.=./.].].].].]././././.].].].].]./.]./././././././././././././././././.]./././././././.]././././.]././././.#.#.=.=.=.=.=.@.@.N t.y+y+y+*+*+j.B.w.v.c.c.x+d.d.j   < +         + ",
"                  + +     + +         +           +   + + + + + +     +       . < + @ ( O K K M +.9 9 9 9 %.y %.%.%.%.%.Q Q *.T 7 F { F }., n n l n v v v B n l 0 0 0 0 E W S S W S S S W W W W W W W W W W &.E E E E W &.E ` B B = ; ; - - ; & 1 M 3.C+B+C+B+B+C+9.>.6 , - - - ; ; ; 0 R C.O.F.F.D.D.j.B.B.w.B.w.S.x+h.x+k+)+Y.y.2+r.q.A.n+n+7+7+n+A.p.m.c.a.S , = > a a Z 0.2+i+n+n+7+U.}+j+j+v+j+|+T.>+#+R.#+R.R.R.R.R.Q.Q.Q.3+J.J.J. +A.A.$+P.X.!+!+q.p.o.r.r.n.n.m.m.f.f.e.l+l+l+e.f.m.n.z.p.q.!+P.I.P.q.n.a.2 - - - 2 -.]./.=./.].].].].].].]././.]./.]./.]./.]././././././././././././././.].]././.].]././.]././././././././././.#././.=.=.=.=.=.@.N R R s.s.*+*+*+u.k.b.v.b.u+b.c.d.c.e._.+ < .         + ",
"                              + + + + +     + +     + + + + + + + + + +     + + @ .   _ 5 x M M ^ +.9 9 %.%.%.%.%.%.%.%.Q Q *.T P / / ^.1., * 0 n v v v W v v l l E v E E W S S S S S S W W W W W W W W W &.&.&.E E E &.E W ` B o a ; - - - ; ; 0 S C 7.B+C+B+C+C+C+!.%.^.> - - ; ; ; = ` C.j.D.D.j.D.j.B.w.w.v.v.S.c.h.x+G.m.n.o.I.A.z+z+z+q.o.g.M.x+w.a.:.N e #.-.-.-.> > > Z a._+i+7+V.T.b+;+v+}+U.h+/+R./+#+R.R.R.R.R.Q.Q.Q.3+J.J.J. +A.A.A.P.X.I.!+q.p.H.o.r.r.n.g.m.f.f.e.l+l+l+G.e.Y.g.r.o.q.I.P.P.P.I.p.x.a - - - - > {.=.=.=.]././.].].].]././.].].].].]./.].]./././././././././.]./././././././.].]./././././././././././././././.#.#.=.=.=.@.R y+R y+s.s.*+B.u.k.k.k.k.Z.Z.Z.Z.d.Z.e._.  : .         + ",
"                + +     +   + + + + + + + + + + + + + + + + + + + + + + + + + + + +   [ 8 x x M ~ +.9 9 9 %.%.y y y %.%.Q X *.*.P / ) ) d 0 1 0 n n v t E v t l n n v v W B S S S S S S S ` ` S S W W W &.&.&.E E E &.&.E W S S o l 2 - - - ; ; 1 0 K 6.C+C+B+B+C+B+6.g ^.-.- - - ; ; ; s t.u.j.j.w.j.j.B.w.w.v.b.v.h.h.G.m.n.o.p.!+q.o.e.b.D.F.[.[.u.c.u.R y+s.N @.{.-.> 2 2 1 1 Z i.o.i+J.R.h+b+b+h+f+/+R./+/+t+#+R.R.R.R.n+W.W.J.J.J. +,+A.A.$+X.X.X.m+q.p.H.r.r.n.g.m.f.f.e.l+l+)+G.G.G.f.n.o.q.!+P.P.P.P.q.r.N & - - - 2 -.@.=./.=.=././.].].].]./.].].].].].]./.].].]././././././././.]././././././././././././././././././.].].#.#.#.=.=.=.=.=.N O y+y+y+y+*+*+u.k.k.k.c.u+u+u+x+Z.c.S.l._.  < .         + ",
"                  + +   + + + + + + + + + + + + + + + + + + + + + + + + + + + + + . + : 8 +.x M M +.+.9 %.%.%.y y y %.%.Q Q *.*.7 P / ) d d 0 n n n B t v t p n b c E E E W E ` S S B W W S W ` S W S W &.&.&.E E Z E E E W S S o S 1 - - - ; ; & Z a ).C+B+C+C+B+B+A+C ' -.- - - ; ; ; a [.*+B.B.w.j.j.B.w.v.v.S.Z.x+h.G.g.n.r.g.h.E.[.[.:.:.:.:.K k.l.f.c.*+y+R @.A -.{.-.> > 2 = 2 a a._+I.$+J.V.>+7+7+#+R./+t+R.#+#+#+R.R.Q.W.W.W.J. + +i+A.$+P.X.X.!+!+q.H.z.r.n.g.m.m.f.f.e.l+l+G.G.G.f.2+r.p.!+I.A.A.A.X.L.Z.a & - - - > A #.=.=././.=./.].].].].].]././.]././.].].].]././././././././././././././././././.#././././././././.#.=.#.].].=.@.D @.N w R y+*+*+u.u.u.k.k.k.c.u+u+c.Z.d.Z.v.l._   < .         + ",
"                + + +     + + + + + + + + + + + + + + + + + + + + + + + + + + . + . + @ 8 x +.^ +.+.9 %.%.%.%.%.y y %.%.Q X ~ ~ 7 P ] ] b b t p n 0 E t B b t t t t t m t B W S S S S S W S W W ` W S W W &.&.m W E E E E W B S o o l 2 - - ; ; ; 0 = k 7.C+B+B+B+B+C+!.6 ' 2 2 2 - ; & = ` *+u.u.v.j.j.w.v.w.v.b.k.b.c.l.l.k.O.[.N L m m L L t u ] w K f f O @.w ] #./.{.{.-.-.> 2 2 2 ; Z i._+q.A.,+W.#+#+7+#+t+t+#+R.R.R.R.Q.Q.W.W.J.J. + +A.A.$+P.X.!+!+q.%+z.r.n.g.g.m.f.f.f.e.l+G.G.Y.Y.m.n.H.q.I.A.i+i+A.I.'+:.2 - - - - -.#.=.=.=.=./.].].].]./.]././.]././././././.].]./.]././././.]././././././././.].#././.#./././.#./././.#./.A =.=.A A @.@.@.@.N y+s.*+*+*+u.b.k.b.u+Z.u+S.u+h.u+l.G   : +         + ",
"                    +     + + + + +   +     +     + + + + + + + + + + + + . . + + + @   ( M +.M ~ +.9 %.%.%.%.%.%.y y %.Q X X ^ F / c l 0 b b p n n v v v t v v B t t m v B v S S B S W E W W W W B B W W W W v v E &.E E W W ` S o n = ; - ; ; ; = = e 6.B+C+B+C+B+8.5.q 3 > - 2 - ; ; & s *+u.j.B.B.B.j.w.B.B.B.u.*+*+O.R $.D D p u A u u ....> 2 2 2 > ..D > -.]./.#./.].{.].-.> 2 2 - & & Z a.y.q.X. +n+#+(+t+#+R.R.#+#+R.R.Q.Q.W.J.J.J. +,+,+$+P.X.!+m+m+L.H.r.r.n.g.f.m.f.f.e.l+G.G.Y.G.Y.g.z.p.q.!+A.i+A.P.%+N.1 2 - - ; 2 A #.=././.].]./.].]./.]./.]./.].].]././.].].].].].]./././.]././.]./.A /././././././.#.=./.=.=./.=.=.=.].D A A D u =.u D u u @.N N y+*+u.u.b.b.b.Z.u+h.h.u+u+l.U   < +   + +   + ",
"                  + +     + + + +   + +     +         + + + + + + + + + + + + . + + @   J ~ +.~ *.X %.%.Q %.%.%.y y y %.Q X X ^ F ) d 0 0 b o p l t b p p b B v t t m v B B W B B B W W W ` W S S W B B S S t E v E E v v W B W B o b 0 - ; - & ; & * = ~.A+C+C+C+B+C+A+~.^., - 2 - - ; & a y+u.*+B.B.B.B.O.C.t.s.y+@.$.$.$.u D A A ].{.{.-.> > > > > > > 2 2 2 2 -.{.] e /.].].].-.2 2 2 2 - & = Z 0.x.`.!+$+J.W.n+n+R.R.R.R.R.R.Q.Q.J.J.J.J.,+$+,+$+P.X.!+!+L.p.z.r.r.g.g.m.f.f.e.l+l+G.Y.Y.Y.g.z.p.p.q.P.A.P.A.!+&+[.2 - - - - > A /./././.].].]././.].].].].]././.]././.].]./././.]./././.]./.]./././././././.=.=./.=.=././.=.=.=.=.=.D u $.$.$.D u @.#.=.$.$.$.[.s.*+u.u.b.b.S.Z.Z.h.u+v.c.i   < +   + +   + ",
"                              + + + + + + + + +       + + + + + +   +     + + + + . <   J +.+.~ X Q %.Q %.%.%.%.y y y %.Q Q +.~ P F ] d d b ] l d b p p p b b B t t t t B W W W B t o e O O w o ` ` S S S B B B v v v W B B B t B o e ] > - - 2 - ; 1 = % 7.B+B+C+C+B+C+4.~ 1.2 2 - - - & = L *+k.k.u.u.u.K K R N u D ] 4 ] 3 #.#./.].].].#.#.A A A A {.{.-.2 - 2 - 2 {.#./././.{.{.{.-.2 > 2 2 2 - & a :.N.o.i+ +,+J.3+Q.R.#+#+R.Q.Q.W.J.J.(+,+,+,+$+P.X.X.!+q.p.z.z.r.n.g.m.m.f.e.G.l+G.G.Y.e.Y.`.p.p.q.I.A.$+$+!+%+S.1 ; - - ; 2 ].=.=./.].].]././.]./././.].]././././././././././././././././.#.].].=./././.A /.=.=.=.=.=.=.=.=.=.=.@.N R R R N $.$.u u u $.@.$.@.[.s.*+*+b.b.b.u+Z.S.S.v.H :   @     + +   + ",
"                  + +     + + + + + + + + + + + +     + + + + + + + + + + + + + + + <   } 9 9 ~ %. . .%.%.%.%. . .%.%.%.Q X +.~ P P 4 d d n c c b b p l p b b b t t B B B B B B E t o w O K K O K w o b B B B B B B t W t t B t B o o e l 2 - - 2 ; & 1 e 2.B+B+C+C+C+B+7.z (.> 2 - - - & & a R H k.u.u.*+w o @.$.D A #.A A #.#././././.#.#.#.A A =.].{.-.> > 2 2 2 2 - ..#.=./.].{.].{.{.-.> 2 - - ; & & = S w.H.X.,+ + +3+Q.#+Q.Q.Q.Q.(+J.J. + +,+$+P.X.X.!+L.p.H.z.r.r.n.m.m.f.e.G.G.G.G.G.G.Y.n.z.p.q.I.A.i+P.m+'+r.N - - - ; 2 A =.=./.{./././.].]./././.#./.].]./.]././.]././././././.#.#./.#././././.=.].].=.=.A =.=.=.=./.=.=.=.N y+y+y+y+y+R N @.$.$.$.$.$.$.N N y+*+j.j.v.u+S.h.S.c.:+<   @     + + + + ",
"                          + + + +   + + + + + +       + + + + + + + + + + + + + + + <   _ 9 9 ~ %.%.%. .%.%.%.%.%.%.%.%.X X X *.P P 4 l l d d d b b p p u u b ] p m t v B B v m s B w K K K K K 5 b b e 4 ] ] ] t t B t t t B t B o L e ] a 2 - & ; & 1 Z |.A+C+C+C+C+B+C+~.6 ' > - - - ; & = m f H H f L m p $.A A A #.#.A A /./.].{.].]././.A ].{.{.{.-.> > > > 2 2 - 2 -.{.].{.].].{.{.{.-.> 2 2 - - - 2 = 1 ` i.2+q.A.i+A.A.3+Q.Q.Q.W.J.J. + +,+,+$+$+X.!+!+q.p.H.r.r.n.g.m.f.Y.Y.G.Y.G.G.Y.f.2+z.H.p.!+A.i+P.P.!+L.d.= 2 - - - -.=.=./.=./.=.].].].]./.#./.A #./.]./././././././././.#././././.=./.=.=.=.D D =.=.$.D $.$.D D =.=.=.N y+y+s.*+*+*+*+s.t.R N @.$.@.L L R t.s.j.b.k.Z.h.Z.c.8 .   . + + + + + . ",
"                          + + + +   + + + + + +       + + + + + + + + + + + + . + . <   U %. .~  .I  .%.%.%.%.%.%.%.Q Q X X *.*.^ ^ 5 n l b t 0 s 0 0 n 0 a n b p l b p t b b m L w w w w ] d = 2 - > , 3 3 ] ] ] p B ` &.` ` B t S L o o l 2 - - ; ; = o x 4.8.C+B+B+B+B+2.Q ^.> 2 2 2 - - = 1 R H f R m m $.A A {.].#./.].].].-.-.-.-.-.-.{...{.{.-.-.> > > > > 2 2 - - 2 > {.{.]././.].].].{.-.-.-.-.> 2 2 > = > l t.G.q.P.3+A.X.$+i+J. +J. + + +,+$+$+X.X.!+L.p.p.z.r.n.g.m.m.f.Y.Y.Y.G.G.Y.y.2+r.p.q.L.!+A.A.X.!+!+H.:.2 - - - 2 u @.=.=.=.=./././.]././.].A /./././././././././././.#.#.#./.=./.=.=.=.=.@.N R t.C.C.F.C.[.$.D =.@.@.N R R y+s.*+*+*+*+*+*+t.N N L L N [.s.*+v.b.S.S.v.u+'.+ + +   + + + + . ",
"                            + + +   +   + + + +       + + + + + + + + + + + + + + . @   i Q I Q  .y  .%.%.%.%.%.%.%.%.%.Q X X *.*.~ +.] a l b u u l a > 2 1 0 n l l p 0 t e b s l w o 0 1 & ; ; - ; ; ; ; - - 2 l t b o B S S S B S o N o b 1 - - ; & & = a ).8.C+C+B+B+C+5.k (.> - - 2 2 ; & = s $.$.D D $.#.u #.#.].A ]./.#.#.].-.-.-.> 1 ..l {.-.-.-.> > > > > > 2 2 2 2 2 > -.{.{.A A /.#.#.#.].{.=.{.> 2 2 2 > 2 1 Z E.x+z.!+P.$+P.P.A.A. + +i+,+,+$+P.X.X.!+q.p.H.r.`.n.m.m.m.f.Y.e.Y.Y.Y.Y.m.n.H.q.L.L.X.$+X.L.!+q.x.1 2 - ; 2 A @.=.=.=.=.#.]./././././.#././.=./.#./././././.#././.#.=./.#.=.=.D @.R O.*+B.u.v.k.c.Z.w.O.R $.D @.@.$.@.R *+*+s.O.*+u.*+*+*+y+N N N N N t.j.u.v.S.b.l.j   . +   + + + + . ",
"                          + + + +   + +   + +           + + + + + + + + + + + + + . @   : | y Q %. .y %.%.%.%.%.%.%.%.Q Q Q Q X *.X  .P 0 1 l / 4 * = * * a 0 l l p p l u w e e c 1 = & ; & & 2 & - - - - - ; ; & 1 0 n n b b b o o N w w w e * - ; & & & ; h 7.B+C+C+B+B+9.<.P -.2 - 2 2 ; - 2 = s u @.@.@.] #.A =.=.#.A A #.#.#.{.-.......A ....l ..* > > * * > > > 2 2 2 - - 2 2 2 > -...{.A A A A A ].{.-.> > > 2 > a s p L R c.p.A.I.I.I.P.A.A.,+,+$+P.X.X.!+q.L.H.r.`.n.g.g.m.m.Y.Y.Y.G.Y.Y.m.n.z.p.L.!+!+P.A.X.A.L.y.:.> - - - -.=.=.=.=.=./.#.].]./././.=.#././././.=././././.#.=.=.=.=.=.=.=.N N R O.u.v.b.b.u+u+Z.S.S.S.b.j.[.N $.$.m t N t.O.*+u.k.u.u.k.u.E.[.N L L N C.B.w.c.u+l.#   @ + + + + +   + ",
"                    +     + + + +   +     + +           + + + + + + + + + + + + + . @ + + '.y Q %. . .%.%.%.%.%.%.%.%.%.%.Q Q Q X *.+.T c ..3 / , = , ' l l l l p l l l l 0 * c 0 - - & & 2 & - - - 2 - - 2 2 - - - - 1 ..0 l n b o e w K K w a ; ; = , , ; = 3.B+B+B+B+B+C+,.M 3 2 - - 2 - - 2 = ..e w @.=.@.#.A A =.A ].].].{.-...{...{...a = 2 > = & - & = & - - 2 2 2 - - - ; - ; ; - 2 2 2 -.....u A {.{.{.{.{.{.{.{.s s {.{.p N c.r.I.i+A.P.$+A.$+A.$+P.X.!+!+q.p.z.r.n.n.m.m.m.f.Y.G.G.Y.y.m.2+r.H.%+L.!+P.i+A.P.I.H.N.1 - - - > A =.=.=.=.#.=./.].]./.#./.=././.=.#.=.#.#.=.#.=.=.=.=.@.N N R R t.s.*+u.b.b.Z.u+h.Z.S.S.S.S.w.w.D.[.L &.m Z Z N *+u.u.b.u.k.b.B.s.R L L [.:.O.v.u+c.l._   <     + + +   + ",
"                    +     + + + + + + + + + + + +     + + + + + + + + . + + + + + . @ .   j h Q %.y  .%.%.%.%.%.%.%.%.%.%.%.Q Q X X X *.6 3 d , * * , , 0 n n l l p l ....2 - - - 2 2 2 - - - - - - - - - - 2 - - - - - & - & & = a B e 5 e 0 a = - 1 ^ I c ; z 8.B+B+B+C+C+7.g 3 > - - 2 2 - 2 2 > ..] ] #.=.=.A A ].{.{.{./.{.{.-.-.-.-.u l a & ; ; & - & & - - 2 & 2 - - ; - - - - ; ; ; - ; ; & 1 ....{.{././.=.].].{.{.{.{.D s D $.N O.l.!+A.A.P.P.A.P.P.I.X.!+!+p.H.o.r.n.n.2+m.f.f.G.Y.Y.Y.y.2+n.z.L.L.!+P.A.i+P.X.L.r.` & - ; 2 {.A =.=.=.A =./.=./.A /.=.=.=.A =.=.=.=.=.=.=.=.@.=.=.@.R y+y+s.*+B.B.v.v.Z.Z.u+c.x+x+h.h.x+x+u+S.v.F.t.:.L ` Z :.O.u.k.k.k.u.u.v.O.R N R L N *+b.k.c.G   <     + + +   + ",
"                          +   + +   + + + + + +         + + + + + + + + + + + + + . . <   # h Q Q 9  .%.%.%.%.%.%.%.%.%.%.%.%.Q Q Q X X ~ n > * * * , 0 l l l p p p D s a > > 2 2 2 2 2 - - - - - - - - - - - - - - ; ; ; ; ; ; = 0 b e 5 e d 5 4 d 0 ^ 9 ^ a 5 4.C+B+C+C+C+8.z ' > - - 2 > - - 2 2 2 a u ] w 4 #.A ].{.{.{.#.#.] #...1 > d ] 4 / / F }.' * = & ; - - - - - - - - ; ; ; ; ; - ; ; ; ; - = -.....A A A {.A {.{.{.{.-.-.A $.$.@.y+)+p.I.!+I.P.P.!+I.!+L.p.H.H.z.r.n.2+m.m.Y.Y.Y.Y.Y.y.m.2+z.%+L.L.!+P.i+A.P.I.q.S.1 2 - - -.A @.=.=.=.=././.].].=.=.=.].=.=.@.@.=.=.=.=.=.=.=.=.@.R y+O.*+B.u.b.b.u+x+u+d.)+e.e.e.e.l+l+)+d.h.u+v.D.a.:.` L &.R k.k.k.u.k.u+b.C.[.R N $.N u.c.c.U   <   + . + +   + ",
"                              + + + +   + + + +         + + + + + + + + + + + + + + + <   _ h 9 9 Q  . .%.%.%.%.Q %.%.%.Q %.%.Q *.+.^ +.~ 1.* * * , 0 0 d l l u A u D D {.-...-.> 2 - - - - 2 - - - - - - - ; ; ; ; ; & * , d F ^ ~ 5 5 M x x  .9 ^ , }.~ X T ^ ~.A+8.C+C+C+8.)./ , - 2 > -.2 2 2 2 - 2 -.D @.w @.#.+.q ! H % k C k H x 5 4 P X I y %.~ *.7 F }., * 2 - - - - - - - ; ; ; ; ; ; ; - ; ; ; ; - 2 > ......A A {.{.{././.].=.=.@.@.@.y+x+o.!+!+!+I.!+q.q.L.p.p.o.z.r.2+g.m.f.Y.G.G.G.Y.Y.y.`.H.p.L.q.!+A.i+i+A.!+z.:.= 2 - 2 A =.@.=.=.=.@.=.A ].=.=.@.@.N @.@.$.=.=.=.=.=.@.@.=.@.@.N t.O.*+b.k.Z.u+c.d.)+)+e.f.f.f.f.f.f.e.)+l+l+u+v.j.[.:.` m t.b.k.k.k.c.u+v.F.t.N L L *+c.u.U   <     . + +   + ",
"                                +   + +   + + +             + + + + + + + + + + + + + <   _ g 9 9 Q 9 9 y %.%.%.%.Q %.%.Q %.Q X T ^ M 7 / * & = , * * * 0 * * * 3 ] 3 A 3 ..3 3 -.2 - - 2 2 - - 2 2 - - ; ; - = ' { P *.%.%.X Q Q +.~ M +.x +.^ P 6 ^.}.T  .T }.g 7.C+C+C+C+C+6.h , 2 2 2 -.2 > > > 2 2 2 > -.s =.M k $ $ z z z |.C k h  .+.Q Q %.X *.~ X Q Q Q ~ 7 / , = - - - - - - ; ; ; - ; ; ; ; ; ; ; ; ; ; - = 1 ..A {.].].].=.].].{.D $.$.$.L a.d.z.%+q.q.p.p.q.q.p.H.o.z.n.g.m.f.f.Y.G.G.G.Y.Y.2+z.%+L.L.m+P.i+i+A.P.q.N.1 = - 2 {.=.@.=.@.@.=.@.=.=.@.N R y+y+t.y+y+N $.$.$.=.@.@.$.$.$.L :.a.O.u.b.k.u+x+d.l.)+e.f.f.f.m.g.m.m.f.G.l+)+x+u+v.C.[.N N y+u.c.c.k.u+c.d.*+N L :.t.k.O.U   <     . . +   + ",
"                              + + + +     + + +             + + + + + + + + +     . . <   G h I 9 9 9  . .%.%.%.y %.Q %.y 9 X T 7 P 4 d , * = = a d ' , * , F ' -.#.5 ] {.3 ^.^.^.{ { > - 2 - - - - - 2 , ' { 6 *.%.%. .9 9 +.+.+.9 +.9  . .9 M P P 7 }.}.X P ) = ,.B+C+8.8.B+7.% , 2 2 2 2 2 -.-.-.> 2 2 2 s D @.x C $ z z C C C k q I Q +.Q Q %.Q Q X X +.+.+.9  .+.T ) , 2 - ; ; ; - ; ; ; ; ; ; ; ; ; ; ; ; ; ; ; - 2 > ....3 {.A /.].].{.].A D $.L :.C.w.Y.r.r.o.p.p.o.H.r.r.`.2+n.g.Y.Y.G.G.G.Y.y.m.`.z.%+%+L.!+A.i+A.A.!+&+:.> 2 2 {.@.@.=.=.@.@.$.N N R y+*+y+O.O.*+*+s.C.R $.p $.$.D $.$.L N [.C.B.u.b.b.c.x+d.)+G.e.f.f.f.m.g.g.g.f.G.G.k+x+h.Z.j.[.N L [.u.c.u+c.e.e.l.C.N [.[.u.s.U   <   + . . +   + ",
"                    +           +   + + + + + + + +     +   + + + + + + +   . +   + + <   U f h  .9 9 I  .9 %.%.y %.Q %. .+.~ P e S n * n c d * 1 }.) ] }.(.(., T ! %./ D A ] / / I ! 7 ' , & ; - > ..^.7 *.^ *.*.Q Q  .9 +.+.9 9 9 9 +.9 9 I I 9 4 }.= ; * , 0 ; ! A+B+C+B+B+8.% , > 2 - > > > > -.-.-.-.-.s D $.O H C C % k k % H H +.~ ~ X Q Q +.%.9 9 +.Q X +.+.+.~ *.7 / ' * 2 ; ; ; ; - - ; ; ; ; ; ; ; ; ; ; ; ; ; ; - > -...A A /.].{.].].].=.$.$.$.$.t.b.l.f.n.r.r.o.r.n.`.r.n.g.m.f.G.G.G.Y.Y.y.m.`.z.%+L.m+P.i+,+A.P.%+i.> 2 2 -.@.@.=.$.@.@.N y+y+y+*+*+*+B.B.w.w.B.j.F.a.L L m s &.t L L :.a.C.j.B.w.w.b.Z.d.)+)+G.f.m.m.g.g.g.g.m.m.Y.e.k+x+x+w.E.N ` [.v.k.c.f.f.e.c.R [.E.u.R i   <   + . . +   + ",
"                  + +       + + + + + + + + + +   +     + + + + + + + +     + +   + + @   i f H  .x +. .I %.%.Q %.~ T Q +.P w o W W B n ] ] ] * * * , c d @.^ ).5.5.3.4.~.7 1.P 4 +.I T , > 2 , { 7 ^ ^ ~ Q X +.Q 9  .9 I  . .9 9 9 +.+.M 5 5 5 e > ; ; ; ; & n 0 c 2.B+8.B+C+B+~.* , 2 - 2 2 2 -.-.=.=.A D $.$.=.w f H H H H H f f f +.X Q Q Q +.9 9 9 %.%.%.+.Q Q ~ ~ +.Q X ^ F }.* & ; ; ; ; - ; ; ; ; ; ; ; ; ; ; ; ; ; ; ; & = -.{.].].].].=./.A D D D $.$.$.@.O.h.k+Y.m.r.r.r.r.n.g.n.g.Y.e.G.Y.Y.m.m.g.`.%+L.L.X.i+J.i+$+!+y.s 2 2 -.@.@.@.@.N R y+*+*+*+*+B.v.b.v.S.b.b.v.w.B.0.[.:.` &.&.m m m L :.[.C.O.D.j.w.S.Z.h.x+k+Y.m.g.n.n.g.g.n.g.m.f.G.x+h.b.j.[.[.t.B.c.l.f.n.e.k.C.B.l.w i   <   + . . +     ",
"                          +   +     + + + + + + + +     + + + + + + + +     +     . . @ + < '.H h I +.+. .I %.~ +./ c 7 4 n t m E S W B b b ] * , = 1 * , $ 9.B+B+C+C+B+C+>., ^.3 ^./ 2 ; , ^ 9 ^ T ^ *.~ +.+.Q 9 9 9 I 9 9  .9 +.^ 4 o b E 0 E a = ; ; ; ; & 1 d = ~.C+C+B+B+B+4.' ' > - - - 2 ..A #.=.=.=.D D $.@.O K K x x f x x +.+.X X Q Q X ~ +.+.Q 9 9 Q %.Q Q ~ X X ~ ~ ^ ^ P ) , & ; ; ; ; ; ; ; ; ; ; ; ; ; ; ; ; ; ; ; ; - 2 -.{.{.].].=.].A ].].{.{.s D L [.a.D.h.G.f.g.g.g.n.g.g.f.e.l+G.Y.f.f.m.2+z.%+L.!+A.J.J.,+P.q.F.1 2 > =.N N R y+*+*+u.u.B.u.k.k.u+d.c.d.x+x+h.Z.S.i.D.a.:.` ` &.Z m Z &.:.[.E.F.j.w.v.b.h.h.x+e.f.g.n.n.n.n.n.g.g.Y.k+h.)+Z.O.a.:.a.O.k.l+f.f.l.S.b.c.] i   <   + . . + +   ",
"                                + +     + + + +   +         + + + + + + + + + +   . . @ .   G x h f x x +. .9 +.4 b o e o S B E E v v v b b n 0 1 * > - 7 5.B+5.9.A+8.8.8.5.g - 2 - 2 , ] ^ y Q Q  .+.+.+.+.+.+.9 I  .9 M M M e o o Z Z Z Z E Z E 0 = & & & ; ; = 1 % A+C+C+B+B+5.~ ' > - 2 - - > /.#.]./.A u u D u e M M K K f x ~ ~ X X *.Q %.Q X Q +.Q Q Q 9 Q Q Q +.+.X X ~ *.X X Q X P ' * = - ; ; ; - ; ; ; ; ; ; ; ; ; ; ; ; ; ; ; = > -.{.A #.].]././.].].D D D s L a.F.w.d.l+e.m.m.f.e.l+l+e.e.e.Y.m.2+`.z.p.L.X. +J.J. +P.f.s 2 > $.R s.O.u.u.b.k.b.b.u+u+u+x+x+)+)+k+)+k+k+k+x+S.N.0.a.:.:.` Z ` Z Z Z L a.C.D.B.B.v.w.S.d.l+G.Y.n.n.n.n.n.n.m.y.G.k+x+Z.B.E.a.E.j.d.f.f.e.d.l.u.V [   @   + . . + +   ",
"                                +   + + + + + + + +         + + + + + +     + + + + + + +   [ 8 M M x 9 9 Q 9 ^ c b B e o S B B B v B v b b b l a * = ; %.5.7.2.7.8.C+8.B+A+k - 2 & ] 5 +.Q y I  . . . .9 +.9 +.^ ^ 5 e o B W Z Z E Z Z Z Z W W W B 1 ; & & ; ; & & ) 4.B+C+C+B+7.k c * & 2 - - 2 -.].{.].#.#.u u 5 x f g g x x +.7 P ^ *.^ *.X X *.*.X X Q Q X +.9 %.+.Q %.9 Q X X X X X Q T 7 6 1.> ; ; - - ; - ; ; ; ; ; ; ; ; ; ; ; ; ; ; 2 -.D A A A /.=.].D ].D {.s m s &.[.D.B.S.x+e.e.f.f.Y.f.f.e.f.m.2+`.H.p.L.m+$+J.J.3+A.p.0.1 -.@.s.*+u.b.b.b.b.k.u+u+u+d.)+l+)+l+G.G.G.G.Y.Y.f.G.M.N.D.D.a.:.:.` ` Z Z ` :.a.F.0.F.w.v.x+h.k+k+Y.g.n.r.r.n.n.g.m.G.k+)+u+w.F.C.E.F.l.f.e.e.f.u.Y [ . @   + @ . + +   ",
"                  + +           + + + + + + + +   +         + + + + + + + + + + + . . + @   [ 8 x M M M  .+.+.e c b m b B B B B t v n p p n b b ..1 = 2 4 ~.4.4.5.A+A+A+7.,.*.d ^ 4 ^ ^ I h +.9 +.+.+.+.M ~ M 4 n 0 0 0 Z Z Z Z &.` W &.E Z ` S S o a & - & & ; & * = q 8.B+C+C+C+~.4 d 2 - 2 -.> -.].{.{.{.{.> -.M M I C C h 9 +.^ 7 ^ ~ ^ 7 T T 7 7 *.*.*.X X X 9 y 9 %.Q %.Q Q Q X *.*.X *.^ *.*.6 ' = ; ; ; ; - - ; ; ; ; ; ; ; ; ; ; ; ; ; - = -.{.A A A A A =.=.A D D ..s m L [.F.v.u+l.f.f.f.f.f.f.y.m.2+2+`.H.L.m+X. +(+W.3+$+Y.$.-.@.*+u.b.c.c.u+c.c.c.x+d.)+e.e.e.e.f.f.m.f.Y.m.g.2+y.y.G.k+M.i.a.a.[.` Z ` &.Z :.[.a.F.w.v.S.k+G.Y.m.g.n.n.r.n.n.n.m.G.M.S.b.j.C.E.a.F.c.e.f.n.*+J + @ .     . + +   + ",
"                + +             + + + + + + + + + +         + + + + + + + + + + + + + + +   < '.f +.5 5 9 ~ ^ c b b Z m B v v n B n p p p p u u l = > , 1.}.%.! g % k % T ^.2 , ] ^.7 +.+.I ~ 7 ^ ~ P 5 5 ] b n E E E E &.&.&.` ` W ` W W E W S ` S v 1 & - - ; & * 0 = ,.B+C+C+B+3.5 ) , - > ] 4 ].{.{.{.-.-.2 2 b ] +.z z % g  .~ 5 5 T 7 7 7 P P 6 T T 7 T X X X y  .+.Q Q Q Q Q Q X ~ +.X ~ ~ X X *.P }.* = & - ; - ; ; ; ; ; ; ; ; ; ; ; ; ; ; ; & 1 ..A A A #.A A A A A D D ..$.R C.O.B.Z.k+l+e.e.f.m.m.g.m.g.o.%+L.X. +W.(+3+,+`.0.{.A s.u.b.u+c.d.d.d.)+)+l+e.f.f.m.m.m.g.n.g.g.n.`.2+2+r.z.r.n.2+M.N.N.i.a.:.Z Z Z ` :.[.a.F.v.Z.k+G.Y.m.n.n.r.r.r.r.n.m.y.M.S.w.j.F.F.E.D.u+l+f.f G   @ +     + + + + + ",
"                  + +         + +   + + + + + +   +         + + + + + + + + + + + + + + + .   '.f f M 4 ^ M ~ ] n o p p n v v v n p l p p u l b ] = = 1 * = ; ; = = & ; 2 & = & & ; = d ] 4 4 P P / F ] 3 0 0 v t B S B W W &.` E W W &.E E W E &.W o n = & & ; ; ; 0 0 H 5.B+B+B+5.I ^.* > , 3 ].{.-.{.{...-.1 = a 0 +.$ $ k q h +.7 7 7 ^ ^ 7 7 P P P 6 6 F P 7 P *.y Q X +.+.Q %.%.%.+.+.X +.+.~ ~ Q X ^ P ) , 2 - ; - ; ; ; ; ; ; ; ; ; ; ; ; ; ; ; ; & 1 ..D D A A A A #.A D D D L @.@.R j.v.h.d.l+e.m.m.m.2+g.`.%+%+m+$+J.Q.W.$+%+_+N @.t.k.b.u+u+x+d.l+e.e.e.f.f.m.g.g.n.r.n.n.n.z.o.z.z.z.p.p.p.H.z.2+_+M.h.D.a.:.&.Z Z &.:.a.F.j.S.h.k+Y.m.n.r.o.r.r.`.n.2+Y.h.v.w.j.j.j.F.F.F.c.'.. < .       + + + + + ",
"                          +         + + +   + + + +           + + + + + + + +   + + . + . .   '.f f x 5 c 5 ^ b 0 b p p l v b n p l p l t b m o t 1 = = = a a E E t t B S Z a a 1 & & a 0 c P ^ 7 F 4 4 d 0 n v B W B S t W W E Z &.E Z Z Z Z E &.W o o a & & & ; ; = 0 E !.B+B+C+8.3.y ' , , -.{.{.{.-...-.-.1 = 1 = 5 $ $ k % h ~ T P P T 7 P P P 6 F F F 6 F F 7 7 X Q ~ Q +.Q Q Q Q Q Q %.%.X ~ +.~ *.*.T *.T { * - ; ; ; ; ; ; ; ; ; ; ; ; ; ; ; ; ; ; ; 2 1 ..l D A A A u A u =.=.D D @.N R F.w.b.x+G.f.m.m.n.`.z.%+%+m+i+n+W. +$+L.x+[.[.u.d.)+)+d.l+e.e.f.m.g.m.g.g.g.n.n.r.n.r.z.p.p.p.p.L.q.!+!+L.L.%+z.2+_+S.i.a.:.Z &.` ` a.E.i.S.h.G.Y.g.n.r.z.r.r.r.n.m.G.Z.w.j.w.j.O.0.D.u.(   : .       + + + + + ",
"                    +           + +       + + + + +           + + + + + + +     + + . + . <   '.x x M e b 4 5 o s t t m m m t v m v m m p p t t l 0 a a a Z E v m m s E Z a a a 1 1 0 0 n n / 4 P P P ^ 4 l 0 n B B B S &.E Z Z m m Z Z Z Z Z Z Z E &.S 0 & = = & & & * 1 q A+B+B+B+B+6.C *.^.> 2 > -.-.-.-.> = 1 a 1 4 C C k k I ^ T 7 7 T 7 7 P P 6 6 6 6 7 P P 7 7 *.Q X X Q X X X X Q X Q %.Q Q Q Q X X Q X X ~ T ) * = & ; ; ; - ; ; ; ; ; ; ; ; ; ; ; ; ; ; & & 1 ..u D p u #.=.D D D D =.$.[.E.C.B.v.d.l+f.m.n.z.H.H.%+X.i+,+$+,+P.r.D.[.j.)+)+)+)+f.g.m.g.g.g.g.g.n.n.n.n.r.r.r.z.H.p.!+!+!+P.P.P.P.P.!+L.%+`.2+G.S.w.a.` Z ` :.a.0.j.v.h.G.f.g.r.r.z.z.r.r.2+Y.k+v.D.D.B.O.C.k.u.(   : @     + +     + + ",
"                    +           + + + + + + + + + +           + + + + + + + +   + + . + + <   J M M 5 e n b e ] v t b l m m m v v v p m p m p t t B S S o S B v m m s s Z Z E Z Z Z E 0 a 1 1 b 5 5 ^ ~ ~ 4 n b b b p B v Z Z Z Z m m &.E m &.m ` W ` S v 1 = 1 1 = & = = d !.C+C+8.C+8.5.>.~.<.~ 1 > > > -.> > > > 0 / h ! g % h +.+.^ ^ ~ T T T T P P P P 7 T 7 T *.*.X *.X Q X *.X X Q X Q %.%.%.Q %.Q Q X X X *.X ^ 7 F 1.> - ; ; ; - ; ; ; ; ; ; ; ; ; ; ; ; ; ; ; = 0 l s D =.=.A D D D D D L N N R t.B.v.k+G.y.`.z.p.p.p.!+X.X.$+J.q.k+F.w.)+)+)+G.f.g.n.n.n.n.n.n.n.n.n.r.n.`.`.`.z.H.q.!+P.A.i+A.A.A.$+P.!+q.z.2+Y.k+S.F.[.L ` :.[.0.j.v.h.k+Y.n.`.r.o.H.z.n.m.G.h.w.w.w.B.D.*+s.J   : .   + . + + + + + ",
"                  + +           + + + + + + + + + +           + + + + + + + +   + + . + + <   } ^ P M ] l b n l 0 p b m t m m v v p p l p p m t t b L o o o o L m m m &.m W v W n n E 0 a 1 0 4 +.~ +.9 ^ 4 4 ] d l 0 0 B t Z E &.&.t &.&.&.` W ` ` ` S S 0 = = = = & = * = ~ 7.C+A+8.A+8.7.9.A+2.<.q 3 ..* > > = , ) ] ^ 7 P h g  .+.~ ^ ~ +.^ *.^ 7 7 P P P 7 7 7 ^ ~ X *.X Q Q X X X Q Q Q Q Q %.%.Q %.Q X X Q X ~ ~ ^ ~ ^ 6 }.* & ; ; ; ; ; ; ; ; ; ; - - ; ; ; ; ; ; - 2 a D u D D D A D D A D u D p @.R C.j.w.Z.k+Y.r.p.H.q.$+,+$+J.,+2+i.v.d.)+k+)+f.m.g.n.r.r.r.n.n.n.n.n.g.n.n.n.`.z.H.p.!+P.A.i+ +i+A.X.P.I.q.z.y.f.k+S.F.[.m Z L a.0.j.S.h.G.y.2+r.o.H.o.`.2+Y.k+S.w.w.j.D.E.s.#   : .   . . + + + + + ",
"                + + +           + + + + + + + + + +     +     + + + + + + + + + + + . + . <   # 9 ~ +.l 0 ] n 0 l 4 e v t m m t v v p p t t v m t t B B B S S t &.m t t B B W W n n 0 n ] ] d ] ^ ^ 5 c * = = & - & = = s m m m &.&.&.&.&.&.` W W ` ` S S B a = 2 & & & 0 * ; >.9.9.7.9.4.,.3.,.~.,.,.q e D a a a a l b M ^ 4 +.X T ^ ~ ~ +.+.X *.^ 7 7 P P 7 7 7 P 7 ^ Q +.X Q Q X X X Q X X Q Q Q Q X %.Q X X Q +.Q ~ ~ ~ +.*.*.*.6 ' * 2 ; ; ; ; - ; ; - - 2 = * = - - ; ; ; = -.D D D D D A A ..{.1 1 {.A @.@.R t.C.B.G.2+`.p.P.$+A.J.Q.L.v.N.u+)+l+G.f.Y.g.n.r.r.r.r.n.g.g.g.y.Y.m.g.n.r.z.H.q.!+X.A.i+ + +$+X.X.!+L.z.y.k+S.j.0.[.` &.:.[.0.w.S.h.G.g.r.z.p.H.z.2+m.l+h.h.w.O.0.E.*+G   : .   . . + + + + + ",
"                + + +           +   + + + + + + + +     +     + + + + + + + + + + + . + . <   _ h h ~ * * l l b e 5 5 o t m v t t v v v t t p m m p v m m t B S ` &.&.t B v B v n n c c c * 2 2 1 > 1 2 ; - ; ; ; ; = 1 v t t t m m &.&.&.&.` t B ` ` W W o p 1 2 2 & & = a = e ~.6.7.2.H f |.>.<.!.5.6.!.~.z H x x H <.>.;.k g P F 6 P P ^ ~ ~ ~ *.*.*.T P 7 P 6 P P 7 T ~ X ~ X X X X X X X *.*.*.X *.Q X *.X Q +.+.+.+.+.X ~ X ~ +.T ^ P 1.* - ; ; ; ; - - - > * > > 2 - ; ; ; - -...{.D A =.#.D s -.1 -.{.D D @.N N [.C.N.h.Y.`.q.!+,+Q.,+2+w.u+x+)+G.f.Y.g.n.r.r.r.r.g.2+g.m.Y.G.G.Y.Y.2+`.`.H.q.!+!+A.i+J.i+P.X.!+!+q.r._+h.h.w.D.a.L ` L [.F.w.N.x+Y.n.z.H.H.z.n.g.k+x+k+Z.v.j.O.u.i   < .   . . + + + + + ",
"                          +           +         + +           + + + + + + + + + + + . + . <   G h ! P 1 1 = a e 5 w w o t t B B v E v v t p t m m m l p m t B B B &.Z &.&.B o n B c d , = - - - 2 & 2 2 & & & & & = s v t t t t m &.m m &.&.` &.` ` ` ` E S b 1 = 2 & - - = = * % ,.4.f $ ,.6.9.7.5.7.8.9.7.6.3.!.,.6.9.A+5.6.;.I 7 P F F 6 7 T X X X X *.T T 7 6 P P P P P T ^ X Q Q X X X X *.T T X ~ ^ T *.X X Q 9 +.+.X X +.+.~ ^ ~ +.~ +.^ / * & - ; ; ; - - 2 2 > > > 2 2 - - 2 2 > -.-.D u u l ....{.{.{.{.{.{.$.$.L [.E.j.Z.n.z.!+i+ +L.S.h.h.h.k+Y.Y.m.n.r.r.r.r.n.y.m.m.k+k+M.k+k+G.y.2+`.H.!+!+X.A.A.P.X.!+q.p.p.o.n.Y.l+Z.j.F.:.L &.o [.C.i.v.h.Y.r.H.H.z.`.n.f.k+k+x+h.S.b.8 <   < . + . . + + + + + ",
"                    +             + +     + + + + +           + + + + + + + + + + + . . . <   i h ! +.l = = a 4 4 w o W S W t v E E W B t &.E m p m p t p m B B B &.t o o b 0 1 = = & ; ; - - 2 2 2 2 - & ; = 1 Z &.m m m t m m m m m &.&.&.` ` &.` ` &.E ` b 0 1 1 = & ; ; ; / k $ $ h ).6.7.A+A+9.9.9.7.7.7.7.5.5.9.C+C+C+C+3.C  .7 4 F 6 7 T T T *.X X *.T 7 7 7 T T 7 ^ *.~ ~ +.9 ~ ^ ^ *.*.T T X ~ 7 4 ^ ^ ~ ~ 9 9 +.9 9 +.+.X ~ +.+.+.+.+.X T / , * - - - - - ; - 2 > > * > > > 2 - - - & 1 l ..D D {.{.{.D {.{.=.=.D $.N R s.u+f.`.!+ +q.S.S.v.S.h.G.G.f.m.m.n.r.r.n.2+y.Y.M.h.h.x+k+k+G.Y.2+z.H.L.!+P.P.!+p.z.`.2+y.r.`.2+k+x+v.D.0.:.m v S [.0.D.v.x+m.`.z.H.z.n.g.k+x+x+k+x+e.'.. . @ + + + . + + + + + ",
"                    +         + + +   + + + + + + +           + + + + + + + + + + + + . . <   [ g q h ] 1 = a e ] s Z E W E v v E v E v t t m m m p m p p a v t m t B n * & ; ; ; ; ; ; & 2 2 2 2 - - & = 0 v t &.E &.t m m m &.t t m &.t t ` &.m &.W &.W L o t s m l = & & 0 q % F h 5 +.;.3.5.5.7.7.5.7.9.A+8.A+C+C+B+C+C+B+9.z+x 4 P T 6 6 7 7 T T *.*.T 7 7 7 T 7 P T ~ ^ ^ ~ +.+.^ 5 5 5 ^ T T ~ Q P / e e 4 5 9 9 +.+.+.9 Q +.+.Q Q +.+.~ ~ +.~ ^ P ) * & - ; ; ; ; - - 2 2 = > > 2 - ; ; ; & = a ..D {.{.].].].A =.A A $.@.$.N D.h.2+P.I.k+Z.S.Z.x+k+M.G.Y.Y.g.n.n.r.n.m.G.k+M.h.h.x+k+M.k+Y.2+`.p.L.!+I.!+z.`.y.y.Y.2+r.r.Y.k+d.S.w.E.L t o L a.F.B.v.k+`.z.H.z.n.f.k+h.x+e.l+f.j + @ . + + . . + + + + . ",
"                + + +           + + + + + + + + + +           + + + + + + + + + + + . + . < + : 8 ! h 4 = = = n b n E W B v v m Z B B E B o o p m t p p p m b t b 3 - ; ; - ; ; ; ; ; & > > 2 - ; & = a s b S v E v t t t p v p &.t t t t t t &.v v v W S S B v m t b l l ) h % h g % T - = w q ;.).2.2.4.6.6.5.7.8.B+B+B+B+B+B+6.% x 9 P ^.^.6 6 T T P P 7 7 P 7 P F F 7 7 P 7 ^ +.~ 5 O t.t.O ^ T *.Q *.4 4 P F / ^ ~ ^ ^ ^ +.9 9 +.+.9 Q Q +.+.~ ~ ^ ^ ~ 7 ) * = ; ; ; ; ; ; - - = > 2 - - - - ; ; - 2 > -.-.A /.A A A D =.=.A D D L a.w.r.A.x.v.S.h.h.k+M.k+G.Y.m.g.g.n.n.g.m.G.k+h.h.S.h.x+M.G.Y.2+`.%+q.!+q.H.o.`.g.2+y.y.n.n.Y.G.S.S.w.[.` S S :.E.j.j.M.y.`.z.`.r.Y.G.l+G.f.l+f._.  < . + . . + + + + + + ",
"                + + + +         + + + + + + + + + +           + + + + + + + + + + + . . . < . . '.g h ~ 1 1 1 1 0 b v E B v l m Z B B v b b t t t $.$.t t t t p 0 -.- 2 2 - - - ; ; ; - - - ; ; & 1 l s s p W v B B b t b t t t t t t t t t t t &.t v v S S B B v v b e 4 9 g ! q % C h 6 / n E w M q % q k H C C !.9.C+9.9.C+8.6.k.e 4 ^.{ / 7 7 T 7 P 7 7 7 P 7 ^ ^ ^ ^ ^ 7 7 7 ^ M O t.t.t.O 5 T ^ X X T T 7 P 7 7 ^ ^ ~ ~ +.+.+.+.+.9 9 Q +.9 +.+.~ ~ ~ ~ ~ ^ / d 0 * & & - - & & - ; - 2 - - - - ; - ; - 2 > ....D A A u A =.A A @.L L y+k.S.h.h.S.x+h.h.x+k+k+Y.f.f.g.g.g.g.Y.G.x+h.S.Z.x+x+k+G.Y.2+`.z.z.H.H.o.r.r.n.m._+2+n.2+y.h.w.j.E.:.E v v :.a.F.S.G.m.n.n.n.m.f.)+G.l+)+e.#   < + + . . . + + + + + ",
"                  + +           +   + + + + + + + +   + +       + + + + + + + +   + . + . < @ + '.g ! +.0 1 = = 1 n n v n B n v 0 m v t t p p t b L $.t t t m l ..-.> 2 - - - - - ; - ; ; ; & a s m m m s m v m v t t t b t t t t B t t t t t t t B B t B B v b o l b 5 ~ 9 I ! ! g % g 9 5 o &.S t s s a s D p 1 e ;.!.,.4.5.).|.R l ] 5 7 6 P 7 T T 7 7 7 7 7 ^ ~ X Q ~ ~ *.7 P 7 5 O K t.O O P 7 7 *.T *.*.T *.~ ^ *.7 ~ ~ +.~ M 5 M 9 9 9 9 9 +.~ ~ +.~ ~ +.+.M 5 7 5 ) * & - & - ; ; ; ; ; ; ; ; - - ; ; ; - - 2 1 ..D D A =.A ].=.=.D D $.F.h.x+x+h.S.h.h.h.x+k+e.e.m.g.g.m.f.e.k+h.S.S.h.h.x+M.k+Y.2+`.`.z.z.z.r.`.n.2+m._+m.2+g.Y.w.j.F.E.` B S :.[.a.i.h.Y.g.2+g.f.l+d.x+k+)+f._   < + + . . . + + + + + ",
"                          +           +           +               + + +   + +     + + + + < @ + j % q x l = & = a n B E 0 v n m 0 l B v b b u b t t t b t l l a 0 1 > 2 - - - - & - - ; ; - ..@.b m Z m m v t v p t p p p p t p t t t t t &.t B t t &.&.&.v l ] 4 ] e 5 +.+.I ! ! g g h I K R N N N L @.$.@.@.$.L e O x ! $ |.f N e ] 4 7 6 F / P *.7 6 6 P P P 7 ^ ^ ~ ^ ^ 5 4 6 P 5 5 M K K 5 P ^ 5 T 7 *.*.T ~ M ^ ~ ~ ~ 5 M 5 w K w 5 +.9 9 %.Q 9 +.X +.+.~ +.~ +.M ~ +.^ ) * = & & - ; ; ; ; ; ; ; ; ; ; ; ; ; ; - 2 2 > {.{.{.{.A D D s s N Z.d.)+h.h.h.h.h.h.x+G.l+f.g.g.g.g.f.G.h.Z.S.S.S.h.h.x+G.y.2+2+`.`.r.`.n.n.n.m.Y.Y.m.2+Y.x+S.w.j.a.` o L :.a.F.S.G.Y.g.n.Y.)+d.x+l+l+f.U   < + + . . . + + + + + ",
"                  + +             + +     + + + + +           + + + + +   + +     + + + + < < + j k % x d = & & l n E E E v v n 0 n b b 4 ] l l l ] n c l l 0 > * ..-.-.2 - - - & ; ; ; - a p p m m m m p p p p n b b u u u p u p t t t t t t v v t t m m v u e 4 4 4 5 M +. .g g g g h g H K N N @.N @.$.@.@.@.L e w w w w w p 0 ] ^ 7 ^.(.7 P F *.T 7 6 P P P P 5 5 5 ^ T T P 4 P 7 7 X +.T 5 ^ ^ *.T P 7 4 e O K K K K w e O O R K O M ~ +.X X Q %. .+.+.9 +.+.+.~ ~ +.+.+.^ ^ / 0 * * = & - - ; ; ; ; ; ; ; ; ; ; ; ; ; ; 2 > -...A =.{.s s m O.x+)+x+x+h.h.h.h.d.l+l+f.m.m.g.g.m.f.G.x+Z.S.v.S.S.h.k+G.Y.y.g.n.n.n.n.n.n.n.m.Y.G.Y.G.k+h.v.v.D.:.Z ` ` [.j.S.)+G.f.f.h.Z.d.k+e.l+l.i   <     . . . + + +   + ",
"                    +           +   + + + + + + + + + + +     + + + + + + + + +   + + + . @ @ + j k % x 0 1 & & 0 l E v v v v n n n b e d = & , , = = a b 0 * > > -.3 , 2 ; - - - ; ; - a p v m s m m p p l p p p u b u u u u u p t t p &.v t p t t B b p t ] 4 4 4 4 4 5 ~ +.I g g g g ! H f t.R N w N =.@.@.@.@.o e w O w e e 4 P *.T 6 { 6 7 F T 7 ^ T 7 7 5 7 5 ^ ^ ~ ~ ^ 4 6 P 6 P 7 F F F 7 ^ T 7 *.7 4 w w R R t.R [.R R R a.[.N M 5 ^ X X ~ +.9 ~ ^ +.+.+.+.+.+.Q +.+.^ ^ ~ ^ e ] c * 2 2 - - - ; ; ; ; ; ; ; ; ; ; ; ; - 2 a l ..> = 1 = s Z.x+d.x+h.Z.h.h.x+d.x+l+f.f.f.m.g.m.e.x+h.S.S.S.v.S.h.x+k+G.Y.m.m.m.n.g.n.n.g.m.G.G.G.G.k+S.w.j.0.:.` ` a.j.v.Z.k+k+G.x+h.k.h.)+l.:+[ + <     . . + + + + + + ",
"                + + +           + +     + + + + + + + + +       + + + + + + + +   + + + . @ @ + j k % h 0 1 = = 0 n l B v E Z E B p b c - ; ; = , T C z ! }.* > > > ..3 -.2 ; - - ; = 0 l p m m m m m t p p p p u u u u A D p p m p B m p t m p t m v t n b ] 4 4 4 4 4 5 ~ +.I h g q ! ! H f s.y+R N @.$.@.e ] e w e e w 4 e 4 4 7 7 *.T 6 (.{ P 7 7 7 T ^ ^ 5 7 ^ ~ ^ ~ +.^ P 6 P 6 F F { / F T 7 T T *.6 F N e w R R t.C.*+O.[.t.a.O w x f 9 9 +.^ 7 P / P 9 Q ~ +.+.+.X X ~ ~ ~ ^ ~ M 5 ) * - 2 2 2 - ; ; ; ; ; ; ; ; ; ; ; ; ; & = 2 - 2 2 = s j.d.u+u+h.Z.h.Z.u+u+x+l+e.e.f.m.m.f.G.k+h.Z.S.S.v.v.S.S.h.x+l+G.Y.y.f.f.m.m.m.m.Y.Y.G.G.x+S.w.v.w.F.:.L :.a.j.h.x+x+e.l+b.w.v.c.l._.  @ .     + + + + + + + + ",
"                + + + +         + +     + + + + + +   + +     + + + + + + + + +   + + + . @ < + j C % H l = = = 0 n v B v Z E S o t b 0 = * d , %.,.8.8.3.I / , -.> -.3 / , 2 - ; & l d n v m m m m p b p p p l u u u A A A D p p t v m p t p p m m v p t b ] / F F P 6 P ^ +.I I h g g h H *+R N N e @.@.e ] ] 5 M 5 e 5 5 5 4 4 P 4 P 7 { F F 7 7 P 6 P 7 T 7 7 7 ^ ^ ^ ^ P P P F F { F F { P *.T T *.T F F N w w O O [.t.s.a.a.E.O.l.H q % q g 9 M 5 4 ] ] 5 x  .I I 9 9 %.Q Q Q Q +.~ +.~ F , * - - - ; - - ; ; ; ; ; ; ; ; ; ; ; ; ; ; - & = 1 t.c.x+x+h.Z.Z.Z.Z.Z.u+d.l.e.e.f.f.e.l+)+h.Z.S.S.S.v.v.v.S.Z.u+d.l+G.e.Y.f.m.m.Y.Y.Y.G.e.x+Z.v.w.w.D.a.:.` :.D.S.x+l+l+l+v.B.w.v.k.U + @ + +     + + + + +   + ",
"                  + +           +     + +   +   + + + + +   + + + + + + + + + +   + + + + @ < + j C k q c = & & a n v E E m B o B o b = 1 n 0 ) z 7.B+B+C+).T ^., > > ..^.3 -.2 - = l d n v 0 Z m v t t b u p u u u u A A A A A p p p p p p t p p p p p n b c ] F F P P P ^ +.I I h ! ! g H f O N o e 4 4 ] ] 4 M x +.5 5 5 5 4 / 4 P F 6 F P 7 P 7 P 7 7 7 7 T T P ^ ^ ^ ^ P P F / (.{ / (./ P *.T T T P { 4 N w O M O N O [.:.[.:.E.l.H H C k % g q f e E n b ] 4 M +.9 9 9 %.+.+.X +.~ ~ ~ +.*.P }.> - ; & ; - ; ; ; ; ; ; ; - - ; ; ; ; - - - ; m c.x+u+u+u+u+u+u+u+u+d.d.l.l+e.e.e.e.l+x+u+Z.Z.S.v.v.w.v.v.v.S.u+k+k+k+G.f.f.Y.Y.G.l+e.l+h.S.w.v.j.E.:.` :.E.v.d.e.d.l.v.j.w.B.J . < . + + +   + + + +       ",
"                                                  +               +   +   + +     + + + . @ . @ r C k % d & & - 1 m v s W S t W v ] 0 & & * & 4 2.C+B+B+B+7.k ' > 2 2 > -.-.-.2 2 & 0 l l 0 n v E m p t u u u u A u A A #.A D A A u A D D u D D D D D D D b c ) F F P P 7 ^ ~  .I h ! g ! q h O w ] e 4 4 d ] 5 x x +.M 5 4 4 / F P F / { F 6 P P 7 6 T *.T T 7 7 T *.~ ~ %.*.F F / (.6 F ^./ 7 *.T ^ ~ P 6 5 o w w 5 O y+f O o :.` [.u.*+*+z z C z z C h e b l 0 a b e 4 ^ ~ 9 %.9 +.+.9 +.+.+.~ ~ ~ ^ P 1.> & - ; ; ; ; ; ; - - ; - & - - & - ; - :.c.Z.x+Z.Z.Z.Z.u+u+h.d.d.l.l+l+l+e.e.l+l+d.x+u+u+S.v.w.w.w.j.v.b.Z.h.x+k+e.e.e.l+l+l+)+)+x+Z.S.v.w.0.[.L :.[.j.u+c.u+v.B.w.B.s.U   . . + + + +             + ",
"                  + +           + +       + + + +             + + + + + + + +     + + + . < . @ r k k k ] & & & & l E E W t &.m v n 1 & & = ; n !.9.B+C+C+C+).] > 2 2 > -.-.> 2 2 2 * n l 0 l l n l l u u u u #.#.A A A A A A A A A A A A A D A D D D D u 3 3 ^./ { P P P 7 ^ 9  .h g g g ! g M ] b b e e ] / 5 M +.+.~ 5 4 / F P P P P 6 P 7 P P 6 F 7 *.*.T P P 7 *.~ ^ *.T 6 / / F 6 { / { P *.7 6 ^ F P ^ w 5 5 o N R K K [.[.:.C.k.*+O % $ C C z z C h 5 e 4 5 b ] e b b 5 9  .%.+. .9 9 +.+.^ +.+.~ *.P c d d * = 2 & - ; ; ; - - 2 = & ; 2 L v.u+c.u+u+u+u+h.u+u+x+x+c.d.)+l+l+e.l+l+l+)+k+h.h.Z.S.v.v.w.j.B.w.v.Z.S.x+d.)+)+)+)+)+x+x+u+Z.Z.v.B.0.a.L &.:.E.w.v.w.D.D.w.w.j + <   .   . + +             + ",
"                    +           +   + + + + +   +             + + + + + + + + + + + + + . < . < r C k k 4 = 2 & = l B Z s B &.b p * = = * = ; ; z 6.A+A+9.9.6.g 2 > - > -.> , 2 2 2 * c l 0 l l d l u u A #.#.#./.A A #.u A A A A 3 A A ].].{.{.A A A A 3 3 3 ^.(.(.F 6 P 7 ^ +. .h g ! g g !  .e b c ] ] d c e e 4 4 P 4 4 4 F P P P P F P 7 7 7 P 7 7 T *.*.P F F P F { F T 7 (.(.6 P 6 T 7 6 T *.T *.F P ^ M M w o :.:.[.R [.R N j.k.t.Z 5 g ! k C C z q x M +.I 7 P e a 1 a e ~ +.9 +.+.9 9 +.+.+.+.+.~ +.+.~ ~ ^ 4 c 0 * & & ; ; ; - & ; ; s k.d.Z.x+h.u+u+u+x+u+u+u+c.c.c.)+)+d.l+l+l+)+l+)+d.x+h.Z.k.S.v.j.B.j.j.w.v.S.Z.b.u+x+x+x+Z.b.Z.S.v.v.B.D.E.[.&.` a.D.D.D.j.j.B.*+[   . + + + + +                 ",
"                + + +           + +         + +               + + + + + + + + +   + + + + @ + [ C C k k ^ 1 = 2 2 0 b m s B p p a 1 = d d * * ; d 3.A+C+C+B+6.f 2 2 2 > * , 3 > - - = 0 a 0 d b d u u A u #.3 #.3 3 3 3 3 3 3 3 3 3 3 3 3 3 3 3 3 3 3 3 3 1.3 ^.}.) F 6 P 7 T +.9 h g g g g ! h 4 l c ] ] c b ] c ] c }.F 4 4 F F P P P P P P P P 6 7 T 7 T *.T 6 6 P 6 F / P T F { 6 7 7 T 7 ~ X ~ Q T { F 4 5 5 O R E.a.[.[.[.[.R C.a.&.1 0 5 h ! % % k % h x +.M ~ ~ 4 a a a l b F Q ~ Q 9 +.+.+.9 +.+.~ +.M M M 5 5 4 4 ] ] d * = 2 2 1 = s O.c.l+h.h.h.h.u+h.u+Z.u+u+x+c.c.d.d.)+l+l+e.l+)+)+)+k+h.h.Z.S.v.w.w.j.*+B.w.v.v.S.k.Z.Z.Z.Z.b.b.v.w.v.j.D.F.[.L m ` C.j.F.D.*+O.# + . < .   +     +             + ",
"                + + + +         +           + +                 + + + + + + + + + + + + + @   i k C k % 5 * = & - 0 B m s B n 1 2 2 0 o e c d * & q ,.5.5.5.|.d ; - 2 - 2 2 > 2 - ; ; - & 1 0 d d 3 3 3 3 3 3 3 3 3 1.1.}.1.^.1.1.1.1.3 3 3 ' 1.1.' 3 ' 1.1.3 }.}.) F 6 6 7 T +.9 h g g g g g h ~ d c c ] ] ] ] c ) ) ) ) / / P P P P P P 7 6 F 6 P 7 T P 7 *.*.7 6 P P P F 6 T 6 / F F 6 6 P X Q *.*.7 { F / / P 5 w E.E.[.[.[.[.t.o a 1 = 1 ] I h f q q % H M M ^ 9 +./ l s s l A P +.X X X ~ ~ 9  .+.9 +.+.~ ^ ^ 5 4 4 4 4 e ] ] d l 5 f [.C.u.k.x+x+h.h.x+c.h.h.h.x+u+h.u+u+c.d.d.l.l+l+)+)+G.)+)+x+x+u+Z.v.v.w.B.O.D.j.w.v.b.k.v.b.v.b.v.w.v.w.w.j.j.C.[.&.a s a.B.C.C.O.J < . . @ +                       + ",
"                  + +           +     +     +                 + + + + + + + + +   + + + . <   i C C k q 5 l & ; ; a B p m n 0 = - > b B B Z a 0 * ; , h H K s = ; - - - ; ; - - - - - ; ; & = * 3 3 3 3 ' }.^.}.}.}.}.1.1.1.1.1.1.1.1.1.1.1.1.1.1.' ' 1.1.1.1.}.1.}.(.{ { P 7 ~  .I g ! g g g g I ) c ) c c c c ) / ) ^.) / }.{ F F F 6 P 7 P P 6 P T T 7 T T *.7 T 7 5 7 6 P *.*.6 6 F P *.*.*.X *.7 *.F { { (.X 5 o a.a.[.a.a.C.R Z = = 2 & 1 P h 9 g ! ! g ^ P P +.^ c l l 0 u u ^ +.~ ~ ~ ~ ~ ~ +.%.+.9 9 +.+.^ ^ ^ 5 P 5 5 M 5 n 0 w f f u.u.k.Z.u+x+x+x+u+h.h.h.x+Z.x+c.u+c.c.c.d.d.)+l.d.)+e.)+k+)+x+x+Z.S.v.w.j.O.j.j.w.w.u.v.v.v.v.v.w.v.w.B.j.F.F.E.` 1 a [.O.C.C.'.@ @ : . .   +                     + ",
"                                                                  + + + + + +     + + + + <   U C C k ! ~ c = & ; a o o B 0 1 = = D t Z W t 0 1 a = a o e 4 5 ..> - - ; ; - - - 2 - - - ; & & = ..3 3 3 ' }.}.^.}.}.}.1.1.1.}.}.}.}.1.1.1.1.1.1.1.1.1.1.1.}.1.}.}.}.) / F P P X 9 I h g ! g g ! h / c c c c c c ) ) ) ) ) ) 1.) (./ F 6 P P 6 6 6 7 ^ T T T T T 7 6 P 7 7 7 5 ~ Q *.7 P *.X *.X X X T 7 { { (.}.*.+.e a.a.[.[.a.D.s.m 1 = 2 2 - = +.g H q q ! +.P P ^ ~ c 1 a a 0 D ] 5 5 9  .~ +.M 5 ~ 9  .%.+.+.+.+.^ ~ ^ ^ ^ 5 4 5 w e w w K *+u.k.c.c.d.k+h.x+x+h.h.Z.u+c.u+k.u+c.x+l.l+l.)+)+)+l+l+x+)+)+x+Z.S.b.w.j.F.j.j.w.B.B.w.w.u.v.w.w.B.B.D.D.F.E.` Z = ` [.[.8 [   @ < . +                         + ",
"                    +             + +                           + + + + + + + + + + . + + :   G C C q g ~ c & & & a ] ] l 1 & = l b t t o t m 0 1 & 0 n b p ] * > 2 - ; - - - - - - - ; ; & 2 2 ..3 ^.3 , }.}.^.}.}.1.1.1.1.1.^.^.^.}.1.1.1.' 1.1.' 1.' 1.1.1.}.1.}.}.(.{ F P *.9  .h h g ! ! q g 7 c ) c c c c }.}.) ) ) ) ) ] ^.F F F 6 P F { F P *.*.7 T T 7 7 P 7 7 P 7 ^ ^ X X *.T T ^ 7 T ^ ^ T 7 6 F 6 (.(.4 ] N [.a.:.:.a.K 4 c , & = = ; 4 q ! H ! q h M P ^ ~ ) = = a a a -.u 5 M +.x f x 9 M  . .%.9 +.~ ~ ~ ^ +.~ M M +.+.+.5 P 4 w 5 K *+k.u.c.d.x+x+x+h.h.h.x+u+c.u+Z.u+c.d.)+)+l.l.)+)+)+)+)+x+x+d.u+Z.w.B.j.j.j.D.O.B.v.B.B.v.u.B.B.j.F.F.E.a.L a = a a V U   < < +     +                       + ",
"                    +               +                           + + + + + + + + . . + + . :   _ C C g h +.d ; & & 1 b a = & & = 0 b b o b t t l b 5 I h q $ 4 ; > > - ; ; - - - - - - ; & & - - > 3 ^.3 ' }.}.) }.}.1.1.1.1.1.1.1.1.1.1.1.1.' 1.1.1.' ' ' 1.1.1.1.}.}.}.(.(.F T %. .I g g ! ! ! ! +./ ) ^.c }.) ) }.) / / ) ) ) / 6 6 P 6 P { (.(.{ 6 7 7 7 7 7 P 6 P 6 P 7 *.*.*.~ ~ ~ 7 P P 6 P P 7 T 6 6 T 7 { ^.}.] w [.[.[.R M ^ 4 ^.- = = & l x f h H q g x ^ ~ ~ / * = 1 a 1 1 A M 5 M f f x K K f +.+.9 +.+.+.~ ~ +.+.+.x 9 9 9 M ^ ^ P 5 5 O K K u.c.c.h.x+x+h.h.x+u+Z.u+u+u+k.Z.x+d.x+x+l+x+x+)+)+d.d.d.x+Z.b.v.B.j.F.F.O.j.B.B.B.B.u.w.w.j.F.F.C.C.:.1 & = & }   : < . + +       + + +           + + + ",
"                  + +           + +                             + + + + + + + + . . . . + :   _ C k g ! I }.& = = * 0 2 - = * 1 l b b e b ] ] ] f q % <.).4.$ ; > > - ; ; - ; - - - - - - & - ; - , 3 1.1.}.}.}.}.}.1.1.1.1.1.1.1.1.' 1.' ' 1.1.' 1.1.' 1.1.1.1.1.1.}.}.) }.(.P Q  .I h g ! ! ! !  .4 F ^.^.) ) ) }.) ) ) (.}.}./ F F 6 P 7 6 { { { F P T T T T 7 6 P 6 6 6 7 *.~ Q +.*.^ ^ ^ ^ P F P T 6 { { 6 { 6 6 F 6 5 5 5 5 4 P 4 / * = = 2 1 b x H H H H f M P P c l 3 ..> -...D M f x ! h K R O O w M +.+.9 9 M M M x +.M +.9 +.M M +.~ M 5 5 5 5 K O.u.c.h.x+x+h.x+h.S.Z.u+Z.b.k.S.u+Z.u+d.)+)+)+x+)+x+x+x+Z.h.Z.j.j.j.j.B.*+F.B.B.w.w.u.j.j.F.F.C.t.&.= ; ; = i   < . + +       + + + +           + + + ",
"                + + + +         +                             + + + + + + + + + . + + . . :   } k % ! ! h }.& = * * = ; ; 1 0 l p b ] ] ] b -.-.! h 4 <.2.6.!.0 & * 2 ; - - ; - - ; - - - & - ; ; > }.}.}.}.}.}.}.}.1.1.1.1.1.1.1.1.1.1.' 1.1.1.' 1.1.' 1.1.1.1.1.1.}.}.) }.(.F *.Q 9 I g g g ! ! I 7 / ^.}.}.}.) ) (.{ { 6 6 6 { / / / 6 P P 6 6 { { 6 7 *.*.P 6 F P 6 6 7 *.T *.Q X T 7 P ^ T F { P / 6 P { F 6 *.T 6 F P 7 4 4 4 5 / ] > 2 & & 1 0 M h H H h I ] = = = 1 3 3 ..-.-...5 ! H h H g f K N R x I 9 x x K K x x +.+.+.x +.M ~ +.M M M ^ 5 M 5 M K u.k.c.d.h.h.h.S.S.S.S.S.Z.S.S.h.u+l.l+l.)+)+x+x+h.u+u+x+Z.w.B.j.j.B.B.j.j.*+j.j.j.j.j.F.O.t.t.L a - ; Y < . @ + . . +     + + + +               + ",
"                + + +                                           + + + + + + + + . . . . + : : '.% q q ! I 1.& & = = = & ; = l p p b b ] ] ..2 -.I P a z 4.4.3.q - * 2 ; ; - - - ; ; - ; - - - - ; = 3 ) }.}.}.}.}.}.1.}.}.1.}.}.1.1.1.1.1.1.1.1.' 1.1.1.1.1.1.1.1.}.1.}.}.}.(./ 6 *.X  .h g g ! ! h ^ / (.}.}.1.}.}./ 6 6 7 T T 7 F { F P 7 T P 6 { (.(./ P 7 F F 6 F { { 7 *.T 7 T P F F / 6 7 F F 6 { / / F F F T 7 6 6 P 7 F ^.4 4 ] 4 , & ; & 1 a e x h H f M n = ; ; & 1 ....a -...w f f f H q q f R [.[.O M O O O N K x M +.+.+.+.M M x M M M ^ ^ ~ ^ M M O O.j.v.u+Z.Z.Z.Z.S.S.S.S.Z.S.Z.x+u+)+l.)+x+x+x+x+x+h.x+u+b.w.B.j.j.D.B.O.F.F.F.O.j.O.O.O.t.R L 1 = & J @ @ @ + . .       + + + +               + ",
"                                                                  + + + + + + + . + + + + @ i 8 q ! q ! h ^.& - & & & & & * l s p t b ] u > - 3 ~ d 1  .,.6.3.;.= = > ; ; - - - ; ; - ; ; ; ; - ; = ' ) ) }.}.}.}.}.1.1.1.1.1.1.1.1.1.1.1.1.1.1.1.1.1.1.1.}.1.1.1.1.1.}.}.}.(.(.P *.X 9 I h g ! ! h ^ / / }.}.1.}.d ) F P T *.T T P P 7 P 7 T 7 F / { ^./ 6 7 6 { F F { { { 6 P 7 6 { ^.) / P *.7 P ^ X F F 7 6 6 { { 6 { ) P F / 4 4 4 5 / = ; - & & 0 M f g H f 4 0 & & - & * 1 1 0 d u 5 f f H q q f O N [.[.O K R [.R O O M M M +.+.+.+.M +.+.M M ^ ~ ^ 5 7 5 5 O s.*+u.b.b.S.Z.Z.Z.Z.Z.S.h.Z.u+u+h.x+h.S.x+x+Z.h.x+x+u+v.B.j.j.j.j.D.F.F.F.F.F.O.F.s.t.R m 2 = - ( + @ @ + . .       + + +                 + ",
"                    +           + +                           + + + + . . . + + . + + . < + } % % q q ! h 6 & ; & & & & 1 l p s p l l ....* * ^.4 l * ^.>.6.4.).] ; & ; - - - ; ; - ; ; ; - ; ; ; ; , }.^.}.}.}.}.}.1.1.1.}.}.}.}.}.}.1.1.1.1.1.' ' 1.1.' 1.1.1.1.1.}.}.}.(.(.F 6 T X +. .g g g g g 9 4 ) c c ) ) ) c ) F P 7 7 7 6 7 P 6 6 7 7 { (.(.(.{ F F { { 6 F / { { / { P F F { / / F P F P 7 *.7 7 7 7 P F F P 6 F F F / ] 4 4 5 P * - ; ; ; = 4 9 h H H f e 1 = & ; - & = = 1 a 4 f x f h h f O N [.O K K R t.K K K M M M +.+.+.^ ~ +.M ~ M M +.~ ~ ~ ~ X 7 5 O K *+*+u.b.Z.S.Z.Z.Z.S.S.S.S.S.S.Z.Z.x+x+Z.u+h.u+Z.v.w.B.D.j.O.O.B.j.O.*+C.E.t.[.R N m & & ; J + < @ . . . +       +                   + ",
"                                  +                           + + + + + + + + + + + . @ @ U q C % q q ! I ^ = - & & & = a l l l s l s ..] b l 5 9 4 * > ;.4.4.>.! ' = ; ; - ; ; ; - - - - ; ; - ; ; , }.}.}.}.}.}.}.1.1.1.}.}.1.1.1.1.}.1.1.1.1.1.1.1.1.1.' 1.1.1.1.}.^.(.(.F F 6 ^ Q 9  .h g g h g I ^ ) 1.' ) / ) ) c c / { 6 P P P 7 T 7 7 6 F (.(.^.{ F { (.F P 7 F { 6 F 6 F 6 F { { / / F / / ) F P 7 7 7 7 7 F F 6 P { / 4 ] ] w 5 5 }.> - 2 & & d ^ g H q H M 0 1 * = & ; & = 1 a e 9 f f I  .x K 5 w N R R O K K K K M M M +.~ ~ ^ ~ ~ ~ +.+.+.+.+.+.y Q X ~ 7 5 M O O *+u.v.b.Z.Z.S.S.v.S.v.S.S.v.Z.u+u+Z.u+h.h.S.S.v.j.F.F.C.F.D.j.O.C.O.E.:.L L b l - 2 ; J   @ . . . . + +   +               +     + ",
"                    +           +                             + + + + + + + + + + . < : @ '.C % % q q ! I X * - & ; a l l p l l l 0 ..d ] ] ] 4 ^ / = ; g ,.>.;.C h { ; ; ; ; ; ; ; - ; ; - ; ; - ; = c }.}.}.1.}.}.1.1.}.}.1.1.1.1.1.1.1.1.' ' 1.1.1.1.1.1.1.1.1.}.}.^.) ) { { P T X 9  .I g ! h g I ~ }.' ' }.^.1.' }.) / 6 P 7 7 T *.T *.T 6 P { (.(.F 6 { { F 6 6 7 6 F P 6 { F 6 F / { / ) (.^.1.) 6 7 7 P 7 T P F T 7 P F 6 4 e e M 5 4 c 2 2 & & 1 ] x H H h M 0 = * * = = = = 1 1 n M h h I +.x  .x O ` L R K x M O M ^ ~ ~ ~ +.~ ~ ~ ^ ~ ~ +.+.^ M +.~ ~ ~ X ^ ^ ~ 4 e K K s.O.u.u.B.w.w.b.k.u+Z.S.Z.Z.Z.Z.u+Z.S.S.S.w.j.j.O.O.E.R R t.t.y+N p l s l > - 2 - }   @ + + . . . + +                       + ",
"                + + +                                         + + + + + + . + +   . <   i h % ! % q q g h *.= ; & 1 b b n p l l l l c ] ] ] ] 4 o 1 & 1 ~ C h y y I T & ; ; ; ; ; ; ; - ; - ; - - ; ; d ) }.}.}.}.}.}.1.}.}.}.}.1.}.1.1.1.1.1.1.1.1.1.1.1.1.1.1.1.}.}.}.) ) (.{ 6 T X %.I I h ! g g g  .F 1.}.}.1.' , c / { 6 7 T T T 7 7 T 7 6 F / ^.(.F 6 { F 7 P { 6 6 6 6 6 F F P 6 { F { ^.(.{ 6 F F P P F 6 7 F F P F 6 6 4 4 4 4 5 5 5 4 > ; ; & = a 4 f H h M d & 2 2 1 a 0 a a 1 a 4 I 9 +.+.9 +. .+.o N O M +.~ ~ M ~ ~ ~ ~ ~ ~ ^ ~ ^ ~ ~ ~ ~ ~ ^ ~ ~ ^ +.+.9 Q X X *.Q *.7 w O K O t.B.B.k.u+S.S.v.v.j.w.v.w.j.v.v.w.j.j.s.t.N w o L N b p b l a 1 - - 2 ; G   <     . . . + + +                     + ",
"                + + +                                         + + +       + + +   + @ < J q ! q ! q q g h 7 2 - 1 n b n n n l 0 3 ] 4 4 4 e 4 M ] = 0 +.h g 7 = T q y , - - ; ; ; ; ; ; ; ; - ; - ; ; d / ) ) ) }.}.}.}.}.}.}.}.}.}.}.}.1.1.1.1.1.' 1.1.1.1.' 1.1.1.1.}.}.(.(.F 6 T *.Q  .h h g ! ! ! I ^ }.}./ / / c c ] ) / F 7 7 P F 6 6 6 F { (.^.^.F 6 { F 7 P 6 6 7 7 F 6 P P 7 P 7 6 / / / 6 7 P P 6 F (.F (.}./ F ) / P 4 4 F 4 4 5 5 7 , - ; & & 1 o f f f f e a = a l l 0 0 l 1 1 e I ~ ^ ^ 9 ~ 9 I 5 w O ^ ^ ~ ~ +.Q ~ ~ ~ ~ ~ ~ ~ ^ ~ ~ ~ ~ ~ ~ ~ +.+.Q 9 %.+.Q 9 Q Q X *.P F ^ P w O O C.B.w.w.j.j.F.F.j.j.F.F.B.B.O.O.O o e e ] d b u b b u a 2 - - - V [   @     + + + + + +                     + ",
"                                                            + + +   + + + .   + + . + G | ! q % ! q ! g  ./ = = b b b 0 0 0 0 n ] e 4 ] 4 ] F ~ / 3 5 % M f ;.>.>.$ h 1.> 2 ; ; ; - ; ; - - - - - ; ; * / ) ) }.}.}.}.}.}.}.}.}.}.}.1.}.1.1.1.1.1.1.' 1.1.1.1.}.1.1.1.}.}.(.(.F F 7 *.~  .I g g ! ! g  .7 / ] 4 P 5 4 ] c c ) c / 6 P 7 7 7 F F 6 F (.(.F F (./ F 7 P P 7 7 7 6 P P 7 7 7 7 6 F (./ F / (.F { / }./ { / { (.}.] / / / F 4 4 5 ^ ] = ; & & = v x f f f K t 1 a n l d 0 1 a 1 b +.~ ^ ^ ~ ~ ^ I 5 N N o w ~ ~ ~ ~ ~ ~ ~ ~ +.~ ^ ^ ^ +.+.~ ~ +.+.~ +.+.~ ~ ~ +.Q +.Q Q X X *.X T 7 7 w w O C.C.C.F.j.O.O.O.s.t.t.O O e ] ] c / / c 0 d b 3 ..1 2 - 2 ; J . @ .     + + + + + +                     + ",
"                                +                                     + +     . .   [ ( % % % % ! ! g g I / 1 0 b b t 0 a 0 b b ] 4 e ] ] 3 / / }.6 6 5 ] C 3.7.A+4.! (.* 2 ; ; ; - - ; ; - - - - ; ; = ) ) }.) }.}.}.1.}.}.}.}.}.}.}.}.}.}.1.' 1.' 1.' ' 1.' 1.1.1.1.1.}.(.{ { F 6 7 ^ +.I I h g g g I ^ 4 ] ] / P w e ] ] / / / F F F 6 6 F F F F { { F { { { F F F { 6 7 7 7 6 F 6 6 7 *.7 F 6 6 6 F { 6 6 (.}.{ 6 F { { ^.^.F / ^.4 4 / 5 M 4 * - ; ; ; 1 w f x x x e 1 1 n l d * & 1 = l ^ +.+.+.+.+.M  .5 O w L e ~ ~ 7 ^ X ^ ^ ~ ~ ~ +.M ~ +.~ ~ ~ ~ +.M +.+.^ ~ +.+.+.+.X %.Q +.9 *.*.*.Q T 7 T 5 O O s.s.K K O O w N o e ) ) ) (.) ) c ' d d l ..2 2 2 - * U   < .       + + + + +                     + ",
"                                                        +     +     + + +     + @ + } q C % % % ! g g h +.] l 0 0 n l a 0 ] / ] e e c c c 3 ) * * F 3 = ] ~.5.8.7.7.<.^.* 2 - ; ; 2 2 ; ; - - - - ; ; & }.) }.}.c ) c }.1.1.1.1.1.}.1.1.1.1.' ' 1.1.' 1.1.1.1.}.1.1.}.}.}.^.{ { F 6 7 7 *.%. .h h h g I ~ 4 / ) / w O w w e / ) / / ) ) / (.^.^.(.(.{ { 6 (.^.6 F { (.{ F 6 F 6 6 F / (.P *.*.7 P P 7 7 F 7 T 6 / (.F F { { (.(.{ (./ 6 4 / 5 M 5 d = - & & & n M x x f M 0 a b b ..= 1 1 = 0 e ^ 9  .9 +.x 9 M M 5 w w e X T ^ ~ ~ ~ ^ ~ M +.+.~ ~ M ~ M ^ M +.+.M ~ ~ M +.+.9 +.+.9 +.+.X X X *.T 7 ~ T ^ K K w w w e e ] e ] c }.) (.^.) }.}.c , , d ..2 - 2 & ( . < . + + +   + + + + +                     + ",
"                                                              +       + +   + @ . [ V k % % q q g g h h ~ c d l a 0 l 0 ] 4 / e e ] c c c ] d = > d ..= a <.A+B+8.A+2.y , = ; ; ; > , 2 ; ; - - ; ; ; ; d / ) ) ) ) }.}.1.1.1.1.1.1.1.1.1.1.1.' ' ' ' ' ' 1.1.1.1.}.}.}.}.(.{ { F 6 P 7 T Q %.I h h h h +.P F / w O O R w e ) ) / ) ) ) }.1.^.^./ ^.^.F 6 { (.{ 6 F F F F F { { { 6 F / F 7 7 T P 6 6 7 P P T P { }.{ 6 { F { (.^.) F P F 4 5 5 5 / , 2 2 = = a o O f f x b a s c , = 1 a a a * ] +. .Q +.~ +.M ~ 5 4 e ] F T 5 +.+.+.~ ~ +.M +.+.M M ^ M M 5 M x +.M M M +.M +.+.+.+.~ ^ X *.*.*.X *.X 7 P 5 w e 4 4 4 4 e ] / / ) ) ) }.1.c c c d 3 d > 2 > * 2 U   + . + + +     + + +                       + ",
"                    +           +                             + +     + +   + <   U 7 k % % % ! g g h I ~ c 0 n d c c / / F 4 ) c c ) ] c }.* 2 - 1 ..d 3 q 6.8.8.5.,.~ - & ; ; ; * , 2 ; ; - ; - ; ; ; * (.) ) ) }.}.}.1.}.1.1.1.1.1.1.1.1.1.' ' ' ' ' ' 1.1.}.}.}.}.}.}.(.(.F F 6 7 7 *.X %.I h h h h ~ / ) / e w O t.w e c c c }.) ) ) }.(./ / ^.) F { / (.^.F F 6 F F F F { { F 6 { { { F 7 F F { F 7 7 7 7 F (.{ F 6 6 F / ) ) (.{ / (.F 4 4 F ^.> - & = 1 0 5 f f f e E s d d * a 0 a = 2 0 ^ Q Q Q ^ ~ 5 ~ 9 M ^ 4 P ^ P 7 +.+.~ +.+.M +. .+.+.M M M M M x x M K M ~ M M %.9 +.~ X X *.*.X Q Q X T 7 T 6 6 P P P 4 4 F / (.) ^.) }.' ' d }.}.d , 2 - * * }   @   +   + + +     + +                     + + ",
"                  + +                                   +     + +     + + + + @   _ 7 k k k % ! g h I  .^ c d c / / { F F F / ) c c ) ) 3 * > 2 2 > * d c ' h ;.,.;.9 -.; ; ; ; ; = * = - - - - ; ; ; ; = }.}.}.}.) }.}.}.1.1.}.1.1.1.1.1.1.1.1.' ' ' ' 1.' 1.}.1.1.}.}.^.^.(.{ { 6 P P *.Q  .y h h h h ~ P F / ] e O O w e c ) c }.) ) ) / { (.^.(.) ) ) / (.(.6 P 7 6 P F F { F 6 { { ^.^.6 6 { F F F P 7 P P 6 F { { 6 P P F / ) (./ (.^.^./ / }.' * - ; & & 1 M x x x 5 b l l d * 1 a 1 1 1 a 5 T *.+.^ ~ 5 5 +.M 5 ] ^ ^ 7 X ^ ^ ~ ^ M ~ ~ M M +.x M M +.M x x M M O 5 5 M +.Q X +.Q Q ~ X Q X Q X X X *.T 7 7 P 4 4 7 / c / ) 1.}.' ' ' , ' ' * & - * * Y :   . .   +     + +   +         +           +   + ",
"                                                        + + + + +   +   +   + @   } ^ C k % q g g I  .~ P c d c F F { / F P / ) ) ) c ) , > > > ..* * , d , / M ! 7 3 * 2 - ; ; ; 2 * = - - - - ; ; - ; & 1.) ) ) }.}.}.}.}.}.}.}.1.1.1.1.1.1.1.' ' ' ' ' 1.1.}.1.1.}.^.^.^.(.{ F P 7 T T X Q I h I I I ~ P F ) ) e w N N e ] ) / }.}.c 1.) / / ^.^.(.) ) ) { / F P 7 P 6 F F { F { / ^./ { F 6 6 F 6 7 7 6 P 7 6 F { / 6 P P 6 / (./ (.(.}.}.^.3 ' }.1.* & = = & B M x x M o v l s 1 = 1 a 0 0 1 b F F ^ 9 I  .M M 5 4 b F 5 ^ ~ T P 7 P ^ ^ ~ ~ ^ +.9 +.M +.M M +.^ M M 5 M M M ~ X X ~ X ~ ~ X X X *.*.X ~ *.T 7 7 4 4 T }., ) ) c 1.' ' 1., , * = 2 1 ..> G   . .   + +     +               + +         + + + ",
"                                                      + + + + +     +   + + + @   J %.C k % ! g g y X 7 { 1.1./ { F F F P F ) ) ) ) c * * > * * .., , , , d / 7 ^ ^.3 3 > ; ; ; ; - 2 & - - ; - ; ; ; - ; d }.}.}.}.}.}.1.}.1.1.1.1.1.1.1.1.1.1.' ' ' ' ' 1.1.1.1.}.^.}.}.}.) / F P 7 7 *.X 9 y h I I I ~ 7 F 4 e e e e e e c ) ) }.) }.^.^./ / / ^./ F ^.^.6 F F 6 7 6 F 6 F / / / / / / { F F P 6 F F 7 6 P 7 6 6 (.) F F 6 { { (.(.(.) ^.^.^.^.}./ / , & & & ; = 5 x x M e o v 1 1 = 1 a 0 d * d / T 9  .M M K O 5 ~ 7 e ] c / 7 7 P T *.^ ^ ~ ^ ~ M M ^ ~ M ^ +.M M M M M ^ M ^ *.Q X X Q X Q X X *.*.Q X *.~ *.T 7 6 3 1 = , }.}.) }.}.1.) ' & 2 * ..1 #   . @ + +         +                           + + + ",
"                                                      + + + +   +     + +   + @   } g C % k g g h Q T T 6 { F 7 P F F F F ) c ) }.}., = * , , , , * * d ) ) { F 6 { ^.^.* ; ; ; ; ; ; ; - ; - - ; - ; ; ; * ) }.}.}.}.1.}.1.1.1.1.1.1.1.1.1.1.1.1.1.' ' ' ' ' 1.1.1.^.}.^.^.(./ { P 7 P *.X %. .h h I I X 7 T 4 ] e ] b ] ] c ) ^.^.(.{ { (.^./ F (.(.{ / ^.(.F 6 6 6 6 F F F / / / ^./ ^.}./ F 6 7 P F P P P P 7 P { (.^.^.F F / / / / { / / / ^.3 ] / ' 2 & = = & ] M M M M w m a 1 = = 1 a a 0 / / 4 F c 0 e O w O x w t e F / T *.P ^ ~ T 7 +.Q ~ ^ ~ ~ ~ ^ ^ +.~ ^ ^ M M M ^ ^ 7 *.X X X X Q Q X X ~ X *.X ~ X T *.T ..2 2 & = }.}.' ' ' ' = ; & * * (   @ < .             +                           + + + ",
"                                                      + + + + + +     + + + + .   J % C k % h I ~ T 7 7 7 6 P 7 7 P 6 F / c c d , , > = * , ' , * * , / 6 { F F F 6 { 1.* 2 ; ; ; ; - ; - - - - - ; ; & ; & }.}.}.}.1.}.1.1.1.1.1.1.1.1.' ' ' ' ' ' ' ' ' ' ' ' 1.1.1.^.1.^.(./ F 6 P 7 *.X 9  .I h I I +.^ ^ 4 c ] c c c c }.1.(.{ / / F F (.(.{ ) (.^.(.(.}.F 7 P { 6 P { F / / { ^.(.{ / ) / { 6 P 6 P 7 P 7 P 6 F { ^.(.(.F { / / ) / ) ) (.3 ' ) ^.^.' = = = & 0 5 M x f O m v n 1 = a a 1 = d 0 1 0 , 0 N L N R N o o 4 ^ P F *.X P P 7 P *.T ^ ~ *.~ X *.^ *.^ ^ ^ ^ M M ^ ^ ^ ^ ~ X X Q X X *.~ X *.~ X ^ X T Q *.6 , = 2 ; }.1.* , }.2 2 2 > 2 Y [ . < @ +                         +                 + + ",
"                                                      + + + + + + + + + + + . @   ( % k q q I X 7 P 6 P F F 6 P P P 6 { ) d , * = & = = * > * > * , 1.6 F F F 6 6 6 (.^.3 > ; ; ; ; - ; - - - - - ; - - ; ; d ) }.}.}.}.1.1.1.1.1.1.1.1.1.' ' ' ' ' ' ' ' ' ' ' ' 1.1.1.1.}.(./ / 6 P 7 T X 9  .I h I I 9 +.+.5 ] ] / / ^.3 ^.^./ F / ^./ / ^.^.(.(.(.(.(.(.{ F P P F { 6 / / (./ (.) / { / (.(./ / F (.P 7 P 6 6 6 6 { (.(.{ 6 { / F { (.^.) ^.1.^.^.^.^.^.* & & ; = e 5 x f w E B n l 1 = 1 1 = & = = * * n m &.[.N o N 4 4 *.^ / 6 +.*.6 7 7 ^ ^ 7 T ^ T 7 *.~ ^ ^ ^ *.~ *.*.T ^ ^ ^ ~ X X X X *.X X ~ ~ ~ X ~ X ^ ^ Q T F * - * { ' , , , = * * - Y i + @ @                                             + + + ",
"                                                      + + + + + + + + + +   . <   ( q % g g %.T T P F F 6 F 6 6 6 F ) ' , * * = = & - = * = 2 = ' ^.F 7 6 6 6 6 6 { (.^.' > - ; ; - 2 - ; ; - - ; - ; ; ; ; , / }.}.1.1.1.}.}.1.1.1.1.1.' ' ' ' ' ' ' ' ' ' ' ' ' 1.' ' ' d c ) / (.F 7 *.*.X  .I I h I 9 +.9 x 4 ] / / ^.}.^.^./ F / / ^.^.^.^.(./ / (.(.{ (.F 6 P P / F F ^.) ) ) ) ^./ / / / / { / ^.{ 6 6 F 6 7 6 { { { { F 6 F 6 F / (./ / ^.) ) 1.1.}.* & ; ; 2 e 5 M f 5 0 0 B l ..= = = = = > * * 1 b t N w o L w e / 4 X T / 4 T T ^ ^ 7 P 6 6 7 *.~ T ^ ^ ^ 7 ^ X T T 7 T +.+.*.Q X *.Q X ^ X X ~ X X X X X *.+.X 7 3 2 }.^ X P = ; - > - Y i   < < +             +           + + +               +   + ",
"                                                      + + + + + + + + + +   + <   J ! ! g h T T P 6 F P F F 6 F { }.* = = & = = = = = = > * - * ^.{ 6 7 7 6 6 6 F { ^.^.3 > - - ; ; > - ; ; ; - - ; - ; ; ; * / ) ) 1.}.}.}.}.}.1.1.1.1.1.1.' ' ' ' 1.' ' ' ' ' 1.1.' ' , 0 0 d c ) ) F T ^ +. .I I I I 9 9 9 +.4 b d c }.}.^.}.{ F F F / (.^.) (.(./ (.(.{ { F P 6 F F { { ) / ) }./ ) ) / { { / / ) (./ F 6 F 6 P 6 { / { { { 6 6 6 6 F F { / / ) (./ }.^.d & & = = b x x x 9 ] 1 l l u l = 1 a > > > = & 0 w O w e e b v o ] Q I P F 7 Q +.*.T 7 7 T 7 *.~ T *.*.T T *.*.T *.^ ^ +.+.^ 7 *.^ +.~ +.~ *.*.X ~ X Q X +.X T T 7 4 , 1.7 ^ F , = ; Y [   @ < .                           + +                 + + + ",
"                                                      + + + + + + + + + + + + @   ( g q h Q 6 6 6 6 F { F F { F }., = = = = = = & & & & = > , ' { 6 6 6 6 6 6 F { { (.^.^.* 2 - ; ; * * - ; - - - ; - ; ; ; = ) ) ^.}.}.}.1.}.}.1.1.1.1.1.1.1.1.' ' ' ' ' 1.' 1.1.1.1.' d d l l d c c / F 7 +.+.I I I h I +.9 x 5 4 c c ^.}.^.) ) / F / (.(.^.) (.{ { F / { { F 6 6 F 6 F { / / (.}./ / / (.(.{ / ) }./ { 6 P F F P F { / ^.F { F F 6 6 F / / ) ) ) ) ^.1./ F * d 6 ) l 5 x f h 5 a l b ] b a a a * > = & ; a w 5 5 5 5 4 m o ) P y X T 7 ^ X *.^ X ~ *.7 P 7 *.~ *.7 7 T 7 *.*.T ^ ~ ^ 7 P 7 ~ X X Q X X *.~ X X Q Q *.*.7 %.9 %...> , c h %.F ( [   < < +                               +                 + + + ",
"                                                    + + + + + + + . . + +   + .   ( h q y X 6 { 6 P F (.{ { ) 1., = = * = = = & - - & > * , ^.(.F 6 { 6 6 F 6 6 F { (.^.1.* 2 - ; ; = d = ; - - - ; ; - ; ; & }.^.}.}.}.1.}.}.1.1.1.1.' ' 1.' ' 1.' ' ' ' 1.1.' 1.1.1.' c d d d d l l b ] ] M +.9 I h I h  . .x +.^ ) c / ) }.}.c c }.^./ (.) ^.^.) { { F { / F { { { F 6 F F / { ) ) (.) (.^.(.(.(./ (./ F F P F 7 P F F F { F F F 6 { (.) (.) }.) ^.^.1.(./ , { X T c ] M f f M ] v e b b l a a 0 , * = = a v w M M ^ 7 ] b ] ] / F P 6 T ^ T +.~ ^ T T T ~ ~ X X X *.^ T *.T 7 P ^ ~ T 6 7 ^ X X *.X X X X X %.X T T 7 ^ P +.I 6 0 > c  .^ X G   [ : @                                 +                 +   + ",
"                                                    + + + + + + + + . + +   + .   _ *.g y *.{ { 6 6 { (.(.(.}.* = = * * = = = = & - > , 1.1.^.F 6 6 F 6 6 6 6 6 6 { (.^.^.* 2 - ; ; 1 d * ; ; ; ; ; ; ; ; ; ; ' ^.^.) }.}.}.1.' 1.1.1.1.1.1.1.' ' ' ' ' 1.1.1.1.' 1.1.' d n n n d d d n b n 5 +.+.I I h I  . .9 9 Q F d }.) ^.}.c c }.) ) ) (.(.) }./ F { { { { (.(.{ { 6 { F F F F { / ^.^.^.) ) / ) / { / ) F P 7 P F F F / (.F F / ^./ / (.^.}.^.^.^.^.3 }.1.P ~ P * d x x x f 5 t w b ..] l 0 , * * = * 1 & o M M ~ 9 X / ) F / }.) 7 X T ~ *.T ^ T ~ X *.~ X Q Q X T 7 T T T 7 *.*.T T T 7 *.*.*.*.*.Q Q *.X 7 6 +.~ T P 7 X X / T  .^ +.+.'.: : : + + +                                                   + ",
"                                                      + + + + + + + . + +   + . + [ 8 g g *.^.{ { { (.^.(.) , * = = > > = & = = * , 1.1.1.^.{ 6 6 6 F F 6 6 6 6 F { (.^.}.* 2 & ; ; 1 c * ; ; ; ; ; ; ; ; ; ; * (.^.}.}.}.}.1.1.1.1.1.1.1.1.' ' ' ' ' ' ' 1.1.1.1.1.' ' ' d n l d d n n t b 5 +.9 I I I I f 9 9  . .7 }.}./ ^.) }.c }.) ) ) ) (.{ ^.) / { { / / (.{ (.(.{ / / F F F F { / { (.) (.(.(.(.{ (.{ F 6 P F 7 6 / { ^.(.}.}.(.{ / { ^.^.^.^.^.^.^.^.}./ 7 / 2 a f M M f 5 t e t s b 0 = = 2 = 2 0 n s b 5 5 w 5 T ) ) ] 6 ) d 7 X *.*.^ X ~ *.X X ~ ~ ^ X X ^ P 7 7 T 7 P 7 T *.*.*.X X *.T *.~ X Q ~ T T *.Q X *.7 P 6 T X 9 h ^ ^ ~ ~ j i + < . @                                                   + ",
"                                +                   + + + + + + + + + + +   + + .   # g h { (.{ (.(.^.1.1.' * > > = = = = & * , 1.(.(.(.^.(.F 6 F F F 6 6 6 P 6 F { / (.1., > 2 - ; = n * ; ; ; ; ; ; ; ; ; ; = }.}.}.}.}.}.}.1.' 1.1.1.' ' ' ' ' ' 1.' ' 1.' ' 1.1.1.' ' d E m v n n l n ] 4 5 M f I I h I  .9 9  .^ F { / ) ) ) c ) ) ) ) }.) (.) }.{ (./ F / (.^.{ { { { F { F P P F F { / (./ ) (.(.^.^.(.(.F P 6 6 6 F / ) ) ) }.^.(.^./ / ^.(.^.(./ { (.^.}./ P 3 = 5 M M M K b E v a l b = ; 2 = & = n n b e ~ 5 4 P ) u ] P *.6 6 6 7 P T P T 7 ^ *.~ X X ^ X T P 7 7 7 T 7 7 7 X X *.X *.*.^ *.X *.X *.c * , 7 Q *.P 7 ^ 7 T X %.X +.^ ~ +.8 U @ < +   +                                               + ",
"                                                +   + + + + + + + + + + +   + + .   i | y (.6 F (.' ' * * * = = = & = & & * ' }.(.^.{ (.(.{ 6 6 6 6 6 6 6 6 6 F F F (.^.^., > 2 - ; - d * ; ; ; ; ; ; ; ; - ; & 1.^.}.}.1.}.1.1.1.' 1.1.1.1.1.' 1.1.' ' ' ' ' ' 1.1.1.' ' n E m m v n l v n ] e e M x I h I  .9  . .~ ^ 7 / (.) ) ) }.) }.1.1.}.}.^./ F { (.{ { (.^.F F { { F { { F 6 { F F { / { / ) }.}.(.(.^.F 7 F P P / ) ) F (.) (.}.^.^.^./ / { (.^.^.(.{ ) { 7 4 = p K w K f O t S s b 5 ] , = = 2 & 1 1 p e 9 +.^ 7 6 4 P / X ^ T 7 7 7 *.P 7 ~ T ^ ~ +.~ Q +.*.*.^ T T 7 7 T T T *.~ ~ T *.X Q Q %.%./ 2 ; ; * P P *.7 T T P ^ *.%.Q %.7 +.h | U + : .                                   + +         + + ",
"                                +                       + + + + + + + + +   + . . .   } T (.(.(.' * * = = & & = = & 2 & = , ) (./ (.{ (.{ { F 6 6 6 6 6 6 6 6 F F F F (.^.' > 2 & ; - * > ; ; ; ; ; ; ; ; ; ; ; 1.}.}.}.}.}.}.1.1.' ' ' 1.1.1.1.1.1.1.' 1.1.' ' ' 1.1.' 1.l E m m E n n E B o o o B e M I 9 +.x 9 9 +. .~ / 1.) ) ) }.}.) }.}.}.}.^./ F { / F { ) (.6 { { 6 F { { F { { F F F / ) (.) ) ^.(.{ F 7 P F P P { ) }.{ { ) { / (./ F { (.(.(.^.(.{ (./ / (.^.* = w w O f O B E b e 5 5 5 d 1 = & = = m e 5 +.~ ^ T P P P T ^ Q *.^ *.^ T *.^ ^ ~ ~ ~ ~ ^ ~ *.^ ^ T T T T 7 7 7 ~ +.~ *.Q %.%.Q / d 0 , 2 2 - ' X 4 7 X T P / { y Q Q ^ 7 | I '.< [ <                                 +   +         + + ",
"                                              +       + + + + + + + + + + + . + . .   i V ' ' ' , 2 * * = 2 & = = = = * , }./ { { { (.{ (.F 6 P 6 6 6 6 F F 6 F F F F ^.1.' > - & - ; ; - ; ; ; ; ; ; ; ; ; ; ; , ) }.1.}.}.1.1.1.1.1.' ' ' 1.1.1.1.' ' 1.1.1.1.' ' ' ' 1.c m m m s Z l n W B B B E 0 0 b w M 9 9 x f I 9 ^ 1.c / (.) c ) }.}.1.1.}.^.F F F F F { F F F F 6 6 / { { / { { { { { / / { F { F { 6 7 7 6 F F (.1.^./ (.(.{ { { 6 P 6 { / / { { (.{ (.^.) 1., & 0 w O R w B Z m B t e 5 4 ] d d 0 = 0 0 l 4 ^ Q T P ] ] 4 ^ ~ 7 ^ ^ ~ ~ T ^ *.^ ~ ^ ^ 7 7 T 7 T 7 7 *.T T 7 T ^ X ~ X X ~ *.}.= ; , ^.= a = , Q P ^ X X P P }.4 %.Q X ^ ~  . .i . @ +                               +   + +       + + ",
"                                                  + + + + + + + + + + + + . . +   + @   } , , > > > > > > = & 2 = = > , }./ F F 6 { (.{ (.F 6 6 P 6 6 6 6 { 6 6 6 6 F (.1.1.* - - ; ; ; ; ; ; ; ; ; ; ; ; ; - ; & }.}.1.1.' }.1.' ' ' ' ' ' ' 1.1.' 1.1.' 1.1.1.1.1.1.' 1.}.s s m s s v m v W v W E 0 a 1 a n b 5 h  .5  .I ~ P ) ) }.c c }.}.}.' 1.^./ 6 6 F / P 6 F 6 P F F { F F / (./ { F F F F F { { F 6 6 F 6 6 F 6 6 (.(.(.(.^.^./ (.{ 6 P F F / { 1.^.{ F ^.^.F ^.= = e K N w e Z a Z Z p +.9 M M M / 1 = a b c F 7 *.T ] ) P 7 P 7 ^ 7 ~ ^ ~ ^ ^ T 7 7 ^ ^ 7 T T 7 P 6 7 T 7 7 *.X X ~ *.^ ~ 6 0 = = ..* * = 2 - ^.*.T ^ ^ X T F d 7 Q %.X 9 y %.j   @ . .                                 + +         + ",
"                                +         + + + +   + + + + + + + + + + + + + +   + .   i ' , = 2 2 2 2 > = 2 2 = = , ) / { F F 6 { (.(.(.6 6 6 6 6 6 F F F 6 6 6 6 F (.1.' , - ; ; ; ; - ; ; ; ; ; ; ; ; ; - ; ; ' c }.}.1.1.1.1.1.1.' 1.1.' ' ' 1.' 1.1.1.1.1.1.1.1.1.1.3 m s s t e e ] B B B E Z B b a = = & 1 c ] e +.I I Q / ) / c }.}.) }.1.1./ { F F F / (.{ / { F { (./ F F { (./ (.{ / / F F F { 6 6 F F 6 F P P F (.{ (.^.(.{ / { / F 6 { { { ^.^.(.{ (.^.^.F { = & B K e L w o N L Z a ] h +.4 ] n c 0 1 m b P T T X T P / P / 7 P T 7 P ^ T ^ ^ T 4 7 ^ T T 7 7 7 6 6 7 7 7 7 *.~ *.T T X / a a a = = * 2 - ; , ^ 7 P ^ X 7 T ] 3 7 Q %.^ +.9 I G . <                                   + +     + + + ",
"                                +     +   + + +       + +   + + + + + + + + + +   + + .   # = * 2 2 2 2 = 2 = = > , ) { / F F F F { (.^.(.6 6 6 6 6 6 6 6 F 6 6 6 6 F (.}.1., 2 - ; ; ; - ; ; ; ; ; ; ; ; ; ; ; ; d ) }.1.1.1.1.}.1.1.' ' ' ' ' 1.' 1.1.1.' 1.1.1.1.1.1.3 3 m s p w +.5 5 e b d 0 n e w E = & & ; ; ; = d c e  .*.) (.}.}.}.}.}.}.^.{ { { / (.) }.}.}.) ) / ) ) (.(.(./ (.^.(.(.) ) { F F 6 6 P 6 6 F 6 6 F { { (.^.^.{ { { F { F F { { / (.(.(.^.^.^.(.{ 2 & B w o E &.N w e v 0 a l c 0 2 a 5 5 ] m t ] 4 4 Q ^ { F X 6 / F P P P T 7 T ^ ^ P 6 7 T 7 7 T 6 6 6 F 6 P 7 ^ *.^ X T X *.0 0 d d * * 1 2 * P Q P P ^ ^ T *.T ] / P Q ~ ^ Q 9 | [ < @                 + +           + +         + + ",
"                                +                 + + + + + + + + + +     + + + + + . @ @ < Y & = , > - 2 = = * , }./ F { F F F 6 F }.}.(.{ 6 7 P 6 6 6 6 { 6 6 F F F { ^.1., = ; ; ; ; ; ; ; ; ; ; ; ; ; ; ; ; ; * ) }.^.' }.}.1.1.1.1.1.' 1.1.' 1.' ' 1.1.' ' 1.1.' ' 3 u p s ] ^ +.M M 5 n 0 l d d d * - ; & ; ; ; ; ; ; ; n P F / }.) ) }.1.}.^.^.^.) / ) 1.}.) ) ) / / ) ) (.(.(.^.^.^.^.}.) (.) { F P P P P P P P P P 6 { (.(.(.(.{ 6 { 6 { F / / (./ { { / ^.{ (.{ , ; a S b E Z o o e t 0 l = = * * e e 4 ^ ~ 4 n ] 4 P F / 7 +.T 6 6 P T T P ^ T 7 7 P P P 6 6 7 7 P 7 6 { P 7 7 T X ~ +.^ ^ I F c ] T F 1 ^.{ T T 7 7 X *.T *.*.T F ] P 7 X T 7  .y j @ :   +                           + +       +   + ",
"                                +             +     + + + + + + + + +     . +   + + . @ < < U Y { X 1.- & & = , }.(.{ / { F 6 P 6 / 1.}.(.{ 6 P 6 6 6 6 6 { F 6 F F F / ^.^.' = ; ; ; ; ; ; ; ; ; ; ; ; ; ; ; ; ; = ) ^.}.1.1.1.}.1.1.1.' 1.' ' ' ' 1.1.' ' ' ' 1.1.' ' ..u ] u 4 +.e ] c 0 1 = = & & - ; ; ; - - ; ; ; ; ; ; ; = ] ^ { / ) }.' }.^.}./ }.^.) }.}./ ) ) (.) ) ) ) ) (.^.(.^.}.^.(.) (.{ F 6 F 6 6 6 6 F P P 6 F 6 6 6 { P 6 { { { (.{ { / / / (.(.) (.{ 6 ' ; & e w o &.S Z a a a * * 1 * d 5 E 0 ~ I T c l / e 3 / F P P P 7 T T 7 P ~ 7 P 7 P 7 P 6 6 7 P 7 6 F 6 7 *.7 7 *.*.~ 7 7 *.T T { 6 X { 6 X *.7 P 7 *.*.7 *.*.T 7 ] ] P ~ ~ ^ ~ 9  ._   < . .                           + +     + + + ",
"                              + + +         + + + + + + + + + + + + + + + + + + + + + . . <   U *.h 7 > 2 2 * }./ (.F F { { 6 P 6 / }.}.) / F F F F 6 6 6 { F 6 F 6 6 / ^.^., = ; ; ; ; ; ; ; ; ; ; ; ; ; ; ; ; ; & }.) }.}.1.}.}.}.1.' ' 1.' 1.1.' 1.1.1.1.1.1.1.1.^.1.....u 5 x 9 e & - & ; ; ; ; ; ; ; - - - - - - ; ; & & & ; = ] 6 }.) }.1.1.1.^.^.^.^.) }.c c }.) ) ) ) (.{ ^.^.(.(.^.^.(./ / (.) ^.(./ F F F 6 6 P P 6 F F 6 F 6 7 6 { { (.{ { { / (./ ^.^.) ^.(.(.^.* 1 e M M O w &.B o ..= = = = 1 ] 0 1 M I ^ F c / F ] ) c F / / P P 7 ^ ^ ^ ^ 7 T 6 6 6 P P 7 T P P P 6 7 *.T 7 7 7 T ^ ^ P 7 *.7 T 6 T T 7 6 T 7 P / { P T T ^ *./ b 4 ^ ^ ~ ~ ^ X | G + < +       + +                 + +   + + + + ",
"                              + + +     + + + + + + + + + + + + + + + + + +   + . + + + @ @ <   # Q T , = & ' / F / 6 F { F F P 6 ) }.}.}.}.) { F 6 6 6 6 F 6 6 F F 6 F (.}., * ; ; ; ; ; ; ; ; ; ; ; ; ; ; ; ; ; ; ' ^.}.}.}.}.}.1.' 1.' ' ' ' 1.1.' ' ' 1.1.1.1.1.1.^.3 ..u M h f 5 d - = = & & & & - - - - - - - - ; - ; & & & ; & , }.) ^./ ^.1.^.^.^.^.^./ }.}.c }.) ) ) }./ (.^.(.^.) ^.^.) ) ) }./ (.{ 6 6 F 6 6 6 P 6 6 { P P F P 7 F / / { / { { { { ^.^.(.(.}.1.1., 1 0 e x H f K O e l * 2 & - ; a a a e M Q T P P ) 4 / ) / ) 6 P P P 7 ~ P T *.*.7 6 F P 6 6 7 P 6 F F 6 7 T P P P T ^ ~ 7 6 7 6 6 T *.7 7 T T 7 T F 1.P *.T *.^ T / e 4 7 ~ ~ ^ ~ h | U . < .     +         +     +     +   +   + + ",
"                              + + +   + + + + +   + + + + + + + + + + + + +   + . . . + . @ < < . } , = ; = ) F F F F F { F F P F (.}.) 1.}.) { F F 6 6 F F F 6 F F 6 { (.^.' * ; ; ; ; ; ; ; ; ; ; ; ; ; ; ; ; ; ; * (.}.1.}.}.1.1.' ' 1.' ' ' ' ' ' 1.1.1.1.' 1.' ' ^.^.A ] M f x e e * - & & & - - - - ; - - - - ; - ; - & - & - - & * ] F P F F }.d / (.^.}.}./ ) }./ / }.) ) / ^.^.^.(.}.^.^./ (.^./ / { P 7 6 { F 6 F F P P F 7 6 F P 6 6 F { { { { (.(.^.(.(.(.(.^.1.c = ; 1 S O x K O e ] ..2 2 & ; = & * ] ] P X T F F F / / / F P 7 7 ^ T P P P T T 7 P 7 P F P 7 P 6 { { 6 7 7 P P 7 7 7 ^ 6 6 F 6 P T *.P 7 T T ^ T { ) F P 7 T T T / ] ] 4 +.+.T ~ I I j . < .     +           +               + + + ",
"                              + + +       + + +   + + + + + + + + + + + + +   + + . . . . . < : . < Y ; 2 * / F F F F F F F 6 6 6 F ) ) }.}.) { F F 6 6 6 F 6 6 6 6 6 { ) }.1., ; ; ; ; ; ; ; ; ; ; ; ; ; ; ; ; ; ; = 1.1.}.}.}.1.1.1.' ' 1.' ' ' 1.1.1.' ' 1.1.' ' ' }.^.3 ] 7  .x 5 b ..= - ; - ; ; ; - ; ; - - - ; ; - - ; ; - & & 2 - * / F F T 7 }.1.^.) }.) ) }.1.}.) ) ) ^.(./ ^.}.(.^.^.) ) (.^.^./ { 6 6 6 6 { { 6 F 6 6 { 7 6 F 6 P 6 6 F F (.) (.(.) (.(.(.1.' 1.^.* ; & 1 Z o w R O 5 ] 2 2 > & 2 ; 2 c c 3 F X F P 7 F / F F F 7 T ^ ^ 7 / { 7 7 P 7 P F F F F F F { F 6 7 7 7 7 7 P P F F F P 7 7 *.^ *.^ T 7 T ) }./ / ) 7 T T P F 4 e 4 ~ Q 7 ~ I  .| i + . .   + + +       +   +           + + + ",
"                                                  + + + + + + + +     + + + + + + . . . . . . < :   J - , / / F F F 6 F F F 6 6 6 { }.}.}.}.) (.F F F 6 { F F F 6 F 6 F ) }.' * ; ; ; ; ; ; ; ; ; ; ; ; ; ; ; ; ; ; & 1.) 1.}.1.}.1.' 1.' 1.' ' ' 1.1.' 1.' 1.1.1.1.1.' 3 3 A ]  .h e a ' ..> - - - - - - - - - ; ; ; - - - - ; ; - - - - & * }.7 ^ X T ^.' ^.}.^.^.1.1.' ^.^.^.^.) / ^.^.) ) ) (.(.(.^.^.}.^.{ 6 6 6 F { { 6 6 F P 6 (.6 6 P 6 6 F { { ^.}.^.^.^.(.^.^.' 1.(.3 & = n e S w K O w b 2 2 > 2 2 ; - ..1 * 1./ F P 7 F / / ^.) P 7 7 7 7 F / P T 6 P 6 F P F F F (.^.(.6 7 T 7 7 7 6 7 F P 7 7 7 T T 7 X T ^ T F { / { ) }./ { 6 6 F / e / P ~ ~ ^ I  .+.}   @ @ +   + + + + +                 + + + ",
"                                                      + + + + +           + + + + + + . . . + @ :   _ 2 ^.F / F F F 6 F F F F 6 6 { ^.}.}.(./ { { F F 6 F 6 6 F F F F { (.}.1., ; ; - ; ; ; ; ; ; ; ; ; ; ; ; ; ; ; ; 1.}.}.1.}.1.1.1.1.' 1.' 1.1.' ' 1.1.1.1.1.1.' ^.1.1.3 3 c ] 4 3 * d 1., > - - - - ; - ; ; ; ; ; - - ; - ; - - - - - = = , P ^  . .Q ^.' ^.^.^.}.1.1.^./ ^.^.{ / ) ^.(.}.) (.(.(.{ { 1.^.F 6 6 P 6 6 { P P F P T (.6 6 7 6 F F (.(.^.^.(.^.}.^.^.(.1.' (.^.& & 0 M e w K w e ] 2 ; 2 > = ; & > 2 > * ' { F 7 { (.{ { / P P F 6 P 7 { F P F F F P 6 F { F { }.^.{ F P 6 6 6 6 7 P *.T P P 7 T 6 X X P (.(.F F { (.) 1.}.{ { ^.) ] b F ~ ~ ~ +.9 +.9 U @ < .   +   + + +                 + + . ",
"                                                        + + + +             + + + + + . + . . @ :   i , 7 6 F F F F 6 F { F F 6 6 F (.1.1.(.F { 6 6 6 F 6 6 6 6 F 6 6 { (.(.}., ; ; ; ; ; ; ; ; ; ; ; ; ; ; ; ; ; - ; * }.}.1.1.1.1.1.1.' ' ' ' ' ' ' 1.1.1.1.1.1.' 1.1.1.^.3 l ..a d 3 3 3 , 3 = - - - ; ; ; ; ; ; - - - - - ; ; - - - - 2 - 2 (.*.X 9 Q (.' ^.(.^.^.}.' 1./ ^.^.{ { ^.^.^.^.}.}.(.^.(.(.}.^.{ (.(.6 7 6 F 6 6 F 6 6 (.6 6 6 6 6 { ^.^.{ (.(.(.^.^.^.1.^.1.^.^.= ; 1 e e w K w w 4 > - 2 2 2 ; & 2 - 2 2 2 1.(.{ { (.{ F F P P F P F 6 (.^.F / F 6 6 6 F { 6 6 (.) (.(.^.{ F F 6 6 7 P 7 T *.7 7 F 7 T / ^.^.^.(.{ / }.^.^.(.(.^.) c b e ^ X +.~ X Q 9 ( : < @ + +       +   + + +         + + + ",
"                                                                            + + + + + + . . . @ : . [ V P F F F 6 6 F F F F F F 6 6 { 1.' (.{ { F F F 6 6 F 6 F F F 6 F (.^.(.' 2 ; ; ; ; ; ; ; ; ; ; ; ; ; ; ; ; - ; 2 }.1.}.}.' 1.1.' ' ' ' ' ' ' ' ' 1.1.1.1.1.1.1.1.1.1.1.3 }.' ' 1.1.' ' 3 b * ; - ; - - ; ; ; ; - - - - - - 2 2 2 - - - - > { 7 ~ T ^.{ { ^.1.1.' }.}.^.}./ F { / / (.^.}.}.}.}.^.}.^.^.^.(.F 6 P 6 6 { 6 F 6 { (.6 { (.{ 7 { (.(.(.(.(.(.^.^.^.3 }.1.^.{ * & = a a N x K O 4 #.> - 2 - 2 > > - - - - , ^.' ^.F { { { F F F F F F 6 (.{ ^.6 6 { 6 P F 6 F / / (.{ ^.{ { ^./ { P P 6 T T 6 6 F F / F / }.1.^.(.) ^.(.}.}./ { F e ] ] 4 Q Q ~ *.%.9 9 G   < .     +         +     +         + ",
"                                                                            + + + + + + + . . . : . : Y 6 6 F F P 6 F F F F F F F 6 F 1.1.(.{ F F 6 6 6 6 6 F F F 6 F F { (.(.^., - ; - ; ; ; ; ; ; ; ; ; ; ; ; ; - ; - 1.}.}.}.' 1.1.1.' ' ' 1.1.1.' ' 1.1.1.1.' 1.1.1.1.1.1.1.1.1.1.1.' ' 1.3 ^.3 2 ; - - - - ; ; - - - - - - 1.7 7 { * 2 - - - 2 7 ^ ^.^.{ (.}.1.}.}.1.}.c 3 { F { / { / ^.}.) / ^.^.(.{ ^.(.^.^.F P 6 P P F P 6 F F P 7 { F 6 (.(.(.(.{ F (.(.^.^.^.^.^.(.{ ' 2 & 1 0 t O K O O e > - - 2 > > & - > 1.(.3 , 1.^.7 P F P 6 F F { F 6 P P F / F { / F { { { F { / (.^.F P F F F 6 F 6 6 6 F P 7 T F ) F F ^.^.^.^.(./ { (.}./ F 4 4 / F 4 ^ Q +.^ y  .9 j . < . + +             +             + ",
"                                                                        + + + + + + + + + . . . : . [ Y P 6 P P P 6 6 F F F F 6 F P 6 ^.1.^.{ F { 6 6 F 6 6 6 6 F 6 6 F F F { (.1.2 ; ; ; ; ; ; ; ; ; ; ; ; ; ; ; ; ; ; d ) ) }.1.}.}.' 1.1.' 1.1.' 1.1.1.1.1.1.1.' }.1.1.1.1.1.1.^.1.1.' ' ' 1.}.' , > - ; - - - - - - - - - - 3 X +.9 T ' 2 - - - 3 6 ' ' 1.}.}.^.^.3 ' 1.1.3 ^.^.^.{ (.^.^.^.^./ (.{ (.(.(.(.^.1.^.6 6 6 7 6 F F F 6 6 F 6 { { 1.1.^.^.(.(.{ (.(.^.^.^.^.(.^.}.* - 1 n a s R O O 4 ..- ; 2 > > - - , (.T 6 3 ' / X T P 7 7 F F { { F F F (./ { F 6 { (.(.{ { ^.(.(./ P P 7 6 { (.(.(.(.F { { 7 P F / { P ^.^.(.^.(.^.(.(.}.{ 6 F F 4 4 F P ~ Q *.Q I 9 | U   @ . +           + + +           + ",
"                                                                +       + + + + + + + + + . . . : @ [ 8 P F P P F F 6 F F F F F F F 6 (.1.) / { F 6 6 6 6 6 F 6 F F 6 6 6 F { ) 1.> ; ; ; ; ; ; ; ; ; ; ; ; ; ; ; - ; ; * ) ) ) 1.1.}.1.1.1.1.1.1.1.1.1.1.1.1.1.1.1.1.1.1.1.1.1.1.1.1.1.1.1.1.1.1.' d d d * 2 - - - - - - - - ; = 4 ^ 5 ~ 6 2 2 = - 2 ' , }.^.1.}.}.1.' d ' 1.' (.) ) (.{ / / (./ (.(.{ { (.(.(.}.^./ (.{ 6 P 6 6 6 P 6 6 6 P 6 6 { ^.^.(.^.(.{ (.(.^.^.}.1.}.' ' , & ; = a m R N N w ] > ; ; - - ; - > , , ' 1.}.F X ~ 7 P P P P 6 F 6 6 { / (.{ P F / { / (.1.^.(.) { 6 P P 6 6 { 1.(./ (.{ { ) (.F F { F { / }.}.^.1.1.}.}.{ F F 6 4 e F P T X X X  . .Q j . < @ . + +           +           + ",
"                                                                +     + + + + + + + + . . . . . < < : 8 6 6 P P F 6 F F F F F F F P 6 (.}.}.(.{ { F 6 6 6 6 6 F F F 6 6 6 F (.(.}.> ; ; ; ; ; ; ; ; ; ; ; ; ; ; ; ; ; ; = ) ) ) 1.}.1.1.1.1.1.1.1.1.1.1.1.1.1.' 1.1.1.1.1.1.1.1.1.' 1.1.1.1.1.1.' ' }.c ] ] * 2 - - & & = & - - 2 ] ^ P ~ ^ * - 2 - - ' { (.}.}.' }.1.1.1.' d 3 1.^./ / ) ^./ (.{ / { { { / (.^.(.1.^.(.{ P 6 6 6 6 P 6 F 6 6 P F 6 { (.^.^.^.(.(.(.^.(.^.1.1.' ' ' & ; = p o O N @.O 4 ..- ; ; - > 2 , > 2 - ; * d ^.7 P / 4 6 6 F / P P { F F / F / ) / (.(.^./ (.(.{ F 7 6 P F P / / / ^.(./ ^.(.F / { { F / }.1.1.}.}.^.^./ F 6 6 / 4 / F 7 X Q Q +.y Q | U . < .   +     +     +             ",
"                                                                + + + + + + + + + + + . . . . . < . [ 8 F 6 P P P P 6 F F 6 F 6 6 P P F ) 1.^.(.{ F 6 6 6 F F 6 6 6 6 6 6 6 { (.}.> ; ; ; ; ; ; ; ; ; ; ; ; ; ; ; ; - ; & }.) }.c }.c 1.}.}.1.}.}.1.1.' 1.1.1.1.1.1.1.1.1.1.1.1.1.1.1.1.1.}.}.1.}.}.c d l , , 3 * - - & = = - 2 ] x ~ ^ M ~ ^.- - 2 2 ..6 (.' }.c 1.' c ) 1.d c }.1.}.(.^.^.^.(.(./ { F { F / ^.(.{ ^.{ { 6 T 6 6 6 F 6 P 6 P F 6 6 F { { (.(.^.}.^.^.(.) ^.^.^.^.^.> - = s e O N R O e 3 > - - * (.' 1.* - - & = c d / 4 / / 4 / / F 7 6 / / / 4 6 (./ / F (.^.F { { 6 6 F ) 4 7 6 F F { ) (.(.^.) (.(./ (./ / ) }.) ) ^.^.^.(.(.{ { / / ) / ^ ~ Q Q X  .I I j . < . . +                         ",
"                                                                          + + + + + + + . . + . @   [ 8 6 6 P P 6 6 6 6 6 F F 6 6 P 6 F ^.^.(.(.{ F F 6 6 6 6 6 6 F 6 6 6 P F (.^., - ; ; ; ; ; ; ; ; ; ; ; ; ; ; ; ; ; ; d ) }.1.}.}.1.1.1.1.1.1.1.1.' ' ' 1.' 1.1.1.1.1.1.1.1.1.1.1.1.1.}.}.}.}.' , a 0 a 0 7 4 , > ; - * d 5  .g 9 ~ 9 +.P 2 - 2 - ; * (.' 1./ 1.' c }.' d ) }.' ^.^.^.1.^.^.(./ / (.{ / / { (.^.(./ F 6 7 7 6 7 7 6 6 6 6 P P F F F (.^.^.1.' 1.^.^.(.(.^.^.(.F 3 = - 2 a o O O O w ] #...> ^.6 3 ^.1.> 2 - d 6 / / T 6 ) 4 6 F P 7 / ) ) / 4 P F / F F ) / F 6 { { { 6 F 6 6 6 F F F F { / ^.(.(.^.(./ ) ^.) ) (.^.^.^.^.1.^./ ^.}.^.^./ 6 *.X Q Q X y ! ! U + < .     +                     ",
"                                                                              +   +   + + . + + @   : 8 7 6 P 6 6 P 6 6 6 6 F 6 6 6 F { (.^.^.^.(.F F 6 6 6 6 6 6 6 6 6 6 6 F (.(.' - ; ; ; ; ; ; ; ; ; ; ; ; ; ; ; ; ; ; > ) }.1.}.}.}.1.1.1.1.1.' ' 1.1.1.1.1.1.1.1.1.1.1.1.1.1.1.1.}.1.1.}.) ^.' }.d 0 d ..d }.F y ^.' +.h h h g  .^ I I F 2 - - - ; ; , F ^.1.}.1.1.^.1.' 1.^.}.}.^.1.^.(.(.^.{ (./ { { / (.{ (.(.^.{ 6 6 6 P 6 P 6 6 6 6 6 P 6 F 6 F (.^.1.^.^.^.(.{ { (.^.^.{ { * 2 2 2 ..] w w ] ] ] 3 ..3 ^.3 3 , ' 1., 3 7 / c F *.T { { / ^./ / / ) { F F F F P F { / 6 { (.(.^.{ { 6 6 6 P P F F 6 (.(.^.^.(.^.^.^.^.^.) / ) (.^.^.}.^.^.1.1.^.(./ F 7 *.Q Q X Q q ! j : < @ + . +                     ",
"                                                                        + + + + + +   + + + + . @   @ 8 7 6 F { F P 6 F F F F F F { { (.(.^.^.^.{ 6 F 6 F 6 6 F F 6 F F 6 6 6 { ) , - ; ; ; ; ; ; ; ; ; ; ; ; ; ; - ; ; ; 2 c }.}.}.}.1.' 1.1.1.' 1.' ' ' ' ' ' ' ' 1.1.' ' ' ' 1.' ' 1.1.1.1.}.}.1.) }.d , * * a / h h h g g h I I +.5  .+...2 - - - ; - 2 { (.1.1.^.1.1.1.^.' ' 1.1.}.1.^.^.^.^.^.^.(.^.(.{ { (.(.(.{ F F 6 6 P F 6 6 6 6 6 6 { 6 6 F { { (.^.^.^.^.(.(.{ { (.1.^.^., 2 2 > > p e e ] 3 3 3 -.-., (.3 , ' { 7 / F 6 3 / 7 *.P ^.(.^.^.^.^.^.^.{ 6 F 6 6 6 6 { F { { ^.(.^.^.{ { 6 P { F { F (.(.(.(.(.^.^.1.}.^.(.(.) ^.^.^.^.}.1.^.}.}.) { { { T %.Q Q Q y g % _   < + + .                     ",
"                                                                          + +   + . + . + . . . +   : ( 6 { { F F F F F F F F F F { / { (.^.(.(.F F { F F F 6 F { F F 6 6 F F (.}., 2 ; ; ; ; ; ; ; ; ; ; ; ; ; ; ; - - ; - d c d 1.' ' ' 1.' 1.1.' 1.1.' ' ' ' ' ' 1.1.' ' ' 1.' 1.1.}.' ' ' ' 1.' , , d , , d ] / F +.+.~ ~ +.+.M ^ M 4 4 ] , 2 2 2 2 - - }.(.1.' }.^.' 1.^.1.1.1.^.' }.(.1.1.' ^.^.^.^.^.^.(.(.(.(.{ { 6 6 F 6 { 6 F F 6 { { { { { { 6 { (.^.^.^.^.^.^.{ { (.(.^.^.^.> 2 2 2 0 b n d * .., 3 , , ] 3 * , 3 ^./ / / ^.^./ 7 { }.P 4 ^.^.' ^.}.}.{ / { (.}.(.F / (.(.{ (.{ { F { (.(.(.) (.{ { / (.^.^.^.^.^.}.}.}.}.(.) }.^.^.1.1.^.) ) ) (.(.(.T %.Q Q Q | | % r i < < + + @ @   +           + "};
