/* XPM */
static char *target[] = {
"32 32 2 1",
"  c #FF00FF",
"X c #FF0000",
"                                ",
"                                ",
"      XXXXXXXXXXXXXXXXXX        ",
"    XXXXXXXXXXXXXXXXXXXXXX      ",
"   XXXXXXXXXXXXXXXXXXXXXXXX     ",
"  XXXXXXXXXXXXXXXXXXXXXXXXXX    ",
"  XXXXXXXXXXXXXXXXXXXXXXXXXX    ",
" XXXXXXXXXXXXXXXXXXXXXXXXXXXX   ",
" XXXXXXXXXXXXXXXXXXXXXXXXXXXX   ",
" XXXXXXXXXXXXXXXXXXXXXXXXXXXX   ",
" XXXXXXXXXXXXXXXXXXXXXXXXXXXX   ",
" XXXXXXXXXXXXXXXXXXXXXXXXXXXX   ",
" XXXXXXXXXXXXXXXXXXXXXXXXXXXX   ",
" XXXXXXXXXXXXXXXXXXXXXXXXXXXX   ",
" XXXXXXXXXXXXXXXXXXXXXXXXXXXX   ",
" XXXXXXXXXXXXXXXXXXXXXXXXXXXX   ",
" XXXXXXXXXXXXXXXXXXXXXXXXXXXX   ",
" XXXXXXXXXXXXXXXXXXXXXXXXXXXX   ",
" XXXXXXXXXXXXXXXXXXXXXXXXXXXX   ",
" XXXXXXXXXXXXXXXXXXXXXXXXXXXX   ",
" XXXXXXXXXXXXXXXXXXXXXXXXXXXX   ",
" XXXXXXXXXXXXXXXXXXXXXXXXXXXX   ",
"  XXXXXXXXXXXXXXXXXXXXXXXXXX    ",
"  XXXXXXXXXXXXXXXXXXXXXXXXXX    ",
"   XXXXXXXXXXXXXXXXXXXXXXXX     ",
"    XXXXXXXXXXXXXXXXXXXXXX      ",
"      XXXXXXXXXXXXXXXXXX        ",
"                                ",
"                                ",
"                                ",
"                                ",
"                                "
};
