/* XPM */
static char * door_2_xpm[] = {
"512 512 10096 3",
"   	c #FF00FF",
".  	c #675C58",
"+  	c #6A5E5A",
"@  	c #72655F",
"#  	c #736660",
"$  	c #7A6D65",
"%  	c #786B64",
"&  	c #5A5050",
"*  	c #362E2F",
"=  	c #453D3D",
"-  	c #665B57",
";  	c #837166",
">  	c #816F64",
",  	c #7B695E",
"'  	c #79675C",
")  	c #77645A",
"!  	c #766359",
"~  	c #736157",
"{  	c #716056",
"]  	c #6F5E55",
"^  	c #6E5E55",
"/  	c #65564E",
"(  	c #2F302E",
"_  	c #222828",
":  	c #212829",
"<  	c #222728",
"[  	c #212728",
"}  	c #222627",
"|  	c #212727",
"1  	c #202728",
"2  	c #202727",
"3  	c #202627",
"4  	c #1F2627",
"5  	c #202526",
"6  	c #212526",
"7  	c #1F2425",
"8  	c #1E2324",
"9  	c #1E2223",
"0  	c #1F2324",
"a  	c #1E2425",
"b  	c #1E2325",
"c  	c #1E2225",
"d  	c #1D2225",
"e  	c #1D2124",
"f  	c #1E2224",
"g  	c #1D2223",
"h  	c #1C2021",
"i  	c #1B1F21",
"j  	c #1A1F20",
"k  	c #191E1F",
"l  	c #191E1E",
"m  	c #1A1E1F",
"n  	c #191F20",
"o  	c #191F21",
"p  	c #192021",
"q  	c #192022",
"r  	c #192123",
"s  	c #192223",
"t  	c #192224",
"u  	c #192324",
"v  	c #192325",
"w  	c #192326",
"x  	c #192427",
"y  	c #192428",
"z  	c #192528",
"A  	c #192529",
"B  	c #19262A",
"C  	c #1A262A",
"D  	c #1A272A",
"E  	c #1A272B",
"F  	c #1B272B",
"G  	c #1B282C",
"H  	c #1B272C",
"I  	c #1B282D",
"J  	c #1C282C",
"K  	c #1C282D",
"L  	c #1C272D",
"M  	c #1C292E",
"N  	c #1C292F",
"O  	c #1D282E",
"P  	c #1D292E",
"Q  	c #1D2A2F",
"R  	c #1D2A2E",
"S  	c #1E2A2F",
"T  	c #1F2930",
"U  	c #1F2A30",
"V  	c #1E2B2E",
"W  	c #1D292F",
"X  	c #1D2A30",
"Y  	c #1F2A2E",
"Z  	c #283234",
"`  	c #585452",
" . 	c #6D6460",
".. 	c #6F6560",
"+. 	c #7D736E",
"@. 	c #9E948D",
"#. 	c #A89D96",
"$. 	c #8D837F",
"%. 	c #3C3739",
"&. 	c #423C3E",
"*. 	c #68615D",
"=. 	c #665F5B",
"-. 	c #625A56",
";. 	c #685D58",
">. 	c #756861",
",. 	c #726660",
"'. 	c #4E4545",
"). 	c #5E5553",
"!. 	c #7A685D",
"~. 	c #6B5B52",
"{. 	c #504641",
"]. 	c #2A2D2C",
"^. 	c #212628",
"/. 	c #202628",
"(. 	c #1F2527",
"_. 	c #1F2526",
":. 	c #1F2426",
"<. 	c #1C2124",
"[. 	c #1C2121",
"}. 	c #1A2021",
"|. 	c #1B1F20",
"1. 	c #1A1F1F",
"2. 	c #1A1E20",
"3. 	c #1A1E1E",
"4. 	c #1A1F21",
"5. 	c #1A2122",
"6. 	c #192327",
"7. 	c #192628",
"8. 	c #192629",
"9. 	c #1B282B",
"0. 	c #1B282E",
"a. 	c #1C282E",
"b. 	c #1C282F",
"c. 	c #1B2830",
"d. 	c #1C2A30",
"e. 	c #1D2930",
"f. 	c #1C2931",
"g. 	c #1E2930",
"h. 	c #1E2A31",
"i. 	c #1E2A30",
"j. 	c #1D2B30",
"k. 	c #1E2B30",
"l. 	c #1D2A31",
"m. 	c #1F2A2F",
"n. 	c #1F2D30",
"o. 	c #565251",
"p. 	c #6E6460",
"q. 	c #6E6560",
"r. 	c #766C68",
"s. 	c #7E746F",
"t. 	c #9B908A",
"u. 	c #9A908A",
"v. 	c #5A5452",
"w. 	c #645C58",
"x. 	c #71645E",
"y. 	c #786B63",
"z. 	c #574E4D",
"A. 	c #5C5352",
"B. 	c #78665B",
"C. 	c #685850",
"D. 	c #383533",
"E. 	c #272A2A",
"F. 	c #222628",
"G. 	c #212729",
"H. 	c #1E2526",
"I. 	c #202527",
"J. 	c #1D2224",
"K. 	c #1D2123",
"L. 	c #1C2123",
"M. 	c #1C2122",
"N. 	c #1B2122",
"O. 	c #1A2020",
"P. 	c #1A2022",
"Q. 	c #1A2123",
"R. 	c #1A2223",
"S. 	c #1A2224",
"T. 	c #1A2225",
"U. 	c #1A2325",
"V. 	c #1A2426",
"W. 	c #1A2427",
"X. 	c #1A2527",
"Y. 	c #1A2528",
"Z. 	c #1A2628",
"`. 	c #1A2629",
" + 	c #1A2529",
".+ 	c #1B262B",
"++ 	c #1B272A",
"@+ 	c #1B262A",
"#+ 	c #1C292C",
"$+ 	c #1C292D",
"%+ 	c #1C2A2D",
"&+ 	c #1C2A2C",
"*+ 	c #1D292D",
"=+ 	c #1D2A2D",
"-+ 	c #1C2A2E",
";+ 	c #1E2B31",
">+ 	c #1F2B30",
",+ 	c #1F2B31",
"'+ 	c #202B31",
")+ 	c #1F2B2F",
"!+ 	c #1F2C30",
"~+ 	c #1D2B2F",
"{+ 	c #4E4D4C",
"]+ 	c #66605D",
"^+ 	c #69625F",
"/+ 	c #6B635F",
"(+ 	c #706661",
"_+ 	c #756B67",
":+ 	c #474242",
"<+ 	c #645D59",
"[+ 	c #6E625D",
"}+ 	c #584E4E",
"|+ 	c #827065",
"1+ 	c #6E5D54",
"2+ 	c #62544C",
"3+ 	c #2C2D2D",
"4+ 	c #242829",
"5+ 	c #222829",
"6+ 	c #232728",
"7+ 	c #1E2426",
"8+ 	c #1B2022",
"9+ 	c #1C2022",
"0+ 	c #1B2021",
"a+ 	c #1B2020",
"b+ 	c #1B1F1F",
"c+ 	c #1B2223",
"d+ 	c #1B2224",
"e+ 	c #1B2324",
"f+ 	c #1B2325",
"g+ 	c #1B2426",
"h+ 	c #1B2427",
"i+ 	c #1B2527",
"j+ 	c #1B2528",
"k+ 	c #1B2628",
"l+ 	c #1B2629",
"m+ 	c #1B2529",
"n+ 	c #1B292C",
"o+ 	c #1B292D",
"p+ 	c #1C2A2F",
"q+ 	c #1D2C31",
"r+ 	c #1E2C30",
"s+ 	c #1F2B32",
"t+ 	c #1F2C31",
"u+ 	c #1E2B32",
"v+ 	c #1F2A31",
"w+ 	c #1F2C32",
"x+ 	c #373B3D",
"y+ 	c #5B5655",
"z+ 	c #6C6460",
"A+ 	c #746A66",
"B+ 	c #736964",
"C+ 	c #736965",
"D+ 	c #786E6A",
"E+ 	c #908580",
"F+ 	c #403A3C",
"G+ 	c #605A57",
"H+ 	c #6D615C",
"I+ 	c #746761",
"J+ 	c #514748",
"K+ 	c #7D6D63",
"L+ 	c #746258",
"M+ 	c #715F56",
"N+ 	c #695951",
"O+ 	c #4C433E",
"P+ 	c #272A2B",
"Q+ 	c #222729",
"R+ 	c #1F2325",
"S+ 	c #1B2A2C",
"T+ 	c #1D292C",
"U+ 	c #1D2B2E",
"V+ 	c #1E2B2F",
"W+ 	c #1E2C31",
"X+ 	c #202B32",
"Y+ 	c #202C32",
"Z+ 	c #232E33",
"`+ 	c #53504F",
" @ 	c #726863",
".@ 	c #645C5A",
"+@ 	c #5A5555",
"@@ 	c #6B605B",
"#@ 	c #78655B",
"$@ 	c #76645A",
"%@ 	c #65564F",
"&@ 	c #333231",
"*@ 	c #242929",
"=@ 	c #1F2525",
"-@ 	c #1C2223",
";@ 	c #1C2222",
">@ 	c #1B2121",
",@ 	c #1E2C2F",
"'@ 	c #1F2D32",
")@ 	c #1E2D32",
"!@ 	c #1E2D31",
"~@ 	c #1F2D31",
"{@ 	c #202D31",
"]@ 	c #202D32",
"^@ 	c #202C31",
"/@ 	c #212C32",
"(@ 	c #4E4C4C",
"_@ 	c #67615E",
":@ 	c #6A625F",
"<@ 	c #716762",
"[@ 	c #4C4849",
"}@ 	c #84817E",
"|@ 	c #695E59",
"1@ 	c #766963",
"2@ 	c #564D4D",
"3@ 	c #7A6A62",
"4@ 	c #79665C",
"5@ 	c #756258",
"6@ 	c #726056",
"7@ 	c #6D5D54",
"8@ 	c #5D5049",
"9@ 	c #262A2B",
"0@ 	c #1C2426",
"a@ 	c #1C282B",
"b@ 	c #1C2B2F",
"c@ 	c #202E32",
"d@ 	c #212D32",
"e@ 	c #202D33",
"f@ 	c #212D33",
"g@ 	c #3D4041",
"h@ 	c #5C5856",
"i@ 	c #403B3C",
"j@ 	c #352F31",
"k@ 	c #342E30",
"l@ 	c #353032",
"m@ 	c #3B3638",
"n@ 	c #848180",
"o@ 	c #817C7A",
"p@ 	c #67605C",
"q@ 	c #796C64",
"r@ 	c #7B6E66",
"s@ 	c #8E8077",
"t@ 	c #554B4B",
"u@ 	c #4C4343",
"v@ 	c #72645D",
"w@ 	c #675850",
"x@ 	c #48403C",
"y@ 	c #232929",
"z@ 	c #1D2222",
"A@ 	c #1D2122",
"B@ 	c #1D2425",
"C@ 	c #1D282B",
"D@ 	c #1D2C2F",
"E@ 	c #1F2E32",
"F@ 	c #202E33",
"G@ 	c #212E33",
"H@ 	c #202C33",
"I@ 	c #263135",
"J@ 	c #514F4E",
"K@ 	c #393335",
"L@ 	c #3D383A",
"M@ 	c #93918F",
"N@ 	c #787370",
"O@ 	c #71645F",
"P@ 	c #776A63",
"Q@ 	c #85786F",
"R@ 	c #8F8178",
"S@ 	c #695E5A",
"T@ 	c #483F3F",
"U@ 	c #22282A",
"V@ 	c #1D2323",
"W@ 	c #1D2324",
"X@ 	c #1D282A",
"Y@ 	c #202E31",
"Z@ 	c #1F2D33",
"`@ 	c #1F2E33",
" # 	c #212F33",
".# 	c #202E34",
"+# 	c #202F34",
"@# 	c #202C30",
"## 	c #4C4B4A",
"$# 	c #6D645F",
"%# 	c #726864",
"&# 	c #3E393A",
"*# 	c #665E5A",
"=# 	c #635B57",
"-# 	c #70635E",
";# 	c #7A6E67",
"># 	c #403738",
",# 	c #6E615B",
"'# 	c #726157",
")# 	c #705F55",
"!# 	c #6D5C54",
"~# 	c #594D47",
"{# 	c #1D2628",
"]# 	c #1D2C30",
"^# 	c #1D2D30",
"/# 	c #1E2D30",
"(# 	c #202F33",
"_# 	c #212E34",
":# 	c #212C31",
"<# 	c #212C30",
"[# 	c #202C2F",
"}# 	c #404243",
"|# 	c #3A3436",
"1# 	c #655E5A",
"2# 	c #6E625C",
"3# 	c #7D7067",
"4# 	c #8D7F76",
"5# 	c #383031",
"6# 	c #846F63",
"7# 	c #826D61",
"8# 	c #7D695E",
"9# 	c #6E5D55",
"0# 	c #463F3B",
"a# 	c #212527",
"b# 	c #1F2626",
"c# 	c #1E2424",
"d# 	c #1E282A",
"e# 	c #212F34",
"f# 	c #203033",
"g# 	c #213033",
"h# 	c #2A3336",
"i# 	c #54504E",
"j# 	c #817E7D",
"k# 	c #878380",
"l# 	c #655D59",
"m# 	c #7F726A",
"n# 	c #594F4C",
"o# 	c #5A5150",
"p# 	c #836E62",
"q# 	c #877165",
"r# 	c #2C2D2E",
"s# 	c #1F2424",
"t# 	c #1E2627",
"u# 	c #1E2A2D",
"v# 	c #1F2F33",
"w# 	c #1F2F32",
"x# 	c #1F2E34",
"y# 	c #213034",
"z# 	c #213035",
"A# 	c #202F35",
"B# 	c #222E33",
"C# 	c #212E32",
"D# 	c #212D31",
"E# 	c #4D4B49",
"F# 	c #716763",
"G# 	c #5E5A5A",
"H# 	c #8D8A88",
"I# 	c #6A625E",
"J# 	c #766962",
"K# 	c #7B6F68",
"L# 	c #544B4A",
"M# 	c #685950",
"N# 	c #232829",
"O# 	c #1F2628",
"P# 	c #202626",
"Q# 	c #1F2729",
"R# 	c #1F2E31",
"S# 	c #203034",
"T# 	c #203035",
"U# 	c #444444",
"V# 	c #675E5A",
"W# 	c #3F393B",
"X# 	c #6C645F",
"Y# 	c #796C65",
"Z# 	c #615755",
"`# 	c #7D6B60",
" $ 	c #7C6A5F",
".$ 	c #7F6D62",
"+$ 	c #705F56",
"@$ 	c #7C695E",
"#$ 	c #4A423E",
"$$ 	c #1F292C",
"%$ 	c #213134",
"&$ 	c #203135",
"*$ 	c #222F34",
"=$ 	c #212F32",
"-$ 	c #2E3538",
";$ 	c #53504E",
">$ 	c #878482",
",$ 	c #6C635F",
"'$ 	c #746760",
")$ 	c #4C4341",
"!$ 	c #423A3A",
"~$ 	c #7E6C61",
"{$ 	c #836D62",
"]$ 	c #6D5C53",
"^$ 	c #2B2E2E",
"/$ 	c #212627",
"($ 	c #212726",
"_$ 	c #202528",
":$ 	c #20292A",
"<$ 	c #213135",
"[$ 	c #203134",
"}$ 	c #212F35",
"|$ 	c #222F33",
"1$ 	c #4A4848",
"2$ 	c #656160",
"3$ 	c #69625D",
"4$ 	c #867870",
"5$ 	c #675C57",
"6$ 	c #3D3536",
"7$ 	c #6E5C54",
"8$ 	c #5B4F48",
"9$ 	c #212828",
"0$ 	c #202828",
"a$ 	c #20282A",
"b$ 	c #202A2C",
"c$ 	c #202B2E",
"d$ 	c #202A2D",
"e$ 	c #20292B",
"f$ 	c #424243",
"g$ 	c #69605C",
"h$ 	c #4C4645",
"i$ 	c #6B635E",
"j$ 	c #81746D",
"k$ 	c #6A5A50",
"l$ 	c #60534B",
"m$ 	c #3E3936",
"n$ 	c #24292A",
"o$ 	c #212929",
"p$ 	c #212C2E",
"q$ 	c #223134",
"r$ 	c #31383A",
"s$ 	c #56514F",
"t$ 	c #544E4C",
"u$ 	c #8C7E75",
"v$ 	c #8A7C74",
"w$ 	c #7F6E63",
"x$ 	c #705E55",
"y$ 	c #584C46",
"z$ 	c #2B2E2D",
"A$ 	c #24292B",
"B$ 	c #21292A",
"C$ 	c #212C2F",
"D$ 	c #223135",
"E$ 	c #223235",
"F$ 	c #223236",
"G$ 	c #233236",
"H$ 	c #233336",
"I$ 	c #233337",
"J$ 	c #223035",
"K$ 	c #223034",
"L$ 	c #243033",
"M$ 	c #484746",
"N$ 	c #5B5452",
"O$ 	c #73665F",
"P$ 	c #675B56",
"Q$ 	c #6C5C52",
"R$ 	c #66584E",
"S$ 	c #4D453F",
"T$ 	c #222A29",
"U$ 	c #212928",
"V$ 	c #21292B",
"W$ 	c #243336",
"X$ 	c #243437",
"Y$ 	c #253438",
"Z$ 	c #253538",
"`$ 	c #263439",
" % 	c #263538",
".% 	c #263438",
"+% 	c #263539",
"@% 	c #273539",
"#% 	c #27353A",
"$% 	c #27363A",
"%% 	c #28363A",
"&% 	c #28373A",
"*% 	c #263639",
"=% 	c #243438",
"-% 	c #253437",
";% 	c #243337",
">% 	c #3F4141",
",% 	c #6A615C",
"'% 	c #82756B",
")% 	c #8E8076",
"!% 	c #413838",
"~% 	c #6B5B51",
"{% 	c #5C4F47",
"]% 	c #3C3935",
"^% 	c #212B2B",
"/% 	c #212E31",
"(% 	c #27373A",
"_% 	c #283739",
":% 	c #28373B",
"<% 	c #29383B",
"[% 	c #29383C",
"}% 	c #29393C",
"|% 	c #2A393C",
"1% 	c #2A3A3D",
"2% 	c #2B3A3D",
"3% 	c #2B3A3E",
"4% 	c #2C3A3D",
"5% 	c #2C3A3E",
"6% 	c #2C3B3D",
"7% 	c #2C3B3E",
"8% 	c #273739",
"9% 	c #273639",
"0% 	c #32383A",
"a% 	c #585351",
"b% 	c #6E645F",
"c% 	c #7B6E65",
"d% 	c #84766C",
"e% 	c #746157",
"f% 	c #514741",
"g% 	c #2B2D2C",
"h% 	c #212E30",
"i% 	c #29373B",
"j% 	c #2A383C",
"k% 	c #2A393D",
"l% 	c #2B393D",
"m% 	c #2B3B3E",
"n% 	c #2C3B3F",
"o% 	c #2C3C3F",
"p% 	c #2D3C3F",
"q% 	c #2D3C40",
"r% 	c #2D3D40",
"s% 	c #2E3D40",
"t% 	c #2E3D41",
"u% 	c #2E3E41",
"v% 	c #2F3E41",
"w% 	c #2F3F41",
"x% 	c #303F41",
"y% 	c #303F42",
"z% 	c #2F3F42",
"A% 	c #304043",
"B% 	c #303F43",
"C% 	c #253135",
"D% 	c #454545",
"E% 	c #393334",
"F% 	c #605956",
"G% 	c #7E7168",
"H% 	c #3A3232",
"I% 	c #65574D",
"J% 	c #47403B",
"K% 	c #212D30",
"L% 	c #304144",
"M% 	c #314144",
"N% 	c #324245",
"O% 	c #334345",
"P% 	c #334346",
"Q% 	c #344446",
"R% 	c #344447",
"S% 	c #354548",
"T% 	c #344548",
"U% 	c #354649",
"V% 	c #354549",
"W% 	c #354448",
"X% 	c #334446",
"Y% 	c #324145",
"Z% 	c #2E3E40",
"`% 	c #2D3B3F",
" & 	c #2B393C",
".& 	c #3D3F40",
"+& 	c #6B625D",
"@& 	c #625B59",
"#& 	c #7E7672",
"$& 	c #807369",
"%& 	c #473D3B",
"&& 	c #594D45",
"*& 	c #383633",
"=& 	c #222727",
"-& 	c #212A2B",
";& 	c #2D3D3F",
">& 	c #314043",
",& 	c #354648",
"'& 	c #354749",
")& 	c #364749",
"!& 	c #36474A",
"~& 	c #37484A",
"{& 	c #37484B",
"]& 	c #37494C",
"^& 	c #38494C",
"/& 	c #384A4C",
"(& 	c #394A4C",
"_& 	c #394A4D",
":& 	c #394A4E",
"<& 	c #394B4E",
"[& 	c #3A4B4E",
"}& 	c #3A4C4E",
"|& 	c #3A4C4F",
"1& 	c #3B4D50",
"2& 	c #3C4D50",
"3& 	c #3C4E50",
"4& 	c #3C4E51",
"5& 	c #3C4F51",
"6& 	c #3D4F51",
"7& 	c #3D4F52",
"8& 	c #3B4C50",
"9& 	c #394B4D",
"0& 	c #37474B",
"a& 	c #37474A",
"b& 	c #364649",
"c& 	c #344547",
"d& 	c #324144",
"e& 	c #314044",
"f& 	c #2F3E42",
"g& 	c #33393C",
"h& 	c #5C5653",
"i& 	c #857B76",
"j& 	c #7E7671",
"k& 	c #807873",
"l& 	c #6E6763",
"m& 	c #83756B",
"n& 	c #7A675D",
"o& 	c #756359",
"p& 	c #4D443D",
"q& 	c #282B2A",
"r& 	c #212B2D",
"s& 	c #324244",
"t& 	c #38494B",
"u& 	c #39494C",
"v& 	c #3B4C4F",
"w& 	c #3B4D4F",
"x& 	c #3D5052",
"y& 	c #3E5153",
"z& 	c #3F5154",
"A& 	c #405255",
"B& 	c #405355",
"C& 	c #405456",
"D& 	c #415457",
"E& 	c #425557",
"F& 	c #425558",
"G& 	c #425658",
"H& 	c #435659",
"I& 	c #435759",
"J& 	c #43575A",
"K& 	c #44585A",
"L& 	c #44585B",
"M& 	c #45595B",
"N& 	c #46595C",
"O& 	c #465A5C",
"P& 	c #465B5D",
"Q& 	c #475B5D",
"R& 	c #475B5E",
"S& 	c #44575A",
"T& 	c #425659",
"U& 	c #415456",
"V& 	c #405356",
"W& 	c #3F5255",
"X& 	c #3E5053",
"Y& 	c #3E5052",
"Z& 	c #3B4E50",
"`& 	c #3A4B4D",
" * 	c #37494B",
".* 	c #334447",
"+* 	c #324246",
"@* 	c #314244",
"#* 	c #28383B",
"$* 	c #283336",
"%* 	c #6D635E",
"&* 	c #7B716D",
"** 	c #887E79",
"=* 	c #474141",
"-* 	c #6B6460",
";* 	c #625B57",
">* 	c #64564C",
",* 	c #423B38",
"'* 	c #21282A",
")* 	c #253539",
"!* 	c #26363A",
"~* 	c #314143",
"{* 	c #38484B",
"]* 	c #3F5254",
"^* 	c #415557",
"/* 	c #455A5B",
"(* 	c #465A5D",
"_* 	c #475C5E",
":* 	c #485D5F",
"<* 	c #495E60",
"[* 	c #4A5E60",
"}* 	c #4A5F61",
"|* 	c #4A5F62",
"1* 	c #4B6062",
"2* 	c #4C6163",
"3* 	c #4C6164",
"4* 	c #4C6264",
"5* 	c #4D6365",
"6* 	c #4E6365",
"7* 	c #4E6466",
"8* 	c #4F6567",
"9* 	c #4F6668",
"0* 	c #506668",
"a* 	c #516769",
"b* 	c #51686A",
"c* 	c #52686A",
"d* 	c #52696B",
"e* 	c #526A6C",
"f* 	c #536A6C",
"g* 	c #536A6D",
"h* 	c #536B6D",
"i* 	c #52686B",
"j* 	c #51676A",
"k* 	c #506669",
"l* 	c #4E6467",
"m* 	c #4C6365",
"n* 	c #4B6063",
"o* 	c #495D60",
"p* 	c #485C5F",
"q* 	c #445759",
"r* 	c #415356",
"s* 	c #3E5154",
"t* 	c #3D5053",
"u* 	c #242F35",
"v* 	c #243135",
"w* 	c #3B3E3F",
"x* 	c #817772",
"y* 	c #6E6561",
"z* 	c #7A726D",
"A* 	c #5C4F49",
"B* 	c #554A43",
"C* 	c #333230",
"D* 	c #455A5C",
"E* 	c #44595B",
"F* 	c #485C5E",
"G* 	c #485D5E",
"H* 	c #495D5F",
"I* 	c #4A5F60",
"J* 	c #4B6163",
"K* 	c #4D6264",
"L* 	c #4D6364",
"M* 	c #4F6566",
"N* 	c #506769",
"O* 	c #536A6B",
"P* 	c #546B6D",
"Q* 	c #546B6E",
"R* 	c #556C6E",
"S* 	c #566D6F",
"T* 	c #566E6F",
"U* 	c #576F70",
"V* 	c #576F71",
"W* 	c #587072",
"X* 	c #597173",
"Y* 	c #597273",
"Z* 	c #5A7274",
"`* 	c #5A7375",
" = 	c #5B7475",
".= 	c #5C7576",
"+= 	c #5C7577",
"@= 	c #5D7678",
"#= 	c #5E7778",
"$= 	c #5F7879",
"%= 	c #5F787A",
"&= 	c #60797B",
"*= 	c #617A7C",
"== 	c #617B7C",
"-= 	c #617B7D",
";= 	c #627D7E",
">= 	c #637D7F",
",= 	c #647E80",
"'= 	c #647F81",
")= 	c #658081",
"!= 	c #658082",
"~= 	c #668182",
"{= 	c #668183",
"]= 	c #668284",
"^= 	c #678385",
"/= 	c #688486",
"(= 	c #698587",
"_= 	c #698687",
":= 	c #6A8688",
"<= 	c #6B8788",
"[= 	c #6B8789",
"}= 	c #6B8889",
"|= 	c #6B888A",
"1= 	c #6C888A",
"2= 	c #6C898A",
"3= 	c #6C898B",
"4= 	c #6C8A8B",
"5= 	c #698688",
"6= 	c #698586",
"7= 	c #688385",
"8= 	c #678384",
"9= 	c #678284",
"0= 	c #658182",
"a= 	c #647F80",
"b= 	c #637E7F",
"c= 	c #637D7E",
"d= 	c #627C7E",
"e= 	c #607A7B",
"f= 	c #5E7779",
"g= 	c #5D7679",
"h= 	c #5C7677",
"i= 	c #5B7476",
"j= 	c #5B7375",
"k= 	c #5A7275",
"l= 	c #587172",
"m= 	c #577071",
"n= 	c #576E70",
"o= 	c #566E70",
"p= 	c #546C6E",
"q= 	c #53696C",
"r= 	c #506768",
"s= 	c #4F6467",
"t= 	c #45595C",
"u= 	c #45585B",
"v= 	c #405457",
"w= 	c #314347",
"x= 	c #223136",
"y= 	c #243134",
"z= 	c #343A3C",
"A= 	c #5F5956",
"B= 	c #776F6A",
"C= 	c #69625E",
"D= 	c #60514B",
"E= 	c #6C5B52",
"F= 	c #69594F",
"G= 	c #47403A",
"H= 	c #26292A",
"I= 	c #233237",
"J= 	c #5D7778",
"K= 	c #80A1A2",
"L= 	c #7D9E9F",
"M= 	c #7D9E9E",
"N= 	c #7D9D9F",
"O= 	c #7E9E9F",
"P= 	c #7E9F9F",
"Q= 	c #7E9FA0",
"R= 	c #7FA0A1",
"S= 	c #80A0A1",
"T= 	c #80A1A1",
"U= 	c #81A1A2",
"V= 	c #81A1A3",
"W= 	c #81A2A3",
"X= 	c #81A3A3",
"Y= 	c #82A3A4",
"Z= 	c #83A3A5",
"`= 	c #83A4A5",
" - 	c #83A4A6",
".- 	c #83A5A6",
"+- 	c #84A5A6",
"@- 	c #84A6A6",
"#- 	c #84A6A7",
"$- 	c #85A7A7",
"%- 	c #85A7A8",
"&- 	c #86A8A9",
"*- 	c #86A9AA",
"=- 	c #87A9AA",
"-- 	c #87AAAA",
";- 	c #88AAAB",
">- 	c #88ABAC",
",- 	c #89ABAC",
"'- 	c #89ACAD",
")- 	c #8AACAE",
"!- 	c #8AADAE",
"~- 	c #8BAEAF",
"{- 	c #8BAFAF",
"]- 	c #8BAFB0",
"^- 	c #8CB0B0",
"/- 	c #8CB0B1",
"(- 	c #8DB1B2",
"_- 	c #8DB2B2",
":- 	c #8EB2B3",
"<- 	c #8FB3B4",
"[- 	c #8FB3B5",
"}- 	c #8FB4B5",
"|- 	c #90B5B6",
"1- 	c #90B5B7",
"2- 	c #91B6B7",
"3- 	c #91B6B8",
"4- 	c #92B7B9",
"5- 	c #92B8B9",
"6- 	c #93B8B9",
"7- 	c #93B9BA",
"8- 	c #94BABB",
"9- 	c #94BBBB",
"0- 	c #95BBBC",
"a- 	c #95BBBD",
"b- 	c #96BCBD",
"c- 	c #96BCBE",
"d- 	c #96BDBE",
"e- 	c #97BDBE",
"f- 	c #97BDBF",
"g- 	c #97BEBF",
"h- 	c #98BEC0",
"i- 	c #95BCBD",
"j- 	c #94BBBC",
"k- 	c #94BABA",
"l- 	c #93B8BA",
"m- 	c #92B7B8",
"n- 	c #90B4B5",
"o- 	c #8EB3B3",
"p- 	c #8DB0B2",
"q- 	c #8CAFB0",
"r- 	c #8AADAF",
"s- 	c #89ACAC",
"t- 	c #85A8A9",
"u- 	c #85A8A8",
"v- 	c #83A5A5",
"w- 	c #82A4A5",
"x- 	c #82A3A5",
"y- 	c #80A1A3",
"z- 	c #7F9FA1",
"A- 	c #7E9EA0",
"B- 	c #233135",
"C- 	c #243335",
"D- 	c #243235",
"E- 	c #2A3437",
"F- 	c #454645",
"G- 	c #6C625E",
"H- 	c #867C77",
"I- 	c #433D3D",
"J- 	c #7D6F67",
"K- 	c #86786E",
"L- 	c #64554E",
"M- 	c #62544B",
"N- 	c #3D3835",
"O- 	c #799899",
"P- 	c #ABD5D5",
"Q- 	c #A7D1D1",
"R- 	c #A7D0D0",
"S- 	c #A6D0D0",
"T- 	c #A6CFD0",
"U- 	c #A6CFCF",
"V- 	c #A5CFCF",
"W- 	c #A5CECE",
"X- 	c #A4CDCD",
"Y- 	c #A3CCCD",
"Z- 	c #A3CDCD",
"`- 	c #A3CCCC",
" ; 	c #A4CCCC",
".; 	c #A4CECE",
"+; 	c #A7D0D1",
"@; 	c #A7D1D2",
"#; 	c #A8D1D2",
"$; 	c #A8D2D2",
"%; 	c #A9D3D3",
"&; 	c #AAD3D4",
"*; 	c #AAD4D4",
"=; 	c #AAD4D5",
"-; 	c #ABD6D6",
";; 	c #ACD6D7",
">; 	c #ACD7D8",
",; 	c #ADD8D8",
"'; 	c #ADD8D9",
"); 	c #AED9DA",
"!; 	c #AFDADB",
"~; 	c #B0DBDC",
"{; 	c #B0DCDD",
"]; 	c #B1DDDE",
"^; 	c #B2DEDF",
"/; 	c #B2DFE0",
"(; 	c #B3E0E0",
"_; 	c #B3E1E1",
":; 	c #B4E1E1",
"<; 	c #B4E2E2",
"[; 	c #B5E3E3",
"}; 	c #B5E3E4",
"|; 	c #B6E4E5",
"1; 	c #B7E5E5",
"2; 	c #B7E5E6",
"3; 	c #B7E6E6",
"4; 	c #B8E6E7",
"5; 	c #B8E7E7",
"6; 	c #B8E8E8",
"7; 	c #B4E2E3",
"8; 	c #B4E1E2",
"9; 	c #B3E0E1",
"0; 	c #B1DEDE",
"a; 	c #B0DDDD",
"b; 	c #B0DCDC",
"c; 	c #AFDBDB",
"d; 	c #AED9D9",
"e; 	c #ACD7D7",
"f; 	c #ABD6D7",
"g; 	c #A8D2D3",
"h; 	c #A8D1D1",
"i; 	c #A5CECF",
"j; 	c #A4CDCE",
"k; 	c #A8D3D3",
"l; 	c #789898",
"m; 	c #213235",
"n; 	c #253336",
"o; 	c #273235",
"p; 	c #393D3E",
"q; 	c #69615E",
"r; 	c #58514F",
"s; 	c #6C635E",
"t; 	c #7F7168",
"u; 	c #554A44",
"v; 	c #302F2F",
"w; 	c #212A2C",
"x; 	c #7B9B9C",
"y; 	c #AAD5D5",
"z; 	c #A9D3D4",
"A; 	c #A9D2D2",
"B; 	c #ADD7D8",
"C; 	c #AFDADA",
"D; 	c #B3DFE0",
"E; 	c #B5E2E3",
"F; 	c #B6E3E3",
"G; 	c #B6E4E4",
"H; 	c #B9E8E8",
"I; 	c #BAE9E9",
"J; 	c #BAEAEA",
"K; 	c #BBEBEB",
"L; 	c #BCECEC",
"M; 	c #BDEDEE",
"N; 	c #BEEEEF",
"O; 	c #BFF0F0",
"P; 	c #C0F1F1",
"Q; 	c #C1F3F3",
"R; 	c #C2F3F3",
"S; 	c #C3F4F4",
"T; 	c #C3F6F6",
"U; 	c #C4F7F7",
"V; 	c #C4F8F8",
"W; 	c #C4F6F6",
"X; 	c #C3F5F5",
"Y; 	c #C2F4F4",
"Z; 	c #C0F2F2",
"`; 	c #BFF0F1",
" > 	c #BEEFEF",
".> 	c #BCEDED",
"+> 	c #BBECEC",
"@> 	c #BBEAEB",
"#> 	c #BAE9EA",
"$> 	c #B9E8E9",
"%> 	c #B8E7E8",
"&> 	c #B6E3E4",
"*> 	c #B2DEDE",
"=> 	c #AFDBDC",
"-> 	c #ACD6D6",
";> 	c #ABD5D6",
">> 	c #7A9A9B",
",> 	c #243234",
"'> 	c #263336",
")> 	c #283337",
"!> 	c #353A3C",
"~> 	c #615A57",
"{> 	c #6D6461",
"]> 	c #615B57",
"^> 	c #82746A",
"/> 	c #87796F",
"(> 	c #91837A",
"_> 	c #443E3A",
":> 	c #AEDADA",
"<> 	c #AED8D9",
"[> 	c #AEDADB",
"}> 	c #B1DDDD",
"|> 	c #B2DFDF",
"1> 	c #B5E2E2",
"2> 	c #B6E5E5",
"3> 	c #B9E7E8",
"4> 	c #BDEDED",
"5> 	c #BDEEEE",
"6> 	c #BFF1F1",
"7> 	c #C1F2F2",
"8> 	c #C0F1F2",
"9> 	c #7B9A9B",
"0> 	c #253335",
"a> 	c #263236",
"b> 	c #2B3738",
"c> 	c #444545",
"d> 	c #6A615D",
"e> 	c #665E5C",
"f> 	c #423C3C",
"g> 	c #897B71",
"h> 	c #92837A",
"i> 	c #9E8E84",
"j> 	c #887A72",
"k> 	c #3A3734",
"l> 	c #334347",
"m> 	c #7D9C9D",
"n> 	c #ACD8D8",
"o> 	c #A9D4D4",
"p> 	c #A9D3D2",
"q> 	c #ADD7D7",
"r> 	c #B4E0E0",
"s> 	c #B7E5E4",
"t> 	c #B7E4E5",
"u> 	c #B6E3E5",
"v> 	c #B2DEE0",
"w> 	c #A8D2D1",
"x> 	c #ADD9D9",
"y> 	c #ADD9DA",
"z> 	c #7C9C9D",
"A> 	c #243136",
"B> 	c #243236",
"C> 	c #283237",
"D> 	c #363B3D",
"E> 	c #5C5453",
"F> 	c #81736A",
"G> 	c #9E8D83",
"H> 	c #9F8E84",
"I> 	c #524843",
"J> 	c #2E2F2E",
"K> 	c #6A8687",
"L> 	c #6A8788",
"M> 	c #6B8888",
"N> 	c #6C8889",
"O> 	c #6C8989",
"P> 	c #6D898A",
"Q> 	c #6D898B",
"R> 	c #6D8A8B",
"S> 	c #6E8A8B",
"T> 	c #6E8B8C",
"U> 	c #6E8B8D",
"V> 	c #6F8C8D",
"W> 	c #6F8D8D",
"X> 	c #708D8E",
"Y> 	c #708E8F",
"Z> 	c #718E8F",
"`> 	c #718F90",
" , 	c #728F91",
"., 	c #729092",
"+, 	c #739192",
"@, 	c #739293",
"#, 	c #749394",
"$, 	c #759395",
"%, 	c #759495",
"&, 	c #769596",
"*, 	c #779697",
"=, 	c #789798",
"-, 	c #789799",
";, 	c #79999A",
">, 	c #7A999A",
",, 	c #7B9B9D",
"', 	c #7C9C9E",
"), 	c #7D9D9E",
"!, 	c #7FA0A2",
"~, 	c #81A3A4",
"{, 	c #82A4A4",
"], 	c #84A5A7",
"^, 	c #85A7A9",
"/, 	c #86A8AA",
"(, 	c #87A9AB",
"_, 	c #86A9AB",
":, 	c #84A7A8",
"<, 	c #80A0A2",
"[, 	c #79989A",
"}, 	c #769595",
"|, 	c #759394",
"1, 	c #749293",
"2, 	c #739193",
"3, 	c #729091",
"4, 	c #728F90",
"5, 	c #718F8F",
"6, 	c #6F8D8E",
"7, 	c #6E8C8D",
"8, 	c #6B8688",
"9, 	c #31383B",
"0, 	c #7A706C",
"a, 	c #877D78",
"b, 	c #93847B",
"c, 	c #7F716A",
"d, 	c #453F3B",
"e, 	c #262A2A",
"f, 	c #213236",
"g, 	c #314145",
"h, 	c #314245",
"i, 	c #324346",
"j, 	c #334448",
"k, 	c #36484B",
"l, 	c #445859",
"m, 	c #45585A",
"n, 	c #506869",
"o, 	c #556D6F",
"p, 	c #556E70",
"q, 	c #577072",
"r, 	c #587073",
"s, 	c #5A7374",
"t, 	c #5B7576",
"u, 	c #5C7678",
"v, 	c #5D7779",
"w, 	c #5E787A",
"x, 	c #5F787B",
"y, 	c #5F797B",
"z, 	c #607A7C",
"A, 	c #607A7D",
"B, 	c #5F7A7C",
"C, 	c #536B6C",
"D, 	c #4E6567",
"E, 	c #4A6062",
"F, 	c #485D60",
"G, 	c #415556",
"H, 	c #384A4D",
"I, 	c #36484A",
"J, 	c #344448",
"K, 	c #304044",
"L, 	c #2F3F43",
"M, 	c #2E3F42",
"N, 	c #2D3D41",
"O, 	c #293A3D",
"P, 	c #263436",
"Q, 	c #2B3639",
"R, 	c #464746",
"S, 	c #98887F",
"T, 	c #6D605B",
"U, 	c #7B685D",
"V, 	c #675951",
"W, 	c #433E3B",
"X, 	c #212B2C",
"Y, 	c #304143",
"Z, 	c #3F5153",
"`, 	c #495E61",
" ' 	c #4A5E61",
".' 	c #4D6265",
"+' 	c #4D6466",
"@' 	c #4E6366",
"#' 	c #4D6366",
"$' 	c #435658",
"%' 	c #3E4F52",
"&' 	c #3B4C4E",
"*' 	c #304042",
"=' 	c #283537",
"-' 	c #343C3D",
";' 	c #675F5B",
">' 	c #605754",
",' 	c #69615D",
"'' 	c #706660",
")' 	c #736862",
"!' 	c #756963",
"~' 	c #746862",
"{' 	c #504644",
"]' 	c #7D6A5F",
"^' 	c #7B6A60",
"/' 	c #645750",
"(' 	c #323231",
"_' 	c #394C4E",
":' 	c #3C4D51",
"<' 	c #3E4F53",
"[' 	c #425456",
"}' 	c #415558",
"|' 	c #3D4F53",
"1' 	c #36464A",
"2' 	c #243237",
"3' 	c #263437",
"4' 	c #2E383A",
"5' 	c #7C6C65",
"6' 	c #8D776C",
"7' 	c #726761",
"8' 	c #756A63",
"9' 	c #766A63",
"0' 	c #746962",
"a' 	c #716661",
"b' 	c #83756C",
"c' 	c #9C8C82",
"d' 	c #4A403F",
"e' 	c #3E3534",
"f' 	c #79665B",
"g' 	c #746259",
"h' 	c #8F7B6F",
"i' 	c #8F7B70",
"j' 	c #4A443F",
"k' 	c #212D2F",
"l' 	c #334245",
"m' 	c #39494D",
"n' 	c #344346",
"o' 	c #293538",
"p' 	c #4D4B4A",
"q' 	c #7C6F68",
"r' 	c #8F786D",
"s' 	c #7F6B62",
"t' 	c #584B48",
"u' 	c #453C3B",
"v' 	c #3B3536",
"w' 	c #887A70",
"x' 	c #9D8C82",
"y' 	c #463C3A",
"z' 	c #7A675C",
"A' 	c #76655B",
"B' 	c #8A766B",
"C' 	c #968175",
"D' 	c #947F73",
"E' 	c #7E6D63",
"F' 	c #353432",
"G' 	c #213136",
"H' 	c #334246",
"I' 	c #223335",
"J' 	c #273537",
"K' 	c #343B3D",
"L' 	c #746963",
"M' 	c #B5A191",
"N' 	c #74625B",
"O' 	c #716761",
"P' 	c #85776D",
"Q' 	c #94847B",
"R' 	c #7B685E",
"S' 	c #837065",
"T' 	c #8E7A6F",
"U' 	c #4C443F",
"V' 	c #282B2B",
"W' 	c #223033",
"X' 	c #233033",
"Y' 	c #233034",
"Z' 	c #233134",
"`' 	c #253235",
" ) 	c #273538",
".) 	c #283538",
"+) 	c #283639",
"@) 	c #293639",
"#) 	c #29363A",
"$) 	c #29373A",
"%) 	c #2A373B",
"&) 	c #2A383B",
"*) 	c #2A393B",
"=) 	c #2B3A3C",
"-) 	c #2C3A3C",
";) 	c #2C3B3C",
">) 	c #2C393C",
",) 	c #29383A",
"') 	c #928379",
")) 	c #BAA595",
"!) 	c #5D504C",
"~) 	c #918580",
"{) 	c #807269",
"]) 	c #82746D",
"^) 	c #77655B",
"/) 	c #867267",
"() 	c #6C5C53",
"_) 	c #172325",
":) 	c #162123",
"<) 	c #162122",
"[) 	c #162022",
"}) 	c #172123",
"|) 	c #182224",
"1) 	c #1A2425",
"2) 	c #1B2526",
"3) 	c #1C2628",
"4) 	c #1D2729",
"5) 	c #1E2729",
"6) 	c #1E272A",
"7) 	c #1F292B",
"8) 	c #202A2B",
"9) 	c #212A2D",
"0) 	c #202B2D",
"a) 	c #222B2D",
"b) 	c #1E292B",
"c) 	c #1D2728",
"d) 	c #172224",
"e) 	c #B19E8F",
"f) 	c #78655E",
"g) 	c #6C6361",
"h) 	c #978B86",
"i) 	c #786C65",
"j) 	c #776B63",
"k) 	c #8A7C72",
"l) 	c #726560",
"m) 	c #5A4C47",
"n) 	c #5A4E47",
"o) 	c #1C2B2E",
"p) 	c #131D1D",
"q) 	c #121A1B",
"r) 	c #111819",
"s) 	c #101718",
"t) 	c #101819",
"u) 	c #12191A",
"v) 	c #11181A",
"w) 	c #131A1B",
"x) 	c #131B1C",
"y) 	c #141B1C",
"z) 	c #141B1D",
"A) 	c #151C1D",
"B) 	c #161D1E",
"C) 	c #171E1F",
"D) 	c #181F20",
"E) 	c #141C1D",
"F) 	c #121A1A",
"G) 	c #141F20",
"H) 	c #273437",
"I) 	c #393E3F",
"J) 	c #635C58",
"K) 	c #4D4546",
"L) 	c #8B807B",
"M) 	c #7E7169",
"N) 	c #7A6D66",
"O) 	c #615552",
"P) 	c #5B4D48",
"Q) 	c #3B3834",
"R) 	c #141E1E",
"S) 	c #131C1C",
"T) 	c #111919",
"U) 	c #121B1B",
"V) 	c #152021",
"W) 	c #2F383B",
"X) 	c #786D67",
"Y) 	c #938782",
"Z) 	c #7D7169",
"`) 	c #8A7B72",
" ! 	c #675750",
".! 	c #68584F",
"+! 	c #2C2D2C",
"@! 	c #21292C",
"#! 	c #172223",
"$! 	c #131E1D",
"%! 	c #182325",
"&! 	c #2A3539",
"*! 	c #565250",
"=! 	c #6B625E",
"-! 	c #82756D",
";! 	c #B9A494",
">! 	c #8A746A",
",! 	c #877C79",
"'! 	c #756962",
")! 	c #786C64",
"!! 	c #8B7C72",
"~! 	c #6D5D53",
"{! 	c #4F4640",
"]! 	c #172324",
"^! 	c #141F1F",
"/! 	c #3C3F41",
"(! 	c #B49F8F",
"_! 	c #8C766B",
":! 	c #826C63",
"<! 	c #806B62",
"[! 	c #6D6361",
"}! 	c #786E69",
"|! 	c #806D62",
"1! 	c #695950",
"2! 	c #323130",
"3! 	c #212B2E",
"4! 	c #182628",
"5! 	c #151F1F",
"6! 	c #11191A",
"7! 	c #141E1F",
"8! 	c #182425",
"9! 	c #1E2E31",
"0! 	c #2D373A",
"a! 	c #5D5854",
"b! 	c #B39E8F",
"c! 	c #8E776C",
"d! 	c #816C63",
"e! 	c #534B4B",
"f! 	c #817671",
"g! 	c #8F7F75",
"h! 	c #7C695F",
"i! 	c #8A766C",
"j! 	c #89756B",
"k! 	c #7F6C61",
"l! 	c #272B2B",
"m! 	c #1A2729",
"n! 	c #131D1E",
"o! 	c #A89284",
"p! 	c #877167",
"q! 	c #403A3B",
"r! 	c #887D78",
"s! 	c #82746B",
"t! 	c #97877D",
"u! 	c #4D4241",
"v! 	c #483E3D",
"w! 	c #493E3D",
"x! 	c #7A675E",
"y! 	c #4A423D",
"z! 	c #151F20",
"A! 	c #141D1D",
"B! 	c #3F4242",
"C! 	c #A08A7D",
"D! 	c #554947",
"E! 	c #4F4342",
"F! 	c #66574E",
"G! 	c #2F2F2F",
"H! 	c #2D383A",
"I! 	c #5B5653",
"J! 	c #947E72",
"K! 	c #857A76",
"L! 	c #958984",
"M! 	c #85776E",
"N! 	c #6F605A",
"O! 	c #77665F",
"P! 	c #7E6B60",
"Q! 	c #60524A",
"R! 	c #162021",
"S! 	c #202F32",
"T! 	c #223336",
"U! 	c #243639",
"V! 	c #25373A",
"W! 	c #26373A",
"X! 	c #26373B",
"Y! 	c #25373B",
"Z! 	c #27383C",
"`! 	c #28393C",
" ~ 	c #26383B",
".~ 	c #26383C",
"+~ 	c #25363A",
"@~ 	c #141E1D",
"#~ 	c #233136",
"$~ 	c #867167",
"%~ 	c #716764",
"&~ 	c #81736B",
"*~ 	c #80726A",
"=~ 	c #83756D",
"-~ 	c #75665F",
";~ 	c #5F514D",
">~ 	c #877369",
",~ 	c #49413C",
"'~ 	c #31454C",
")~ 	c #27393E",
"!~ 	c #27383D",
"~~ 	c #2A3E42",
"{~ 	c #3A585B",
"]~ 	c #4C7576",
"^~ 	c #548283",
"/~ 	c #548384",
"(~ 	c #548485",
"_~ 	c #578687",
":~ 	c #699092",
"<~ 	c #657F81",
"[~ 	c #3D5255",
"}~ 	c #2B3C41",
"|~ 	c #25363B",
"1~ 	c #24353A",
"2~ 	c #233439",
"3~ 	c #42575A",
"4~ 	c #698485",
"5~ 	c #769898",
"6~ 	c #668E8F",
"7~ 	c #588788",
"8~ 	c #578889",
"9~ 	c #58898B",
"0~ 	c #598C8D",
"a~ 	c #598E8F",
"b~ 	c #5A8F91",
"c~ 	c #5B9193",
"d~ 	c #5A9092",
"e~ 	c #5A8F90",
"f~ 	c #598D8E",
"g~ 	c #588B8D",
"h~ 	c #57898B",
"i~ 	c #568889",
"j~ 	c #507D7F",
"k~ 	c #3A595D",
"l~ 	c #26393E",
"m~ 	c #24343A",
"n~ 	c #2B3D43",
"o~ 	c #4A4A49",
"p~ 	c #6D645E",
"q~ 	c #786D66",
"r~ 	c #756A64",
"s~ 	c #736963",
"t~ 	c #726762",
"u~ 	c #A28C80",
"v~ 	c #836E64",
"w~ 	c #6F6562",
"x~ 	c #7C6F67",
"y~ 	c #7E7068",
"z~ 	c #76665F",
"A~ 	c #493F3E",
"B~ 	c #7B6961",
"C~ 	c #836F65",
"D~ 	c #61534B",
"E~ 	c #182426",
"F~ 	c #152020",
"G~ 	c #253639",
"H~ 	c #354C53",
"I~ 	c #30454C",
"J~ 	c #28393E",
"K~ 	c #2D4146",
"L~ 	c #436669",
"M~ 	c #5B8C8D",
"N~ 	c #659E9E",
"O~ 	c #669F9F",
"P~ 	c #65A0A0",
"Q~ 	c #69A2A3",
"R~ 	c #81B0B1",
"S~ 	c #98BEBE",
"T~ 	c #7C9B9B",
"U~ 	c #475E60",
"V~ 	c #2C3E43",
"W~ 	c #304146",
"X~ 	c #3A4D52",
"Y~ 	c #405357",
"Z~ 	c #3F5357",
"`~ 	c #3E5255",
" { 	c #3F5457",
".{ 	c #87A6A7",
"+{ 	c #93BAB9",
"@{ 	c #7DADAD",
"#{ 	c #6BA4A5",
"${ 	c #69A5A6",
"%{ 	c #6AA7A9",
"&{ 	c #6BAAAB",
"*{ 	c #6CADAE",
"={ 	c #6DAFB1",
"-{ 	c #6EB1B3",
";{ 	c #6EB0B2",
">{ 	c #6DAEAF",
",{ 	c #6CACAD",
"'{ 	c #6BA9AA",
"){ 	c #69A7A8",
"!{ 	c #629A9B",
"~{ 	c #4F7678",
"{{ 	c #40565A",
"]{ 	c #3F5256",
"^{ 	c #3B4F52",
"/{ 	c #304247",
"({ 	c #283A3E",
"_{ 	c #2A3D42",
":{ 	c #25353A",
"<{ 	c #192527",
"[{ 	c #151E1F",
"}{ 	c #323A3C",
"|{ 	c #8F796F",
"1{ 	c #826D64",
"2{ 	c #6A605D",
"3{ 	c #574B49",
"4{ 	c #4C4140",
"5{ 	c #3B3332",
"6{ 	c #3C3533",
"7{ 	c #726057",
"8{ 	c #5B4E48",
"9{ 	c #364D54",
"0{ 	c #344A51",
"a{ 	c #2C4045",
"b{ 	c #436568",
"c{ 	c #5A8B8C",
"d{ 	c #649C9C",
"e{ 	c #659D9E",
"f{ 	c #649E9F",
"g{ 	c #68A1A2",
"h{ 	c #7FAFAF",
"i{ 	c #97BCBC",
"j{ 	c #7B9A9A",
"k{ 	c #475D5F",
"l{ 	c #26373C",
"m{ 	c #293A3F",
"n{ 	c #37494E",
"o{ 	c #6B8689",
"p{ 	c #718D8E",
"q{ 	c #708C8D",
"r{ 	c #718C8E",
"s{ 	c #708C8E",
"t{ 	c #708B8D",
"u{ 	c #718C8D",
"v{ 	c #7D9B9C",
"w{ 	c #90B1B2",
"x{ 	c #92B8B8",
"y{ 	c #7BACAC",
"z{ 	c #6AA3A3",
"A{ 	c #68A3A4",
"B{ 	c #69A5A7",
"C{ 	c #6AA8A9",
"D{ 	c #6BACAE",
"E{ 	c #6CAEB0",
"F{ 	c #6DAEB1",
"G{ 	c #6CADAF",
"H{ 	c #6BABAD",
"I{ 	c #6AAAAA",
"J{ 	c #68A5A6",
"K{ 	c #67A2A3",
"L{ 	c #679E9F",
"M{ 	c #6A9495",
"N{ 	c #6F8C8E",
"O{ 	c #728D8F",
"P{ 	c #6B8587",
"Q{ 	c #364A4E",
"R{ 	c #192426",
"S{ 	c #5A5552",
"T{ 	c #796D67",
"U{ 	c #7F7169",
"V{ 	c #6F6660",
"W{ 	c #7B6F67",
"X{ 	c #95847B",
"Y{ 	c #413938",
"Z{ 	c #3A3332",
"`{ 	c #806E65",
" ] 	c #1F2427",
".] 	c #1F2326",
"+] 	c #131C1B",
"@] 	c #344B51",
"#] 	c #364E55",
"$] 	c #436467",
"%] 	c #5A8A8B",
"&] 	c #649B9C",
"*] 	c #649C9D",
"=] 	c #649D9E",
"-] 	c #67A0A1",
";] 	c #7FAEAE",
">] 	c #324449",
",] 	c #546C6F",
"'] 	c #779597",
")] 	c #89AAAB",
"!] 	c #8AADAC",
"~] 	c #88ABAA",
"{] 	c #88ABAB",
"]] 	c #89ADAC",
"^] 	c #89ADAD",
"/] 	c #8CB1B1",
"(] 	c #91B5B6",
"_] 	c #8BB4B4",
":] 	c #78A9A9",
"<] 	c #69A1A2",
"[] 	c #68A5A5",
"}] 	c #6AA9AA",
"|] 	c #6BABAC",
"1] 	c #6BACAD",
"2] 	c #6BAAAC",
"3] 	c #6AA8AA",
"4] 	c #69A6A7",
"5] 	c #67A3A4",
"6] 	c #66A1A2",
"7] 	c #6AA1A2",
"8] 	c #7AA7A8",
"9] 	c #88ADAE",
"0] 	c #88ACAC",
"a] 	c #8AADAD",
"b] 	c #8AACAC",
"c] 	c #7A9A9A",
"d] 	c #577274",
"e] 	c #374D51",
"f] 	c #2D4145",
"g] 	c #2A3C41",
"h] 	c #26363B",
"i] 	c #182324",
"j] 	c #141F1E",
"k] 	c #4B4A49",
"l] 	c #937D71",
"m] 	c #7C6860",
"n] 	c #736861",
"o] 	c #82746C",
"p] 	c #3B3433",
"q] 	c #493F3D",
"r] 	c #867369",
"s] 	c #60524B",
"t] 	c #2F2F2E",
"u] 	c #1E2323",
"v] 	c #1D2B2D",
"w] 	c #31464C",
"x] 	c #59898B",
"y] 	c #639A9B",
"z] 	c #639D9E",
"A] 	c #679FA0",
"B] 	c #283A3F",
"C] 	c #384C50",
"D] 	c #587173",
"E] 	c #719191",
"F] 	c #799E9D",
"G] 	c #789E9D",
"H] 	c #779E9D",
"I] 	c #789F9F",
"J] 	c #78A0A0",
"K] 	c #79A1A1",
"L] 	c #7AA2A2",
"M] 	c #7AA4A4",
"N] 	c #7BA5A5",
"O] 	c #7CA6A6",
"P] 	c #7DA7A7",
"Q] 	c #7DA8A8",
"R] 	c #7DA9A9",
"S] 	c #7DA9AA",
"T] 	c #79A8A8",
"U] 	c #6FA3A4",
"V] 	c #67A4A4",
"W] 	c #68A6A6",
"X] 	c #69A8A9",
"Y] 	c #6AAAAB",
"Z] 	c #69A6A8",
"`] 	c #66A2A3",
" ^ 	c #65A0A1",
".^ 	c #68A0A1",
"+^ 	c #73A5A7",
"@^ 	c #7DABAB",
"#^ 	c #7EAAAA",
"$^ 	c #7BA5A4",
"%^ 	c #7AA4A3",
"&^ 	c #79A3A2",
"*^ 	c #7BA4A2",
"=^ 	c #789F9E",
"-^ 	c #678B8C",
";^ 	c #4E6F70",
">^ 	c #415F61",
",^ 	c #395456",
"'^ 	c #2F4448",
")^ 	c #5F5955",
"!^ 	c #776B65",
"~^ 	c #9D8375",
"{^ 	c #6C5B56",
"]^ 	c #7A706B",
"^^ 	c #796D65",
"/^ 	c #97867D",
"(^ 	c #4B403F",
"_^ 	c #76655D",
":^ 	c #7F6C63",
"<^ 	c #584A44",
"[^ 	c #836F66",
"}^ 	c #5A4D47",
"|^ 	c #1F2225",
"1^ 	c #1F282B",
"2^ 	c #1B282A",
"3^ 	c #131D1C",
"4^ 	c #30464B",
"5^ 	c #344A50",
"6^ 	c #293B40",
"7^ 	c #426366",
"8^ 	c #59898A",
"9^ 	c #639A9A",
"0^ 	c #639B9C",
"a^ 	c #639C9D",
"b^ 	c #7FADAD",
"c^ 	c #324549",
"d^ 	c #466062",
"e^ 	c #577979",
"f^ 	c #5D8584",
"g^ 	c #5D8785",
"h^ 	c #5D8887",
"i^ 	c #5E8A8A",
"j^ 	c #5F8C8C",
"k^ 	c #608E8E",
"l^ 	c #629090",
"m^ 	c #639292",
"n^ 	c #649494",
"o^ 	c #659696",
"p^ 	c #669898",
"q^ 	c #679999",
"r^ 	c #679B9B",
"s^ 	c #679D9D",
"t^ 	c #669D9E",
"u^ 	c #659E9F",
"v^ 	c #67A4A5",
"w^ 	c #659FA0",
"x^ 	c #679D9E",
"y^ 	c #699D9D",
"z^ 	c #689A9B",
"A^ 	c #679898",
"B^ 	c #669797",
"C^ 	c #659595",
"D^ 	c #649393",
"E^ 	c #629292",
"F^ 	c #619090",
"G^ 	c #608E8D",
"H^ 	c #608D8C",
"I^ 	c #5E8988",
"J^ 	c #588180",
"K^ 	c #517878",
"L^ 	c #4B6F6F",
"M^ 	c #3D5A5C",
"N^ 	c #2E4346",
"O^ 	c #162223",
"P^ 	c #575350",
"Q^ 	c #796D66",
"R^ 	c #9E8476",
"S^ 	c #6A5A55",
"T^ 	c #3E3738",
"U^ 	c #857A75",
"V^ 	c #4C423F",
"W^ 	c #50423D",
"X^ 	c #51433E",
"Y^ 	c #7B6960",
"Z^ 	c #867268",
"`^ 	c #6B5A51",
" / 	c #232628",
"./ 	c #212525",
"+/ 	c #1E2124",
"@/ 	c #1E292C",
"#/ 	c #2B3E44",
"$/ 	c #2C4044",
"%/ 	c #598889",
"&/ 	c #63999A",
"*/ 	c #669E9F",
"=/ 	c #97BCBB",
"-/ 	c #2F4347",
";/ 	c #405C5E",
">/ 	c #507574",
",/ 	c #56807F",
"'/ 	c #558180",
")/ 	c #568382",
"!/ 	c #578584",
"~/ 	c #588786",
"{/ 	c #5A8989",
"]/ 	c #5B8B8B",
"^/ 	c #5C8D8E",
"// 	c #5D9090",
"(/ 	c #5F9292",
"_/ 	c #609494",
":/ 	c #619696",
"</ 	c #629999",
"[/ 	c #629B9B",
"}/ 	c #639D9D",
"|/ 	c #649FA0",
"1/ 	c #619898",
"2/ 	c #609596",
"3/ 	c #5F9393",
"4/ 	c #5E9191",
"5/ 	c #5D8F8F",
"6/ 	c #5C8D8D",
"7/ 	c #5B8C8C",
"8/ 	c #598989",
"9/ 	c #527978",
"0/ 	c #456667",
"a/ 	c #344C4E",
"b/ 	c #293B3F",
"c/ 	c #1A282A",
"d/ 	c #4C4B49",
"e/ 	c #766A64",
"f/ 	c #8E7B70",
"g/ 	c #A28778",
"h/ 	c #846F65",
"i/ 	c #635551",
"j/ 	c #9B8B81",
"k/ 	c #594A44",
"l/ 	c #705E57",
"m/ 	c #63544C",
"n/ 	c #3D3633",
"o/ 	c #242526",
"p/ 	c #1F2223",
"q/ 	c #1B1E20",
"r/ 	c #1C2427",
"s/ 	c #1D272B",
"t/ 	c #172122",
"u/ 	c #344B52",
"v/ 	c #2E4248",
"w/ 	c #2B3F43",
"x/ 	c #416265",
"y/ 	c #588789",
"z/ 	c #629899",
"A/ 	c #7EACAD",
"B/ 	c #27373C",
"C/ 	c #29393E",
"D/ 	c #33474B",
"E/ 	c #446264",
"F/ 	c #537A7A",
"G/ 	c #588281",
"H/ 	c #578382",
"I/ 	c #578484",
"J/ 	c #588686",
"K/ 	c #598888",
"L/ 	c #5B8A8A",
"M/ 	c #5C8C8D",
"N/ 	c #5D9191",
"O/ 	c #5E9393",
"P/ 	c #609595",
"Q/ 	c #619798",
"R/ 	c #629A9A",
"S/ 	c #639C9C",
"T/ 	c #649E9E",
"U/ 	c #65A1A1",
"V/ 	c #66A2A2",
"W/ 	c #67A3A3",
"X/ 	c #659F9F",
"Y/ 	c #649D9D",
"Z/ 	c #619797",
"`/ 	c #609495",
" ( 	c #5E9292",
".( 	c #5C8E8E",
"+( 	c #5A8B8B",
"@( 	c #598988",
"#( 	c #578685",
"$( 	c #578483",
"%( 	c #547C7B",
"&( 	c #476768",
"*( 	c #344C4F",
"=( 	c #27373D",
"-( 	c #253439",
";( 	c #1C2B2D",
">( 	c #5F5854",
",( 	c #736760",
"'( 	c #887268",
")( 	c #363032",
"!( 	c #454041",
"~( 	c #97877E",
"{( 	c #72635D",
"]( 	c #473D3C",
"^( 	c #645651",
"/( 	c #6F5E56",
"(( 	c #63534C",
"_( 	c #826F65",
":( 	c #5C4E47",
"<( 	c #2D2A2B",
"[( 	c #1D1F21",
"}( 	c #191D1F",
"|( 	c #1B2225",
"1( 	c #162121",
"2( 	c #27393C",
"3( 	c #364D53",
"4( 	c #27393D",
"5( 	c #28393D",
"6( 	c #283A3D",
"7( 	c #273A3E",
"8( 	c #2D4246",
"9( 	c #416466",
"0( 	c #629798",
"a( 	c #62999A",
"b( 	c #659C9D",
"c( 	c #7EACAC",
"d( 	c #96BCBB",
"e( 	c #344B4E",
"f( 	c #466566",
"g( 	c #537B7A",
"h( 	c #588482",
"i( 	c #578585",
"j( 	c #598887",
"k( 	c #5A8A89",
"l( 	c #5B8B8C",
"m( 	c #619697",
"n( 	c #619999",
"o( 	c #66A0A1",
"p( 	c #639B9B",
"q( 	c #619897",
"r( 	c #5F9394",
"s( 	c #5C8F8F",
"t( 	c #5B8D8D",
"u( 	c #598A89",
"v( 	c #588887",
"w( 	c #588685",
"x( 	c #588584",
"y( 	c #55807E",
"z( 	c #496D6D",
"A( 	c #365052",
"B( 	c #293C40",
"C( 	c #192627",
"D( 	c #213133",
"E( 	c #55514E",
"F( 	c #71655E",
"G( 	c #70645E",
"H( 	c #9D8476",
"I( 	c #8B756A",
"J( 	c #605350",
"K( 	c #3A3334",
"L( 	c #423D3E",
"M( 	c #494344",
"N( 	c #96867C",
"O( 	c #786963",
"P( 	c #423938",
"Q( 	c #473E3B",
"R( 	c #574943",
"S( 	c #473E39",
"T( 	c #181F22",
"U( 	c #172021",
"V( 	c #182022",
"W( 	c #192024",
"X( 	c #192225",
"Y( 	c #223133",
"Z( 	c #385057",
"`( 	c #33484E",
" _ 	c #293A3E",
"._ 	c #2F4446",
"+_ 	c #354C4E",
"@_ 	c #364E50",
"#_ 	c #354D4F",
"$_ 	c #354E50",
"%_ 	c #364F50",
"&_ 	c #364F51",
"*_ 	c #375051",
"=_ 	c #375052",
"-_ 	c #375153",
";_ 	c #375254",
">_ 	c #385254",
",_ 	c #385355",
"'_ 	c #395557",
")_ 	c #395558",
"!_ 	c #3A5658",
"~_ 	c #3A5659",
"{_ 	c #3A5759",
"]_ 	c #3B585A",
"^_ 	c #3B595B",
"/_ 	c #3F5F61",
"(_ 	c #4C7475",
"__ 	c #629797",
":_ 	c #619899",
"<_ 	c #2D3F43",
"[_ 	c #28383D",
"}_ 	c #2A3C40",
"|_ 	c #354B4D",
"1_ 	c #456464",
"2_ 	c #547C7A",
"3_ 	c #598584",
"4_ 	c #5F9595",
"5_ 	c #609797",
"6_ 	c #609696",
"7_ 	c #5F9494",
"8_ 	c #5A8A8A",
"9_ 	c #598685",
"0_ 	c #568180",
"a_ 	c #4B7070",
"b_ 	c #3A5457",
"c_ 	c #2C3F44",
"d_ 	c #192526",
"e_ 	c #15201F",
"f_ 	c #444443",
"g_ 	c #59504B",
"h_ 	c #937B6F",
"i_ 	c #3F3738",
"j_ 	c #4B4545",
"k_ 	c #8E7F76",
"l_ 	c #8A7B73",
"m_ 	c #857268",
"n_ 	c #62524C",
"o_ 	c #695851",
"p_ 	c #7C685E",
"q_ 	c #816E62",
"r_ 	c #242627",
"s_ 	c #161F22",
"t_ 	c #172023",
"u_ 	c #182123",
"v_ 	c #172125",
"w_ 	c #182326",
"x_ 	c #385258",
"y_ 	c #334A50",
"z_ 	c #2A3B40",
"A_ 	c #2C3F42",
"B_ 	c #395254",
"C_ 	c #496868",
"D_ 	c #476665",
"E_ 	c #476766",
"F_ 	c #486867",
"G_ 	c #486A68",
"H_ 	c #496A6A",
"I_ 	c #496B6B",
"J_ 	c #4A6D6B",
"K_ 	c #4A6E6D",
"L_ 	c #4C7070",
"M_ 	c #4C7171",
"N_ 	c #4D7273",
"O_ 	c #4D7374",
"P_ 	c #4E7474",
"Q_ 	c #4F7576",
"R_ 	c #4F7777",
"S_ 	c #507878",
"T_ 	c #507979",
"U_ 	c #507A7A",
"V_ 	c #517B7C",
"W_ 	c #527C7D",
"X_ 	c #527D7E",
"Y_ 	c #537E7F",
"Z_ 	c #548182",
"`_ 	c #649A9A",
" : 	c #28383C",
".: 	c #2B3C40",
"+: 	c #364D4F",
"@: 	c #476869",
"#: 	c #56807E",
"$: 	c #5D9190",
"%: 	c #5C8F8E",
"&: 	c #5B8D8C",
"*: 	c #5A8B8A",
"=: 	c #598786",
"-: 	c #5A8886",
";: 	c #578281",
">: 	c #4B6F70",
",: 	c #2D4044",
"': 	c #27373B",
"): 	c #1F3033",
"!: 	c #1F2F31",
"~: 	c #283033",
"{: 	c #6D625B",
"]: 	c #A58B7C",
"^: 	c #947C70",
"/: 	c #3B3537",
"(: 	c #554E4D",
"_: 	c #685E5B",
":: 	c #928682",
"<: 	c #7A6E66",
"[: 	c #8C7D74",
"}: 	c #6B5C55",
"|: 	c #52433E",
"1: 	c #5D4D47",
"2: 	c #88746A",
"3: 	c #78635A",
"4: 	c #998376",
"5: 	c #9A8477",
"6: 	c #857165",
"7: 	c #172022",
"8: 	c #162023",
"9: 	c #172124",
"0: 	c #172225",
"a: 	c #172326",
"b: 	c #334B50",
"c: 	c #2A3D41",
"d: 	c #2D4043",
"e: 	c #3D5859",
"f: 	c #4D6F6E",
"g: 	c #517573",
"h: 	c #4F7270",
"i: 	c #4F7271",
"j: 	c #4F7371",
"k: 	c #507473",
"l: 	c #517674",
"m: 	c #527775",
"n: 	c #527977",
"o: 	c #527A79",
"p: 	c #537B7B",
"q: 	c #547D7C",
"r: 	c #557E7D",
"s: 	c #578181",
"t: 	c #578282",
"u: 	c #588483",
"v: 	c #5A8887",
"w: 	c #5B8B8A",
"x: 	c #5C8C8C",
"y: 	c #5E9090",
"z: 	c #609697",
"A: 	c #64999A",
"B: 	c #7DAAAA",
"C: 	c #475D60",
"D: 	c #2C3E42",
"E: 	c #385053",
"F: 	c #4A6C6D",
"G: 	c #568080",
"H: 	c #598787",
"I: 	c #5D8D8D",
"J: 	c #5E8F8F",
"K: 	c #5E9392",
"L: 	c #609695",
"M: 	c #629898",
"N: 	c #5A8787",
"O: 	c #588484",
"P: 	c #3B5759",
"Q: 	c #2C4043",
"R: 	c #172425",
"S: 	c #1E2A2E",
"T: 	c #182122",
"U: 	c #74685F",
"V: 	c #BAA08E",
"W: 	c #967E71",
"X: 	c #3E383A",
"Y: 	c #595150",
"Z: 	c #494444",
"`: 	c #605857",
" < 	c #85776F",
".< 	c #95847C",
"+< 	c #544540",
"@< 	c #564742",
"#< 	c #7E6960",
"$< 	c #846F64",
"%< 	c #867266",
"&< 	c #151F22",
"*< 	c #162124",
"=< 	c #32484E",
"-< 	c #354B51",
";< 	c #2B3E43",
">< 	c #3E595A",
",< 	c #4E716F",
"'< 	c #507472",
")< 	c #507573",
"!< 	c #517775",
"~< 	c #527876",
"{< 	c #537B79",
"]< 	c #537C7B",
"^< 	c #578180",
"/< 	c #5A8988",
"(< 	c #5C8D8C",
"_< 	c #5C8E8D",
":< 	c #639898",
"<< 	c #7CA9AA",
"[< 	c #2C3F43",
"}< 	c #385154",
"|< 	c #496B6C",
"1< 	c #55807F",
"2< 	c #5D8F8E",
"3< 	c #5D9292",
"4< 	c #5D8E8E",
"5< 	c #4E7675",
"6< 	c #3D5B5D",
"7< 	c #182428",
"8< 	c #8D7B70",
"9< 	c #C2A794",
"0< 	c #9A8173",
"a< 	c #83746C",
"b< 	c #3D3534",
"c< 	c #79645B",
"d< 	c #877367",
"e< 	c #1C292B",
"f< 	c #243538",
"g< 	c #33494F",
"h< 	c #4D706E",
"i< 	c #517774",
"j< 	c #4F7472",
"k< 	c #4F7473",
"l< 	c #4F7674",
"m< 	c #507775",
"n< 	c #517977",
"o< 	c #517A79",
"p< 	c #527C7A",
"q< 	c #537D7C",
"r< 	c #547F7E",
"s< 	c #568282",
"t< 	c #588585",
"u< 	c #5A8A88",
"v< 	c #5A8C8A",
"w< 	c #5D9393",
"x< 	c #7CA8A9",
"y< 	c #96BBBB",
"z< 	c #374F52",
"A< 	c #486A6B",
"B< 	c #557F7F",
"C< 	c #5A8786",
"D< 	c #5B8C8B",
"E< 	c #609493",
"F< 	c #5A8888",
"G< 	c #4F7776",
"H< 	c #3E5D5E",
"I< 	c #304547",
"J< 	c #151F1E",
"K< 	c #1E2E32",
"L< 	c #182427",
"M< 	c #152023",
"N< 	c #A08A7C",
"O< 	c #C3A895",
"P< 	c #7A665F",
"Q< 	c #433D3F",
"R< 	c #4B4645",
"S< 	c #685F5B",
"T< 	c #776B64",
"U< 	c #7D7068",
"V< 	c #908179",
"W< 	c #847066",
"X< 	c #7B665D",
"Y< 	c #877269",
"Z< 	c #826F64",
"`< 	c #31454B",
" [ 	c #527674",
".[ 	c #537776",
"+[ 	c #547A78",
"@[ 	c #557B7A",
"#[ 	c #567D7B",
"$[ 	c #567E7C",
"%[ 	c #577F7E",
"&[ 	c #58807F",
"*[ 	c #598381",
"=[ 	c #5A8483",
"-[ 	c #5A8584",
";[ 	c #5B8686",
">[ 	c #5C8787",
",[ 	c #5D8888",
"'[ 	c #5D8A89",
")[ 	c #5E8B8A",
"![ 	c #5E8D8B",
"~[ 	c #5F8E8D",
"{[ 	c #5F8F8E",
"][ 	c #609090",
"^[ 	c #619191",
"/[ 	c #619292",
"([ 	c #629493",
"_[ 	c #629494",
":[ 	c #629595",
"<[ 	c #659899",
"[[ 	c #7EA9AA",
"}[ 	c #96BBBC",
"|[ 	c #7A999B",
"1[ 	c #475C5F",
"2[ 	c #2B3D41",
"3[ 	c #374E51",
"4[ 	c #5A8785",
"5[ 	c #5E9190",
"6[ 	c #3F5E5F",
"7[ 	c #304548",
"8[ 	c #162020",
"9[ 	c #152124",
"0[ 	c #152022",
"a[ 	c #A58E7E",
"b[ 	c #A18677",
"c[ 	c #78655D",
"d[ 	c #4E4847",
"e[ 	c #5D5552",
"f[ 	c #7E726A",
"g[ 	c #665B58",
"h[ 	c #655A57",
"i[ 	c #514745",
"j[ 	c #423A38",
"k[ 	c #847167",
"l[ 	c #8B776D",
"m[ 	c #161F21",
"n[ 	c #213032",
"o[ 	c #304449",
"p[ 	c #4E706E",
"q[ 	c #527673",
"r[ 	c #577B79",
"s[ 	c #678B8A",
"t[ 	c #719594",
"u[ 	c #719695",
"v[ 	c #729796",
"w[ 	c #729897",
"x[ 	c #729898",
"y[ 	c #739998",
"z[ 	c #739A99",
"A[ 	c #739A9A",
"B[ 	c #749B9A",
"C[ 	c #749B9B",
"D[ 	c #749C9C",
"E[ 	c #759D9D",
"F[ 	c #769E9E",
"G[ 	c #769F9E",
"H[ 	c #769F9F",
"I[ 	c #77A0A0",
"J[ 	c #77A1A0",
"K[ 	c #77A1A1",
"L[ 	c #77A2A2",
"M[ 	c #78A3A3",
"N[ 	c #78A4A3",
"O[ 	c #79A4A4",
"P[ 	c #79A5A4",
"Q[ 	c #78A5A5",
"R[ 	c #7AA7A7",
"S[ 	c #8AB2B3",
"T[ 	c #99BEBF",
"U[ 	c #7B9A9C",
"V[ 	c #385153",
"W[ 	c #4B6D6E",
"X[ 	c #598785",
"Y[ 	c #588787",
"Z[ 	c #5D8E8D",
"`[ 	c #598585",
" } 	c #517A7A",
".} 	c #416162",
"+} 	c #30474A",
"@} 	c #90796E",
"#} 	c #4A4444",
"$} 	c #4F4947",
"%} 	c #534C4A",
"&} 	c #7D7670",
"*} 	c #79716B",
"=} 	c #6F6661",
"-} 	c #70645F",
";} 	c #4E4543",
">} 	c #413937",
",} 	c #6A5B53",
"'} 	c #716259",
")} 	c #95847A",
"!} 	c #8D7A70",
"~} 	c #7A685F",
"{} 	c #1D2C2E",
"]} 	c #608482",
"^} 	c #7EA1A1",
"/} 	c #91B4B4",
"(} 	c #90B4B4",
"_} 	c #92B6B6",
":} 	c #93B8B7",
"<} 	c #93B8B8",
"[} 	c #94B8B8",
"}} 	c #94B9B8",
"|} 	c #94BAB9",
"1} 	c #95BABA",
"2} 	c #95BBBA",
"3} 	c #95BBBB",
"4} 	c #95BCBB",
"5} 	c #95BCBC",
"6} 	c #9BC0C0",
"7} 	c #A0C5C5",
"8} 	c #7F9E9F",
"9} 	c #485F62",
"0} 	c #3A5356",
"a} 	c #598686",
"b} 	c #5B8A89",
"c} 	c #5C8B8B",
"d} 	c #5C8C8B",
"e} 	c #5C8B8A",
"f} 	c #527B7B",
"g} 	c #436364",
"h} 	c #32494B",
"i} 	c #293B3E",
"j} 	c #27383B",
"k} 	c #957D70",
"l} 	c #635C59",
"m} 	c #87807A",
"n} 	c #8B847E",
"o} 	c #8A837D",
"p} 	c #716863",
"q} 	c #6C615D",
"r} 	c #5E5552",
"s} 	c #5F5553",
"t} 	c #625855",
"u} 	c #453D3B",
"v} 	c #564843",
"w} 	c #5F504A",
"x} 	c #86746A",
"y} 	c #63554E",
"z} 	c #182526",
"A} 	c #2E4348",
"B} 	c #354C52",
"C} 	c #648786",
"D} 	c #9DC0C0",
"E} 	c #97BABA",
"F} 	c #93B5B6",
"G} 	c #93B4B5",
"H} 	c #93B5B5",
"I} 	c #92B5B5",
"J} 	c #93B5B4",
"K} 	c #92B4B4",
"L} 	c #92B5B4",
"M} 	c #93B4B4",
"N} 	c #94B5B5",
"O} 	c #94B7B6",
"P} 	c #455A5D",
"Q} 	c #3B5557",
"R} 	c #5B8988",
"S} 	c #578482",
"T} 	c #527C7C",
"U} 	c #446567",
"V} 	c #334A4D",
"W} 	c #BEA390",
"X} 	c #9B8174",
"Y} 	c #494343",
"Z} 	c #6F6864",
"`} 	c #827A74",
" | 	c #736A65",
".| 	c #6D625D",
"+| 	c #514B4A",
"@| 	c #4E4848",
"#| 	c #504949",
"$| 	c #5E5452",
"%| 	c #3F3837",
"&| 	c #665952",
"*| 	c #2E4247",
"=| 	c #819FA0",
"-| 	c #668081",
";| 	c #374A4D",
">| 	c #2A3B3F",
",| 	c #2D3F42",
"'| 	c #5A8685",
")| 	c #527B7A",
"!| 	c #446666",
"~| 	c #334B4E",
"{| 	c #B59A89",
"]| 	c #79655E",
"^| 	c #4C4745",
"/| 	c #534D4A",
"(| 	c #67605D",
"_| 	c #88807A",
":| 	c #544D4C",
"<| 	c #5D5352",
"[| 	c #685A52",
"}| 	c #928076",
"|| 	c #574C46",
"1| 	c #544943",
"2| 	c #182424",
"3| 	c #2B3F44",
"4| 	c #91B3B4",
"5| 	c #6A8586",
"6| 	c #415658",
"7| 	c #314447",
"8| 	c #314547",
"9| 	c #324648",
"0| 	c #2F4144",
"a| 	c #3C5758",
"b| 	c #4D7071",
"c| 	c #567F7E",
"d| 	c #588583",
"e| 	c #588382",
"f| 	c #507879",
"g| 	c #436465",
"h| 	c #192122",
"i| 	c #AC9181",
"j| 	c #917A6E",
"k| 	c #826D65",
"l| 	c #595351",
"m| 	c #665C58",
"n| 	c #4B4444",
"o| 	c #403938",
"p| 	c #76665D",
"q| 	c #938278",
"r| 	c #534843",
"s| 	c #574B45",
"t| 	c #5F5049",
"u| 	c #4E413D",
"v| 	c #151F21",
"w| 	c #31464B",
"x| 	c #658886",
"y| 	c #91B3B3",
"z| 	c #36494C",
"A| 	c #233438",
"B| 	c #243539",
"C| 	c #2E4144",
"D| 	c #4E7272",
"E| 	c #56817F",
"F| 	c #578280",
"G| 	c #507877",
"H| 	c #426364",
"I| 	c #32494C",
"J| 	c #A4897A",
"K| 	c #5F524F",
"L| 	c #373133",
"M| 	c #464142",
"N| 	c #554F4D",
"O| 	c #322C2E",
"P| 	c #4D4644",
"Q| 	c #6A605B",
"R| 	c #484242",
"S| 	c #453F3F",
"T| 	c #403A39",
"U| 	c #3D3635",
"V| 	c #544742",
"W| 	c #6E5F56",
"X| 	c #918076",
"Y| 	c #918077",
"Z| 	c #4D423E",
"`| 	c #4E433E",
" 1 	c #493D39",
".1 	c #493D3A",
"+1 	c #3B312F",
"@1 	c #372D2C",
"#1 	c #302727",
"$1 	c #384C4F",
"%1 	c #2F4345",
"&1 	c #3F5A5B",
"*1 	c #4E7171",
"=1 	c #547D7B",
"-1 	c #557F7D",
";1 	c #557F7E",
">1 	c #527A78",
",1 	c #456666",
"'1 	c #334B4D",
")1 	c #1B2728",
"!1 	c #9E8878",
"~1 	c #3D3839",
"{1 	c #484343",
"]1 	c #534D4B",
"^1 	c #6C6562",
"/1 	c #726B68",
"(1 	c #312B2D",
"_1 	c #443D3C",
":1 	c #625956",
"<1 	c #6B615B",
"[1 	c #5E5450",
"}1 	c #4C4441",
"|1 	c #403837",
"11 	c #504540",
"21 	c #64564F",
"31 	c #3D3634",
"41 	c #3C3432",
"51 	c #30454B",
"61 	c #658083",
"71 	c #394C50",
"81 	c #2F4245",
"91 	c #3E595B",
"01 	c #4E7271",
"a1 	c #547E7C",
"b1 	c #557E7C",
"c1 	c #557D7C",
"d1 	c #486B6A",
"e1 	c #233235",
"f1 	c #968072",
"g1 	c #5D504D",
"h1 	c #494443",
"i1 	c #716A67",
"j1 	c #4F4949",
"k1 	c #383133",
"l1 	c #514947",
"m1 	c #48403E",
"n1 	c #63564F",
"o1 	c #88786F",
"p1 	c #85766E",
"q1 	c #514744",
"r1 	c #383130",
"s1 	c #1B292B",
"t1 	c #30454A",
"u1 	c #32484D",
"v1 	c #425F5F",
"w1 	c #547B79",
"x1 	c #537A79",
"y1 	c #527877",
"z1 	c #496C6B",
"A1 	c #385354",
"B1 	c #2B3E41",
"C1 	c #957E70",
"D1 	c #5B4F4C",
"E1 	c #595353",
"F1 	c #615A59",
"G1 	c #3D3738",
"H1 	c #3E3838",
"I1 	c #4B4342",
"J1 	c #5A524F",
"K1 	c #5E5652",
"L1 	c #47403F",
"M1 	c #473E3C",
"N1 	c #312828",
"O1 	c #433835",
"P1 	c #332A2A",
"Q1 	c #372E2E",
"R1 	c #393030",
"S1 	c #3B3231",
"T1 	c #3D3433",
"U1 	c #33484A",
"V1 	c #4E7170",
"W1 	c #517877",
"X1 	c #517876",
"Y1 	c #537978",
"Z1 	c #517575",
"`1 	c #486868",
" 2 	c #395253",
".2 	c #B59C8A",
"+2 	c #AC9180",
"@2 	c #594C49",
"#2 	c #635D5B",
"$2 	c #6A6461",
"%2 	c #4D4848",
"&2 	c #443F3F",
"*2 	c #352F30",
"=2 	c #443C3A",
"-2 	c #5D534F",
";2 	c #72635E",
">2 	c #74655F",
",2 	c #776962",
"'2 	c #7B6D66",
")2 	c #796B65",
"!2 	c #80726B",
"~2 	c #3F3836",
"{2 	c #4A413D",
"]2 	c #5A4E49",
"^2 	c #72625A",
"/2 	c #8D796D",
"(2 	c #6F5F58",
"_2 	c #374F56",
":2 	c #314648",
"<2 	c #405A5B",
"[2 	c #4D6E6D",
"}2 	c #507674",
"|2 	c #476968",
"12 	c #385253",
"22 	c #B79D8B",
"32 	c #D7B9A3",
"42 	c #A98D7E",
"52 	c #A18778",
"62 	c #4B413F",
"72 	c #635C5B",
"82 	c #68625F",
"92 	c #504B4B",
"02 	c #5F5653",
"a2 	c #534A47",
"b2 	c #6D605C",
"c2 	c #857770",
"d2 	c #8A7B74",
"e2 	c #7B6E68",
"f2 	c #4E4441",
"g2 	c #625650",
"h2 	c #71635B",
"i2 	c #87756A",
"j2 	c #544844",
"k2 	c #2F4349",
"l2 	c #2D4045",
"m2 	c #304447",
"n2 	c #415D5D",
"o2 	c #4E7270",
"p2 	c #3A5556",
"q2 	c #1B2729",
"r2 	c #D8BAA4",
"s2 	c #D1B49F",
"t2 	c #A58A7B",
"u2 	c #433E3F",
"v2 	c #746A64",
"w2 	c #534B48",
"x2 	c #584E49",
"y2 	c #675A53",
"z2 	c #75675E",
"A2 	c #796A61",
"B2 	c #7A6A61",
"C2 	c #8B786C",
"D2 	c #75665E",
"E2 	c #2C3F45",
"F2 	c #4E706F",
"G2 	c #33494B",
"H2 	c #425F60",
"I2 	c #4B6D6C",
"J2 	c #476767",
"K2 	c #2E4246",
"L2 	c #182527",
"M2 	c #152121",
"N2 	c #C6A996",
"O2 	c #867067",
"P2 	c #3A3536",
"Q2 	c #5E5654",
"R2 	c #685E5A",
"S2 	c #494242",
"T2 	c #5E5555",
"U2 	c #675F5D",
"V2 	c #433C3D",
"W2 	c #595050",
"X2 	c #6F6563",
"Y2 	c #6C615F",
"Z2 	c #655A58",
"`2 	c #877872",
" 3 	c #7E716A",
".3 	c #756863",
"+3 	c #6F645E",
"@3 	c #524A47",
"#3 	c #473F3D",
"$3 	c #423B39",
"%3 	c #3E3736",
"&3 	c #4F4643",
"*3 	c #695F5A",
"=3 	c #887C75",
"-3 	c #988B83",
";3 	c #9E9188",
">3 	c #998C83",
",3 	c #7B6C63",
"'3 	c #827166",
")3 	c #89776B",
"!3 	c #857368",
"~3 	c #827167",
"{3 	c #837268",
"]3 	c #564945",
"^3 	c #1B292A",
"/3 	c #2C4046",
"(3 	c #32474B",
"_3 	c #3D595A",
":3 	c #486968",
"<3 	c #3A5455",
"[3 	c #28383E",
"}3 	c #26353A",
"|3 	c #B09686",
"13 	c #75635B",
"23 	c #443F40",
"33 	c #5E5653",
"43 	c #3E3737",
"53 	c #8A7F7B",
"63 	c #908581",
"73 	c #877C78",
"83 	c #5B524E",
"93 	c #6B5F58",
"03 	c #7E6F66",
"a3 	c #9A8C83",
"b3 	c #453B39",
"c3 	c #78665D",
"d3 	c #2D4247",
"e3 	c #2D4147",
"f3 	c #3C5859",
"g3 	c #446363",
"h3 	c #192729",
"i3 	c #9D8477",
"j3 	c #3C3637",
"k3 	c #3C393A",
"l3 	c #3A3637",
"m3 	c #413B3C",
"n3 	c #8E837F",
"o3 	c #847975",
"p3 	c #796F6B",
"q3 	c #746A67",
"r3 	c #665D59",
"s3 	c #5C524E",
"t3 	c #75675F",
"u3 	c #93857C",
"v3 	c #685A53",
"w3 	c #4A3F3C",
"x3 	c #7C6A60",
"y3 	c #192425",
"z3 	c #2E4349",
"A3 	c #2A3B41",
"B3 	c #2F4447",
"C3 	c #1A282B",
"D3 	c #B39A89",
"E3 	c #D2B5A0",
"F3 	c #413B3D",
"G3 	c #706761",
"H3 	c #5C534F",
"I3 	c #6B5E58",
"J3 	c #998B82",
"K3 	c #7A6B62",
"L3 	c #70635B",
"M3 	c #695C56",
"N3 	c #76675F",
"O3 	c #74655D",
"P3 	c #60524C",
"Q3 	c #4E413F",
"R3 	c #4B3E3C",
"S3 	c #6A5A53",
"T3 	c #2D2A2C",
"U3 	c #49403F",
"V3 	c #625550",
"W3 	c #8E796D",
"X3 	c #8A7469",
"Y3 	c #5F5853",
"Z3 	c #665D5B",
"`3 	c #625752",
" 4 	c #71635C",
".4 	c #6A5D57",
"+4 	c #70625B",
"@4 	c #5F514B",
"#4 	c #544643",
"$4 	c #493C3B",
"%4 	c #233338",
"&4 	c #3E3839",
"*4 	c #443E3F",
"=4 	c #464040",
"-4 	c #524B4A",
";4 	c #615955",
">4 	c #59514E",
",4 	c #3C3636",
"'4 	c #322D2E",
")4 	c #8A827E",
"!4 	c #655D58",
"~4 	c #615855",
"{4 	c #6C5E58",
"]4 	c #151E1E",
"^4 	c #2F454A",
"/4 	c #162224",
"(4 	c #433D3E",
"_4 	c #3F393A",
":4 	c #383334",
"<4 	c #312C2E",
"[4 	c #302B2D",
"}4 	c #332F31",
"|4 	c #655954",
"14 	c #817066",
"24 	c #9A8678",
"34 	c #A18B7C",
"44 	c #978375",
"54 	c #8B796E",
"64 	c #7C6C62",
"74 	c #564844",
"84 	c #1D2D31",
"94 	c #162222",
"04 	c #373334",
"a4 	c #413A3B",
"b4 	c #3B3435",
"c4 	c #383234",
"d4 	c #332E30",
"e4 	c #383536",
"f4 	c #464243",
"g4 	c #605651",
"h4 	c #72645C",
"i4 	c #6D6059",
"j4 	c #6D5F58",
"k4 	c #807065",
"l4 	c #8A776A",
"m4 	c #8C796B",
"n4 	c #958172",
"o4 	c #A89181",
"p4 	c #62534D",
"q4 	c #79675E",
"r4 	c #1B2829",
"s4 	c #1A282C",
"t4 	c #1E2A2C",
"u4 	c #252E30",
"v4 	c #283437",
"w4 	c #625957",
"x4 	c #746966",
"y4 	c #716664",
"z4 	c #706562",
"A4 	c #6A605E",
"B4 	c #655C5A",
"C4 	c #564D4C",
"D4 	c #484142",
"E4 	c #322D2F",
"F4 	c #3A3738",
"G4 	c #635B56",
"H4 	c #73655D",
"I4 	c #9D8878",
"J4 	c #705F57",
"K4 	c #233538",
"L4 	c #1A292C",
"M4 	c #252D2E",
"N4 	c #283133",
"O4 	c #283638",
"P4 	c #7F7772",
"Q4 	c #978D86",
"R4 	c #887F7A",
"S4 	c #817874",
"T4 	c #665E59",
"U4 	c #675B55",
"V4 	c #6B5E57",
"W4 	c #74665E",
"X4 	c #7E6E64",
"Y4 	c #89776A",
"Z4 	c #867568",
"`4 	c #8F7C6E",
" 5 	c #5B4E4A",
".5 	c #61544F",
"+5 	c #282E30",
"@5 	c #283334",
"#5 	c #27363B",
"$5 	c #716966",
"%5 	c #908781",
"&5 	c #918881",
"*5 	c #776860",
"=5 	c #786960",
"-5 	c #857367",
";5 	c #A68F7F",
">5 	c #4A3D3B",
",5 	c #252D2F",
"'5 	c #282E2F",
")5 	c #283131",
"!5 	c #28393F",
"~5 	c #625C5B",
"{5 	c #746C6A",
"]5 	c #766E6C",
"^5 	c #8C837D",
"/5 	c #8A807B",
"(5 	c #343032",
"_5 	c #6F625A",
":5 	c #8E7B6C",
"<5 	c #947F72",
"[5 	c #3F3535",
"}5 	c #60534E",
"|5 	c #32484F",
"15 	c #252E2F",
"25 	c #282F30",
"35 	c #283233",
"45 	c #3E5A5B",
"55 	c #648785",
"65 	c #243439",
"75 	c #5D5856",
"85 	c #7F7672",
"95 	c #847B77",
"05 	c #827975",
"a5 	c #7C7370",
"b5 	c #353133",
"c5 	c #685F5A",
"d5 	c #5F5550",
"e5 	c #685B55",
"f5 	c #6E6059",
"g5 	c #8B796B",
"h5 	c #9F897A",
"i5 	c #6E5D56",
"j5 	c #3B3233",
"k5 	c #473B3A",
"l5 	c #2F4449",
"m5 	c #243338",
"n5 	c #283335",
"o5 	c #4C716E",
"p5 	c #628684",
"q5 	c #91B2B3",
"r5 	c #668083",
"s5 	c #28373C",
"t5 	c #253236",
"u5 	c #1F2B2E",
"v5 	c #5B5756",
"w5 	c #6F6866",
"x5 	c #706868",
"y5 	c #443F41",
"z5 	c #7D6D64",
"A5 	c #A28C7C",
"B5 	c #9A8275",
"C5 	c #433838",
"D5 	c #2B3D42",
"E5 	c #283031",
"F5 	c #4B6E6C",
"G5 	c #507673",
"H5 	c #517572",
"I5 	c #557977",
"J5 	c #678B89",
"K5 	c #89ACAB",
"L5 	c #29393D",
"M5 	c #253032",
"N5 	c #6C6664",
"O5 	c #706967",
"P5 	c #706968",
"Q5 	c #595354",
"R5 	c #393537",
"S5 	c #605753",
"T5 	c #74665F",
"U5 	c #86756A",
"V5 	c #8D7B6F",
"W5 	c #90786D",
"X5 	c #3C3334",
"Y5 	c #453939",
"Z5 	c #2A3C42",
"`5 	c #283235",
" 6 	c #28363B",
".6 	c #3F5B5C",
"+6 	c #506F6F",
"@6 	c #658786",
"#6 	c #749897",
"$6 	c #7EA2A0",
"%6 	c #90B5B3",
"&6 	c #3A4D51",
"*6 	c #736B69",
"=6 	c #645E5F",
"-6 	c #6C625D",
";6 	c #98897E",
">6 	c #97887D",
",6 	c #83746A",
"'6 	c #807066",
")6 	c #88766B",
"!6 	c #8C7A6E",
"~6 	c #998577",
"{6 	c #886F67",
"]6 	c #584845",
"^6 	c #433837",
"/6 	c #283032",
"(6 	c #283B3F",
"_6 	c #4E6769",
":6 	c #95B8B7",
"<6 	c #8DAEAE",
"[6 	c #8D8582",
"}6 	c #867D7A",
"|6 	c #857C79",
"16 	c #8A817E",
"26 	c #8E8683",
"36 	c #867F7C",
"46 	c #69615C",
"56 	c #615854",
"66 	c #7C706A",
"76 	c #A09085",
"86 	c #96857A",
"96 	c #A48E7F",
"06 	c #856C64",
"a6 	c #465B5E",
"b6 	c #85A4A6",
"c6 	c #84A4A5",
"d6 	c #82A0A1",
"e6 	c #779596",
"f6 	c #34474C",
"g6 	c #293437",
"h6 	c #1E2B2D",
"i6 	c #6D6765",
"j6 	c #78706D",
"k6 	c #837A76",
"l6 	c #918986",
"m6 	c #807773",
"n6 	c #6A625D",
"o6 	c #5D5451",
"p6 	c #948377",
"q6 	c #938073",
"r6 	c #A48C7D",
"s6 	c #403636",
"t6 	c #282F2F",
"u6 	c #283030",
"v6 	c #283134",
"w6 	c #36494D",
"x6 	c #496063",
"y6 	c #556E71",
"z6 	c #566E71",
"A6 	c #50686A",
"B6 	c #3E5457",
"C6 	c #293234",
"D6 	c #726B69",
"E6 	c #766D6B",
"F6 	c #7F7673",
"G6 	c #877F7B",
"H6 	c #9F887A",
"I6 	c #3F3536",
"J6 	c #282F31",
"K6 	c #293031",
"L6 	c #233437",
"M6 	c #736C6A",
"N6 	c #7B736F",
"O6 	c #5E5551",
"P6 	c #938175",
"Q6 	c #2C4146",
"R6 	c #283436",
"S6 	c #283B3E",
"T6 	c #24363A",
"U6 	c #292F30",
"V6 	c #8B827F",
"W6 	c #9F8F84",
"X6 	c #9F8F83",
"Y6 	c #907D71",
"Z6 	c #1C2A2B",
"`6 	c #282E2E",
" 7 	c #283438",
".7 	c #283536",
"+7 	c #283132",
"@7 	c #292E2F",
"#7 	c #544F4D",
"$7 	c #6B6563",
"%7 	c #6D6560",
"&7 	c #5D5450",
"*7 	c #99897F",
"=7 	c #918074",
"-7 	c #5F524D",
";7 	c #1A2627",
">7 	c #253638",
",7 	c #283435",
"'7 	c #645C59",
")7 	c #655D5A",
"!7 	c #89817E",
"~7 	c #6F655F",
"{7 	c #82736A",
"]7 	c #A18A7C",
"^7 	c #574B48",
"/7 	c #172222",
"(7 	c #202F31",
"_7 	c #283539",
":7 	c #68615F",
"<7 	c #6E6866",
"[7 	c #726A68",
"}7 	c #776F6D",
"|7 	c #7B7370",
"17 	c #3B3839",
"27 	c #68605B",
"37 	c #645C57",
"47 	c #6E635E",
"57 	c #807168",
"67 	c #1F2D2F",
"77 	c #1E2D2F",
"87 	c #514C4A",
"97 	c #6E6765",
"07 	c #5F595A",
"a7 	c #655C58",
"b7 	c #9A8679",
"c7 	c #846D64",
"d7 	c #4D4240",
"e7 	c #1E2C2E",
"f7 	c #152122",
"g7 	c #4F4C4A",
"h7 	c #5E5956",
"i7 	c #615B58",
"j7 	c #605A5B",
"k7 	c #5F5858",
"l7 	c #998578",
"m7 	c #8B776B",
"n7 	c #625B58",
"o7 	c #585252",
"p7 	c #5C5657",
"q7 	c #695F5B",
"r7 	c #433939",
"s7 	c #28383A",
"t7 	c #283637",
"u7 	c #696260",
"v7 	c #6D6664",
"w7 	c #6A605C",
"x7 	c #8D7B71",
"y7 	c #403737",
"z7 	c #222E30",
"A7 	c #1C282A",
"B7 	c #534C4C",
"C7 	c #363234",
"D7 	c #87776D",
"E7 	c #80716B",
"F7 	c #1A2526",
"G7 	c #283236",
"H7 	c #242E2F",
"I7 	c #28393B",
"J7 	c #273335",
"K7 	c #172121",
"L7 	c #172323",
"M7 	c #1D2A2C",
"N7 	c #635B58",
"O7 	c #665F5C",
"P7 	c #67605E",
"Q7 	c #655E5B",
"R7 	c #696360",
"S7 	c #7A726F",
"T7 	c #605854",
"U7 	c #6B615C",
"V7 	c #7E7069",
"W7 	c #1D2829",
"X7 	c #293030",
"Y7 	c #292F2F",
"Z7 	c #293132",
"`7 	c #293739",
" 8 	c #293537",
".8 	c #293436",
"+8 	c #293335",
"@8 	c #293334",
"#8 	c #293333",
"$8 	c #293233",
"%8 	c #293638",
"&8 	c #293032",
"*8 	c #2A3031",
"=8 	c #1F2C2D",
"-8 	c #1A2424",
";8 	c #1F2B2D",
">8 	c #2B3B3F",
",8 	c #716660",
"'8 	c #8B7A70",
")8 	c #554A45",
"!8 	c #2E3C3F",
"~8 	c #19272A",
"{8 	c #222C2E",
"]8 	c #303735",
"^8 	c #393E39",
"/8 	c #3C403B",
"(8 	c #3B403A",
"_8 	c #3C403A",
":8 	c #3C413B",
"<8 	c #3B403B",
"[8 	c #3B3F3A",
"}8 	c #3B3F39",
"|8 	c #3B413C",
"18 	c #3B413D",
"28 	c #3B423F",
"38 	c #3B4440",
"48 	c #3B4542",
"58 	c #3B4643",
"68 	c #3B4743",
"78 	c #3B4845",
"88 	c #3B4946",
"98 	c #3C4946",
"08 	c #3D4B47",
"a8 	c #3E4C48",
"b8 	c #3F4C48",
"c8 	c #404C48",
"d8 	c #404D48",
"e8 	c #3F4D48",
"f8 	c #3F4B47",
"g8 	c #3F4B46",
"h8 	c #3F4B45",
"i8 	c #3F4A45",
"j8 	c #3F4A46",
"k8 	c #3F4945",
"l8 	c #3F4844",
"m8 	c #3F4944",
"n8 	c #3F4943",
"o8 	c #3F4843",
"p8 	c #3F4842",
"q8 	c #3F4742",
"r8 	c #3E4843",
"s8 	c #404944",
"t8 	c #404843",
"u8 	c #404742",
"v8 	c #404741",
"w8 	c #404740",
"x8 	c #404640",
"y8 	c #40463F",
"z8 	c #40463E",
"A8 	c #3F453E",
"B8 	c #3F443E",
"C8 	c #3F443D",
"D8 	c #3F433E",
"E8 	c #3F443C",
"F8 	c #40443D",
"G8 	c #40433C",
"H8 	c #3E423B",
"I8 	c #353C37",
"J8 	c #253030",
"K8 	c #262F30",
"L8 	c #1D2626",
"M8 	c #1F2C2E",
"N8 	c #4D4A48",
"O8 	c #A69080",
"P8 	c #8C7C73",
"Q8 	c #182629",
"R8 	c #2C3533",
"S8 	c #525447",
"T8 	c #6F6D56",
"U8 	c #78745B",
"V8 	c #79745B",
"W8 	c #77745B",
"X8 	c #77755B",
"Y8 	c #78755B",
"Z8 	c #79755B",
"`8 	c #79755C",
" 9 	c #78755C",
".9 	c #78745C",
"+9 	c #78765B",
"@9 	c #78755D",
"#9 	c #78765E",
"$9 	c #78785F",
"%9 	c #797A60",
"&9 	c #7B7C62",
"*9 	c #7D7E64",
"=9 	c #7D7E65",
"-9 	c #7D7D65",
";9 	c #7E7D65",
">9 	c #7D7D64",
",9 	c #7D7F65",
"'9 	c #7D7E66",
")9 	c #7D7D63",
"!9 	c #7E7D63",
"~9 	c #7D7C63",
"{9 	c #7D7D62",
"]9 	c #7E7C62",
"^9 	c #7D7C62",
"/9 	c #7D7C61",
"(9 	c #7E7C61",
"_9 	c #7D7B61",
":9 	c #7D7B60",
"<9 	c #7D7B5F",
"[9 	c #7E7B5F",
"}9 	c #7D7A5E",
"|9 	c #7D7A5F",
"19 	c #7C795E",
"29 	c #7A765C",
"39 	c #646450",
"49 	c #38403A",
"59 	c #18272A",
"69 	c #262F31",
"79 	c #202D2E",
"89 	c #223337",
"99 	c #4C4947",
"09 	c #5B5654",
"a9 	c #5C5755",
"b9 	c #5D5855",
"c9 	c #68615E",
"d9 	c #756D6B",
"e9 	c #635A57",
"f9 	c #968478",
"g9 	c #8D7D74",
"h9 	c #4C413F",
"i9 	c #1D292A",
"j9 	c #172529",
"k9 	c #363E38",
"l9 	c #707057",
"m9 	c #9B946E",
"n9 	c #A69D74",
"o9 	c #A59C74",
"p9 	c #A39A73",
"q9 	c #A49A72",
"r9 	c #A39A72",
"s9 	c #A49C73",
"t9 	c #A9A076",
"u9 	c #AEA579",
"v9 	c #B3A97C",
"w9 	c #B7AD7F",
"x9 	c #BAAF81",
"y9 	c #BBB081",
"z9 	c #B6AD7E",
"A9 	c #B2A87B",
"B9 	c #AFA779",
"C9 	c #AFA679",
"D9 	c #AFA579",
"E9 	c #AAA075",
"F9 	c #A29971",
"G9 	c #9E966F",
"H9 	c #9E956F",
"I9 	c #A09770",
"J9 	c #ACA378",
"K9 	c #AFA67A",
"L9 	c #B0A679",
"M9 	c #AEA478",
"N9 	c #ACA377",
"O9 	c #ABA176",
"P9 	c #AAA076",
"Q9 	c #AAA176",
"R9 	c #AAA277",
"S9 	c #ABA378",
"T9 	c #ACA479",
"U9 	c #ACA47A",
"V9 	c #ABA379",
"W9 	c #A8A077",
"X9 	c #A19A73",
"Y9 	c #9D9771",
"Z9 	c #9C9670",
"`9 	c #9C9671",
" 0 	c #9D9671",
".0 	c #A29C74",
"+0 	c #B0A77C",
"@0 	c #B1A87C",
"#0 	c #B1A97C",
"$0 	c #AFA67B",
"%0 	c #9F9872",
"&0 	c #9F9972",
"*0 	c #9F9973",
"=0 	c #A09973",
"-0 	c #A39D75",
";0 	c #AAA379",
">0 	c #B0A87C",
",0 	c #B1A97D",
"'0 	c #A89F77",
")0 	c #A69E77",
"!0 	c #AAA279",
"~0 	c #B3AB7F",
"{0 	c #B8B082",
"]0 	c #B6AE80",
"^0 	c #B2AA7D",
"/0 	c #A39C74",
"(0 	c #9E9871",
"_0 	c #9E9872",
":0 	c #9D9872",
"<0 	c #9D9772",
"[0 	c #9C9772",
"}0 	c #9C9871",
"|0 	c #A69F77",
"10 	c #ADA67B",
"20 	c #B0A87D",
"30 	c #AFA97C",
"40 	c #AFA87C",
"50 	c #AFA77C",
"60 	c #AFA77B",
"70 	c #AFA77A",
"80 	c #AEA77A",
"90 	c #AEA67A",
"00 	c #ADA57A",
"a0 	c #ABA479",
"b0 	c #ACA379",
"c0 	c #A29B72",
"d0 	c #9D966F",
"e0 	c #9C956F",
"f0 	c #9D956F",
"g0 	c #9B926D",
"h0 	c #7E7B5E",
"i0 	c #454B40",
"j0 	c #17252A",
"k0 	c #263031",
"l0 	c #273638",
"m0 	c #4B4847",
"n0 	c #595452",
"o0 	c #5F5A57",
"p0 	c #645D5A",
"q0 	c #5E5757",
"r0 	c #988478",
"s0 	c #718E90",
"t0 	c #3F5355",
"u0 	c #363E37",
"v0 	c #706F54",
"w0 	c #989168",
"x0 	c #9F966C",
"y0 	c #9B9269",
"z0 	c #978E67",
"A0 	c #968C65",
"B0 	c #948B64",
"C0 	c #948A64",
"D0 	c #958B65",
"E0 	c #9E936B",
"F0 	c #A79B71",
"G0 	c #B2A678",
"H0 	c #BCB07F",
"I0 	c #C5B885",
"J0 	c #CEC08B",
"K0 	c #D1C38C",
"L0 	c #CABD86",
"M0 	c #BEB27E",
"N0 	c #B7AC7A",
"O0 	c #B6AB7A",
"P0 	c #B1A676",
"Q0 	c #A2986C",
"R0 	c #908760",
"S0 	c #867E5A",
"T0 	c #857D5A",
"U0 	c #8D845E",
"V0 	c #9E956A",
"W0 	c #B0A676",
"X0 	c #B8AC7A",
"Y0 	c #B7AB79",
"Z0 	c #B7AB7A",
"`0 	c #B6AB79",
" a 	c #B4A978",
".a 	c #B0A576",
"+a 	c #ABA073",
"@a 	c #A89E71",
"#a 	c #A89D71",
"$a 	c #A79C71",
"%a 	c #A69B71",
"&a 	c #A59A70",
"*a 	c #A59A6F",
"=a 	c #A3986E",
"-a 	c #988E66",
";a 	c #887E5B",
">a 	c #7D7554",
",a 	c #7B7353",
"'a 	c #7B7354",
")a 	c #7B7453",
"!a 	c #7C7454",
"~a 	c #7E7755",
"{a 	c #8E855F",
"]a 	c #A69B6E",
"^a 	c #B3A676",
"/a 	c #B5A978",
"(a 	c #B5AA78",
"_a 	c #B4A877",
":a 	c #AA9F71",
"<a 	c #887F5C",
"[a 	c #827A58",
"}a 	c #837A58",
"|a 	c #857C59",
"1a 	c #A3986D",
"2a 	c #B2A776",
"3a 	c #B6AA79",
"4a 	c #A79D6F",
"5a 	c #9A9067",
"6a 	c #958B63",
"7a 	c #9F956B",
"8a 	c #B9AD7D",
"9a 	c #CBBF88",
"0a 	c #C5B984",
"aa 	c #B9AE7B",
"ba 	c #AFA474",
"ca 	c #9F946A",
"da 	c #8B825D",
"ea 	c #807856",
"fa 	c #7E7655",
"ga 	c #7D7454",
"ha 	c #7C7453",
"ia 	c #7C7353",
"ja 	c #7C7455",
"ka 	c #827A59",
"la 	c #978D65",
"ma 	c #AAA071",
"na 	c #B1A776",
"oa 	c #AFA575",
"pa 	c #B0A575",
"qa 	c #B0A474",
"ra 	c #AEA374",
"sa 	c #ADA373",
"ta 	c #ADA273",
"ua 	c #ACA173",
"va 	c #AAA073",
"wa 	c #A99F72",
"xa 	c #A99E72",
"ya 	c #A79D72",
"za 	c #A69C72",
"Aa 	c #A69B70",
"Ba 	c #A69C71",
"Ca 	c #A39A70",
"Da 	c #9A9069",
"Ea 	c #8A815E",
"Fa 	c #7E7656",
"Ga 	c #7A7353",
"Ha 	c #7B7454",
"Ia 	c #7B7455",
"Ja 	c #7E7556",
"Ka 	c #7D7455",
"La 	c #67634A",
"Ma 	c #3A4037",
"Na 	c #18262A",
"Oa 	c #263032",
"Pa 	c #202C2E",
"Qa 	c #485E60",
"Ra 	c #5C5754",
"Sa 	c #756C6A",
"Ta 	c #383436",
"Ua 	c #605959",
"Va 	c #675F5A",
"Wa 	c #453B3B",
"Xa 	c #1D292B",
"Ya 	c #2E3732",
"Za 	c #595945",
"`a 	c #767151",
" b 	c #7B7452",
".b 	c #726C4D",
"+b 	c #666046",
"@b 	c #5A553F",
"#b 	c #554F3B",
"$b 	c #544F3B",
"%b 	c #56503C",
"&b 	c #5A543F",
"*b 	c #625C44",
"=b 	c #6E674B",
"-b 	c #7A7253",
";b 	c #847D5B",
">b 	c #908762",
",b 	c #A0976D",
"'b 	c #ABA174",
")b 	c #A69D6E",
"!b 	c #999065",
"~b 	c #918960",
"{b 	c #8A815B",
"]b 	c #756E4E",
"^b 	c #54503A",
"/b 	c #363326",
"(b 	c #2A281E",
"_b 	c #29271E",
":b 	c #2A281F",
"<b 	c #2A271F",
"[b 	c #2B2820",
"}b 	c #373427",
"|b 	c #544F39",
"1b 	c #756F4E",
"2b 	c #8B835C",
"3b 	c #928961",
"4b 	c #928960",
"5b 	c #918860",
"6b 	c #90885F",
"7b 	c #8E855E",
"8b 	c #89815B",
"9b 	c #817A57",
"0b 	c #756E52",
"ab 	c #746D51",
"bb 	c #746E51",
"cb 	c #756E51",
"db 	c #716A4F",
"eb 	c #655F47",
"fb 	c #4B4635",
"gb 	c #2E2B21",
"hb 	c #1E1C17",
"ib 	c #1B1A16",
"jb 	c #1B1A15",
"kb 	c #1C1A15",
"lb 	c #1C1A16",
"mb 	c #1C1B16",
"nb 	c #1D1B16",
"ob 	c #1E1D17",
"pb 	c #201E18",
"qb 	c #222019",
"rb 	c #28261D",
"sb 	c #3D3A2A",
"tb 	c #605B41",
"ub 	c #807955",
"vb 	c #8E865E",
"wb 	c #8F885E",
"xb 	c #847D57",
"yb 	c #696446",
"zb 	c #474332",
"Ab 	c #2F2D23",
"Bb 	c #2A271E",
"Cb 	c #2B271F",
"Db 	c #2E2B22",
"Eb 	c #413D2D",
"Fb 	c #615B41",
"Gb 	c #7F7854",
"Hb 	c #8F875F",
"Ib 	c #8D865E",
"Jb 	c #827C56",
"Kb 	c #6B6648",
"Lb 	c #59533D",
"Mb 	c #5F5942",
"Nb 	c #8A825F",
"Ob 	c #B3A97A",
"Pb 	c #B2A778",
"Qb 	c #9B9268",
"Rb 	c #8A825C",
"Sb 	c #787150",
"Tb 	c #57513B",
"Ub 	c #343226",
"Vb 	c #26231C",
"Wb 	c #25221B",
"Xb 	c #24221A",
"Yb 	c #23211A",
"Zb 	c #232019",
"`b 	c #221F19",
" c 	c #211F18",
".c 	c #211F19",
"+c 	c #22201A",
"@c 	c #23201A",
"#c 	c #24221B",
"$c 	c #2E2B20",
"%c 	c #494532",
"&c 	c #6C6749",
"*c 	c #857F58",
"=c 	c #8E865D",
"-c 	c #8D855D",
";c 	c #8C855D",
">c 	c #8C845D",
",c 	c #8A825B",
"'c 	c #89825B",
")c 	c #89815C",
"!c 	c #88805C",
"~c 	c #87805B",
"{c 	c #867F5A",
"]c 	c #857D59",
"^c 	c #847C59",
"/c 	c #807957",
"(c 	c #7E7756",
"_c 	c #7D7555",
":c 	c #766F52",
"<c 	c #666148",
"[c 	c #4C4836",
"}c 	c #302D23",
"|c 	c #1A1914",
"1c 	c #1B1915",
"2c 	c #1C1D1B",
"3c 	c #1B2525",
"4c 	c #263132",
"5c 	c #1C2729",
"6c 	c #506667",
"7c 	c #81A2A4",
"8c 	c #627E7F",
"9c 	c #635B5A",
"0c 	c #5F5652",
"ac 	c #504543",
"bc 	c #3D3434",
"cc 	c #ABD7D7",
"dc 	c #19282A",
"ec 	c #172629",
"fc 	c #313A34",
"gc 	c #62634B",
"hc 	c #8A845D",
"ic 	c #978E64",
"jc 	c #938B62",
"kc 	c #867F5B",
"lc 	c #756E50",
"mc 	c #746E4F",
"nc 	c #756F51",
"oc 	c #777052",
"pc 	c #797251",
"qc 	c #787250",
"rc 	c #77704F",
"sc 	c #827B57",
"tc 	c #938B61",
"uc 	c #928A61",
"vc 	c #766F4F",
"wc 	c #343125",
"xc 	c #2C2920",
"yc 	c #2F2C22",
"zc 	c #312E24",
"Ac 	c #322F25",
"Bc 	c #3D392B",
"Cc 	c #57533C",
"Dc 	c #928A60",
"Ec 	c #958E63",
"Fc 	c #867E5B",
"Gc 	c #7E7657",
"Hc 	c #7A7355",
"Ic 	c #797255",
"Jc 	c #787154",
"Kc 	c #676148",
"Lc 	c #4E4A37",
"Mc 	c #333025",
"Nc 	c #25231B",
"Oc 	c #25231C",
"Pc 	c #25221C",
"Qc 	c #26241D",
"Rc 	c #27251E",
"Sc 	c #29271F",
"Tc 	c #2A2820",
"Uc 	c #2B2920",
"Vc 	c #2E2C21",
"Wc 	c #373327",
"Xc 	c #4B4634",
"Yc 	c #6B6548",
"Zc 	c #90895F",
"`c 	c #857E58",
" d 	c #6A6547",
".d 	c #454130",
"+d 	c #2E2C22",
"@d 	c #2D2A21",
"#d 	c #353226",
"$d 	c #464231",
"%d 	c #665F44",
"&d 	c #958D63",
"*d 	c #948D62",
"=d 	c #928B61",
"-d 	c #867E59",
";d 	c #6E684B",
">d 	c #5C5640",
",d 	c #6B654A",
"'d 	c #9E946C",
")d 	c #AEA376",
"!d 	c #999066",
"~d 	c #59543C",
"{d 	c #3A372A",
"]d 	c #2E2C23",
"^d 	c #302E24",
"/d 	c #312E25",
"(d 	c #312D23",
"_d 	c #302C22",
":d 	c #2F2C21",
"<d 	c #2F2C23",
"[d 	c #333024",
"}d 	c #3C382A",
"|d 	c #555039",
"1d 	c #756F4F",
"2d 	c #948C61",
"3d 	c #948C62",
"4d 	c #948C63",
"5d 	c #958D62",
"6d 	c #908860",
"7d 	c #8F865F",
"8d 	c #8C845E",
"9d 	c #746E50",
"0d 	c #55503B",
"ad 	c #363226",
"bd 	c #25231D",
"cd 	c #232420",
"dd 	c #1F2827",
"ed 	c #263133",
"fd 	c #678283",
"gd 	c #9DC5C6",
"hd 	c #7EA0A1",
"id 	c #384B4D",
"jd 	c #363233",
"kd 	c #726661",
"ld 	c #3E5254",
"md 	c #A4CCCD",
"nd 	c #8FB4B4",
"od 	c #1E2A2B",
"pd 	c #61624B",
"qd 	c #87815D",
"rd 	c #928A62",
"sd 	c #968C64",
"td 	c #968D64",
"ud 	c #968E64",
"vd 	c #968E65",
"wd 	c #978E65",
"xd 	c #989065",
"yd 	c #989064",
"zd 	c #988F64",
"Ad 	c #978F64",
"Bd 	c #958D64",
"Cd 	c #918961",
"Dd 	c #716A4C",
"Ed 	c #514D38",
"Fd 	c #312E23",
"Gd 	c #343126",
"Hd 	c #423D2E",
"Id 	c #5C573F",
"Jd 	c #938B63",
"Kd 	c #8F8760",
"Ld 	c #877F5C",
"Md 	c #7F7758",
"Nd 	c #7B7356",
"Od 	c #7A7256",
"Pd 	c #797155",
"Qd 	c #736B51",
"Rd 	c #625C45",
"Sd 	c #474333",
"Td 	c #24231B",
"Ud 	c #26241C",
"Vd 	c #27251D",
"Wd 	c #28261E",
"Xd 	c #2F2D24",
"Yd 	c #302E23",
"Zd 	c #383427",
"`d 	c #4F4A36",
" e 	c #706A4C",
".e 	c #8B835D",
"+e 	c #948B62",
"@e 	c #807956",
"#e 	c #656145",
"$e 	c #454230",
"%e 	c #312F24",
"&e 	c #373428",
"*e 	c #4A4634",
"=e 	c #686346",
"-e 	c #857D58",
";e 	c #928B62",
">e 	c #817A58",
",e 	c #6E674C",
"'e 	c #6D664B",
")e 	c #89805D",
"!e 	c #968D66",
"~e 	c #544F3A",
"{e 	c #393528",
"]e 	c #302D24",
"^e 	c #5A543D",
"/e 	c #7A7451",
"(e 	c #8E875F",
"_e 	c #8E865F",
":e 	c #7D7754",
"<e 	c #5E5940",
"[e 	c #3E3A2C",
"}e 	c #2F2B22",
"|e 	c #2D2921",
"1e 	c #2C2A21",
"2e 	c #28261F",
"3e 	c #242420",
"4e 	c #273234",
"5e 	c #1D2627",
"6e 	c #688384",
"7e 	c #9FC7C8",
"8e 	c #423F3F",
"9e 	c #202D2F",
"0e 	c #928962",
"ae 	c #696347",
"be 	c #433F2F",
"ce 	c #625C43",
"de 	c #837C58",
"ee 	c #7E7658",
"fe 	c #746C51",
"ge 	c #615A45",
"he 	c #423D2F",
"ie 	c #2B281F",
"je 	c #28251E",
"ke 	c #2B2921",
"le 	c #322E24",
"me 	c #4F4A35",
"ne 	c #736C4D",
"oe 	c #8D855E",
"pe 	c #7C7553",
"qe 	c #5C563F",
"re 	c #3D3A2B",
"se 	c #2E2D22",
"te 	c #2F2D22",
"ue 	c #363328",
"ve 	c #4C4935",
"we 	c #70694B",
"xe 	c #8C845F",
"ye 	c #8E8560",
"ze 	c #736C4E",
"Ae 	c #4C4734",
"Be 	c #3B372A",
"Ce 	c #5A553D",
"De 	c #918A60",
"Ee 	c #776F4F",
"Fe 	c #55513A",
"Ge 	c #393629",
"He 	c #302C23",
"Ie 	c #312D24",
"Je 	c #2C2921",
"Ke 	c #29261E",
"Le 	c #2A3A40",
"Me 	c #273336",
"Ne 	c #1D2727",
"Oe 	c #182124",
"Pe 	c #9FC7C7",
"Qe 	c #80A2A2",
"Re 	c #5A5553",
"Se 	c #6A6361",
"Te 	c #625955",
"Ue 	c #655F45",
"Ve 	c #444030",
"We 	c #635D43",
"Xe 	c #837C59",
"Ye 	c #8D855F",
"Ze 	c #837B5B",
"`e 	c #70684F",
" f 	c #615A44",
".f 	c #423E2F",
"+f 	c #27241D",
"@f 	c #2D2A22",
"#f 	c #383528",
"$f 	c #726B4C",
"%f 	c #7C7554",
"&f 	c #3A3629",
"*f 	c #322F24",
"=f 	c #363327",
"-f 	c #6F694B",
";f 	c #8C855E",
">f 	c #8F8860",
",f 	c #877F5B",
"'f 	c #8E8660",
")f 	c #88805B",
"!f 	c #6C6648",
"~f 	c #4A4533",
"{f 	c #353126",
"]f 	c #3C392B",
"^f 	c #59543D",
"/f 	c #7C7654",
"(f 	c #736D4E",
"_f 	c #4F4B37",
":f 	c #333125",
"<f 	c #2F2B21",
"[f 	c #27251C",
"}f 	c #182225",
"|f 	c #3A4D4F",
"1f 	c #68605E",
"2f 	c #86776F",
"3f 	c #554A47",
"4f 	c #222F31",
"5f 	c #1F2A2C",
"6f 	c #7C7653",
"7f 	c #5E593F",
"8f 	c #353327",
"9f 	c #494533",
"0f 	c #87805A",
"af 	c #948D63",
"bf 	c #57513E",
"cf 	c #3D392C",
"df 	c #29281F",
"ef 	c #302D22",
"ff 	c #58523C",
"gf 	c #797150",
"hf 	c #777150",
"if 	c #3B382A",
"jf 	c #393628",
"kf 	c #4E4A36",
"lf 	c #6F684A",
"mf 	c #7D7654",
"nf 	c #45412F",
"of 	c #343025",
"pf 	c #423E2E",
"qf 	c #7F7956",
"rf 	c #847C58",
"sf 	c #6C6549",
"tf 	c #4D4836",
"uf 	c #353227",
"vf 	c #2D2B21",
"wf 	c #24241F",
"xf 	c #9EC6C7",
"yf 	c #595350",
"zf 	c #6A5D58",
"Af 	c #8EB3B4",
"Bf 	c #233031",
"Cf 	c #797451",
"Df 	c #58533C",
"Ef 	c #6C6649",
"Ff 	c #7A7352",
"Gf 	c #56523C",
"Hf 	c #383428",
"If 	c #2D2A20",
"Jf 	c #3F3B2D",
"Kf 	c #5F5940",
"Lf 	c #7E7654",
"Mf 	c #89815A",
"Nf 	c #6F684B",
"Of 	c #39362A",
"Pf 	c #958C63",
"Qf 	c #8A835D",
"Rf 	c #776F50",
"Sf 	c #3E3A2B",
"Tf 	c #676146",
"Uf 	c #847D58",
"Vf 	c #827A56",
"Wf 	c #645E43",
"Xf 	c #443F2F",
"Yf 	c #29261D",
"Zf 	c #23241F",
"`f 	c #9EC7C7",
" g 	c #645B57",
".g 	c #69605B",
"+g 	c #453B3A",
"@g 	c #3F5354",
"#g 	c #8EB4B4",
"$g 	c #243031",
"%g 	c #57523B",
"&g 	c #474432",
"*g 	c #6A6548",
"=g 	c #89825C",
"-g 	c #938A62",
";g 	c #5B563E",
">g 	c #615C42",
",g 	c #938C62",
"'g 	c #88805A",
")g 	c #6E674A",
"!g 	c #2D2B22",
"~g 	c #2A2720",
"{g 	c #534E39",
"]g 	c #756E4F",
"^g 	c #534D39",
"/g 	c #474331",
"(g 	c #817A56",
"_g 	c #645E44",
":g 	c #23231F",
"<g 	c #1E2727",
"[g 	c #9FC6C7",
"}g 	c #6D6564",
"|g 	c #7D6F68",
"1g 	c #243132",
"2g 	c #1F2A2D",
"3g 	c #736D4D",
"4g 	c #4D4936",
"5g 	c #5D5840",
"6g 	c #332F25",
"7g 	c #3E3B2D",
"8g 	c #5E5941",
"9g 	c #908861",
"0g 	c #908960",
"ag 	c #484332",
"bg 	c #59553D",
"cg 	c #746C4E",
"dg 	c #373328",
"eg 	c #474231",
"fg 	c #686246",
"gg 	c #867F59",
"hg 	c #605A41",
"ig 	c #232520",
"jg 	c #655E5D",
"kg 	c #5F5754",
"lg 	c #80716A",
"mg 	c #A3CBCC",
"ng 	c #243133",
"og 	c #62624B",
"pg 	c #6E684A",
"qg 	c #4D4935",
"rg 	c #514C37",
"sg 	c #716B4C",
"tg 	c #464230",
"ug 	c #666145",
"vg 	c #8F885F",
"wg 	c #837C57",
"xg 	c #827B58",
"yg 	c #8B835E",
"zg 	c #7E7855",
"Ag 	c #3B3728",
"Bg 	c #5D573F",
"Cg 	c #6B6448",
"Dg 	c #4E4936",
"Eg 	c #4D4A36",
"Fg 	c #877F5A",
"Gg 	c #262822",
"Hg 	c #1A2326",
"Ig 	c #564F4F",
"Jg 	c #373435",
"Kg 	c #8F7F76",
"Lg 	c #81726B",
"Mg 	c #514642",
"Ng 	c #253234",
"Og 	c #313934",
"Pg 	c #88815D",
"Qg 	c #323025",
"Rg 	c #968F64",
"Sg 	c #44402F",
"Tg 	c #6A6446",
"Ug 	c #857E59",
"Vg 	c #706B4C",
"Wg 	c #938A64",
"Xg 	c #988F66",
"Yg 	c #5C583F",
"Zg 	c #3E3B2C",
"`g 	c #383527",
" h 	c #5B553D",
".h 	c #444130",
"+h 	c #312F25",
"@h 	c #504B36",
"#h 	c #726C4C",
"$h 	c #8A835B",
"%h 	c #958C62",
"&h 	c #8E875E",
"*h 	c #56513A",
"=h 	c #2E2F28",
"-h 	c #232C2A",
";h 	c #19282B",
">h 	c #97887E",
",h 	c #95867C",
"'h 	c #887970",
")h 	c #564B46",
"!h 	c #88825D",
"~h 	c #968D63",
"{h 	c #383529",
"]h 	c #8D865D",
"^h 	c #968E63",
"/h 	c #504B37",
"(h 	c #656043",
"_h 	c #968E62",
":h 	c #767050",
"<h 	c #696449",
"[h 	c #89815E",
"}h 	c #A1986D",
"|h 	c #9F966A",
"1h 	c #3B382B",
"2h 	c #27241C",
"3h 	c #3A3628",
"4h 	c #5D573E",
"5h 	c #343026",
"6h 	c #4C4834",
"7h 	c #706A4B",
"8h 	c #8B845C",
"9h 	c #545039",
"0h 	c #423F2F",
"ah 	c #474737",
"bh 	c #323933",
"ch 	c #18272B",
"dh 	c #1A2327",
"eh 	c #9EC6C6",
"fh 	c #575250",
"gh 	c #797270",
"hh 	c #504B49",
"ih 	c #98897F",
"jh 	c #5D514B",
"kh 	c #405354",
"lh 	c #A3CBCB",
"mh 	c #566F70",
"nh 	c #212D2E",
"oh 	c #43402F",
"ph 	c #363227",
"qh 	c #76704F",
"rh 	c #6D664A",
"sh 	c #332F24",
"th 	c #464130",
"uh 	c #91895F",
"vh 	c #6B6549",
"wh 	c #6C674B",
"xh 	c #928963",
"yh 	c #9E9469",
"zh 	c #24221C",
"Ah 	c #353225",
"Bh 	c #817955",
"Ch 	c #635E44",
"Dh 	c #938C61",
"Eh 	c #716C4C",
"Fh 	c #635E43",
"Gh 	c #67644A",
"Hh 	c #40453B",
"Ih 	c #18262B",
"Jh 	c #222D2F",
"Kh 	c #7E7776",
"Lh 	c #6F645F",
"Mh 	c #796E69",
"Nh 	c #635751",
"Oh 	c #A2CBCB",
"Ph 	c #263235",
"Qh 	c #666045",
"Rh 	c #716B4B",
"Sh 	c #968F63",
"Th 	c #686245",
"Uh 	c #676246",
"Vh 	c #736E4F",
"Wh 	c #968D65",
"Xh 	c #9D9569",
"Yh 	c #797351",
"Zh 	c #25241C",
"`h 	c #353326",
" i 	c #7B7451",
".i 	c #7F7855",
"+i 	c #605B42",
"@i 	c #3C382C",
"#i 	c #948B61",
"$i 	c #746D4D",
"%i 	c #353127",
"&i 	c #797655",
"*i 	c #43493C",
"=i 	c #678383",
"-i 	c #7FA1A2",
";i 	c #66605E",
">i 	c #847D7C",
",i 	c #706560",
"'i 	c #7A6F6A",
")i 	c #7F7570",
"!i 	c #867B74",
"~i 	c #4F4543",
"{i 	c #6A5E59",
"]i 	c #263335",
"^i 	c #7D7653",
"/i 	c #5F5941",
"(i 	c #403C2E",
"_i 	c #56503A",
":i 	c #817956",
"<i 	c #686146",
"[i 	c #343127",
"}i 	c #867E58",
"|i 	c #696448",
"1i 	c #9D956A",
"2i 	c #9C9468",
"3i 	c #8A835C",
"4i 	c #514C38",
"5i 	c #3B3829",
"6i 	c #5C573E",
"7i 	c #5E5840",
"8i 	c #8B845D",
"9i 	c #9C9368",
"0i 	c #6D6749",
"ai 	c #4C4835",
"bi 	c #484432",
"ci 	c #666144",
"di 	c #7B7756",
"ei 	c #42483C",
"fi 	c #67615F",
"gi 	c #888180",
"hi 	c #595455",
"ii 	c #635A56",
"ji 	c #7C726D",
"ki 	c #92847B",
"li 	c #8D8078",
"mi 	c #7F7670",
"ni 	c #90837B",
"oi 	c #4C4243",
"pi 	c #423839",
"qi 	c #87825D",
"ri 	c #8F875E",
"si 	c #5D583F",
"ti 	c #3F3B2C",
"ui 	c #4B4734",
"vi 	c #6E684C",
"wi 	c #9A916A",
"xi 	c #A59C6F",
"yi 	c #9B9367",
"zi 	c #6E694A",
"Ai 	c #4A4633",
"Bi 	c #3A3728",
"Ci 	c #615C41",
"Di 	c #938A61",
"Ei 	c #766F4E",
"Fi 	c #686348",
"Gi 	c #827B59",
"Hi 	c #A1976D",
"Ii 	c #A59C6E",
"Ji 	c #999166",
"Ki 	c #413D2E",
"Li 	c #322E25",
"Mi 	c #4C4735",
"Ni 	c #978F63",
"Oi 	c #797555",
"Pi 	c #232E30",
"Qi 	c #888281",
"Ri 	c #686262",
"Si 	c #796F6A",
"Ti 	c #726965",
"Ui 	c #96887E",
"Vi 	c #857B74",
"Wi 	c #9A8F88",
"Xi 	c #C1B5AC",
"Yi 	c #3D3435",
"Zi 	c #736863",
"`i 	c #A2CACB",
" j 	c #87815C",
".j 	c #58523B",
"+j 	c #3A3729",
"@j 	c #7E7854",
"#j 	c #3B3729",
"$j 	c #4D4834",
"%j 	c #716A4B",
"&j 	c #A69B72",
"*j 	c #9A9166",
"=j 	c #24231C",
"-j 	c #5D583E",
";j 	c #55503A",
">j 	c #7A7250",
",j 	c #7B7553",
"'j 	c #57533D",
")j 	c #7B7555",
"!j 	c #9C936A",
"~j 	c #A2996C",
"{j 	c #655F44",
"]j 	c #978E63",
"^j 	c #232F30",
"/j 	c #688284",
"(j 	c #9EC5C6",
"_j 	c #7C7675",
":j 	c #756A66",
"<j 	c #776D69",
"[j 	c #80746D",
"}j 	c #90837A",
"|j 	c #817771",
"1j 	c #827972",
"2j 	c #8B8079",
"3j 	c #BAAEA5",
"4j 	c #C3B7AE",
"5j 	c #483E3F",
"6j 	c #A1CACA",
"7j 	c #60614A",
"8j 	c #7D7856",
"9j 	c #504C38",
"0j 	c #5A563E",
"aj 	c #88815A",
"bj 	c #867F58",
"cj 	c #7E7753",
"dj 	c #5E5942",
"ej 	c #81795A",
"fj 	c #A99F73",
"gj 	c #A69C6F",
"hj 	c #979064",
"ij 	c #938B60",
"jj 	c #857D57",
"kj 	c #666044",
"lj 	c #605B40",
"mj 	c #827B56",
"nj 	c #918A61",
"oj 	c #59533C",
"pj 	c #7A7351",
"qj 	c #88815B",
"rj 	c #807A56",
"sj 	c #746F4E",
"tj 	c #635F44",
"uj 	c #534F3A",
"vj 	c #55513C",
"wj 	c #777152",
"xj 	c #393529",
"yj 	c #524D38",
"zj 	c #958E62",
"Aj 	c #9EC5C5",
"Bj 	c #706763",
"Cj 	c #7A716C",
"Dj 	c #958981",
"Ej 	c #A4988F",
"Fj 	c #2D3B3E",
"Gj 	c #1F2A2B",
"Hj 	c #2E3733",
"Ij 	c #515240",
"Jj 	c #57553F",
"Kj 	c #464331",
"Lj 	c #433E2E",
"Mj 	c #635C43",
"Nj 	c #837B57",
"Oj 	c #5B553E",
"Pj 	c #8F865E",
"Qj 	c #827C57",
"Rj 	c #7A7452",
"Sj 	c #716B4D",
"Tj 	c #605C41",
"Uj 	c #5E5A41",
"Vj 	c #716A4D",
"Wj 	c #948A65",
"Xj 	c #A79D70",
"Yj 	c #A0976A",
"Zj 	c #807855",
"`j 	c #413C2D",
" k 	c #23211B",
".k 	c #87805C",
"+k 	c #857E5A",
"@k 	c #847D5A",
"#k 	c #847D59",
"$k 	c #86805A",
"%k 	c #817B56",
"&k 	c #7A7552",
"*k 	c #6F6A4B",
"=k 	c #686347",
"-k 	c #625D43",
";k 	c #5D5940",
">k 	c #5B573F",
",k 	c #514D39",
"'k 	c #56513C",
")k 	c #706A4D",
"!k 	c #817B58",
"~k 	c #797252",
"{k 	c #7A7655",
"]k 	c #232F31",
"^k 	c #1C2527",
"/k 	c #4A4745",
"(k 	c #605B58",
"_k 	c #857E7D",
":k 	c #7E7775",
"<k 	c #7B726D",
"[k 	c #7C726E",
"}k 	c #8A8079",
"|k 	c #978B83",
"1k 	c #998C84",
"2k 	c #96877E",
"3k 	c #3F3637",
"4k 	c #19272B",
"5k 	c #242E2C",
"6k 	c #363930",
"7k 	c #3B3A2D",
"8k 	c #363228",
"9k 	c #605A42",
"0k 	c #7F7756",
"ak 	c #635D44",
"bk 	c #645F45",
"ck 	c #6A6448",
"dk 	c #8F855E",
"ek 	c #887F5A",
"fk 	c #8A805B",
"gk 	c #8E845E",
"hk 	c #8D845D",
"ik 	c #5F5A41",
"jk 	c #5C5740",
"kk 	c #5A553E",
"lk 	c #55513B",
"mk 	c #54503B",
"nk 	c #958C65",
"ok 	c #90875F",
"pk 	c #2B2A20",
"qk 	c #837B59",
"rk 	c #7F7757",
"sk 	c #7C7556",
"tk 	c #7B7355",
"uk 	c #7A7354",
"vk 	c #7A7254",
"wk 	c #797254",
"xk 	c #797154",
"yk 	c #8A815C",
"zk 	c #847C57",
"Ak 	c #7D7553",
"Bk 	c #837D58",
"Ck 	c #7A7453",
"Dk 	c #6F694C",
"Ek 	c #666146",
"Fk 	c #5C5840",
"Gk 	c #5B5740",
"Hk 	c #59553F",
"Ik 	c #534E3A",
"Jk 	c #625D44",
"Kk 	c #615C43",
"Lk 	c #8F8660",
"Mk 	c #90865F",
"Nk 	c #747052",
"Ok 	c #40453A",
"Pk 	c #1B2A2D",
"Qk 	c #1C2629",
"Rk 	c #1C2425",
"Sk 	c #494644",
"Tk 	c #605955",
"Uk 	c #BEB1A9",
"Vk 	c #9D938C",
"Wk 	c #605655",
"Xk 	c #42393A",
"Yk 	c #6B605C",
"Zk 	c #A1C9CA",
"`k 	c #273436",
" l 	c #232E2C",
".l 	c #393C31",
"+l 	c #494636",
"@l 	c #4E4937",
"#l 	c #5B563F",
"$l 	c #655F46",
"%l 	c #676145",
"&l 	c #615B42",
"*l 	c #56513B",
"=l 	c #57523C",
"-l 	c #5A543E",
";l 	c #686046",
">l 	c #686147",
",l 	c #696146",
"'l 	c #655E44",
")l 	c #4F4A37",
"!l 	c #615B43",
"~l 	c #57523D",
"{l 	c #686247",
"]l 	c #494634",
"^l 	c #676046",
"/l 	c #645E45",
"(l 	c #615B44",
"_l 	c #645D43",
":l 	c #58523D",
"<l 	c #504A37",
"[l 	c #504B38",
"}l 	c #696348",
"|l 	c #696246",
"1l 	c #6A6347",
"2l 	c #565440",
"3l 	c #5B5553",
"4l 	c #4A4443",
"5l 	c #857B75",
"6l 	c #8D827B",
"7l 	c #92867E",
"8l 	c #B8ACA3",
"9l 	c #453B3C",
"0l 	c #5E5451",
"al 	c #232E2D",
"bl 	c #3C3F34",
"cl 	c #4F4B39",
"dl 	c #55503C",
"el 	c #56503B",
"fl 	c #57513C",
"gl 	c #54513B",
"hl 	c #474738",
"il 	c #2C3430",
"jl 	c #1D2828",
"kl 	c #172426",
"ll 	c #242F31",
"ml 	c #9EC4C5",
"nl 	c #665F5D",
"ol 	c #423D3D",
"pl 	c #514A48",
"ql 	c #968A82",
"rl 	c #514746",
"sl 	c #222D2E",
"tl 	c #363C35",
"ul 	c #46473A",
"vl 	c #4B4A3C",
"wl 	c #4C4B3C",
"xl 	c #4C4A3C",
"yl 	c #4C4B3B",
"zl 	c #4B4A3B",
"Al 	c #4B4B3B",
"Bl 	c #4C4C3C",
"Cl 	c #4C4C3B",
"Dl 	c #4B4C3B",
"El 	c #4B4B3A",
"Fl 	c #3F4337",
"Gl 	c #293230",
"Hl 	c #1C272A",
"Il 	c #9DC4C5",
"Jl 	c #413B3B",
"Kl 	c #4E4746",
"Ll 	c #5B5350",
"Ml 	c #7B716C",
"Nl 	c #7D746E",
"Ol 	c #897E77",
"Pl 	c #B5A9A0",
"Ql 	c #3E3536",
"Rl 	c #A1C9C9",
"Sl 	c #2E3D3F",
"Tl 	c #2A3636",
"Ul 	c #333D3C",
"Vl 	c #37403D",
"Wl 	c #38403E",
"Xl 	c #38413E",
"Yl 	c #38413D",
"Zl 	c #38403D",
"`l 	c #383F3C",
" m 	c #383F3B",
".m 	c #383F3A",
"+m 	c #383E3A",
"@m 	c #373E39",
"#m 	c #373D38",
"$m 	c #373D39",
"%m 	c #38403C",
"&m 	c #38403B",
"*m 	c #383E39",
"=m 	c #373E38",
"-m 	c #373E37",
";m 	c #373D37",
">m 	c #373C37",
",m 	c #373C36",
"'m 	c #373B36",
")m 	c #373D36",
"!m 	c #363C36",
"~m 	c #2F3734",
"{m 	c #222E2F",
"]m 	c #1A292B",
"^m 	c #413C3C",
"/m 	c #574F4D",
"(m 	c #756C67",
"_m 	c #90847D",
":m 	c #B1A69D",
"<m 	c #493F40",
"[m 	c #373031",
"}m 	c #A0C9C9",
"|m 	c #29393B",
"1m 	c #293839",
"2m 	c #293336",
"3m 	c #293435",
"4m 	c #293438",
"5m 	c #2A3A3E",
"6m 	c #2A3B3E",
"7m 	c #252F30",
"8m 	c #243032",
"9m 	c #1D272A",
"0m 	c #706866",
"am 	c #514B48",
"bm 	c #5D5551",
"cm 	c #504948",
"dm 	c #564E4C",
"em 	c #776E69",
"fm 	c #928781",
"gm 	c #B9AEA5",
"hm 	c #4A4041",
"im 	c #273133",
"jm 	c #273031",
"km 	c #272F2F",
"lm 	c #272E2F",
"mm 	c #272F30",
"nm 	c #9DC4C4",
"om 	c #191D1E",
"pm 	c #605958",
"qm 	c #4B4544",
"rm 	c #5C5552",
"sm 	c #5D5653",
"tm 	c #625A55",
"um 	c #57504D",
"vm 	c #4C4544",
"wm 	c #605855",
"xm 	c #7B736E",
"ym 	c #4B4142",
"zm 	c #232F32",
"Am 	c #283232",
"Bm 	c #1D2527",
"Cm 	c #615C59",
"Dm 	c #453F40",
"Em 	c #3B3636",
"Fm 	c #5A5350",
"Gm 	c #4C4644",
"Hm 	c #726964",
"Im 	c #746D68",
"Jm 	c #3B3334",
"Km 	c #A1C8C9",
"Lm 	c #253132",
"Mm 	c #273030",
"Nm 	c #1F282A",
"Om 	c #1F2728",
"Pm 	c #978D85",
"Qm 	c #524C4A",
"Rm 	c #59524E",
"Sm 	c #4B4443",
"Tm 	c #58514E",
"Um 	c #706966",
"Vm 	c #A49B95",
"Wm 	c #827974",
"Xm 	c #A0C8C8",
"Ym 	c #2F3E40",
"Zm 	c #293A3C",
"`m 	c #29383D",
" n 	c #293536",
".n 	c #736C68",
"+n 	c #9C9189",
"@n 	c #4D4746",
"#n 	c #59524F",
"$n 	c #6F6865",
"%n 	c #7D746F",
"&n 	c #887F79",
"*n 	c #3A3335",
"=n 	c #253133",
"-n 	c #988D85",
";n 	c #5C5451",
">n 	c #6E6865",
",n 	c #8EB2B2",
"'n 	c #597172",
")n 	c #625B5A",
"!n 	c #68605C",
"~n 	c #6F6966",
"{n 	c #766F6A",
"]n 	c #948B85",
"^n 	c #4D4344",
"/n 	c #253338",
"(n 	c #A1C8C8",
"_n 	c #242F32",
":n 	c #605A58",
"<n 	c #786F6C",
"[n 	c #847873",
"}n 	c #756E6A",
"|n 	c #534949",
"1n 	c #4B4243",
"2n 	c #293133",
"3n 	c #293235",
"4n 	c #9DC3C4",
"5n 	c #2C383A",
"6n 	c #2F3738",
"7n 	c #2F3838",
"8n 	c #30393A",
"9n 	c #313A3B",
"0n 	c #323B3C",
"an 	c #333C3D",
"bn 	c #343D3E",
"cn 	c #343E3E",
"dn 	c #353E3F",
"en 	c #363F40",
"fn 	c #373F40",
"gn 	c #383F40",
"hn 	c #374041",
"in 	c #384041",
"jn 	c #2C3537",
"kn 	c #79716E",
"ln 	c #79706D",
"mn 	c #817672",
"nn 	c #877B75",
"on 	c #716B67",
"pn 	c #938A84",
"qn 	c #2A3739",
"rn 	c #9CC3C4",
"sn 	c #4C5B5D",
"tn 	c #6F8080",
"un 	c #7C8C8C",
"vn 	c #7B8B8B",
"wn 	c #7B8B8C",
"xn 	c #7B8C8C",
"yn 	c #7C8C8D",
"zn 	c #7C8D8D",
"An 	c #7D8E8D",
"Bn 	c #7D8E8E",
"Cn 	c #7D8D8D",
"Dn 	c #7E8E8E",
"En 	c #7E8F8F",
"Fn 	c #7F8F8F",
"Gn 	c #7F908F",
"Hn 	c #7F9090",
"In 	c #7E8E8F",
"Jn 	c #627273",
"Kn 	c #2E3A3C",
"Ln 	c #162225",
"Mn 	c #968C85",
"Nn 	c #847B75",
"On 	c #A39A94",
"Pn 	c #867D77",
"Qn 	c #5F5554",
"Rn 	c #263233",
"Sn 	c #253233",
"Tn 	c #202B2C",
"Un 	c #5D6E6F",
"Vn 	c #7D8F8F",
"Wn 	c #869797",
"Xn 	c #879898",
"Yn 	c #879999",
"Zn 	c #87999A",
"`n 	c #889999",
" o 	c #869898",
".o 	c #869897",
"+o 	c #859797",
"@o 	c #859696",
"#o 	c #819293",
"$o 	c #738485",
"%o 	c #394647",
"&o 	c #162326",
"*o 	c #6D6663",
"=o 	c #938982",
"-o 	c #978B84",
";o 	c #5B5451",
">o 	c #68605A",
",o 	c #887D76",
"'o 	c #675F5C",
")o 	c #837A74",
"!o 	c #625856",
"~o 	c #433B3C",
"{o 	c #263234",
"]o 	c #292F31",
"^o 	c #232E31",
"/o 	c #4D5C5F",
"(o 	c #677879",
"_o 	c #6A7B7B",
":o 	c #687777",
"<o 	c #687778",
"[o 	c #697778",
"}o 	c #697878",
"|o 	c #697879",
"1o 	c #687878",
"2o 	c #677677",
"3o 	c #708182",
"4o 	c #455355",
"5o 	c #8B827C",
"6o 	c #9B9088",
"7o 	c #887C76",
"8o 	c #7D736D",
"9o 	c #8C817A",
"0o 	c #706A67",
"ao 	c #8E857F",
"bo 	c #B0A69F",
"co 	c #675E5B",
"do 	c #41393B",
"eo 	c #383233",
"fo 	c #293C3F",
"go 	c #273233",
"ho 	c #364548",
"io 	c #647476",
"jo 	c #6A7B7C",
"ko 	c #5F6E6F",
"lo 	c #5C6A6B",
"mo 	c #5D6A6B",
"no 	c #5D6A6C",
"oo 	c #5D6B6C",
"po 	c #5E6C6D",
"qo 	c #687879",
"ro 	c #59696A",
"so 	c #655F5C",
"to 	c #857C77",
"uo 	c #484241",
"vo 	c #5E5753",
"wo 	c #706762",
"xo 	c #92867F",
"yo 	c #8C807A",
"zo 	c #BCB2AB",
"Ao 	c #807772",
"Bo 	c #675D5A",
"Co 	c #425657",
"Do 	c #A0C7C8",
"Eo 	c #1F292A",
"Fo 	c #273134",
"Go 	c #252F31",
"Ho 	c #4D5D5F",
"Io 	c #5D6C6C",
"Jo 	c #606F70",
"Ko 	c #606E70",
"Lo 	c #606E6F",
"Mo 	c #5F6D6F",
"No 	c #5F6D6E",
"Oo 	c #627172",
"Po 	c #6B7D7E",
"Qo 	c #3C494A",
"Ro 	c #142023",
"So 	c #7F7773",
"To 	c #91857E",
"Uo 	c #6D655F",
"Vo 	c #7A706A",
"Wo 	c #857B77",
"Xo 	c #362F31",
"Yo 	c #2A3839",
"Zo 	c #273438",
"`o 	c #293B41",
" p 	c #293A40",
".p 	c #202C2D",
"+p 	c #9CC3C3",
"@p 	c #405254",
"#p 	c #617273",
"$p 	c #69797A",
"%p 	c #617070",
"&p 	c #535F60",
"*p 	c #454F50",
"=p 	c #424C4D",
"-p 	c #424D4D",
";p 	c #434D4D",
">p 	c #434D4E",
",p 	c #434E4F",
"'p 	c #444F4F",
")p 	c #465152",
"!p 	c #536061",
"~p 	c #5D6C6D",
"{p 	c #6F8182",
"]p 	c #4C5B5C",
"^p 	c #534E4C",
"/p 	c #776C67",
"(p 	c #857A74",
"_p 	c #483F40",
":p 	c #8EB1B2",
"<p 	c #2B383A",
"[p 	c #435356",
"}p 	c #68797A",
"|p 	c #657576",
"1p 	c #111413",
"2p 	c #000000",
"3p 	c #010101",
"4p 	c #020201",
"5p 	c #030203",
"6p 	c #040404",
"7p 	c #050605",
"8p 	c #060707",
"9p 	c #070808",
"0p 	c #080909",
"ap 	c #080A0A",
"bp 	c #080B0A",
"cp 	c #0A0C0B",
"dp 	c #0B0D0C",
"ep 	c #0C0E0E",
"fp 	c #0C0F0F",
"gp 	c #151919",
"hp 	c #384141",
"ip 	c #5B6969",
"jp 	c #3B4749",
"kp 	c #131F22",
"lp 	c #847B76",
"mp 	c #988E86",
"np 	c #7B6F6A",
"op 	c #3D3637",
"pp 	c #443D3D",
"qp 	c #273334",
"rp 	c #1C2829",
"sp 	c #1F2929",
"tp 	c #223237",
"up 	c #5C6D6E",
"vp 	c #617071",
"wp 	c #596667",
"xp 	c #3B4445",
"yp 	c #020202",
"zp 	c #030302",
"Ap 	c #040303",
"Bp 	c #040403",
"Cp 	c #050503",
"Dp 	c #050504",
"Ep 	c #030202",
"Fp 	c #576465",
"Gp 	c #728384",
"Hp 	c #4C5A5B",
"Ip 	c #5F5A58",
"Jp 	c #625C5A",
"Kp 	c #77706C",
"Lp 	c #877E79",
"Mp 	c #453F3E",
"Np 	c #796D68",
"Op 	c #8E827B",
"Pp 	c #7C726C",
"Qp 	c #4F4646",
"Rp 	c #1F2829",
"Sp 	c #293C41",
"Tp 	c #1F2C2F",
"Up 	c #688383",
"Vp 	c #405052",
"Wp 	c #6B7D7D",
"Xp 	c #667677",
"Yp 	c #505C5D",
"Zp 	c #2D3434",
"`p 	c #060705",
" q 	c #090907",
".q 	c #0B0A09",
"+q 	c #0C0B09",
"@q 	c #0D0C0A",
"#q 	c #0B0B09",
"$q 	c #0A0A08",
"%q 	c #080806",
"&q 	c #060504",
"*q 	c #111515",
"=q 	c #4B5657",
"-q 	c #5C696A",
";q 	c #6C7D7F",
">q 	c #556466",
",q 	c #2B3739",
"'q 	c #615C5A",
")q 	c #625D5B",
"!q 	c #766B65",
"~q 	c #8B7F79",
"{q 	c #554D4C",
"]q 	c #5D6D6F",
"^q 	c #6D7E7F",
"/q 	c #637172",
"(q 	c #455050",
"_q 	c #191D1D",
":q 	c #040302",
"<q 	c #0C0C0A",
"[q 	c #0F0E0C",
"}q 	c #100F0D",
"|q 	c #11100E",
"1q 	c #12110E",
"2q 	c #14120F",
"3q 	c #14130F",
"4q 	c #13110E",
"5q 	c #0F0E0B",
"6q 	c #090807",
"7q 	c #0A0D0D",
"8q 	c #586566",
"9q 	c #637373",
"0q 	c #3D4A4C",
"aq 	c #111D1F",
"bq 	c #5F5753",
"cq 	c #8F847D",
"dq 	c #776D67",
"eq 	c #665E5B",
"fq 	c #9FC8C8",
"gq 	c #2C393B",
"hq 	c #283B40",
"iq 	c #28353A",
"jq 	c #4D5F61",
"kq 	c #6F8081",
"lq 	c #6B7B7C",
"mq 	c #3C4545",
"nq 	c #0D0D0C",
"oq 	c #0E0D0B",
"pq 	c #12100E",
"qq 	c #151410",
"rq 	c #161511",
"sq 	c #181713",
"tq 	c #1F1D18",
"uq 	c #161411",
"vq 	c #131210",
"wq 	c #080707",
"xq 	c #6C7D7E",
"yq 	c #4B595A",
"zq 	c #131E21",
"Aq 	c #645E5C",
"Bq 	c #7C7470",
"Cq 	c #78706C",
"Dq 	c #534E4D",
"Eq 	c #494341",
"Fq 	c #857973",
"Gq 	c #7B736D",
"Hq 	c #7B726C",
"Iq 	c #293539",
"Jq 	c #273435",
"Kq 	c #5C7071",
"Lq 	c #6E8081",
"Mq 	c #647374",
"Nq 	c #525E5E",
"Oq 	c #313737",
"Pq 	c #0E0C09",
"Qq 	c #151310",
"Rq 	c #211F1A",
"Sq 	c #1E1C18",
"Tq 	c #22201B",
"Uq 	c #2B2922",
"Vq 	c #2E2B23",
"Wq 	c #2B2821",
"Xq 	c #2C2A22",
"Yq 	c #2D2B23",
"Zq 	c #2D2A23",
"`q 	c #282620",
" r 	c #1C1B17",
".r 	c #181714",
"+r 	c #141411",
"@r 	c #11110F",
"#r 	c #11100D",
"$r 	c #161A1A",
"%r 	c #556263",
"&r 	c #677778",
"*r 	c #6A6462",
"=r 	c #80746E",
"-r 	c #887D77",
";r 	c #746C68",
">r 	c #1E2829",
",r 	c #647778",
"'r 	c #5D6A6A",
")r 	c #424B4A",
"!r 	c #1E201E",
"~r 	c #46412E",
"{r 	c #4A4532",
"]r 	c #524D3A",
"^r 	c #57513D",
"/r 	c #59543E",
"(r 	c #4F4935",
"_r 	c #4A4530",
":r 	c #46402C",
"<r 	c #423D29",
"[r 	c #403A26",
"}r 	c #393422",
"|r 	c #211F16",
"1r 	c #13120F",
"2r 	c #121413",
"3r 	c #596768",
"4r 	c #5A6768",
"5r 	c #404C4D",
"6r 	c #494745",
"7r 	c #756E6B",
"8r 	c #574E4C",
"9r 	c #7E736D",
"0r 	c #8C8079",
"ar 	c #7E7571",
"br 	c #8D847F",
"cr 	c #8F8681",
"dr 	c #89807C",
"er 	c #5D5655",
"fr 	c #363133",
"gr 	c #3F3C3D",
"hr 	c #26383D",
"ir 	c #273A3D",
"jr 	c #26393C",
"kr 	c #26393D",
"lr 	c #222E31",
"mr 	c #9CC2C3",
"nr 	c #546465",
"or 	c #596564",
"pr 	c #373D3C",
"qr 	c #14120E",
"rr 	c #191813",
"sr 	c #24221D",
"tr 	c #454030",
"ur 	c #786F4B",
"vr 	c #9E9160",
"wr 	c #A39664",
"xr 	c #A69A69",
"yr 	c #AC9F6E",
"zr 	c #B2A672",
"Ar 	c #B9AE77",
"Br 	c #BAB079",
"Cr 	c #BAAF77",
"Dr 	c #B7AA73",
"Er 	c #B3A56F",
"Fr 	c #AEA06B",
"Gr 	c #A99C66",
"Hr 	c #A59761",
"Ir 	c #A1945E",
"Jr 	c #A0925C",
"Kr 	c #928653",
"Lr 	c #4E492F",
"Mr 	c #1D1B14",
"Nr 	c #121311",
"Or 	c #333A3B",
"Pr 	c #566364",
"Qr 	c #5A6767",
"Rr 	c #414C4C",
"Sr 	c #645F5D",
"Tr 	c #504B4A",
"Ur 	c #7F756E",
"Vr 	c #80766F",
"Wr 	c #837972",
"Xr 	c #8A7F78",
"Yr 	c #79706C",
"Zr 	c #8E8580",
"`r 	c #7F7671",
" s 	c #726B66",
".s 	c #373335",
"+s 	c #393638",
"@s 	c #2C3A3B",
"#s 	c #24373A",
"$s 	c #23373A",
"%s 	c #233639",
"&s 	c #233739",
"*s 	c #24383A",
"=s 	c #25383B",
"-s 	c #24383B",
";s 	c #25383C",
">s 	c #25393C",
",s 	c #25393D",
"'s 	c #272E30",
")s 	c #263030",
"!s 	c #262E31",
"~s 	c #263034",
"{s 	c #25373C",
"]s 	c #A2CACA",
"^s 	c #526162",
"/s 	c #5B6868",
"(s 	c #515B5B",
"_s 	c #2E3230",
":s 	c #120F0B",
"<s 	c #534D38",
"[s 	c #9B8F5F",
"}s 	c #CFBE7B",
"|s 	c #D3C27F",
"1s 	c #D6C584",
"2s 	c #DCCB8A",
"3s 	c #E6D591",
"4s 	c #F3E299",
"5s 	c #F6E59B",
"6s 	c #F5E49A",
"7s 	c #F0DE94",
"8s 	c #EAD88F",
"9s 	c #E5D48A",
"0s 	c #E1CF85",
"as 	c #DFCC81",
"bs 	c #DDCA7D",
"cs 	c #DDCA7C",
"ds 	c #CBB971",
"es 	c #6B623E",
"fs 	c #232017",
"gs 	c #13110F",
"hs 	c #121210",
"is 	c #272D2D",
"js 	c #546162",
"ks 	c #5B6768",
"ls 	c #4E4948",
"ms 	c #746964",
"ns 	c #7B716B",
"os 	c #887F7B",
"ps 	c #8B817C",
"qs 	c #383537",
"rs 	c #1F2B2C",
"ss 	c #223538",
"ts 	c #223638",
"us 	c #223639",
"vs 	c #243739",
"ws 	c #223437",
"xs 	c #242D30",
"ys 	c #243334",
"zs 	c #223438",
"As 	c #9BC2C2",
"Bs 	c #526262",
"Cs 	c #4E5958",
"Ds 	c #2A2F2D",
"Es 	c #1D1A16",
"Fs 	c #27251F",
"Gs 	c #544E38",
"Hs 	c #9C905F",
"Is 	c #D0BE7C",
"Js 	c #D3C17F",
"Ks 	c #D7C784",
"Ls 	c #DCCC89",
"Ms 	c #E4D28E",
"Ns 	c #F1E095",
"Os 	c #F5E398",
"Ps 	c #F3E197",
"Qs 	c #F0DD92",
"Rs 	c #EBD98E",
"Ss 	c #E7D58A",
"Ts 	c #E5D285",
"Us 	c #E3D082",
"Vs 	c #E1CE7F",
"Ws 	c #E1CE7E",
"Xs 	c #CFBD73",
"Ys 	c #6D643E",
"Zs 	c #242017",
"`s 	c #11100F",
" t 	c #556162",
".t 	c #524F4E",
"+t 	c #6B6562",
"@t 	c #504947",
"#t 	c #746B67",
"$t 	c #8F8580",
"%t 	c #877E77",
"&t 	c #5F5757",
"*t 	c #2D3A3C",
"=t 	c #1B2B2E",
"-t 	c #1E2F32",
";t 	c #213336",
">t 	c #223739",
",t 	c #233738",
"'t 	c #223637",
")t 	c #203233",
"!t 	c #1D2D2F",
"~t 	c #262E2F",
"{t 	c #1D2F32",
"]t 	c #203335",
"^t 	c #223537",
"/t 	c #213537",
"(t 	c #213437",
"_t 	c #1F3032",
":t 	c #1C2C2E",
"<t 	c #5E6D6D",
"[t 	c #4C5858",
"}t 	c #282D2C",
"|t 	c #0F0C09",
"1t 	c #1A1814",
"2t 	c #25231E",
"3t 	c #4B4733",
"4t 	c #867C53",
"5t 	c #B0A16B",
"6t 	c #B3A46D",
"7t 	c #B8AA72",
"8t 	c #BCAE75",
"9t 	c #BFB177",
"0t 	c #C5BA7B",
"at 	c #C7BC7D",
"bt 	c #C6BC7C",
"ct 	c #C5B97A",
"dt 	c #C2B677",
"et 	c #BFB474",
"ft 	c #BDB170",
"gt 	c #BBAF6E",
"ht 	c #BAAD6B",
"it 	c #B9AC6A",
"jt 	c #A99D60",
"kt 	c #585335",
"lt 	c #1E1C14",
"mt 	c #0F0E0D",
"nt 	c #232828",
"ot 	c #556262",
"pt 	c #534F4E",
"qt 	c #7C7471",
"rt 	c #353031",
"st 	c #6F6662",
"tt 	c #7E756F",
"ut 	c #827A76",
"vt 	c #36474B",
"wt 	c #1E2828",
"xt 	c #1E2F31",
"yt 	c #203235",
"zt 	c #213436",
"At 	c #213638",
"Bt 	c #1F3133",
"Ct 	c #1A2A2D",
"Dt 	c #1C2E31",
"Et 	c #1F3335",
"Ft 	c #213538",
"Gt 	c #233638",
"Ht 	c #1C2D2F",
"It 	c #212E2F",
"Jt 	c #233032",
"Kt 	c #262B2B",
"Lt 	c #0B0806",
"Mt 	c #171612",
"Nt 	c #23211C",
"Ot 	c #353328",
"Pt 	c #645D40",
"Qt 	c #676043",
"Rt 	c #6C6446",
"St 	c #6E6648",
"Tt 	c #6E6647",
"Ut 	c #6D6746",
"Vt 	c #6C6846",
"Wt 	c #6C6845",
"Xt 	c #6C6744",
"Yt 	c #6A6643",
"Zt 	c #686340",
"`t 	c #65603D",
" u 	c #635D3A",
".u 	c #615B38",
"+u 	c #585332",
"@u 	c #2D2B1C",
"#u 	c #13120E",
"$u 	c #0A0909",
"%u 	c #5E5957",
"&u 	c #6E6764",
"*u 	c #585352",
"=u 	c #6E6661",
"-u 	c #786F6B",
";u 	c #A7D2D1",
">u 	c #1E2728",
",u 	c #242E31",
"'u 	c #213435",
")u 	c #23383A",
"!u 	c #223738",
"~u 	c #1F3234",
"{u 	c #1D2F31",
"]u 	c #1C2C2F",
"^u 	c #1E3033",
"/u 	c #213637",
"(u 	c #1F3134",
"_u 	c #26363C",
":u 	c #80A2A3",
"<u 	c #4A5656",
"[u 	c #242A2A",
"}u 	c #030100",
"|u 	c #211E19",
"1u 	c #2C2923",
"2u 	c #2A2823",
"3u 	c #2D2B25",
"4u 	c #2F2C27",
"5u 	c #302E27",
"6u 	c #2A2723",
"7u 	c #1E1C1B",
"8u 	c #1B1919",
"9u 	c #21211C",
"0u 	c #25281F",
"au 	c #282C20",
"bu 	c #292D21",
"cu 	c #262A1F",
"du 	c #20241B",
"eu 	c #181C16",
"fu 	c #000209",
"gu 	c #0A090A",
"hu 	c #0B0A08",
"iu 	c #040505",
"ju 	c #776F68",
"ku 	c #736B66",
"lu 	c #9B928E",
"mu 	c #31494E",
"nu 	c #344E53",
"ou 	c #354E53",
"pu 	c #354E54",
"qu 	c #354F54",
"ru 	c #354F55",
"su 	c #334C52",
"tu 	c #2C4348",
"uu 	c #24393C",
"vu 	c #1B2A2E",
"wu 	c #203334",
"xu 	c #203234",
"yu 	c #1F3233",
"zu 	c #1E3133",
"Au 	c #27241E",
"Bu 	c #2F2C24",
"Cu 	c #302D25",
"Du 	c #28251F",
"Eu 	c #1F1F18",
"Fu 	c #26281D",
"Gu 	c #2B2E20",
"Hu 	c #2E3322",
"Iu 	c #303422",
"Ju 	c #2E3221",
"Ku 	c #2A2E1F",
"Lu 	c #25281B",
"Mu 	c #1E2017",
"Nu 	c #151610",
"Ou 	c #010100",
"Pu 	c #020303",
"Qu 	c #706862",
"Ru 	c #534C49",
"Su 	c #8B817D",
"Tu 	c #A99F9A",
"Uu 	c #354447",
"Vu 	c #2E3B3C",
"Wu 	c #262D2D",
"Xu 	c #364F56",
"Yu 	c #476771",
"Zu 	c #4C6D78",
"`u 	c #4B6D77",
" v 	c #4B6C77",
".v 	c #4B6C76",
"+v 	c #4C6E78",
"@v 	c #486872",
"#v 	c #3B565D",
"$v 	c #293E43",
"%v 	c #293F42",
"&v 	c #2B4245",
"*v 	c #2B4246",
"=v 	c #2B4145",
"-v 	c #2B4045",
";v 	c #2B4044",
">v 	c #2A4045",
",v 	c #294044",
"'v 	c #293F44",
")v 	c #283C40",
"!v 	c #293637",
"~v 	c #070706",
"{v 	c #2A2821",
"]v 	c #292721",
"^v 	c #21201F",
"/v 	c #24221F",
"(v 	c #221F1B",
"_v 	c #191914",
":v 	c #24271A",
"<v 	c #2A2E1E",
"[v 	c #2F3521",
"}v 	c #313823",
"|v 	c #303622",
"1v 	c #2B301E",
"2v 	c #24291A",
"3v 	c #1D2115",
"4v 	c #151710",
"5v 	c #080805",
"6v 	c #030303",
"7v 	c #423F3E",
"8v 	c #4A4442",
"9v 	c #4D4745",
"0v 	c #797069",
"av 	c #817773",
"bv 	c #4F4A49",
"cv 	c #B4AAA4",
"dv 	c #354547",
"ev 	c #2E3B3D",
"fv 	c #3B545B",
"gv 	c #4C6C76",
"hv 	c #51727E",
"iv 	c #50727D",
"jv 	c #50717C",
"kv 	c #50737E",
"lv 	c #50737D",
"mv 	c #51737F",
"nv 	c #527580",
"ov 	c #4E6F7A",
"pv 	c #405B64",
"qv 	c #2C4246",
"rv 	c #3D5960",
"sv 	c #44636B",
"tv 	c #45646C",
"uv 	c #44626B",
"vv 	c #44626A",
"wv 	c #43626B",
"xv 	c #43616B",
"yv 	c #43616A",
"zv 	c #3D5860",
"Av 	c #526263",
"Bv 	c #000001",
"Cv 	c #7E7545",
"Dv 	c #968B55",
"Ev 	c #45402D",
"Fv 	c #49442E",
"Gv 	c #887E4F",
"Hv 	c #756F46",
"Iv 	c #302D1F",
"Jv 	c #171812",
"Kv 	c #181A12",
"Lv 	c #161712",
"Mv 	c #1E2116",
"Nv 	c #262C1C",
"Ov 	c #2B321F",
"Pv 	c #2A301E",
"Qv 	c #222719",
"Rv 	c #0B090B",
"Sv 	c #020005",
"Tv 	c #0A0B07",
"Uv 	c #292728",
"Vv 	c #2F2A2B",
"Wv 	c #373233",
"Xv 	c #464140",
"Yv 	c #524D4B",
"Zv 	c #393436",
"`v 	c #474343",
" w 	c #625A57",
".w 	c #5C5553",
"+w 	c #928985",
"@w 	c #2A3436",
"#w 	c #334449",
"$w 	c #3C5258",
"%w 	c #3E555C",
"&w 	c #3E545B",
"*w 	c #3E545C",
"=w 	c #3E555B",
"-w 	c #3E565D",
";w 	c #3F5860",
">w 	c #415C66",
",w 	c #415C65",
"'w 	c #415D66",
")w 	c #425E67",
"!w 	c #405B63",
"~w 	c #384F56",
"{w 	c #182528",
"]w 	c #32494F",
"^w 	c #496872",
"/w 	c #537681",
"(w 	c #547883",
"_w 	c #537781",
":w 	c #537682",
"<w 	c #527581",
"[w 	c #4A6973",
"}w 	c #2B3E42",
"|w 	c #B0A261",
"1w 	c #D0C075",
"2w 	c #595238",
"3w 	c #201F1D",
"4w 	c #655D3B",
"5w 	c #C4B571",
"6w 	c #A99F63",
"7w 	c #3F3C26",
"8w 	c #161811",
"9w 	c #2B341E",
"0w 	c #56683A",
"aw 	c #627641",
"bw 	c #657B44",
"cw 	c #697F46",
"dw 	c #687E46",
"ew 	c #647943",
"fw 	c #607440",
"gw 	c #5F733F",
"hw 	c #56693A",
"iw 	c #171C0F",
"jw 	c #010201",
"kw 	c #312C2C",
"lw 	c #484240",
"mw 	c #363132",
"nw 	c #413C3D",
"ow 	c #3D3739",
"pw 	c #403A3A",
"qw 	c #6F6761",
"rw 	c #453E3E",
"sw 	c #4E4745",
"tw 	c #4F4846",
"uw 	c #9EC6C5",
"vw 	c #5D7578",
"ww 	c #2A3D40",
"xw 	c #2A3334",
"yw 	c #2B3537",
"zw 	c #2C3639",
"Aw 	c #2C383B",
"Bw 	c #2D3E42",
"Cw 	c #2E4146",
"Dw 	c #2F4248",
"Ew 	c #2F4348",
"Fw 	c #2F454B",
"Gw 	c #44616A",
"Hw 	c #4D6D77",
"Iw 	c #4E6E79",
"Jw 	c #4D6D78",
"Kw 	c #4D6E78",
"Lw 	c #4C6D77",
"Mw 	c #45626C",
"Nw 	c #2A383A",
"Ow 	c #AD9E5F",
"Pw 	c #CDBB73",
"Qw 	c #5B533B",
"Rw 	c #665D3C",
"Sw 	c #C5B572",
"Tw 	c #ABA065",
"Uw 	c #413D27",
"Vw 	c #1A1D13",
"Ww 	c #45532F",
"Xw 	c #8EAA60",
"Yw 	c #9FBF6B",
"Zw 	c #A1C26C",
"`w 	c #A5C76F",
" x 	c #A4C66F",
".x 	c #A0C16C",
"+x 	c #9CBC69",
"@x 	c #9DBD6A",
"#x 	c #90AE62",
"$x 	c #252D19",
"%x 	c #3E3938",
"&x 	c #423C3B",
"*x 	c #5F5958",
"=x 	c #78706E",
"-x 	c #615956",
";x 	c #5C5452",
">x 	c #423B3C",
",x 	c #474040",
"'x 	c #2E3C3E",
")x 	c #263334",
"!x 	c #272D2E",
"~x 	c #272C2C",
"{x 	c #272B2C",
"]x 	c #262C2C",
"^x 	c #3A5259",
"/x 	c #3A535A",
"(x 	c #3A525A",
"_x 	c #395259",
":x 	c #30444A",
"<x 	c #2A3738",
"[x 	c #CEBC74",
"}x 	c #5E583E",
"|x 	c #282623",
"1x 	c #675F3E",
"2x 	c #C7B774",
"3x 	c #ACA267",
"4x 	c #423F29",
"5x 	c #1C1F14",
"6x 	c #4A5932",
"7x 	c #9AB968",
"8x 	c #ABCF73",
"9x 	c #AED174",
"0x 	c #B2D878",
"ax 	c #B2D778",
"bx 	c #ACD074",
"cx 	c #A9CC72",
"dx 	c #ABCD73",
"ex 	c #9EBE6B",
"fx 	c #29311A",
"gx 	c #040503",
"hx 	c #393434",
"ix 	c #433E3C",
"jx 	c #4E4947",
"kx 	c #A09C9B",
"lx 	c #807977",
"mx 	c #464041",
"nx 	c #564F4C",
"ox 	c #58504E",
"px 	c #4D4645",
"qx 	c #494342",
"rx 	c #433D3C",
"sx 	c #4A4342",
"tx 	c #524B49",
"ux 	c #5E7678",
"vx 	c #364648",
"wx 	c #2F3C3E",
"xx 	c #273132",
"yx 	c #2A3538",
"zx 	c #2C3D41",
"Ax 	c #2D3F44",
"Bx 	c #2C3E44",
"Cx 	c #AD9E60",
"Dx 	c #CEBD75",
"Ex 	c #625C41",
"Fx 	c #2C2A25",
"Gx 	c #68603F",
"Hx 	c #C7B876",
"Ix 	c #AEA469",
"Jx 	c #44402A",
"Kx 	c #1C1F15",
"Lx 	c #455330",
"Mx 	c #90AD61",
"Nx 	c #A1C26D",
"Ox 	c #A4C56F",
"Px 	c #A8CB71",
"Qx 	c #A8CA70",
"Rx 	c #A2C36D",
"Sx 	c #9EBF6B",
"Tx 	c #9FC06B",
"Ux 	c #93B163",
"Vx 	c #262E19",
"Wx 	c #393636",
"Xx 	c #969291",
"Yx 	c #827A77",
"Zx 	c #807874",
"`x 	c #5F5857",
" y 	c #342F31",
".y 	c #4F4847",
"+y 	c #324345",
"@y 	c #2A3638",
"#y 	c #2A3C3F",
"$y 	c #2A3639",
"%y 	c #2C3C42",
"&y 	c #688484",
"*y 	c #AE9E60",
"=y 	c #D0BE77",
"-y 	c #676044",
";y 	c #2F2D27",
">y 	c #6A6141",
",y 	c #C8B978",
"'y 	c #AFA66B",
")y 	c #44412B",
"!y 	c #191B14",
"~y 	c #2A321D",
"{y 	c #4F5E35",
"]y 	c #5F7140",
"^y 	c #667A45",
"/y 	c #6B8049",
"(y 	c #6A7F48",
"_y 	c #627542",
":y 	c #586A3C",
"<y 	c #536438",
"[y 	c #495832",
"}y 	c #171A0E",
"|y 	c #3E3A39",
"1y 	c #726D6B",
"2y 	c #7D7572",
"3y 	c #776F6C",
"4y 	c #6E6664",
"5y 	c #40393A",
"6y 	c #403939",
"7y 	c #41393A",
"8y 	c #2C3D42",
"9y 	c #688485",
"0y 	c #AE9E61",
"ay 	c #D1BF79",
"by 	c #6C6449",
"cy 	c #33302A",
"dy 	c #6B6343",
"ey 	c #CABB7A",
"fy 	c #B1A86E",
"gy 	c #45422C",
"hy 	c #171913",
"iy 	c #1F2416",
"jy 	c #2E3620",
"ky 	c #3A4428",
"ly 	c #434E2E",
"my 	c #475430",
"ny 	c #44512F",
"oy 	c #3D482A",
"py 	c #323C23",
"qy 	c #262D1A",
"ry 	c #1C2113",
"sy 	c #0D1009",
"ty 	c #3F3B3A",
"uy 	c #989392",
"vy 	c #817975",
"wy 	c #7F7774",
"xy 	c #625A58",
"yy 	c #68605D",
"zy 	c #554C4A",
"Ay 	c #534A48",
"By 	c #5B514F",
"Cy 	c #504746",
"Dy 	c #3F3838",
"Ey 	c #2F3D3E",
"Fy 	c #273131",
"Gy 	c #AE9F62",
"Hy 	c #D2C17B",
"Iy 	c #70694C",
"Jy 	c #36332C",
"Ky 	c #6D6545",
"Ly 	c #CCBD7C",
"My 	c #B3AA70",
"Ny 	c #46432E",
"Oy 	c #2C331F",
"Py 	c #374026",
"Qy 	c #3E492B",
"Ry 	c #414C2D",
"Sy 	c #384127",
"Ty 	c #2F3721",
"Uy 	c #232919",
"Vy 	c #14170E",
"Wy 	c #080A06",
"Xy 	c #494240",
"Yy 	c #564C49",
"Zy 	c #9B9796",
"`y 	c #736A68",
" z 	c #6D6463",
".z 	c #6C6362",
"+z 	c #6B6261",
"@z 	c #978E87",
"#z 	c #908680",
"$z 	c #756B65",
"%z 	c #6C615C",
"&z 	c #4C4443",
"*z 	c #3A3435",
"=z 	c #443C3C",
"-z 	c #413839",
";z 	c #4D4341",
">z 	c #465A5B",
",z 	c #2F3D3F",
"'z 	c #222F32",
")z 	c #AEA063",
"!z 	c #D4C37C",
"~z 	c #38362E",
"{z 	c #6F6647",
"]z 	c #CEBF7F",
"^z 	c #B4AD72",
"/z 	c #48452F",
"(z 	c #1B1E16",
"_z 	c #232719",
":z 	c #2D3420",
"<z 	c #384227",
"[z 	c #404B2C",
"}z 	c #424E2D",
"|z 	c #3E4A2B",
"1z 	c #374127",
"2z 	c #2F3621",
"3z 	c #242A1A",
"4z 	c #181C10",
"5z 	c #030402",
"6z 	c #574D4A",
"7z 	c #4C4543",
"8z 	c #807B7A",
"9z 	c #97918F",
"0z 	c #79726D",
"az 	c #756D6A",
"bz 	c #776F6B",
"cz 	c #8F8882",
"dz 	c #968F89",
"ez 	c #807670",
"fz 	c #6E645E",
"gz 	c #574D4B",
"hz 	c #564C4A",
"iz 	c #534947",
"jz 	c #514846",
"kz 	c #473F3F",
"lz 	c #413A3A",
"mz 	c #4F4542",
"nz 	c #73635B",
"oz 	c #817167",
"pz 	c #786A63",
"qz 	c #977F73",
"rz 	c #998174",
"sz 	c #8FB2B3",
"tz 	c #5E7879",
"uz 	c #303D3F",
"vz 	c #2B3A3F",
"wz 	c #2B3B40",
"xz 	c #526363",
"yz 	c #AFA063",
"zz 	c #D6C57E",
"Az 	c #7C7354",
"Bz 	c #3C3930",
"Cz 	c #706849",
"Dz 	c #D0C282",
"Ez 	c #B6B075",
"Fz 	c #4A4832",
"Gz 	c #1E2117",
"Hz 	c #1E2315",
"Iz 	c #2B321E",
"Jz 	c #3B4629",
"Kz 	c #45512F",
"Lz 	c #475431",
"Mz 	c #394328",
"Nz 	c #2E3621",
"Oz 	c #212617",
"Pz 	c #13160D",
"Qz 	c #040502",
"Rz 	c #554B48",
"Sz 	c #8F8986",
"Tz 	c #7A736E",
"Uz 	c #756D69",
"Vz 	c #605954",
"Wz 	c #68615B",
"Xz 	c #68615C",
"Yz 	c #77706B",
"Zz 	c #8D847E",
"`z 	c #8E857E",
" A 	c #7E746E",
".A 	c #786E68",
"+A 	c #5D524F",
"@A 	c #9B8677",
"#A 	c #A08979",
"$A 	c #89776C",
"%A 	c #847369",
"&A 	c #927C70",
"*A 	c #8F7A6F",
"=A 	c #8FB3B3",
"-A 	c #303E3F",
";A 	c #1C292A",
">A 	c #262E30",
",A 	c #698486",
"'A 	c #9BC2C3",
")A 	c #AFA064",
"!A 	c #D8C780",
"~A 	c #817958",
"{A 	c #3E3B32",
"]A 	c #726A4B",
"^A 	c #D2C484",
"/A 	c #B7B278",
"(A 	c #4C4B34",
"_A 	c #212319",
":A 	c #2D361F",
"<A 	c #3D492A",
"[A 	c #4B5933",
"}A 	c #4F5E36",
"|A 	c #485531",
"1A 	c #394327",
"2A 	c #2B331F",
"3A 	c #222718",
"4A 	c #181D11",
"5A 	c #070805",
"6A 	c #000100",
"7A 	c #9E9A99",
"8A 	c #857E7A",
"9A 	c #6F6863",
"0A 	c #645B56",
"aA 	c #6A5F5B",
"bA 	c #635955",
"cA 	c #5D5350",
"dA 	c #5C524F",
"eA 	c #5F5551",
"fA 	c #635855",
"gA 	c #5F5552",
"hA 	c #7D7069",
"iA 	c #9E8778",
"jA 	c #968173",
"kA 	c #6E635C",
"lA 	c #6A605A",
"mA 	c #6D625C",
"nA 	c #475A5C",
"oA 	c #5F797A",
"pA 	c #2B393A",
"qA 	c #536363",
"rA 	c #D9C882",
"sA 	c #867D5C",
"tA 	c #403C33",
"uA 	c #746B4C",
"vA 	c #D4C687",
"wA 	c #B8B37A",
"xA 	c #4D4C35",
"yA 	c #87A45B",
"zA 	c #98B867",
"AA 	c #9DBE69",
"BA 	c #9FC06A",
"CA 	c #9ABA68",
"DA 	c #94B364",
"EA 	c #92AF62",
"FA 	c #94B263",
"GA 	c #89A65C",
"HA 	c #202814",
"IA 	c #7D7876",
"JA 	c #8B8684",
"KA 	c #736C67",
"LA 	c #766E6A",
"MA 	c #79716D",
"NA 	c #625B56",
"OA 	c #8A817B",
"PA 	c #8C837C",
"QA 	c #766C66",
"RA 	c #786C66",
"SA 	c #7A6E68",
"TA 	c #70655E",
"UA 	c #6B605A",
"VA 	c #475B5C",
"WA 	c #303E40",
"XA 	c #272F31",
"YA 	c #2A373A",
"ZA 	c #273032",
"`A 	c #AFA065",
" B 	c #DBC984",
".B 	c #8A8160",
"+B 	c #413D34",
"@B 	c #756D4E",
"#B 	c #D6C889",
"$B 	c #B9B47C",
"%B 	c #4E4D36",
"&B 	c #262A1C",
"*B 	c #506036",
"=B 	c #9EBF6A",
"-B 	c #B1D577",
";B 	c #B5DB79",
">B 	c #B6DC7A",
",B 	c #B1D677",
"'B 	c #ADD074",
")B 	c #AED175",
"!B 	c #A1C36D",
"~B 	c #262F18",
"{B 	c #827D7B",
"]B 	c #847F7C",
"^B 	c #746E69",
"/B 	c #615A55",
"(B 	c #5E5550",
"_B 	c #5F5651",
":B 	c #5F5752",
"<B 	c #605853",
"[B 	c #5D5550",
"}B 	c #625954",
"|B 	c #918781",
"1B 	c #867C76",
"2B 	c #60797A",
"3B 	c #3D4E51",
"4B 	c #313F40",
"5B 	c #2A3D43",
"6B 	c #2A3A3F",
"7B 	c #000002",
"8B 	c #AFA165",
"9B 	c #DBCA85",
"0B 	c #8C8362",
"aB 	c #423F34",
"bB 	c #766D4E",
"cB 	c #D8C98A",
"dB 	c #BAB57C",
"eB 	c #4F4D36",
"fB 	c #25291C",
"gB 	c #9EBE6A",
"hB 	c #B3D878",
"iB 	c #B4D979",
"jB 	c #B0D577",
"kB 	c #ADD174",
"lB 	c #ABCE73",
"mB 	c #AED275",
"nB 	c #514946",
"oB 	c #4D4643",
"pB 	c #605B59",
"qB 	c #847F7D",
"rB 	c #756F6A",
"sB 	c #706964",
"tB 	c #5E5651",
"uB 	c #5C5550",
"vB 	c #5E5752",
"wB 	c #635A55",
"xB 	c #655C57",
"yB 	c #7C736D",
"zB 	c #928983",
"AB 	c #A49A96",
"BB 	c #A79D99",
"CB 	c #A69C98",
"DB 	c #968C88",
"EB 	c #786D68",
"FB 	c #766B66",
"GB 	c #7B6F69",
"HB 	c #9EC5C4",
"IB 	c #313F41",
"JB 	c #293134",
"KB 	c #698585",
"LB 	c #766E4E",
"MB 	c #4E4C36",
"NB 	c #23261A",
"OB 	c #3F4C2B",
"PB 	c #7B9553",
"QB 	c #8AA75D",
"RB 	c #8DAA5E",
"SB 	c #86A259",
"TB 	c #88A45B",
"UB 	c #7D9753",
"VB 	c #1C2311",
"WB 	c #5A504D",
"XB 	c #78716F",
"YB 	c #79736F",
"ZB 	c #6A635F",
"`B 	c #847A76",
" C 	c #A39995",
".C 	c #A39894",
"+C 	c #8F8480",
"@C 	c #8B807C",
"#C 	c #897E7A",
"$C 	c #7C706B",
"%C 	c #6E635D",
"&C 	c #2C3D43",
"*C 	c #536364",
"=C 	c #5B6869",
"-C 	c #DBCA84",
";C 	c #8C8261",
">C 	c #413E34",
",C 	c #BAB47C",
"'C 	c #4D4A35",
")C 	c #1F2118",
"!C 	c #1B1E13",
"~C 	c #1C2014",
"{C 	c #252C1A",
"]C 	c #2D351F",
"^C 	c #28301C",
"/C 	c #08050A",
"(C 	c #000005",
"_C 	c #7A7470",
":C 	c #706965",
"<C 	c #6D6662",
"[C 	c #635C57",
"}C 	c #5D5651",
"|C 	c #786F69",
"1C 	c #988F8A",
"2C 	c #A09692",
"3C 	c #887D79",
"4C 	c #70655F",
"5C 	c #6C615B",
"6C 	c #273033",
"7C 	c #DAC984",
"8C 	c #89805F",
"9C 	c #403D33",
"0C 	c #756D4D",
"aC 	c #D7C888",
"bC 	c #B9B37B",
"cC 	c #4B4933",
"dC 	c #1B1D15",
"eC 	c #181C11",
"fC 	c #1D2214",
"gC 	c #242A18",
"hC 	c #29311D",
"iC 	c #202516",
"jC 	c #191E12",
"kC 	c #0A0C07",
"lC 	c #736C69",
"mC 	c #797370",
"nC 	c #6C6662",
"oC 	c #5A524E",
"pC 	c #685F59",
"qC 	c #665D57",
"rC 	c #695F59",
"sC 	c #314041",
"tC 	c #2A383D",
"uC 	c #847C5C",
"vC 	c #3F3C32",
"wC 	c #746B4B",
"xC 	c #D4C685",
"yC 	c #B8B379",
"zC 	c #151511",
"AC 	c #13150E",
"BC 	c #1A1E12",
"CC 	c #222818",
"DC 	c #272E1B",
"EC 	c #29301C",
"FC 	c #1F2415",
"GC 	c #171B10",
"HC 	c #877D75",
"IC 	c #968981",
"JC 	c #A0938A",
"KC 	c #998D85",
"LC 	c #665F5A",
"MC 	c #5C544F",
"NC 	c #59514D",
"OC 	c #58504D",
"PC 	c #5A514E",
"QC 	c #615954",
"RC 	c #90B3B4",
"SC 	c #324042",
"TC 	c #D7C580",
"UC 	c #3C3A30",
"VC 	c #72694A",
"WC 	c #D1C383",
"XC 	c #B6B076",
"YC 	c #494731",
"ZC 	c #0C0D09",
"`C 	c #272C1B",
" D 	c #2D341F",
".D 	c #2E3520",
"+D 	c #9A8D85",
"@D 	c #645D58",
"#D 	c #675D58",
"$D 	c #212C2D",
"%D 	c #272E2E",
"&D 	c #2A393E",
"*D 	c #D5C47E",
"=D 	c #787153",
"-D 	c #3A372F",
";D 	c #706748",
">D 	c #CFC080",
",D 	c #B5AE74",
"'D 	c #484530",
")D 	c #100F0E",
"!D 	c #10120C",
"~D 	c #2D3520",
"{D 	c #292F1D",
"]D 	c #161910",
"^D 	c #0E1109",
"/D 	c #544F4C",
"(D 	c #665C57",
"_D 	c #2D3B3C",
":D 	c #546464",
"<D 	c #AE9F63",
"[D 	c #D4C27C",
"}D 	c #746C4F",
"|D 	c #38352D",
"1D 	c #6E6646",
"2D 	c #CDBE7E",
"3D 	c #B3AB71",
"4D 	c #47442F",
"5D 	c #161612",
"6D 	c #15180F",
"7D 	c #212616",
"8D 	c #262C1A",
"9D 	c #282F1B",
"0D 	c #202616",
"aD 	c #1A1F12",
"bD 	c #0B0C07",
"cD 	c #514C48",
"dD 	c #67605B",
"eD 	c #9DC5C5",
"fD 	c #324143",
"gD 	c #2B3C3F",
"hD 	c #2B393B",
"iD 	c #6A8686",
"jD 	c #AE9E62",
"kD 	c #D2C07A",
"lD 	c #6D674A",
"mD 	c #34312B",
"nD 	c #6C6444",
"oD 	c #CBBC7B",
"pD 	c #B2A96F",
"qD 	c #46432D",
"rD 	c #1A1C14",
"sD 	c #1B1F12",
"tD 	c #242B19",
"uD 	c #343E23",
"vD 	c #364125",
"wD 	c #333D23",
"xD 	c #2C351E",
"yD 	c #252D1A",
"zD 	c #191E11",
"AD 	c #050603",
"BD 	c #5D544F",
"CD 	c #665D58",
"DD 	c #334143",
"ED 	c #2D3A3B",
"FD 	c #1D2526",
"GD 	c #D1BF78",
"HD 	c #312F29",
"ID 	c #6B6242",
"JD 	c #C9BA79",
"KD 	c #B0A76D",
"LD 	c #1D1F16",
"MD 	c #2F3820",
"ND 	c #56673A",
"OD 	c #637844",
"PD 	c #697F47",
"QD 	c #6C8249",
"RD 	c #697E47",
"SD 	c #627642",
"TD 	c #5D6F3F",
"UD 	c #5A6C3D",
"VD 	c #12160B",
"WD 	c #617C7E",
"XD 	c #334243",
"YD 	c #262D2E",
"ZD 	c #4B5757",
"`D 	c #665E44",
" E 	c #2E2C27",
".E 	c #696140",
"+E 	c #C8B977",
"@E 	c #AFA56A",
"#E 	c #46422C",
"$E 	c #1F2217",
"%E 	c #495732",
"&E 	c #91AF61",
"*E 	c #A2C46E",
"=E 	c #A5C86F",
"-E 	c #A7CA70",
";E 	c #A1C16C",
">E 	c #9FC06C",
",E 	c #94B264",
"'E 	c #232B16",
")E 	c #685E59",
"!E 	c #334244",
"~E 	c #4E5A5B",
"{E 	c #2A3131",
"]E 	c #605A40",
"^E 	c #685F3F",
"/E 	c #C7B775",
"(E 	c #ADA368",
"_E 	c #1F2317",
":E 	c #4D5C34",
"<E 	c #B0D576",
"[E 	c #B0D476",
"}E 	c #A8C971",
"|E 	c #AACC73",
"1E 	c #262E18",
"2E 	c #4E5B5B",
"3E 	c #363F3F",
"4E 	c #181C1D",
"5E 	c #5C553C",
"6E 	c #262521",
"7E 	c #675E3D",
"8E 	c #C6B773",
"9E 	c #ABA166",
"0E 	c #434029",
"aE 	c #485631",
"bE 	c #90AC61",
"cE 	c #A6C76F",
"dE 	c #A9CB71",
"eE 	c #9CBB69",
"fE 	c #9DBC6A",
"gE 	c #91AE61",
"hE 	c #334344",
"iE 	c #2D3B3D",
"jE 	c #2F3C3D",
"kE 	c #444E4E",
"lE 	c #252B2B",
"mE 	c #5B543A",
"nE 	c #22211E",
"oE 	c #675E3C",
"pE 	c #C8B873",
"qE 	c #ACA266",
"rE 	c #423F28",
"sE 	c #191C13",
"tE 	c #303921",
"uE 	c #5C6E3D",
"vE 	c #6E854A",
"wE 	c #71884B",
"xE 	c #6E8449",
"yE 	c #687D45",
"zE 	c #637842",
"AE 	c #637642",
"BE 	c #596C3B",
"CE 	c #15190D",
"DE 	c #030404",
"EE 	c #675E58",
"FE 	c #344345",
"GE 	c #2E3C3D",
"HE 	c #5E6C6C",
"IE 	c #2A3232",
"JE 	c #00000D",
"KE 	c #817747",
"LE 	c #998E57",
"ME 	c #47422F",
"NE 	c #23211D",
"OE 	c #534C32",
"PE 	c #9F935D",
"QE 	c #898152",
"RE 	c #353220",
"SE 	c #161911",
"TE 	c #171A10",
"UE 	c #202617",
"VE 	c #2B331E",
"WE 	c #2E3720",
"XE 	c #2A311D",
"YE 	c #202517",
"ZE 	c #080409",
"`E 	c #000004",
" F 	c #050707",
".F 	c #333B3C",
"+F 	c #91B4B5",
"@F 	c #6A8787",
"#F 	c #5A6868",
"$F 	c #606F6F",
"%F 	c #556261",
"&F 	c #3A4342",
"*F 	c #1E1B15",
"=F 	c #2C2820",
"-F 	c #25221D",
";F 	c #312D22",
">F 	c #504933",
",F 	c #47412D",
"'F 	c #1F1D16",
")F 	c #14150F",
"!F 	c #161A10",
"~F 	c #1D2114",
"{F 	c #2C341E",
"]F 	c #242A19",
"^F 	c #0E110A",
"/F 	c #0D1010",
"(F 	c #404A4A",
"_F 	c #6B8787",
":F 	c #9BC3C3",
"<F 	c #516161",
"[F 	c #647373",
"}F 	c #4F5B5B",
"|F 	c #201E19",
"1F 	c #0D0D09",
"2F 	c #11130C",
"3F 	c #191C11",
"4F 	c #060805",
"5F 	c #1C2020",
"6F 	c #5C6A6A",
"7F 	c #4C5D5E",
"8F 	c #454E4F",
"9F 	c #363D3D",
"0F 	c #201D18",
"aF 	c #141310",
"bF 	c #060604",
"cF 	c #080906",
"dF 	c #11140C",
"eF 	c #1B2013",
"fF 	c #1C2114",
"gF 	c #080905",
"hF 	c #2F3636",
"iF 	c #586565",
"jF 	c #596566",
"kF 	c #3F4A4B",
"lF 	c #354446",
"mF 	c #2A3537",
"nF 	c #303D3E",
"oF 	c #9BC3C4",
"pF 	c #83A6A6",
"qF 	c #4C5E60",
"rF 	c #434C4C",
"sF 	c #5B696A",
"tF 	c #5F6D6D",
"uF 	c #495352",
"vF 	c #212320",
"wF 	c #040402",
"xF 	c #060704",
"yF 	c #0F120A",
"zF 	c #14180E",
"AF 	c #14170D",
"BF 	c #10120A",
"CF 	c #444D4D",
"DF 	c #546060",
"EF 	c #3B4546",
"FF 	c #38494D",
"GF 	c #91B5B5",
"HF 	c #4B6061",
"IF 	c #414D4D",
"JF 	c #475050",
"KF 	c #586465",
"LF 	c #687677",
"MF 	c #586463",
"NF 	c #2A302E",
"OF 	c #1B1B17",
"PF 	c #1F1E1A",
"QF 	c #1D1C19",
"RF 	c #1E1D1A",
"SF 	c #1E1E1A",
"TF 	c #1D1D19",
"UF 	c #161614",
"VF 	c #070909",
"WF 	c #0B0E0C",
"XF 	c #0C0F0D",
"YF 	c #060808",
"ZF 	c #0A0C0C",
"`F 	c #566262",
" G 	c #4C5757",
".G 	c #657F80",
"+G 	c #3D4D4F",
"@G 	c #515D5D",
"#G 	c #6D7D7D",
"$G 	c #616E6E",
"%G 	c #3C4342",
"&G 	c #303330",
"*G 	c #313431",
"=G 	c #2F322F",
"-G 	c #313430",
";G 	c #242A29",
">G 	c #222929",
",G 	c #3A4343",
"'G 	c #616F6F",
")G 	c #2A3435",
"!G 	c #364547",
"~G 	c #2F3E3F",
"{G 	c #A3CACB",
"]G 	c #485252",
"^G 	c #647273",
"/G 	c #657372",
"(G 	c #576260",
"_G 	c #49504D",
":G 	c #4A514E",
"<G 	c #484F4D",
"[G 	c #49514E",
"}G 	c #464E4C",
"|G 	c #515D5C",
"1G 	c #4A5454",
"2G 	c #232D2F",
"3G 	c #152123",
"4G 	c #71655F",
"5G 	c #91B6B6",
"6G 	c #364647",
"7G 	c #3C4A4C",
"8G 	c #424B4C",
"9G 	c #5A6769",
"0G 	c #6F7E7E",
"aG 	c #707F7D",
"bG 	c #5F6966",
"cG 	c #606A67",
"dG 	c #5E6A67",
"eG 	c #5F6A68",
"fG 	c #5E6A68",
"gG 	c #5E6B6A",
"hG 	c #5E6B6B",
"iG 	c #5F6B6B",
"jG 	c #606E6E",
"kG 	c #718181",
"lG 	c #616F70",
"mG 	c #546161",
"nG 	c #485151",
"oG 	c #30383A",
"pG 	c #685E58",
"qG 	c #665C56",
"rG 	c #655B56",
"sG 	c #6C625C",
"tG 	c #4C6063",
"uG 	c #2C393A",
"vG 	c #303F40",
"wG 	c #464F4F",
"xG 	c #546061",
"yG 	c #6A7A7A",
"zG 	c #778585",
"AG 	c #788583",
"BG 	c #778582",
"CG 	c #768583",
"DG 	c #768584",
"EG 	c #75817F",
"FG 	c #74807E",
"GG 	c #748282",
"HG 	c #738383",
"IG 	c #728181",
"JG 	c #708080",
"KG 	c #6F7F7F",
"LG 	c #6E7E7E",
"MG 	c #6D7C7D",
"NG 	c #6C7B7C",
"OG 	c #6B7A7B",
"PG 	c #6A7979",
"QG 	c #677676",
"RG 	c #657474",
"SG 	c #3F4748",
"TG 	c #162125",
"UG 	c #675D57",
"VG 	c #645A55",
"WG 	c #736761",
"XG 	c #253337",
"YG 	c #2B3839",
"ZG 	c #85A6A7",
"`G 	c #3B4849",
" H 	c #414A4A",
".H 	c #4E5858",
"+H 	c #647272",
"@H 	c #657271",
"#H 	c #657373",
"$H 	c #657170",
"%H 	c #65706F",
"&H 	c #637273",
"*H 	c #627171",
"=H 	c #627071",
"-H 	c #5A6667",
";H 	c #5B534F",
">H 	c #7B7069",
",H 	c #4C6263",
"'H 	c #92B7B7",
")H 	c #85A6A8",
"!H 	c #3F4949",
"~H 	c #5F6C6C",
"{H 	c #5F6C6D",
"]H 	c #5E6D6E",
"^H 	c #434B4C",
"/H 	c #92B6B7",
"(H 	c #374648",
"_H 	c #313F42",
":H 	c #9CC4C4",
"<H 	c #3A4547",
"[H 	c #424A4B",
"}H 	c #4B5656",
"|H 	c #4B5556",
"1H 	c #766B64",
"2H 	c #4D6263",
"3H 	c #668283",
"4H 	c #374749",
"5H 	c #162324",
"6H 	c #1F2828",
"7H 	c #2B383C",
"8H 	c #314042",
"9H 	c #A2CBCC",
"0H 	c #3D4748",
"aH 	c #3E4646",
"bH 	c #394040",
"cH 	c #394141",
"dH 	c #394140",
"eH 	c #3A4141",
"fH 	c #404747",
"gH 	c #2C3536",
"hH 	c #6A5F5A",
"iH 	c #776C65",
"jH 	c #91B7B7",
"kH 	c #2B393E",
"lH 	c #324142",
"mH 	c #344042",
"nH 	c #353E40",
"oH 	c #31393A",
"pH 	c #303939",
"qH 	c #303839",
"rH 	c #635954",
"sH 	c #615752",
"tH 	c #384849",
"uH 	c #2B3B41",
"vH 	c #2B383B",
"wH 	c #253134",
"xH 	c #222D30",
"yH 	c #675E59",
"zH 	c #5C534E",
"AH 	c #605752",
"BH 	c #625853",
"CH 	c #6D635D",
"DH 	c #93B7B8",
"EH 	c #425457",
"FH 	c #38484A",
"GH 	c #2B3C42",
"HH 	c #5B534E",
"IH 	c #59514C",
"JH 	c #58504C",
"KH 	c #574F4B",
"LH 	c #59504C",
"MH 	c #574D49",
"NH 	c #7A6F68",
"OH 	c #A7D1D0",
"PH 	c #38494A",
"QH 	c #3F5253",
"RH 	c #584F4B",
"SH 	c #5B524D",
"TH 	c #202D30",
"UH 	c #5A514D",
"VH 	c #5C524D",
"WH 	c #584E4A",
"XH 	c #776C66",
"YH 	c #435558",
"ZH 	c #39494B",
"`H 	c #2A3B3D",
" I 	c #293636",
".I 	c #344344",
"+I 	c #5A524D",
"@I 	c #688586",
"#I 	c #2A3C3E",
"$I 	c #293738",
"%I 	c #334142",
"&I 	c #A3CDCC",
"*I 	c #1F2F34",
"=I 	c #1F3034",
"-I 	c #5A514C",
";I 	c #5F544F",
">I 	c #4B403D",
",I 	c #473C39",
"'I 	c #483D3A",
")I 	c #897E78",
"!I 	c #4F6466",
"~I 	c #394A4B",
"{I 	c #2A3E43",
"]I 	c #4F6667",
"^I 	c #3F5053",
"/I 	c #3E4E50",
"(I 	c #3C4A4D",
"_I 	c #39474A",
":I 	c #374447",
"<I 	c #364346",
"[I 	c #354346",
"}I 	c #354345",
"|I 	c #354245",
"1I 	c #344245",
"2I 	c #334144",
"3I 	c #323F41",
"4I 	c #313E40",
"5I 	c #303C3F",
"6I 	c #2F3B3E",
"7I 	c #2F3B3D",
"8I 	c #2D393B",
"9I 	c #2C3739",
"0I 	c #2C3738",
"aI 	c #2C3638",
"bI 	c #152024",
"cI 	c #594F4B",
"dI 	c #504541",
"eI 	c #8B807A",
"fI 	c #19292B",
"gI 	c #5E6E70",
"hI 	c #6F7F81",
"iI 	c #728283",
"jI 	c #718182",
"kI 	c #728183",
"lI 	c #778789",
"mI 	c #7B8B8D",
"nI 	c #7A8A8C",
"oI 	c #7A8A8B",
"pI 	c #79898B",
"qI 	c #78888A",
"rI 	c #768788",
"sI 	c #768687",
"tI 	c #758687",
"uI 	c #758586",
"vI 	c #748586",
"wI 	c #728284",
"xI 	c #718082",
"yI 	c #6E7E80",
"zI 	c #6E7D7E",
"AI 	c #6B7A7C",
"BI 	c #6C7A7B",
"CI 	c #495456",
"DI 	c #534844",
"EI 	c #7E736E",
"FI 	c #94B9BA",
"GI 	c #3A4B4C",
"HI 	c #324243",
"II 	c #222C2D",
"JI 	c #344445",
"KI 	c #637171",
"LI 	c #637071",
"MI 	c #667475",
"NI 	c #6A7879",
"OI 	c #6B797A",
"PI 	c #6A797A",
"QI 	c #6B797B",
"RI 	c #6E7B7C",
"SI 	c #4A5556",
"TI 	c #726861",
"UI 	c #7D746C",
"VI 	c #938B83",
"WI 	c #A19A90",
"XI 	c #A0998F",
"YI 	c #887F77",
"ZI 	c #7F766F",
"`I 	c #506567",
" J 	c #354546",
".J 	c #87AAAB",
"+J 	c #5D6B6B",
"@J 	c #5E6B6D",
"#J 	c #616E6F",
"$J 	c #626F70",
"%J 	c #717E7F",
"&J 	c #505A5C",
"*J 	c #564E4A",
"=J 	c #746B65",
"-J 	c #584F4A",
";J 	c #6C625B",
">J 	c #B3ADA3",
",J 	c #C9C4B9",
"'J 	c #AFA89F",
")J 	c #A7D2D2",
"!J 	c #95BABB",
"~J 	c #1A272C",
"{J 	c #485253",
"]J 	c #343C3C",
"^J 	c #303838",
"/J 	c #333C3C",
"(J 	c #515C5D",
"_J 	c #4F4945",
":J 	c #6A615B",
"<J 	c #69605A",
"[J 	c #776E67",
"}J 	c #9C958C",
"|J 	c #ADA69D",
"1J 	c #9B918A",
"2J 	c #918780",
"3J 	c #877C75",
"4J 	c #847973",
"5J 	c #80756F",
"6J 	c #7C716A",
"7J 	c #3B4B4D",
"8J 	c #232C2E",
"9J 	c #576464",
"0J 	c #3F4848",
"aJ 	c #151717",
"bJ 	c #101314",
"cJ 	c #414B4C",
"dJ 	c #515C5C",
"eJ 	c #726862",
"fJ 	c #6F655E",
"gJ 	c #AAD3D3",
"hJ 	c #45595A",
"iJ 	c #3B4C4D",
"jJ 	c #344244",
"kJ 	c #232D2E",
"lJ 	c #6E8B8B",
"mJ 	c #546261",
"nJ 	c #161919",
"oJ 	c #121616",
"pJ 	c #726963",
"qJ 	c #5B514C",
"rJ 	c #6E645D",
"sJ 	c #766C65",
"tJ 	c #242C2E",
"uJ 	c #3D5153",
"vJ 	c #374748",
"wJ 	c #52696A",
"xJ 	c #6E655F",
"yJ 	c #736962",
"zJ 	c #2B3A40",
"AJ 	c #354445",
"BJ 	c #625953",
"CJ 	c #96BCBC",
"DJ 	c #3C4C4E",
"EJ 	c #374849",
"FJ 	c #6E8C8C",
"GJ 	c #53696B",
"HJ 	c #171A1A",
"IJ 	c #465B5C",
"JJ 	c #3C4D4F",
"KJ 	c #1E292D",
"LJ 	c #6F8C8C",
"MJ 	c #9DC6C6",
"NJ 	c #404949",
"OJ 	c #504A46",
"PJ 	c #615853",
"QJ 	c #756B64",
"RJ 	c #516869",
"SJ 	c #9FC6C6",
"TJ 	c #97BCBD",
"UJ 	c #3C4E4F",
"VJ 	c #524B48",
"WJ 	c #5F5650",
"XJ 	c #6B615A",
"YJ 	c #746A63",
"ZJ 	c #51686B",
"`J 	c #A9D2D3",
" K 	c #475C5D",
".K 	c #3D4E4F",
"+K 	c #556364",
"@K 	c #796F68",
"#K 	c #404849",
"$K 	c #171A1B",
"%K 	c #6D635C",
"&K 	c #2A363A",
"*K 	c #89ADAE",
"=K 	c #5E6B6C",
"-K 	c #1A1D1E",
";K 	c #424C4C",
">K 	c #786E67",
",K 	c #98BDBE",
"'K 	c #3E4F50",
")K 	c #364546",
"!K 	c #8AAEAE",
"~K 	c #475151",
"{K 	c #353B3B",
"]K 	c #333838",
"^K 	c #323838",
"/K 	c #363C3C",
"(K 	c #505B5C",
"_K 	c #58504B",
":K 	c #708E8E",
"<K 	c #364646",
"[K 	c #3A4A4B",
"}K 	c #616D6E",
"|K 	c #657171",
"1K 	c #687576",
"2K 	c #697677",
"3K 	c #667374",
"4K 	c #526A6B",
"5K 	c #98BEBF",
"6K 	c #374647",
"7K 	c #3A4B4B",
"8K 	c #556C6F",
"9K 	c #566464",
"0K 	c #3A4B4F",
"aK 	c #3E4F51",
"bK 	c #252C2D",
"cK 	c #242C2D",
"dK 	c #242B2D",
"eK 	c #232B2C",
"fK 	c #232B2B",
"gK 	c #222B2B",
"hK 	c #222A2B",
"iK 	c #222A2A",
"jK 	c #202929",
"kK 	c #202829",
"lK 	c #212A2A",
"mK 	c #242B2C",
"nK 	c #566465",
"oK 	c #625A54",
"pK 	c #98BFC0",
"qK 	c #718F91",
"rK 	c #3F4F51",
"sK 	c #262D2F",
"tK 	c #1C2526",
"uK 	c #1B2425",
"vK 	c #1B2424",
"wK 	c #1A2323",
"xK 	c #192323",
"yK 	c #192222",
"zK 	c #182222",
"AK 	c #172221",
"BK 	c #1A2324",
"CK 	c #1D2525",
"DK 	c #1E2527",
"EK 	c #535E5F",
"FK 	c #556060",
"GK 	c #5D6969",
"HK 	c #606C6D",
"IK 	c #5C6969",
"JK 	c #576364",
"KK 	c #635B55",
"LK 	c #665E58",
"MK 	c #99BFC0",
"NK 	c #729090",
"OK 	c #182627",
"PK 	c #161F1F",
"QK 	c #161F20",
"RK 	c #172020",
"SK 	c #1A2423",
"TK 	c #718E8E",
"UK 	c #8CAFAF",
"VK 	c #475A5D",
"WK 	c #525D5E",
"XK 	c #5C6868",
"YK 	c #667373",
"ZK 	c #748384",
"`K 	c #7B8A8A",
" L 	c #606D6D",
".L 	c #718080",
"+L 	c #657273",
"@L 	c #655D57",
"#L 	c #645C56",
"$L 	c #99C0C0",
"%L 	c #3F5052",
"&L 	c #252D30",
"*L 	c #131E1E",
"=L 	c #2B3638",
"-L 	c #485B5D",
";L 	c #576565",
">L 	c #545F5F",
",L 	c #617172",
"'L 	c #5D696A",
")L 	c #606C6C",
"!L 	c #6C7C7D",
"~L 	c #7A8A8A",
"{L 	c #728180",
"]L 	c #6B7A7A",
"^L 	c #5C6B6B",
"/L 	c #5D6869",
"(L 	c #6F7D7D",
"_L 	c #6E7C7C",
":L 	c #544D49",
"<L 	c #99C0C1",
"[L 	c #546C6D",
"}L 	c #384749",
"|L 	c #576566",
"1L 	c #535F5F",
"2L 	c #565F5F",
"3L 	c #5A5556",
"4L 	c #654A4B",
"5L 	c #6C4445",
"6L 	c #694344",
"7L 	c #624A4B",
"8L 	c #5D5B5B",
"9L 	c #6D7C7C",
"0L 	c #758484",
"aL 	c #515B5C",
"bL 	c #575F60",
"cL 	c #5D5455",
"dL 	c #654748",
"eL 	c #694243",
"fL 	c #664445",
"gL 	c #605152",
"hL 	c #646E6E",
"iL 	c #3D3838",
"jL 	c #554D49",
"kL 	c #4B4442",
"lL 	c #3E3939",
"mL 	c #3F3A39",
"nL 	c #4E4744",
"oL 	c #172427",
"pL 	c #586F71",
"qL 	c #566263",
"rL 	c #5A5051",
"sL 	c #6F3536",
"tL 	c #882E2E",
"uL 	c #9E3334",
"vL 	c #AC3B3B",
"wL 	c #9B3636",
"xL 	c #703334",
"yL 	c #5A4E4F",
"zL 	c #798989",
"AL 	c #525D5D",
"BL 	c #5E4E4F",
"CL 	c #742E2E",
"DL 	c #8B2D2D",
"EL 	c #9E3435",
"FL 	c #A7393A",
"GL 	c #883334",
"HL 	c #604445",
"IL 	c #788887",
"JL 	c #534B47",
"KL 	c #4F4844",
"LL 	c #524B47",
"ML 	c #9AC0C1",
"NL 	c #405152",
"OL 	c #313E41",
"PL 	c #131C1D",
"QL 	c #14201F",
"RL 	c #586F72",
"SL 	c #495C5E",
"TL 	c #555B5C",
"UL 	c #694040",
"VL 	c #8A3333",
"WL 	c #A43838",
"XL 	c #C64545",
"YL 	c #DF5454",
"ZL 	c #CF4C4C",
"`L 	c #953232",
" M 	c #713132",
".M 	c #575959",
"+M 	c #809191",
"@M 	c #4F5A5A",
"#M 	c #575C5C",
"$M 	c #6E3939",
"%M 	c #912D2E",
"&M 	c #AB3939",
"*M 	c #CB4949",
"=M 	c #DC5252",
"-M 	c #B84242",
";M 	c #7C3333",
">M 	c #545454",
",M 	c #677576",
"'M 	c #453F3D",
")M 	c #47413E",
"!M 	c #544C48",
"~M 	c #504945",
"{M 	c #4B4441",
"]M 	c #4A4340",
"^M 	c #554D4B",
"/M 	c #9AC1C2",
"(M 	c #162221",
"_M 	c #182323",
":M 	c #22292A",
"<M 	c #495D5E",
"[M 	c #566363",
"}M 	c #596767",
"|M 	c #5A5253",
"1M 	c #753838",
"2M 	c #993838",
"3M 	c #BB3F3F",
"4M 	c #D84C4C",
"5M 	c #E85757",
"6M 	c #DE5353",
"7M 	c #AA393A",
"8M 	c #842F2F",
"9M 	c #5C4848",
"0M 	c #7A8888",
"aM 	c #5F6C6E",
"bM 	c #556363",
"cM 	c #5C5253",
"dM 	c #7C2F2F",
"eM 	c #A33434",
"fM 	c #C24041",
"gM 	c #DD5050",
"hM 	c #E55555",
"iM 	c #D04B4B",
"jM 	c #913132",
"kM 	c #5B3D3D",
"lM 	c #667172",
"mM 	c #717E7E",
"nM 	c #504946",
"oM 	c #46403E",
"pM 	c #4C4542",
"qM 	c #4F4A4E",
"rM 	c #4D484C",
"sM 	c #484346",
"tM 	c #A0C7C7",
"uM 	c #749294",
"vM 	c #405253",
"wM 	c #202E2F",
"xM 	c #202E30",
"yM 	c #223234",
"zM 	c #233335",
"AM 	c #253031",
"BM 	c #242D2D",
"CM 	c #242C2C",
"DM 	c #394849",
"EM 	c #556464",
"FM 	c #556465",
"GM 	c #5D4E4E",
"HM 	c #7C3737",
"IM 	c #A33B3B",
"JM 	c #C13F3F",
"KM 	c #D34646",
"LM 	c #DC4E4E",
"MM 	c #D24949",
"NM 	c #AA3737",
"OM 	c #892F30",
"PM 	c #5F3E3E",
"QM 	c #748180",
"RM 	c #4F5E5F",
"SM 	c #5F4B4C",
"TM 	c #B13838",
"UM 	c #C94040",
"VM 	c #D64848",
"WM 	c #DB4C4C",
"XM 	c #C74343",
"YM 	c #993333",
"ZM 	c #6B3535",
"`M 	c #5C6464",
" N 	c #748484",
".N 	c #677575",
"+N 	c #3C3737",
"@N 	c #AAD5D4",
"#N 	c #282F32",
"$N 	c #2B3F42",
"%N 	c #A0C8C9",
"&N 	c #566565",
"*N 	c #5C4E4F",
"=N 	c #7B3737",
"-N 	c #A13A3B",
";N 	c #BE3E3E",
">N 	c #CB4040",
",N 	c #C23D3E",
"'N 	c #A73536",
")N 	c #882F30",
"!N 	c #5E3F40",
"~N 	c #768383",
"{N 	c #505E5F",
"]N 	c #872E2F",
"^N 	c #B03838",
"/N 	c #C63E3E",
"(N 	c #CC4040",
"_N 	c #CA3F3F",
":N 	c #BD3B3C",
"<N 	c #983233",
"[N 	c #6A3536",
"}N 	c #5C6565",
"|N 	c #748383",
"1N 	c #677475",
"2N 	c #393435",
"3N 	c #342F30",
"4N 	c #576E71",
"5N 	c #415253",
"6N 	c #2B3D40",
"7N 	c #39494A",
"8N 	c #3D4E50",
"9N 	c #566566",
"0N 	c #585454",
"aN 	c #713839",
"bN 	c #943637",
"cN 	c #B03A3B",
"dN 	c #C13C3C",
"eN 	c #C03C3C",
"fN 	c #B23838",
"gN 	c #9A3232",
"hN 	c #7F2E2F",
"iN 	c #594A4A",
"jN 	c #7C8B8B",
"kN 	c #5B5253",
"lN 	c #7B3031",
"mN 	c #A43434",
"nN 	c #BA3A3A",
"oN 	c #C43D3D",
"pN 	c #C23C3D",
"qN 	c #AF3738",
"rN 	c #8D3032",
"sN 	c #5A3E3F",
"tN 	c #657272",
"uN 	c #49423F",
"vN 	c #443E3C",
"wN 	c #3D3737",
"xN 	c #759496",
"yN 	c #415254",
"zN 	c #324041",
"AN 	c #233539",
"BN 	c #3D4F50",
"CN 	c #8EB1B3",
"DN 	c #586767",
"EN 	c #535E5E",
"FN 	c #614343",
"GN 	c #7E3232",
"HN 	c #953333",
"IN 	c #A33435",
"JN 	c #A23434",
"KN 	c #963131",
"LN 	c #822D2E",
"MN 	c #623738",
"NN 	c #585F5F",
"ON 	c #555D5E",
"PN 	c #693D3E",
"QN 	c #8C2E2F",
"RN 	c #9F3334",
"SN 	c #A83636",
"TN 	c #A53535",
"UN 	c #733536",
"VN 	c #545758",
"WN 	c #423C3A",
"XN 	c #3C3738",
"YN 	c #556E6F",
"ZN 	c #39484A",
"`N 	c #2A3A3C",
" O 	c #8DB2B3",
".O 	c #586667",
"+O 	c #596666",
"@O 	c #546160",
"#O 	c #525556",
"$O 	c #613838",
"%O 	c #7C2D2E",
"&O 	c #872C2D",
"*O 	c #862C2D",
"=O 	c #7C2C2D",
"-O 	c #603738",
";O 	c #535859",
">O 	c #728282",
",O 	c #565455",
"'O 	c #6A3132",
")O 	c #8C2E2E",
"!O 	c #892D2E",
"~O 	c #793232",
"{O 	c #54494A",
"]O 	c #768686",
"^O 	c #564F4D",
"/O 	c #514A49",
"(O 	c #383231",
"_O 	c #514B4B",
":O 	c #5E5756",
"<O 	c #645C5C",
"[O 	c #655D5D",
"}O 	c #625A5A",
"|O 	c #585051",
"1O 	c #769597",
"2O 	c #415354",
"3O 	c #3E5051",
"4O 	c #739091",
"5O 	c #8EB2B4",
"6O 	c #556061",
"7O 	c #545859",
"8O 	c #574A4A",
"9O 	c #5D4242",
"0O 	c #5C4343",
"aO 	c #584D4D",
"bO 	c #596060",
"cO 	c #505A5B",
"dO 	c #556062",
"eO 	c #565758",
"fO 	c #5A4748",
"gO 	c #5E4041",
"hO 	c #5D4445",
"iO 	c #5A5454",
"jO 	c #3B3534",
"kO 	c #615C5B",
"lO 	c #65605E",
"mO 	c #6F6A67",
"nO 	c #7C7572",
"oO 	c #89817D",
"pO 	c #8B837F",
"qO 	c #A0C9C8",
"rO 	c #9CC4C5",
"sO 	c #415355",
"tO 	c #739191",
"uO 	c #8FB2B4",
"vO 	c #5F6E6E",
"wO 	c #5F6A6B",
"xO 	c #545F60",
"yO 	c #5A6365",
"zO 	c #5E6A6A",
"AO 	c #6E7D7D",
"BO 	c #585150",
"CO 	c #4E4846",
"DO 	c #46413F",
"EO 	c #3F3A3B",
"FO 	c #625E5C",
"GO 	c #676360",
"HO 	c #78726F",
"IO 	c #425355",
"JO 	c #4B5F61",
"KO 	c #566161",
"LO 	c #5B6767",
"MO 	c #606D6E",
"NO 	c #627070",
"OO 	c #576363",
"PO 	c #6B7979",
"QO 	c #6E6867",
"RO 	c #6A6463",
"SO 	c #625E5E",
"TO 	c #645F60",
"UO 	c #5F5B5B",
"VO 	c #5D5959",
"WO 	c #615D5E",
"XO 	c #605C5D",
"YO 	c #4A4545",
"ZO 	c #302A2C",
"`O 	c #2E282A",
" P 	c #373131",
".P 	c #3F3939",
"+P 	c #779698",
"@P 	c #597274",
"#P 	c #425455",
"$P 	c #3A4A4C",
"%P 	c #544C49",
"&P 	c #5E5857",
"*P 	c #474140",
"=P 	c #3F3938",
"-P 	c #383232",
";P 	c #342E2F",
">P 	c #474240",
",P 	c #787475",
"'P 	c #797677",
")P 	c #737071",
"!P 	c #666263",
"~P 	c #5B5657",
"{P 	c #5A5657",
"]P 	c #595556",
"^P 	c #352F2F",
"/P 	c #3C3635",
"(P 	c #918277",
"_P 	c #84766D",
":P 	c #82756C",
"<P 	c #574E4B",
"[P 	c #3E3837",
"}P 	c #453E3C",
"|P 	c #4B4341",
"1P 	c #685F5D",
"2P 	c #867B78",
"3P 	c #9B8F8C",
"4P 	c #A09491",
"5P 	c #887E7C",
"6P 	c #554E4E",
"7P 	c #3F5152",
"8P 	c #5A6869",
"9P 	c #525E5F",
"0P 	c #525F60",
"aP 	c #443F3D",
"bP 	c #413A39",
"cP 	c #4D4849",
"dP 	c #565253",
"eP 	c #332D2F",
"fP 	c #706764",
"gP 	c #7D7370",
"hP 	c #9E928F",
"iP 	c #998D8B",
"jP 	c #605B5A",
"kP 	c #799799",
"lP 	c #435456",
"mP 	c #3A494B",
"nP 	c #334042",
"oP 	c #3B4B4C",
"pP 	c #749192",
"qP 	c #596868",
"rP 	c #566162",
"sP 	c #647171",
"tP 	c #697777",
"uP 	c #647172",
"vP 	c #282528",
"wP 	c #777475",
"xP 	c #625E5F",
"yP 	c #373234",
"zP 	c #6C6360",
"AP 	c #6B625C",
"BP 	c #8D7E74",
"CP 	c #69605D",
"DP 	c #9A8E8B",
"EP 	c #6D6464",
"FP 	c #3C3537",
"GP 	c #857D7A",
"HP 	c #5A7476",
"IP 	c #435556",
"JP 	c #749292",
"KP 	c #4C6062",
"LP 	c #5A6566",
"MP 	c #626B6B",
"NP 	c #666F6F",
"OP 	c #6A7676",
"PP 	c #636D6E",
"QP 	c #667071",
"RP 	c #312B2C",
"SP 	c #776E6A",
"TP 	c #877A71",
"UP 	c #8C7E74",
"VP 	c #47403E",
"WP 	c #7D7371",
"XP 	c #3F3839",
"YP 	c #817A76",
"ZP 	c #2D3B3B",
"`P 	c #ABD4D5",
" Q 	c #90B4B6",
".Q 	c #5D7677",
"+Q 	c #565A5B",
"@Q 	c #5D4A4A",
"#Q 	c #653F3F",
"$Q 	c #643D3E",
"%Q 	c #5F4748",
"&Q 	c #5B5D5D",
"*Q 	c #788888",
"=Q 	c #505A5A",
"-Q 	c #576263",
";Q 	c #5A5C5D",
">Q 	c #5F4D4D",
",Q 	c #644445",
"'Q 	c #634545",
")Q 	c #5E5152",
"!Q 	c #606A6B",
"~Q 	c #778586",
"{Q 	c #6C7A7A",
"]Q 	c #65554E",
"^Q 	c #6D5A53",
"/Q 	c #423736",
"(Q 	c #312A2C",
"_Q 	c #30292B",
":Q 	c #3D3231",
"<Q 	c #433734",
"[Q 	c #413634",
"}Q 	c #6B625F",
"|Q 	c #6A635E",
"1Q 	c #6B645F",
"2Q 	c #6D6660",
"3Q 	c #85796F",
"4Q 	c #8C7E73",
"5Q 	c #4D4542",
"6Q 	c #635A58",
"7Q 	c #A19692",
"8Q 	c #796F6E",
"9Q 	c #6A6563",
"0Q 	c #76706D",
"aQ 	c #9EC7C8",
"bQ 	c #79999B",
"cQ 	c #5B7577",
"dQ 	c #435557",
"eQ 	c #222F30",
"fQ 	c #596869",
"gQ 	c #54595A",
"hQ 	c #603C3D",
"iQ 	c #912F30",
"jQ 	c #9B3535",
"kQ 	c #903233",
"lQ 	c #693637",
"mQ 	c #595C5D",
"nQ 	c #59595A",
"oQ 	c #673637",
"pQ 	c #812A2B",
"qQ 	c #8F2F2F",
"rQ 	c #953233",
"sQ 	c #843232",
"tQ 	c #5D4546",
"uQ 	c #5C6567",
"vQ 	c #798888",
"wQ 	c #657475",
"xQ 	c #725E56",
"yQ 	c #876F64",
"zQ 	c #5F4C47",
"AQ 	c #5C4A45",
"BQ 	c #594843",
"CQ 	c #52433F",
"DQ 	c #483B39",
"EQ 	c #403535",
"FQ 	c #3A3131",
"GQ 	c #342C2D",
"HQ 	c #423634",
"IQ 	c #463936",
"JQ 	c #4F403B",
"KQ 	c #52423D",
"LQ 	c #55443F",
"MQ 	c #5D4943",
"NQ 	c #51413D",
"OQ 	c #403534",
"PQ 	c #2F292B",
"QQ 	c #6C6560",
"RQ 	c #766D66",
"SQ 	c #82766E",
"TQ 	c #8F8075",
"UQ 	c #8D8178",
"VQ 	c #AFA49C",
"WQ 	c #ADA29A",
"XQ 	c #A0968E",
"YQ 	c #827873",
"ZQ 	c #A99E96",
"`Q 	c #4A4344",
" R 	c #4D4748",
".R 	c #6C6765",
"+R 	c #6D6866",
"@R 	c #334242",
"#R 	c #5E4B4C",
"$R 	c #783232",
"%R 	c #943434",
"&R 	c #B83F3F",
"*R 	c #D34E4E",
"=R 	c #C74949",
"-R 	c #8E3132",
";R 	c #63393A",
">R 	c #5D6666",
",R 	c #778787",
"'R 	c #657374",
")R 	c #555F60",
"!R 	c #664344",
"~R 	c #9F3435",
"{R 	c #B94041",
"]R 	c #CB4A4A",
"^R 	c #B64242",
"/R 	c #728080",
"(R 	c #6C5850",
"_R 	c #634F48",
":R 	c #765C52",
"<R 	c #6B544C",
"[R 	c #564540",
"}R 	c #3C3232",
"|R 	c #393233",
"1R 	c #706864",
"2R 	c #8C7F76",
"3R 	c #423B3D",
"4R 	c #756F6C",
"5R 	c #B1DEDF",
"6R 	c #9FC8C9",
"7R 	c #435657",
"8R 	c #90B6B6",
"9R 	c #5A696A",
"0R 	c #545B5C",
"aR 	c #6A3F40",
"bR 	c #8C3535",
"cR 	c #AD3B3B",
"dR 	c #D24848",
"eR 	c #E95958",
"fR 	c #DF5453",
"gR 	c #A93939",
"hR 	c #813031",
"iR 	c #585353",
"jR 	c #5A5758",
"kR 	c #753233",
"lR 	c #9E3233",
"mR 	c #BD3E3E",
"nR 	c #D94E4E",
"oR 	c #E75757",
"pR 	c #DD5252",
"qR 	c #963233",
"rR 	c #6C3535",
"sR 	c #5F6768",
"tR 	c #7A635A",
"uR 	c #5E4B46",
"vR 	c #745B51",
"wR 	c #795F55",
"xR 	c #7E655B",
"yR 	c #725950",
"zR 	c #5A4842",
"AR 	c #372F2F",
"BR 	c #7C746E",
"CR 	c #7E766F",
"DR 	c #857C75",
"ER 	c #8D837C",
"FR 	c #958A82",
"GR 	c #988C84",
"HR 	c #ACA199",
"IR 	c #7F7875",
"JR 	c #A0C8CA",
"KR 	c #445658",
"LR 	c #3C4C4D",
"MR 	c #415255",
"NR 	c #5A6969",
"OR 	c #58595A",
"PR 	c #703C3C",
"QR 	c #943839",
"RR 	c #B53D3D",
"SR 	c #D34545",
"TR 	c #E05050",
"UR 	c #D74C4C",
"VR 	c #A93636",
"WR 	c #5A4C4D",
"XR 	c #637272",
"YR 	c #7E2F2F",
"ZR 	c #AB3636",
"`R 	c #C63F3F",
" S 	c #D94B4B",
".S 	c #E45454",
"+S 	c #D54C4C",
"@S 	c #7C3031",
"#S 	c #595A5A",
"$S 	c #604E48",
"%S 	c #6F574F",
"&S 	c #7B6258",
"*S 	c #846B61",
"=S 	c #8A7266",
"-S 	c #8E7669",
";S 	c #7D6258",
">S 	c #7B6156",
",S 	c #6C554D",
"'S 	c #3B3535",
")S 	c #6F6A68",
"!S 	c #A49F9C",
"~S 	c #7E7876",
"{S 	c #A0C9CA",
"]S 	c #7B9C9D",
"^S 	c #344243",
"/S 	c #943838",
"(S 	c #CD4141",
"_S 	c #C53E3E",
":S 	c #A73535",
"<S 	c #5A4C4C",
"[S 	c #5D5152",
"}S 	c #802F2F",
"|S 	c #AD3737",
"1S 	c #CD4040",
"2S 	c #CD4241",
"3S 	c #C23E3E",
"4S 	c #7E3030",
"5S 	c #595859",
"6S 	c #80685E",
"7S 	c #715A53",
"8S 	c #6F5952",
"9S 	c #735E55",
"0S 	c #80695E",
"aS 	c #AA9384",
"bS 	c #AD9686",
"cS 	c #9B8073",
"dS 	c #917569",
"eS 	c #907468",
"fS 	c #7F6459",
"gS 	c #655C59",
"hS 	c #6A615E",
"iS 	c #565150",
"jS 	c #7C7875",
"kS 	c #A5A09D",
"lS 	c #9E9996",
"mS 	c #445758",
"nS 	c #759494",
"oS 	c #4E6265",
"pS 	c #6B3F40",
"qS 	c #8C3536",
"rS 	c #AC3A3B",
"sS 	c #B73A3A",
"tS 	c #812F30",
"uS 	c #585253",
"vS 	c #7A8989",
"wS 	c #505B5B",
"xS 	c #5B5656",
"yS 	c #793030",
"zS 	c #A43435",
"AS 	c #C93F3F",
"BS 	c #C73E3E",
"CS 	c #973132",
"DS 	c #743232",
"ES 	c #5A6161",
"FS 	c #64534E",
"GS 	c #826B61",
"HS 	c #846C62",
"IS 	c #786158",
"JS 	c #725B54",
"KS 	c #735C55",
"LS 	c #7A625A",
"MS 	c #836B61",
"NS 	c #A89182",
"OS 	c #AF9888",
"PS 	c #987F72",
"QS 	c #8E7368",
"RS 	c #8F7367",
"SS 	c #81665B",
"TS 	c #5D4C47",
"US 	c #665D5A",
"VS 	c #766D6A",
"WS 	c #6D6661",
"XS 	c #6F6762",
"YS 	c #706863",
"ZS 	c #978B85",
"`S 	c #4C4747",
" T 	c #787371",
".T 	c #75706E",
"+T 	c #7C9D9E",
"@T 	c #525F5F",
"#T 	c #604849",
"$T 	c #7C3233",
"%T 	c #993536",
"&T 	c #AE3737",
"*T 	c #AF3838",
"=T 	c #A23334",
"-T 	c #8B2F30",
";T 	c #663737",
">T 	c #596061",
",T 	c #565C5D",
"'T 	c #6D3A3B",
")T 	c #932F30",
"!T 	c #B33939",
"~T 	c #872F30",
"{T 	c #5D4041",
"]T 	c #697576",
"^T 	c #504442",
"/T 	c #5F4F4C",
"(T 	c #665550",
"_T 	c #7A655C",
":T 	c #8F776B",
"<T 	c #AC9586",
"[T 	c #927F74",
"}T 	c #786862",
"|T 	c #796862",
"1T 	c #342D2E",
"2T 	c #8C837F",
"3T 	c #6E6762",
"4T 	c #948982",
"5T 	c #4A4445",
"6T 	c #6E6A68",
"7T 	c #A1CACB",
"8T 	c #5E787B",
"9T 	c #555758",
"0T 	c #5D3E3E",
"aT 	c #8F2E2F",
"bT 	c #902E2F",
"cT 	c #822E2E",
"dT 	c #663838",
"eT 	c #565859",
"fT 	c #5A5152",
"gT 	c #713232",
"hT 	c #8A2E2E",
"iT 	c #942F30",
"jT 	c #852F30",
"kT 	c #643C3D",
"lT 	c #5A6061",
"mT 	c #758585",
"nT 	c #584947",
"oT 	c #594A48",
"pT 	c #5A4B49",
"qT 	c #695752",
"rT 	c #6A5852",
"sT 	c #685751",
"tT 	c #6B5A54",
"uT 	c #655651",
"vT 	c #62544F",
"wT 	c #5C4F4C",
"xT 	c #71625C",
"yT 	c #7D6A63",
"zT 	c #896D62",
"AT 	c #7B645B",
"BT 	c #5C5351",
"CT 	c #6D6561",
"DT 	c #726A65",
"ET 	c #716964",
"FT 	c #7D726E",
"GT 	c #97928F",
"HT 	c #597275",
"IT 	c #3C4D4E",
"JT 	c #769495",
"KT 	c #564B4C",
"LT 	c #5C3D3D",
"MT 	c #5D3C3D",
"NT 	c #584849",
"OT 	c #5A5F5F",
"PT 	c #576162",
"QT 	c #575555",
"RT 	c #603233",
"ST 	c #5F3434",
"TT 	c #594444",
"UT 	c #5B6061",
"VT 	c #6C7B7B",
"WT 	c #483D3C",
"XT 	c #554745",
"YT 	c #574947",
"ZT 	c #5B4E4B",
"`T 	c #877066",
" U 	c #554643",
".U 	c #948B87",
"+U 	c #766D69",
"@U 	c #726B65",
"#U 	c #77706A",
"$U 	c #807771",
"%U 	c #9F948D",
"&U 	c #A0958E",
"*U 	c #7F746F",
"=U 	c #40393B",
"-U 	c #696563",
";U 	c #878280",
">U 	c #837E7C",
",U 	c #455759",
"'U 	c #3C4B4D",
")U 	c #425556",
"!U 	c #5A6A6A",
"~U 	c #697979",
"{U 	c #728182",
"]U 	c #667474",
"^U 	c #576061",
"/U 	c #586263",
"(U 	c #6F7D7E",
"_U 	c #594B49",
":U 	c #8B7065",
"<U 	c #8E8581",
"[U 	c #756C68",
"}U 	c #746C67",
"|U 	c #7F7771",
"1U 	c #A39991",
"2U 	c #918680",
"3U 	c #514949",
"4U 	c #797472",
"5U 	c #7B7674",
"6U 	c #B1DCDD",
"7U 	c #455859",
"8U 	c #687676",
"9U 	c #5D6B6D",
"0U 	c #574A47",
"aU 	c #7B6A63",
"bU 	c #63514C",
"cU 	c #8F857E",
"dU 	c #847974",
"eU 	c #3D3638",
"fU 	c #746F6D",
"gU 	c #607B7C",
"hU 	c #5B6A6A",
"iU 	c #545E5F",
"jU 	c #5C6869",
"kU 	c #564946",
"lU 	c #9B9189",
"mU 	c #607B7D",
"nU 	c #2A373C",
"oU 	c #A5CDCD",
"pU 	c #B2DDDE",
"qU 	c #607070",
"rU 	c #637070",
"sU 	c #6F605B",
"tU 	c #73635E",
"uU 	c #746B66",
"vU 	c #857C76",
"wU 	c #958A85",
"xU 	c #867B76",
"yU 	c #7D726D",
"zU 	c #64605E",
"AU 	c #706B69",
"BU 	c #A3CDCE",
"CU 	c #5B6A6B",
"DU 	c #676F6F",
"EU 	c #6A7374",
"FU 	c #6A7878",
"GU 	c #677777",
"HU 	c #6B7A79",
"IU 	c #6C7B7A",
"JU 	c #655854",
"KU 	c #5E514F",
"LU 	c #877E7A",
"MU 	c #7A736D",
"NU 	c #9A8F8A",
"OU 	c #9B908B",
"PU 	c #8E847F",
"QU 	c #6B6765",
"RU 	c #6E6967",
"SU 	c #6B6664",
"TU 	c #A4CDCF",
"UU 	c #617B7E",
"VU 	c #46595A",
"WU 	c #3D4C4D",
"XU 	c #2E3C3C",
"YU 	c #435758",
"ZU 	c #779696",
"`U 	c #A5CDCE",
" V 	c #565657",
".V 	c #604747",
"+V 	c #653D3D",
"@V 	c #634142",
"#V 	c #5D4F50",
"$V 	c #5B6464",
"%V 	c #525C5D",
"&V 	c #595E5F",
"*V 	c #5B5455",
"=V 	c #5D5253",
"-V 	c #5D6767",
";V 	c #758584",
">V 	c #707F7F",
",V 	c #635653",
"'V 	c #756660",
")V 	c #5C4F4D",
"!V 	c #79706B",
"~V 	c #7A726C",
"{V 	c #938883",
"]V 	c #51494A",
"^V 	c #46595B",
"/V 	c #263A3D",
"(V 	c #263A3E",
"_V 	c #242D2E",
":V 	c #242D2F",
"<V 	c #24373B",
"[V 	c #223338",
"}V 	c #627C7D",
"|V 	c #525152",
"1V 	c #663333",
"2V 	c #852C2D",
"3V 	c #923132",
"4V 	c #953334",
"5V 	c #843030",
"6V 	c #5C6566",
"7V 	c #586464",
"8V 	c #585657",
"9V 	c #653637",
"0V 	c #7D2C2C",
"aV 	c #882D2E",
"bV 	c #803030",
"cV 	c #613E3E",
"dV 	c #5D6466",
"eV 	c #6E605B",
"fV 	c #534646",
"gV 	c #938A86",
"hV 	c #766F69",
"iV 	c #79726C",
"jV 	c #736E6C",
"kV 	c #5C7476",
"lV 	c #A4CECF",
"mV 	c #1E2E30",
"nV 	c #212F31",
"oV 	c #233132",
"pV 	c #233133",
"qV 	c #233234",
"rV 	c #535758",
"sV 	c #623D3E",
"tV 	c #A43737",
"uV 	c #C44646",
"vV 	c #D24D4D",
"wV 	c #B44041",
"xV 	c #833031",
"yV 	c #5E4D4D",
"zV 	c #768484",
"AV 	c #575C5D",
"BV 	c #6B3C3C",
"CV 	c #8B2E2E",
"DV 	c #A03536",
"EV 	c #B53F40",
"FV 	c #B43F40",
"GV 	c #913536",
"HV 	c #604243",
"IV 	c #5E686A",
"JV 	c #5E514E",
"KV 	c #665955",
"LV 	c #8A817C",
"MV 	c #5B5351",
"NV 	c #1E3032",
"OV 	c #223032",
"PV 	c #203336",
"QV 	c #223436",
"RV 	c #1E2F33",
"SV 	c #536060",
"TV 	c #6E3434",
"UV 	c #BD4040",
"VV 	c #DF5252",
"WV 	c #E65757",
"XV 	c #D54E4E",
"YV 	c #943132",
"ZV 	c #6B3A3B",
"`V 	c #6E7878",
" W 	c #708081",
".W 	c #5D4D4E",
"+W 	c #802E2F",
"@W 	c #A13334",
"#W 	c #C34243",
"$W 	c #E55656",
"%W 	c #E05454",
"&W 	c #BA4243",
"*W 	c #7E3535",
"=W 	c #4E4242",
"-W 	c #484140",
";W 	c #837A75",
">W 	c #746D67",
",W 	c #B2E0E1",
"'W 	c #B8E6E6",
")W 	c #A5CFD0",
"!W 	c #627D7F",
"~W 	c #556D6E",
"{W 	c #344444",
"]W 	c #203437",
"^W 	c #515F5F",
"/W 	c #5E4F50",
"(W 	c #793333",
"_W 	c #A13838",
":W 	c #C64040",
"<W 	c #DC4D4D",
"[W 	c #E15353",
"}W 	c #CE4848",
"|W 	c #9D3334",
"1W 	c #773434",
"2W 	c #646B6C",
"3W 	c #626E6F",
"4W 	c #4C5A5A",
"5W 	c #664142",
"6W 	c #CF4545",
"7W 	c #E65555",
"8W 	c #E35555",
"9W 	c #C24343",
"0W 	c #8D3232",
"aW 	c #534848",
"bW 	c #738181",
"cW 	c #5D5957",
"dW 	c #7A7573",
"eW 	c #203436",
"fW 	c #232C2F",
"gW 	c #262E2E",
"hW 	c #B0DBDD",
"iW 	c #7A3333",
"jW 	c #A33838",
"kW 	c #C33D3D",
"lW 	c #CD4242",
"mW 	c #BF3D3D",
"nW 	c #7A3334",
"oW 	c #63696A",
"pW 	c #485657",
"qW 	c #693C3C",
"rW 	c #983030",
"sW 	c #B93A3A",
"tW 	c #D14444",
"uW 	c #B93B3B",
"vW 	c #903131",
"wW 	c #564242",
"xW 	c #6F7C7D",
"yW 	c #564846",
"zW 	c #6C5E5A",
"AW 	c #918884",
"BW 	c #585453",
"CW 	c #7C7775",
"DW 	c #B4E0E1",
"EW 	c #A6D0D1",
"FW 	c #637D80",
"GW 	c #3D4D4E",
"HW 	c #273B3E",
"IW 	c #273D41",
"JW 	c #273C41",
"KW 	c #263C40",
"LW 	c #253A3D",
"MW 	c #253A3C",
"NW 	c #789698",
"OW 	c #B0DDDC",
"PW 	c #515E5D",
"QW 	c #723334",
"RW 	c #9A3536",
"SW 	c #BB3A3B",
"TW 	c #C83E3E",
"UW 	c #963232",
"VW 	c #6F3838",
"WW 	c #697373",
"XW 	c #5F6B6C",
"YW 	c #4A5959",
"ZW 	c #644040",
"`W 	c #912F2F",
" X 	c #B33839",
".X 	c #CB403F",
"+X 	c #AF3837",
"@X 	c #8B3031",
"#X 	c #514646",
"$X 	c #738182",
"%X 	c #645754",
"&X 	c #70615C",
"*X 	c #322B2D",
"=X 	c #867D78",
"-X 	c #7D756F",
";X 	c #B9E7E7",
">X 	c #A6D1D1",
",X 	c #637E80",
"'X 	c #324347",
")X 	c #3A545B",
"!X 	c #3D5961",
"~X 	c #3D5861",
"{X 	c #3E5962",
"]X 	c #3B575E",
"^X 	c #314A4F",
"/X 	c #242C2F",
"(X 	c #30494E",
"_X 	c #344F53",
":X 	c #344F54",
"<X 	c #344E54",
"[X 	c #31494F",
"}X 	c #5C6B6C",
"|X 	c #535657",
"1X 	c #65393A",
"2X 	c #8B3132",
"3X 	c #A63535",
"4X 	c #883030",
"5X 	c #614747",
"6X 	c #758181",
"7X 	c #515F60",
"8X 	c #5B4C4D",
"9X 	c #7E2E2F",
"0X 	c #B43939",
"aX 	c #BA3B3A",
"bX 	c #9E3333",
"cX 	c #783333",
"dX 	c #515555",
"eX 	c #615451",
"fX 	c #6D5E5A",
"gX 	c #362F30",
"hX 	c #82A4A6",
"iX 	c #637F80",
"jX 	c #2B3536",
"kX 	c #3B5057",
"lX 	c #51727D",
"mX 	c #51717D",
"nX 	c #4D6E79",
"oX 	c #273A3F",
"pX 	c #2D4449",
"qX 	c #425F67",
"rX 	c #4A6B73",
"sX 	c #4B6B75",
"tX 	c #4A6A74",
"uX 	c #4A6B75",
"vX 	c #4A6974",
"wX 	c #435F69",
"xX 	c #344B53",
"yX 	c #2D393C",
"zX 	c #516669",
"AX 	c #544F4F",
"BX 	c #683536",
"CX 	c #852D2E",
"DX 	c #932E2F",
"EX 	c #7C2F30",
"FX 	c #633F3F",
"GX 	c #5D6263",
"HX 	c #633D3D",
"IX 	c #842E2E",
"JX 	c #973030",
"KX 	c #9B3132",
"LX 	c #963030",
"MX 	c #813131",
"NX 	c #5A4444",
"OX 	c #625552",
"PX 	c #776761",
"QX 	c #8B827E",
"RX 	c #786F6A",
"SX 	c #716A64",
"TX 	c #78716B",
"UX 	c #7E7570",
"VX 	c #82A5A6",
"WX 	c #2B3436",
"XX 	c #3A4F55",
"YX 	c #50717B",
"ZX 	c #51717C",
"`X 	c #51727C",
" Y 	c #51737E",
".Y 	c #172628",
"+Y 	c #31484E",
"@Y 	c #486770",
"#Y 	c #52747E",
"$Y 	c #537580",
"%Y 	c #52747F",
"&Y 	c #51747F",
"*Y 	c #52757F",
"=Y 	c #51747E",
"-Y 	c #374F57",
";Y 	c #789797",
">Y 	c #545556",
",Y 	c #5A4445",
"'Y 	c #603839",
")Y 	c #5F3E3F",
"!Y 	c #594F4F",
"~Y 	c #586061",
"{Y 	c #718081",
"]Y 	c #555858",
"^Y 	c #583B3B",
"/Y 	c #662F30",
"(Y 	c #6C2E2F",
"_Y 	c #663232",
":Y 	c #584242",
"<Y 	c #5B6566",
"[Y 	c #819190",
"}Y 	c #665855",
"|Y 	c #6B5D58",
"1Y 	c #867D79",
"2Y 	c #756E68",
"3Y 	c #716C6A",
"4Y 	c #313F43",
"5Y 	c #3B4F55",
"6Y 	c #3E585F",
"7Y 	c #3E5860",
"8Y 	c #3F5961",
"9Y 	c #3F5A62",
"0Y 	c #405B62",
"aY 	c #3D575F",
"bY 	c #3F5A61",
"cY 	c #47646D",
"dY 	c #47666E",
"eY 	c #46656D",
"fY 	c #405C64",
"gY 	c #B9E9E9",
"hY 	c #96BBBD",
"iY 	c #6A7A7B",
"jY 	c #6E7C7D",
"kY 	c #4F5354",
"lY 	c #504F4F",
"mY 	c #525757",
"nY 	c #736C66",
"oY 	c #A8D3D4",
"pY 	c #83A5A7",
"qY 	c #648082",
"rY 	c #2D3E44",
"sY 	c #282D30",
"tY 	c #344B50",
"uY 	c #5E6E6F",
"vY 	c #596464",
"wY 	c #584A48",
"xY 	c #7C736E",
"yY 	c #797573",
"zY 	c #83A6A7",
"AY 	c #5C6C6D",
"BY 	c #617171",
"CY 	c #596565",
"DY 	c #727F7F",
"EY 	c #877D77",
"FY 	c #443C3E",
"GY 	c #777371",
"HY 	c #A8D4D4",
"IY 	c #2C3B41",
"JY 	c #2D4046",
"KY 	c #46585A",
"LY 	c #5B6B6C",
"MY 	c #687474",
"NY 	c #4B5555",
"OY 	c #605351",
"PY 	c #4D4544",
"QY 	c #A99A91",
"RY 	c #625654",
"SY 	c #BCEBEB",
"TY 	c #A9D5D5",
"UY 	c #84A6A8",
"VY 	c #658183",
"WY 	c #2B3C3E",
"XY 	c #293535",
"YY 	c #46585B",
"ZY 	c #505D5D",
"`Y 	c #495555",
" Z 	c #40494A",
".Z 	c #3F4849",
"+Z 	c #474F4F",
"@Z 	c #463E3E",
"#Z 	c #716A66",
"$Z 	c #756E69",
"%Z 	c #827973",
"&Z 	c #BBA9A0",
"*Z 	c #BBEBEC",
"=Z 	c #BCECED",
"-Z 	c #3E4E4F",
";Z 	c #2C4144",
">Z 	c #799898",
",Z 	c #96BDBF",
"'Z 	c #52676A",
")Z 	c #4A5B5B",
"!Z 	c #424E4E",
"~Z 	c #3A4444",
"{Z 	c #313939",
"]Z 	c #2F3536",
"^Z 	c #2C3233",
"/Z 	c #262C2D",
"(Z 	c #252B2C",
"_Z 	c #5C4E4C",
":Z 	c #423B3B",
"<Z 	c #48403F",
"[Z 	c #716A65",
"}Z 	c #817872",
"|Z 	c #847C75",
"1Z 	c #877F78",
"2Z 	c #888079",
"3Z 	c #796661",
"4Z 	c #5E777A",
"5Z 	c #AAD5D6",
"6Z 	c #2C4145",
"7Z 	c #475758",
"8Z 	c #3C4849",
"9Z 	c #353F3F",
"0Z 	c #2F3839",
"aZ 	c #2B3233",
"bZ 	c #242A2B",
"cZ 	c #191E20",
"dZ 	c #554845",
"eZ 	c #594C4A",
"fZ 	c #403839",
"gZ 	c #7A6661",
"hZ 	c #AAD6D6",
"iZ 	c #789899",
"jZ 	c #475859",
"kZ 	c #343F3F",
"lZ 	c #181D1D",
"mZ 	c #181F21",
"nZ 	c #5A4B48",
"oZ 	c #504240",
"pZ 	c #473B39",
"qZ 	c #4D413F",
"rZ 	c #504846",
"sZ 	c #726B67",
"tZ 	c #837B74",
"uZ 	c #8D847D",
"vZ 	c #443B3C",
"wZ 	c #7F7A78",
"xZ 	c #AAD6D7",
"yZ 	c #85A8AA",
"zZ 	c #668184",
"AZ 	c #485C5D",
"BZ 	c #222C2F",
"CZ 	c #47595A",
"DZ 	c #181D1E",
"EZ 	c #5C4D4A",
"FZ 	c #483C3A",
"GZ 	c #524643",
"HZ 	c #5A514F",
"IZ 	c #8F867F",
"JZ 	c #4C4142",
"KZ 	c #47595B",
"LZ 	c #544845",
"MZ 	c #5E4E4B",
"NZ 	c #493D3B",
"OZ 	c #4C3F3D",
"PZ 	c #544745",
"QZ 	c #827C7A",
"RZ 	c #888380",
"SZ 	c #736D6B",
"TZ 	c #BFEFF0",
"UZ 	c #ABD7D8",
"VZ 	c #242B2E",
"WZ 	c #293033",
"XZ 	c #272F32",
"YZ 	c #97BEC0",
"ZZ 	c #3C4A4B",
"`Z 	c #1C2324",
" ` 	c #5A4C49",
".` 	c #675652",
"+` 	c #524543",
"@` 	c #5A534F",
"#` 	c #504A47",
"$` 	c #5A5351",
"%` 	c #5E5755",
"&` 	c #9E928A",
"*` 	c #676361",
"=` 	c #645E5B",
"-` 	c #938C89",
";` 	c #99918E",
">` 	c #76716F",
",` 	c #ABD8D8",
"'` 	c #2C3C41",
")` 	c #3F5051",
"!` 	c #BEEEEE",
"~` 	c #2B373A",
"{` 	c #6B5955",
"]` 	c #6A5854",
"^` 	c #60504D",
"/` 	c #5B4C49",
"(` 	c #534543",
"_` 	c #5A4D4B",
":` 	c #423A3B",
"<` 	c #524C49",
"[` 	c #4F4946",
"}` 	c #453E3D",
"|` 	c #554E4C",
"1` 	c #9F928A",
"2` 	c #BFEFEF",
"3` 	c #C0F0F1",
"4` 	c #ACD8D9",
"5` 	c #BEEFF0",
"6` 	c #3C4B4C",
"7` 	c #303B3C",
"8` 	c #61504D",
"9` 	c #5D4D4B",
"0` 	c #564845",
"a` 	c #4A3E3C",
"b` 	c #4C403D",
"c` 	c #857D76",
"d` 	c #AE9F96",
"e` 	c #354444",
"f` 	c #344041",
"g` 	c #303C3E",
"h` 	c #1A2124",
"i` 	c #70635F",
"j` 	c #63524F",
"k` 	c #5E4E4C",
"l` 	c #564745",
"m` 	c #514442",
"n` 	c #514341",
"o` 	c #4B4343",
"p` 	c #58524E",
"q` 	c #736F6D",
"r` 	c #ACD9D9",
"s` 	c #86AAAB",
"t` 	c #2B3F45",
"u` 	c #958783",
"v` 	c #8B7975",
"w` 	c #594B48",
"x` 	c #574846",
"y` 	c #645553",
"z` 	c #564D4B",
"A` 	c #807976",
"B` 	c #655E5C",
"C` 	c #40383A",
"D` 	c #7C7774",
"E` 	c #2A3335",
"F` 	c #1B2123",
"G` 	c #B1A09B",
"H` 	c #9F8E89",
"I` 	c #6F5D59",
"J` 	c #685753",
"K` 	c #645350",
"L` 	c #6A5954",
"M` 	c #76635D",
"N` 	c #5D5452",
"O` 	c #766D68",
"P` 	c #817A77",
"Q` 	c #7A7370",
"R` 	c #6B6461",
"S` 	c #89817A",
"T` 	c #736E6D",
"U` 	c #87AAAC",
"V` 	c #746562",
"W` 	c #AD9C97",
"X` 	c #AF9E99",
"Y` 	c #867570",
"Z` 	c #665551",
"`` 	c #685652",
"  .	c #695854",
". .	c #715E59",
"+ .	c #7B6860",
"@ .	c #726D6C",
"# .	c #7C7674",
"$ .	c #ADDADA",
"% .	c #678386",
"& .	c #5E4F4E",
"* .	c #705D5B",
"= .	c #8E7B78",
"- .	c #A5948F",
"; .	c #7D6B67",
"> .	c #685955",
", .	c #6C6561",
"' .	c #7D7673",
") .	c #463F3E",
"! .	c #7E7670",
"~ .	c #978C84",
"{ .	c #786561",
"] .	c #65615F",
"^ .	c #ADDADB",
"/ .	c #2C3C40",
"( .	c #A7D2D3",
"_ .	c #B7E6E7",
": .	c #C1F3F4",
"< .	c #98BFC1",
"[ .	c #6E5C59",
"} .	c #74615F",
"| .	c #93817D",
"1 .	c #9B8A85",
"2 .	c #887771",
"3 .	c #786661",
"4 .	c #7F6A63",
"5 .	c #AD9182",
"6 .	c #BB9D8B",
"7 .	c #AE9282",
"8 .	c #6D5D58",
"9 .	c #66605C",
"0 .	c #6E6864",
"a .	c #7E7774",
"b .	c #77706D",
"c .	c #6A6360",
"d .	c #666260",
"e .	c #746F6C",
"f .	c #242E30",
"g .	c #C1F4F4",
"h .	c #675552",
"i .	c #685653",
"j .	c #6E5B59",
"k .	c #897774",
"l .	c #D2C4B7",
"m .	c #CFC0B3",
"n .	c #AE988C",
"o .	c #A1887C",
"p .	c #A0877B",
"q .	c #B69988",
"r .	c #71605A",
"s .	c #736A66",
"t .	c #76706C",
"u .	c #6E5F5B",
"v .	c #6A6564",
"w .	c #746F6E",
"x .	c #938D8A",
"y .	c #C2F5F5",
"z .	c #ADDBDB",
"A .	c #87ABAC",
"B .	c #695754",
"C .	c #8F7D78",
"D .	c #BCADA3",
"E .	c #A99286",
"F .	c #A58B7E",
"G .	c #B99B89",
"H .	c #8C756B",
"I .	c #59504E",
"J .	c #6B6561",
"K .	c #6D6763",
"L .	c #B5A49B",
"M .	c #5E5352",
"N .	c #85807E",
"O .	c #ACA5A1",
"P .	c #B1AAA5",
"Q .	c #AEDBDB",
"R .	c #678486",
"S .	c #766361",
"T .	c #907E78",
"U .	c #A28A7E",
"V .	c #A1887B",
"W .	c #B89A89",
"X .	c #A78879",
"Y .	c #534B49",
"Z .	c #59514F",
"` .	c #68625E",
" ..	c #6F6B69",
"...	c #8F8A86",
"+..	c #99BFC1",
"@..	c #62514E",
"#..	c #6D5A58",
"$..	c #8A736C",
"%..	c #A08072",
"&..	c #79665F",
"*..	c #6A6460",
"=..	c #78706A",
"-..	c #B4A29A",
";..	c #716C6B",
">..	c #8F8987",
",..	c #C3F5F6",
"'..	c #87ACAC",
")..	c #2D3E43",
"!..	c #C1F2F3",
"~..	c #B09281",
"{..	c #494141",
"]..	c #67615D",
"^..	c #A2938C",
"/..	c #5A5655",
"(..	c #96908C",
"_..	c #AEDCDB",
":..	c #5E4F4C",
"<..	c #665451",
"[..	c #A88879",
"}..	c #4A4242",
"|..	c #9A8D86",
"1..	c #262F32",
"2..	c #272D2F",
"3..	c #574946",
"4..	c #A48476",
"5..	c #574F4C",
"6..	c #69635F",
"7..	c #3F4F50",
"8..	c #2B3538",
"9..	c #C3F6F7",
"0..	c #5D4E4B",
"a..	c #6F5C5A",
"b..	c #836D67",
"c..	c #A48576",
"d..	c #6B5C57",
"e..	c #676262",
"f..	c #242F33",
"g..	c #584A47",
"h..	c #AE8F7F",
"i..	c #574C4A",
"j..	c #6F6A69",
"k..	c #253033",
"l..	c #725F5A",
"m..	c #3C3536",
"n..	c #A3887A",
"o..	c #AF9383",
"p..	c #6D5E59",
"q..	c #504645",
"r..	c #7C6760",
"s..	c #998075",
"t..	c #7F6C65",
"u..	c #483F3E",
"v..	c #9B8276",
"w..	c #89756E",
"x..	c #756864",
"y..	c #675A56",
"z..	c #453C3C",
"A..	c #544C4A",
"B..	c #9A8175",
"C..	c #83716B",
"D..	c #766965",
"E..	c #787372",
"F..	c #777271",
"G..	c #5D4D4A",
"H..	c #61514E",
"I..	c #77635D",
"J..	c #A0867A",
"K..	c #7B6C67",
"L..	c #695C59",
"M..	c #594A47",
"N..	c #897269",
"O..	c #6F625E",
"P..	c #847A74",
"Q..	c #797473",
"R..	c #807A79",
"S..	c #3C4F52",
"T..	c #344648",
"U..	c #7D6861",
"V..	c #B99B8A",
"W..	c #7E6E69",
"X..	c #736662",
"Y..	c #5A4E4C",
"Z..	c #4D4646",
"`..	c #7E7877",
" +.	c #7F7978",
".+.	c #706B6A",
"++.	c #705E58",
"@+.	c #A48A7C",
"#+.	c #86736C",
"$+.	c #7C7776",
"%+.	c #ACD9DA",
"&+.	c #6C5A55",
"*+.	c #927C72",
"=+.	c #847B72",
"-+.	c #827970",
";+.	c #AA9A92",
">+.	c #76706F",
",+.	c #797372",
"'+.	c #75706F",
")+.	c #8C756C",
"!+.	c #7C6D68",
"~+.	c #514747",
"{+.	c #736A64",
"]+.	c #7B7675",
"^+.	c #76625C",
"/+.	c #957D73",
"(+.	c #776A65",
"_+.	c #584E4D",
":+.	c #7D756C",
"<+.	c #7A7474",
"[+.	c #827C7B",
"}+.	c #8C8684",
"|+.	c #2C3E41",
"1+.	c #8F786E",
"2+.	c #8B776F",
"3+.	c #443C3D",
"4+.	c #80776E",
"5+.	c #AA9B93",
"6+.	c #87817F",
"7+.	c #8B8583",
"8+.	c #817B7A",
"9+.	c #61514D",
"0+.	c #72615A",
"a+.	c #89756D",
"b+.	c #7C736B",
"c+.	c #8A8482",
"d+.	c #86807F",
"e+.	c #BEF0F0",
"f+.	c #685953",
"g+.	c #977F74",
"h+.	c #544D4A",
"i+.	c #726962",
"j+.	c #6E6863",
"k+.	c #97BEBE",
"l+.	c #7A6A64",
"m+.	c #6D615D",
"n+.	c #4D4648",
"o+.	c #847E7C",
"p+.	c #716963",
"q+.	c #8D827D",
"r+.	c #4A4243",
"s+.	c #888280",
"t+.	c #B2E0E0",
"u+.	c #534948",
"v+.	c #433C3C",
"w+.	c #7B726B",
"x+.	c #726C66",
"y+.	c #968B85",
"z+.	c #9B8F8A",
"A+.	c #544C4C",
"B+.	c #5C5556",
"C+.	c #7F7A79",
"D+.	c #BCEBEC",
"E+.	c #665752",
"F+.	c #6B5D57",
"G+.	c #80776F",
"H+.	c #635D5D",
"I+.	c #BDEDEC",
"J+.	c #84A7A9",
"K+.	c #63544F",
"L+.	c #71635E",
"M+.	c #857F7D",
"N+.	c #A9D4D5",
"O+.	c #BAEAEB",
"P+.	c #756F6F",
"Q+.	c #898382",
"R+.	c #5D5250",
"S+.	c #756F69",
"T+.	c #807872",
"U+.	c #767070",
"V+.	c #3C3335",
"W+.	c #647F82",
"X+.	c #BAE8E9",
"Y+.	c #584946",
"Z+.	c #746764",
"`+.	c #2D2629",
" @.	c #5E5A5B",
".@.	c #888381",
"+@.	c #657F82",
"@@.	c #675852",
"#@.	c #6C5E59",
"$@.	c #6C605D",
"%@.	c #2E272A",
"&@.	c #4F4745",
"*@.	c #7A7574",
"=@.	c #545152",
"-@.	c #767170",
";@.	c #293131",
">@.	c #293337",
",@.	c #1E2B2C",
"'@.	c #60504C",
")@.	c #675752",
"!@.	c #665751",
"~@.	c #746763",
"{@.	c #675B59",
"]@.	c #968B86",
"^@.	c #615858",
"/@.	c #595657",
"(@.	c #575455",
"_@.	c #6A6665",
":@.	c #817C7B",
"<@.	c #637F81",
"[@.	c #675853",
"}@.	c #574C4B",
"|@.	c #7B716E",
"1@.	c #A6D0D2",
"2@.	c #94BABC",
"3@.	c #6B6260",
"4@.	c #3C3839",
"5@.	c #4F4645",
"6@.	c #3B3436",
"7@.	c #463F3F",
"8@.	c #645E5A",
"9@.	c #635D5A",
"0@.	c #A6CFD1",
"a@.	c #2D3F45",
"b@.	c #5E5754",
"c@.	c #5D5754",
"d@.	c #463D3C",
"e@.	c #483F3C",
"f@.	c #443E3D",
"g@.	c #80A2A4",
"h@.	c #2C3B40",
"i@.	c #695A54",
"j@.	c #716561",
"k@.	c #383132",
"l@.	c #373030",
"m@.	c #5F544E",
"n@.	c #60544E",
"o@.	c #61554F",
"p@.	c #4C4442",
"q@.	c #433C3B",
"r@.	c #514845",
"s@.	c #554E4B",
"t@.	c #72645F",
"u@.	c #3C3838",
"v@.	c #3B3738",
"w@.	c #A89485",
"x@.	c #A18E80",
"y@.	c #988679",
"z@.	c #7D6F66",
"A@.	c #766961",
"B@.	c #86776C",
"C@.	c #B9AA9B",
"D@.	c #2A363B",
"E@.	c #645450",
"F@.	c #615654",
"G@.	c #362F2F",
"H@.	c #A38F81",
"I@.	c #A28E7F",
"J@.	c #A08C7D",
"K@.	c #A69283",
"L@.	c #A5978A",
"M@.	c #AA9C8E",
"N@.	c #272427",
"O@.	c #31292C",
"P@.	c #403637",
"Q@.	c #3C3333",
"R@.	c #362E30",
"S@.	c #3C3434",
"T@.	c #413837",
"U@.	c #534643",
"V@.	c #9E8B7C",
"W@.	c #897669",
"X@.	c #837063",
"Y@.	c #816E61",
"Z@.	c #806D5F",
"`@.	c #867264",
" #.	c #887465",
".#.	c #7F6D61",
"+#.	c #556C6D",
"@#.	c #31292B",
"##.	c #4E423F",
"$#.	c #4F433F",
"%#.	c #504340",
"&#.	c #4B3E3E",
"*#.	c #4A3E3D",
"=#.	c #4D403F",
"-#.	c #4E4141",
";#.	c #4E4241",
">#.	c #64544D",
",#.	c #695850",
"'#.	c #705D55",
")#.	c #64544F",
"!#.	c #4F4443",
"~#.	c #554844",
"{#.	c #504441",
"]#.	c #4B403E",
"^#.	c #473C3B",
"/#.	c #544743",
"(#.	c #67574F",
"_#.	c #685951",
":#.	c #6A5C56",
"<#.	c #B2DDDD",
"[#.	c #453A38",
"}#.	c #6D5B52",
"|#.	c #746155",
"1#.	c #826D62",
"2#.	c #856F63",
"3#.	c #8B7467",
"4#.	c #877065",
"5#.	c #806A60",
"6#.	c #77675D",
"7#.	c #685952",
"8#.	c #695B54",
"9#.	c #695B55",
"0#.	c #6A5D56",
"a#.	c #5A7475",
"b#.	c #7F9FA0",
"c#.	c #252E2E",
"d#.	c #252C2F",
"e#.	c #1F2E30",
"f#.	c #27383E",
"g#.	c #332B2D",
"h#.	c #463A38",
"i#.	c #6A5950",
"j#.	c #6B5951",
"k#.	c #705D53",
"l#.	c #776357",
"m#.	c #7F695E",
"n#.	c #A38777",
"o#.	c #9D8273",
"p#.	c #60514C",
"q#.	c #546B6C",
"r#.	c #1C2627",
"s#.	c #1C2626",
"t#.	c #1A2525",
"u#.	c #1B2524",
"v#.	c #2E2729",
"w#.	c #322B2C",
"x#.	c #383030",
"y#.	c #584C48",
"z#.	c #564A47",
"A#.	c #433A3A",
"B#.	c #352D2F",
"C#.	c #463B3B",
"D#.	c #4D4140",
"E#.	c #725F54",
"F#.	c #756156",
"G#.	c #715E54",
"H#.	c #766257",
"I#.	c #806A5F",
"J#.	c #9D8373",
"K#.	c #92796C",
"L#.	c #826C61",
"M#.	c #B1DCDE",
"N#.	c #152120",
"O#.	c #2D292A",
"P#.	c #74655E",
"Q#.	c #645752",
"R#.	c #5B504D",
"S#.	c #403838",
"T#.	c #413737",
"U#.	c #554744",
"V#.	c #7A665A",
"W#.	c #7B665A",
"X#.	c #90776A",
"Y#.	c #AA8F7E",
"Z#.	c #AF9683",
"`#.	c #AB917F",
" $.	c #A48878",
".$.	c #9B8072",
"+$.	c #7A665D",
"@$.	c #61504B",
"#$.	c #6F5B53",
"$$.	c #755F56",
"%$.	c #7A6359",
"&$.	c #6C5951",
"*$.	c #66554E",
"=$.	c #5E4F49",
"-$.	c #78655C",
";$.	c #A88D7D",
">$.	c #AE9281",
",$.	c #A58B7B",
"'$.	c #66564F",
")$.	c #63534D",
"!$.	c #1C2728",
"~$.	c #91B7B9",
"{$.	c #302B2C",
"]$.	c #786962",
"^$.	c #94837A",
"/$.	c #695B57",
"($.	c #6B5B53",
"_$.	c #816D61",
":$.	c #877467",
"<$.	c #8E786B",
"[$.	c #8F796B",
"}$.	c #8F796C",
"|$.	c #967F71",
"1$.	c #9F8878",
"2$.	c #AC9582",
"3$.	c #B19986",
"4$.	c #B49C88",
"5$.	c #B29A86",
"6$.	c #A68B7A",
"7$.	c #A28677",
"8$.	c #947B6D",
"9$.	c #62534F",
"0$.	c #816A5F",
"a$.	c #826A5F",
"b$.	c #8E7569",
"c$.	c #A68A7B",
"d$.	c #8D766A",
"e$.	c #66564E",
"f$.	c #A1CACC",
"g$.	c #827269",
"h$.	c #938279",
"i$.	c #928178",
"j$.	c #514544",
"k$.	c #615450",
"l$.	c #9D8C7F",
"m$.	c #B59D89",
"n$.	c #B9A08B",
"o$.	c #AE9380",
"p$.	c #AD917F",
"q$.	c #AA8E7D",
"r$.	c #AC907E",
"s$.	c #A48979",
"t$.	c #A28878",
"u$.	c #988072",
"v$.	c #7C9D9F",
"w$.	c #141D1E",
"x$.	c #293237",
"y$.	c #766760",
"z$.	c #83736A",
"A$.	c #86766D",
"B$.	c #73645F",
"C$.	c #928175",
"D$.	c #958478",
"E$.	c #A18B7B",
"F$.	c #A48D7C",
"G$.	c #A78F7D",
"H$.	c #B29985",
"I$.	c #C7AB94",
"J$.	c #C9AD95",
"K$.	c #CDAD93",
"L$.	c #CAAA91",
"M$.	c #C9A990",
"N$.	c #C4A58E",
"O$.	c #B69884",
"P$.	c #8A7366",
"Q$.	c #705C53",
"R$.	c #152222",
"S$.	c #141D1C",
"T$.	c #121C1B",
"U$.	c #121C1C",
"V$.	c #ACD6D8",
"W$.	c #807068",
"X$.	c #907F77",
"Y$.	c #725F57",
"Z$.	c #736058",
"`$.	c #76635A",
" %.	c #847164",
".%.	c #877466",
"+%.	c #8A7668",
"@%.	c #8D796B",
"#%.	c #947F6F",
"$%.	c #9E8877",
"%%.	c #BBA08B",
"&%.	c #C5A58D",
"*%.	c #B89A84",
"=%.	c #92796A",
"-%.	c #776257",
";%.	c #715D53",
">%.	c #6F5B52",
",%.	c #5D7879",
"'%.	c #172526",
")%.	c #172322",
"!%.	c #282D2E",
"~%.	c #162424",
"{%.	c #182729",
"]%.	c #3D3636",
"^%.	c #796A62",
"/%.	c #87776E",
"(%.	c #5B4D49",
"_%.	c #6B5A53",
":%.	c #6D5C55",
"<%.	c #846C60",
"[%.	c #9C8272",
"}%.	c #AD927F",
"|%.	c #B79C87",
"1%.	c #C4A992",
"2%.	c #A78A77",
"3%.	c #95796A",
"4%.	c #8C7063",
"5%.	c #8A6F62",
"6%.	c #876D60",
"7%.	c #6E5A51",
"8%.	c #203031",
"9%.	c #203032",
"0%.	c #1F2E2F",
"a%.	c #182728",
"b%.	c #85756C",
"c%.	c #84756D",
"d%.	c #64554F",
"e%.	c #6C5B54",
"f%.	c #715E57",
"g%.	c #81695E",
"h%.	c #7B6459",
"i%.	c #725E54",
"j%.	c #3B4A4C",
"k%.	c #342F2F",
"l%.	c #7A6A63",
"m%.	c #928179",
"n%.	c #534644",
"o%.	c #7F685D",
"p%.	c #7E675B",
"q%.	c #766156",
"r%.	c #6D5A51",
"s%.	c #243436",
"t%.	c #7A9B9C",
"u%.	c #403736",
"v%.	c #84746B",
"w%.	c #8B7A71",
"x%.	c #4F4341",
"y%.	c #6F5D56",
"z%.	c #7D665C",
"A%.	c #7A999C",
"B%.	c #8FB5B6",
"C%.	c #6D5D56",
"D%.	c #594B47",
"E%.	c #695852",
"F%.	c #6E5C55",
"G%.	c #7B655B",
"H%.	c #7D665A",
"I%.	c #715C53",
"J%.	c #B0DDDE",
"K%.	c #2B373B",
"L%.	c #817169",
"M%.	c #897970",
"N%.	c #7B6A62",
"O%.	c #77635A",
"P%.	c #60504A",
"Q%.	c #5E4E48",
"R%.	c #5C4D46",
"S%.	c #5E4F48",
"T%.	c #61514B",
"U%.	c #2B363B",
"V%.	c #749193",
"W%.	c #8C7B73",
"X%.	c #77625A",
"Y%.	c #5D4E47",
"Z%.	c #5B4C45",
"`%.	c #7D6E65",
" &.	c #907F76",
".&.	c #827068",
"+&.	c #6F5D55",
"@&.	c #735E54",
"#&.	c #587071",
"$&.	c #2A3438",
"%&.	c #292F32",
"&&.	c #86766C",
"*&.	c #8D7C73",
"=&.	c #746159",
"-&.	c #715F57",
";&.	c #726058",
">&.	c #766259",
",&.	c #6E5B52",
"'&.	c #AFDCDC",
")&.	c #3A494A",
"!&.	c #263638",
"~&.	c #272C2D",
"{&.	c #252C2C",
"]&.	c #252D2D",
"^&.	c #252C2E",
"/&.	c #232B2D",
"(&.	c #222B2C",
"_&.	c #22292B",
":&.	c #232C2D",
"<&.	c #242F30",
"[&.	c #233233",
"}&.	c #796A63",
"|&.	c #938379",
"1&.	c #A7978C",
"2&.	c #AB9B90",
"3&.	c #8B7970",
"4&.	c #806D64",
"5&.	c #7C6960",
"6&.	c #705E56",
"7&.	c #735F55",
"8&.	c #1B2627",
"9&.	c #1E292A",
"0&.	c #202729",
"a&.	c #1F2727",
"b&.	c #1E2626",
"c&.	c #1E2525",
"d&.	c #1C2525",
"e&.	c #192322",
"f&.	c #182223",
"g&.	c #363131",
"h&.	c #584D4A",
"i&.	c #837168",
"j&.	c #7D6A61",
"k&.	c #7B685F",
"l&.	c #736159",
"m&.	c #131B1B",
"n&.	c #141E1C",
"o&.	c #152224",
"p&.	c #99877D",
"q&.	c #86746B",
"r&.	c #75645C",
"s&.	c #725D54",
"t&.	c #5F4F49",
"u&.	c #A1C9C8",
"v&.	c #121B1A",
"w&.	c #111A1A",
"x&.	c #111B1B",
"y&.	c #121B1C",
"z&.	c #7E6C63",
"A&.	c #77665D",
"B&.	c #6C5A51",
"C&.	c #74635B",
"D&.	c #68574F",
"E&.	c #9BC2C4",
"F&.	c #769496",
"G&.	c #5A7273",
"H&.	c #655650",
"I&.	c #6D5B54",
"J&.	c #746158",
"K&.	c #78645A",
"L&.	c #7B665B",
"M&.	c #2F4247",
"N&.	c #31454A",
"O&.	c #31464A",
"P&.	c #706059",
"Q&.	c #78665E",
"R&.	c #746058",
"S&.	c #6E5A52",
"T&.	c #32474D",
"U&.	c #32484C",
"V&.	c #32474C",
"W&.	c #33484D",
"X&.	c #34494D",
"Y&.	c #443A38",
"Z&.	c #6C5A53",
"`&.	c #756259",
" *.	c #31474C",
".*.	c #32494E",
"+*.	c #32494D",
"@*.	c #1A2A2B",
"#*.	c #8DB1B1",
"$*.	c #745F55",
"%*.	c #405153",
"&*.	c #3E5A61",
"**.	c #3E5960",
"=*.	c #3D585F",
"-*.	c #395359",
";*.	c #8DB0B1",
">*.	c #384748",
",*.	c #486871",
"'*.	c #4B6A74",
")*.	c #4B6B74",
"!*.	c #415E66",
"~*.	c #32474E",
"{*.	c #2A3637",
"]*.	c #4A4140",
"^*.	c #77665E",
"/*.	c #76645C",
"(*.	c #9AC1C1",
"_*.	c #47666F",
":*.	c #47656F",
"<*.	c #486671",
"[*.	c #46656F",
"}*.	c #3E5961",
"|*.	c #4D4343",
"1*.	c #7A675F",
"2*.	c #729193",
"3*.	c #2E4147",
"4*.	c #1D2A2B",
"5*.	c #4C4344",
"6*.	c #7A655B",
"7*.	c #74625A",
"8*.	c #79645A",
"9*.	c #3D3535",
"0*.	c #7A665B",
"a*.	c #705B52",
"b*.	c #77655D",
"c*.	c #8BAEAE",
"d*.	c #756055",
"e*.	c #51696A",
"f*.	c #554A48",
"g*.	c #756056",
"h*.	c #483D3B",
"i*.	c #2B383D",
"j*.	c #232D30",
"k*.	c #7D6A60",
"l*.	c #6F8B8D",
"m*.	c #7E6B61",
"n*.	c #79675F",
"o*.	c #282E2D",
"p*.	c #293232",
"q*.	c #2C3D40",
"r*.	c #6A5850",
"s*.	c #6D8A8C",
"t*.	c #78675E",
"u*.	c #75655E",
"v*.	c #6C5C55",
"w*.	c #273439",
"x*.	c #75645A",
"y*.	c #232E2F",
"z*.	c #887669",
"A*.	c #8A786B",
"B*.	c #6C5C54",
"C*.	c #806E63",
"D*.	c #7C6B60",
"E*.	c #6A8789",
"F*.	c #6A5A52",
"G*.	c #63544D",
"H*.	c #726158",
"I*.	c #7D6B61",
"J*.	c #62534C",
"K*.	c #64554D",
"L*.	c #1A2A2C",
"M*.	c #72655C",
"N*.	c #6E6057",
"O*.	c #6A5952",
"P*.	c #94B8B9",
"Q*.	c #72645B",
"R*.	c #1D2E30",
"S*.	c #4E6566",
"T*.	c #6D5E55",
"U*.	c #65554D",
"V*.	c #827165",
"W*.	c #867468",
"X*.	c #66574F",
"Y*.	c #60514A",
"Z*.	c #5B4D47",
"`*.	c #253537",
" =.	c #70635A",
".=.	c #65544E",
"+=.	c #2C393E",
"@=.	c #6D8989",
"#=.	c #A2CCCC",
"$=.	c #706259",
"%=.	c #7F6E62",
"&=.	c #2B373C",
"*=.	c #71645B",
"==.	c #71635A",
"-=.	c #7A695E",
";=.	c #2A3235",
">=.	c #282D2F",
",=.	c #5E5049",
"'=.	c #5D4E48",
")=.	c #847266",
"!=.	c #5D504A",
"~=.	c #483F3D",
"{=.	c #48403D",
"]=.	c #675B54",
"^=.	c #716057",
"/=.	c #847366",
"(=.	c #78675D",
"_=.	c #2C292A",
":=.	c #6A5A51",
"<=.	c #5C4E48",
"[=.	c #5D4F48",
"}=.	c #2A3536",
"|=.	c #282628",
"1=.	c #6B5C53",
"2=.	c #61524B",
"3=.	c #2C3334",
"4=.	c #2F3637",
"5=.	c #2F3638",
"6=.	c #313C3F",
"7=.	c #314045",
"8=.	c #2D3D43",
"9=.	c #2D3537",
"0=.	c #2F3737",
"a=.	c #303738",
"b=.	c #303A3C",
"c=.	c #303C3D",
"d=.	c #313C3D",
"e=.	c #313C3E",
"f=.	c #313D3F",
"g=.	c #313D40",
"h=.	c #323E42",
"i=.	c #323F42",
"j=.	c #323F43",
"k=.	c #303E41",
"l=.	c #2F383A",
"m=.	c #2F3739",
"n=.	c #2E3536",
"o=.	c #2B3435",
"p=.	c #2D3536",
"q=.	c #292628",
"r=.	c #49413E",
"s=.	c #6C5D54",
"t=.	c #5C4D48",
"u=.	c #668082",
"v=.	c #313738",
"w=.	c #484D4E",
"x=.	c #515657",
"y=.	c #4F5455",
"z=.	c #4F5454",
"A=.	c #505658",
"B=.	c #50595C",
"C=.	c #4C575B",
"D=.	c #465254",
"E=.	c #444E50",
"F=.	c #434D4F",
"G=.	c #454E50",
"H=.	c #495052",
"I=.	c #4C5252",
"J=.	c #4B5151",
"K=.	c #4A4F50",
"L=.	c #494F4F",
"M=.	c #474C4D",
"N=.	c #464C4C",
"O=.	c #464B4C",
"P=.	c #2E3939",
"Q=.	c #5E514B",
"R=.	c #706158",
"S=.	c #564943",
"T=.	c #504440",
"U=.	c #443A37",
"V=.	c #483D39",
"W=.	c #4B403B",
"X=.	c #453C38",
"Y=.	c #463C38",
"Z=.	c #473D3A",
"`=.	c #101C1D",
" -.	c #555A5A",
".-.	c #7B7E7F",
"+-.	c #4C5353",
"@-.	c #4E423E",
"#-.	c #433937",
"$-.	c #312A2B",
"%-.	c #0C1A1B",
"&-.	c #656969",
"*-.	c #949797",
"=-.	c #5A6060",
"--.	c #A3CACA",
";-.	c #71615A",
">-.	c #584B46",
",-.	c #352E2F",
"'-.	c #584B45",
")-.	c #403735",
"!-.	c #332C2D",
"~-.	c #939696",
"{-.	c #595F5F",
"]-.	c #645650",
"^-.	c #6D5D57",
"/-.	c #63554D",
"(-.	c #393232",
"_-.	c #3B3434",
":-.	c #584C47",
"<-.	c #3A3231",
"[-.	c #433B3A",
"}-.	c #4D4442",
"|-.	c #584F4C",
"1-.	c #463E3C",
"2-.	c #594E4B",
"3-.	c #4A6061",
"4-.	c #332C2E",
"5-.	c #49403D",
"6-.	c #4C433F",
"7-.	c #4A413E",
"8-.	c #3E3636",
"9-.	c #4E433F",
"0-.	c #443C3B",
"a-.	c #796E67",
"b-.	c #746861",
"c-.	c #363030",
"d-.	c #342D2F",
"e-.	c #84776F",
"f-.	c #6C605A",
"g-.	c #332D2E",
"h-.	c #373132",
"i-.	c #151E21",
"j-.	c #445659",
"k-.	c #151E20",
"l-.	c #80756D",
"m-.	c #8B7D74",
"n-.	c #877971",
"o-.	c #80736B",
"p-.	c #3F3636",
"q-.	c #151D20",
"r-.	c #647E7F",
"s-.	c #151D1F",
"t-.	c #473F3E",
"u-.	c #978A7F",
"v-.	c #988B80",
"w-.	c #8C8077",
"x-.	c #887B72",
"y-.	c #867A71",
"z-.	c #80736C",
"A-.	c #84766F",
"B-.	c #151C1E",
"C-.	c #7C7169",
"D-.	c #71665F",
"E-.	c #695E58",
"F-.	c #161C1E",
"G-.	c #6B8687",
"H-.	c #151B1D",
"I-.	c #363031",
"J-.	c #726760",
"K-.	c #756862",
"L-.	c #161D1D",
"M-.	c #585E5E",
"N-.	c #161E1E",
"O-.	c #161B1C",
"P-.	c #4A4240",
"Q-.	c #151B1C",
"R-.	c #161E1F",
"S-.	c #58524F",
"T-.	c #7E726D",
"U-.	c #897F78",
"V-.	c #151A1B",
"W-.	c #82A5A5",
"X-.	c #171C1B",
"Y-.	c #867B75",
"Z-.	c #151A1A",
"`-.	c #495E5F",
" ;.	c #171B1B",
".;.	c #81776F",
"+;.	c #877D76",
"@;.	c #6F6965",
"#;.	c #698686",
"$;.	c #171B1A",
"%;.	c #A2948C",
"&;.	c #968982",
"*;.	c #9F918A",
"=;.	c #9B8D86",
"-;.	c #80746F",
";;.	c #7D716C",
">;.	c #776D68",
",;.	c #7B706B",
"';.	c #79716C",
");.	c #4B423E",
"!;.	c #352D2E",
"~;.	c #372F30",
"{;.	c #161E20",
"];.	c #5E5854",
"^;.	c #A1938B",
"/;.	c #8E817B",
"(;.	c #3E3535",
"_;.	c #393131",
":;.	c #443937",
"<;.	c #15191A",
"[;.	c #83A4A4",
"};.	c #2F4042",
"|;.	c #9B8E86",
"1;.	c #8F827C",
"2;.	c #7C716C",
"3;.	c #897D77",
"4;.	c #93857F",
"5;.	c #9C8F87",
"6;.	c #978A83",
"7;.	c #7F736E",
"8;.	c #3A3132",
"9;.	c #161B1D",
"0;.	c #58534F",
"a;.	c #9E9189",
"b;.	c #8C7F79",
"c;.	c #A0928A",
"d;.	c #332B2C",
"e;.	c #857873",
"f;.	c #9C8E87",
"g;.	c #988B84",
"h;.	c #64534C",
"i;.	c #161B1B",
"j;.	c #485B5E",
"k;.	c #91847E",
"l;.	c #433938",
"m;.	c #736055",
"n;.	c #564A46",
"o;.	c #161C1D",
"p;.	c #575D5D",
"q;.	c #8F837C",
"r;.	c #675C56",
"s;.	c #161A19",
"t;.	c #938780",
"u;.	c #3B3333",
"v;.	c #82A2A4",
"w;.	c #9E9089",
"x;.	c #685D57",
"y;.	c #4F4441",
"z;.	c #82A2A3",
"A;.	c #161A1B",
"B;.	c #171D1E",
"C;.	c #171C1D",
"D;.	c #5E797A",
"E;.	c #161819",
"F;.	c #171C1C",
"G;.	c #171F20",
"H;.	c #16191A",
"I;.	c #171B1C",
"J;.	c #171D1D",
"K;.	c #6F635D",
"L;.	c #483E3C",
"M;.	c #574B47",
"N;.	c #9BC3C2",
"O;.	c #72665F",
"P;.	c #645954",
"Q;.	c #514542",
"R;.	c #81756C",
"S;.	c #786C63",
"T;.	c #6D615B",
"U;.	c #554945",
"V;.	c #655852",
"W;.	c #8FB2B2",
"X;.	c #565C5C",
"Y;.	c #85786E",
"Z;.	c #877A70",
"`;.	c #776A64",
" >.	c #594D48",
".>.	c #635651",
"+>.	c #9CC2C2",
"@>.	c #192124",
"#>.	c #151D1E",
"$>.	c #86796F",
"%>.	c #544A48",
"&>.	c #181C1E",
"*>.	c #554D4A",
"=>.	c #4A4241",
"->.	c #342D2D",
";>.	c #80736A",
">>.	c #524947",
",>.	c #3E3635",
"'>.	c #A2CBCA",
")>.	c #7E7269",
"!>.	c #555B5B",
"~>.	c #6B6059",
"{>.	c #554C49",
"]>.	c #554846",
"^>.	c #415052",
"/>.	c #635953",
"(>.	c #675A57",
"_>.	c #8B766F",
":>.	c #76615B",
"<>.	c #415050",
"[>.	c #584E4C",
"}>.	c #8B7973",
"|>.	c #8E7A72",
"1>.	c #856D65",
"2>.	c #836B64",
"3>.	c #414F50",
"4>.	c #645A56",
"5>.	c #776863",
"6>.	c #938079",
"7>.	c #8C7770",
"8>.	c #645751",
"9>.	c #544A47",
"0>.	c #2F3D40",
"a>.	c #625653",
"b>.	c #8E7C75",
"c>.	c #927F78",
"d>.	c #88726A",
"e>.	c #7D6661",
"f>.	c #5F534E",
"g>.	c #4F4644",
"h>.	c #1B2326",
"i>.	c #303D40",
"j>.	c #545A5A",
"k>.	c #404F4F",
"l>.	c #81706B",
"m>.	c #876F67",
"n>.	c #655354",
"o>.	c #3E3435",
"p>.	c #594E4A",
"q>.	c #404E4F",
"r>.	c #2F3B3C",
"s>.	c #524A48",
"t>.	c #5B514D",
"u>.	c #615652",
"v>.	c #8A7872",
"w>.	c #524946",
"x>.	c #2F393A",
"y>.	c #141C1E",
"z>.	c #534E4B",
"A>.	c #615754",
"B>.	c #4E4644",
"C>.	c #7F706A",
"D>.	c #1B1E1F",
"E>.	c #2E3738",
"F>.	c #514B49",
"G>.	c #544B49",
"H>.	c #70625D",
"I>.	c #866E66",
"J>.	c #6A5756",
"K>.	c #2E3637",
"L>.	c #504B47",
"M>.	c #645854",
"N>.	c #877068",
"O>.	c #1D2426",
"P>.	c #2F3A3C",
"Q>.	c #0D1B1B",
"R>.	c #636767",
"S>.	c #919494",
"T>.	c #535959",
"U>.	c #404E4E",
"V>.	c #605551",
"W>.	c #8D7B74",
"X>.	c #8B756E",
"Y>.	c #3F3737",
"Z>.	c #181B1A",
"`>.	c #2F3A3B",
" ,.	c #0F1C1C",
".,.	c #5B5F5F",
"+,.	c #848787",
"@,.	c #3F4E4E",
"#,.	c #675D59",
"$,.	c #655A56",
"%,.	c #8F7B74",
"&,.	c #715D5A",
"*,.	c #352E2E",
"=,.	c #88776D",
"-,.	c #2F393B",
";,.	c #5A5D5D",
">,.	c #838585",
",,.	c #3F4D4E",
"',.	c #2B3234",
"),.	c #6C5F5B",
"!,.	c #735E5B",
"~,.	c #4B4240",
"{,.	c #60534D",
"],.	c #A0C8C7",
"^,.	c #2B3132",
"/,.	c #615A56",
"(,.	c #6E6662",
"_,.	c #685D59",
":,.	c #625753",
"<,.	c #866F67",
"[,.	c #534741",
"},.	c #6F5C52",
"|,.	c #2E3839",
"1,.	c #8A746D",
"2,.	c #78635E",
"3,.	c #493E3A",
"4,.	c #2E3739",
"5,.	c #595D5D",
"6,.	c #828585",
"7,.	c #4A5050",
"8,.	c #3F4D4D",
"9,.	c #2A3132",
"0,.	c #6F6763",
"a,.	c #79726E",
"b,.	c #776963",
"c,.	c #413735",
"d,.	c #263134",
"e,.	c #3E4C4D",
"f,.	c #2D3435",
"g,.	c #23292A",
"h,.	c #918985",
"i,.	c #908884",
"j,.	c #695D58",
"k,.	c #827B77",
"l,.	c #887169",
"m,.	c #828485",
"n,.	c #7D7571",
"o,.	c #86756F",
"p,.	c #7E6E67",
"q,.	c #828484",
"r,.	c #807975",
"s,.	c #857D79",
"t,.	c #917E76",
"u,.	c #2B3434",
"v,.	c #2D3738",
"w,.	c #2C3435",
"x,.	c #8F8783",
"y,.	c #7A6962",
"z,.	c #2B3334",
"A,.	c #585D5D",
"B,.	c #818484",
"C,.	c #3E4B4C",
"D,.	c #645955",
"E,.	c #8A746C",
"F,.	c #352D2D",
"G,.	c #2A3233",
"H,.	c #597072",
"I,.	c #484E4E",
"J,.	c #635854",
"K,.	c #8F7A73",
"L,.	c #635152",
"M,.	c #736158",
"N,.	c #273337",
"O,.	c #2D3637",
"P,.	c #8E8682",
"Q,.	c #625151",
"R,.	c #715F55",
"S,.	c #585C5C",
"T,.	c #736560",
"U,.	c #5D4D4D",
"V,.	c #80A0A0",
"W,.	c #3D4B4C",
"X,.	c #8E8783",
"Y,.	c #685C58",
"Z,.	c #89736B",
"`,.	c #383134",
" '.	c #3E383B",
".'.	c #6F635F",
"+'.	c #2A3133",
"@'.	c #2C3637",
"#'.	c #808383",
"$'.	c #3D4B4B",
"%'.	c #0F1C1D",
"&'.	c #585B5B",
"*'.	c #192424",
"='.	c #463B3A",
"-'.	c #3C3638",
";'.	c #151819",
">'.	c #575B5B",
",'.	c #1D2629",
"''.	c #809FA1",
")'.	c #78635D",
"!'.	c #413736",
"~'.	c #141819",
"{'.	c #809FA0",
"]'.	c #3D4A4B",
"^'.	c #57514E",
"/'.	c #3D373A",
"('.	c #A4CECD",
"_'.	c #756E6C",
":'.	c #746D6A",
"<'.	c #84746E",
"['.	c #8E7C76",
"}'.	c #232A2C",
"|'.	c #232A2B",
"1'.	c #1C2528",
"2'.	c #746D6B",
"3'.	c #655955",
"4'.	c #7F706C",
"5'.	c #4E4647",
"6'.	c #151818",
"7'.	c #695D59",
"8'.	c #3B3437",
"9'.	c #3C4A4A",
"0'.	c #1C2224",
"a'.	c #6E625E",
"b'.	c #7FA0A0",
"c'.	c #162024",
"d'.	c #151C1F",
"e'.	c #2B3335",
"f'.	c #151A1C",
"g'.	c #7E706C",
"h'.	c #161D1F",
"i'.	c #7A6C67",
"j'.	c #23292B",
"k'.	c #726561",
"l'.	c #2A3234",
"m'.	c #3B494A",
"n'.	c #171E20",
"o'.	c #5B5551",
"p'.	c #937F76",
"q'.	c #4E4546",
"r'.	c #464042",
"s'.	c #524C4D",
"t'.	c #72635F",
"u'.	c #3F393C",
"v'.	c #181E20",
"w'.	c #8E7B73",
"x'.	c #81A0A1",
"y'.	c #1E2628",
"z'.	c #494345",
"A'.	c #141E21",
"B'.	c #665957",
"C'.	c #504A4B",
"D'.	c #131D20",
"E'.	c #86746D",
"F'.	c #474143",
"G'.	c #566D70",
"H'.	c #131C1F",
"I'.	c #433D40",
"J'.	c #121C1E",
"K'.	c #534A4A",
"L'.	c #101B1D",
"M'.	c #242B2B",
"N'.	c #87776F",
"O'.	c #645957",
"P'.	c #4F494A",
"Q'.	c #0F191C",
"R'.	c #605450",
"S'.	c #897870",
"T'.	c #605858",
"U'.	c #0C181A",
"V'.	c #3A4848",
"W'.	c #6B605E",
"X'.	c #4A4446",
"Y'.	c #696363",
"Z'.	c #0A1619",
"`'.	c #81A0A0",
" ).	c #3A4748",
".).	c #5C5454",
"+).	c #6C6665",
"@).	c #081317",
"#).	c #766C67",
"$).	c #061215",
"%).	c #394646",
"&).	c #746A65",
"*).	c #051114",
"=).	c #384445",
"-).	c #6F6764",
";).	c #061114",
">).	c #374444",
",).	c #726A67",
"').	c #040F13",
")).	c #81A1A1",
"!).	c #364344",
"~).	c #746E6A",
"{).	c #787270",
"]).	c #77716F",
"^).	c #020D12",
"/).	c #6B8485",
"().	c #A4CACB",
"_).	c #354243",
":).	c #6A6565",
"<).	c #6E6868",
"[).	c #6A6464",
"}).	c #605A59",
"|).	c #716B69",
"1).	c #4E4645",
"2).	c #000C11",
"3).	c #708788",
"4).	c #A7CCCC",
"5).	c #344142",
"6).	c #595555",
"7).	c #504B4C",
"8).	c #3D393B",
"9).	c #464143",
"0).	c #555050",
"a).	c #676160",
"b).	c #6E6766",
"c).	c #4F4C4C",
"d).	c #546D6F",
"e).	c #000B0F",
"f).	c #748B8C",
"g).	c #AACFD0",
"h).	c #354344",
"i).	c #343133",
"j).	c #2C2729",
"k).	c #BEEAEA",
"l).	c #B7E4E4",
"m).	c #556D70",
"n).	c #00080D",
"o).	c #768E8F",
"p).	c #ADD4D4",
"q).	c #88A6A7",
"r).	c #2D282A",
"s).	c #2E292B",
"t).	c #97BBBC",
"u).	c #8BAFB1",
"v).	c #759596",
"w).	c #00070B",
"x).	c #799091",
"y).	c #B6DBDB",
"z).	c #B9E6E6",
"A).	c #B1DBDB",
"B).	c #92AAAB",
"C).	c #3C383A",
"D).	c #3F3A3C",
"E).	c #635D5E",
"F).	c #4F494C",
"G).	c #4D474A",
"H).	c #4B4648",
"I).	c #494346",
"J).	c #635652",
"K).	c #6C5C57",
"L).	c #6E5D58",
"M).	c #70605A",
"N).	c #71615B",
"O).	c #776660",
"P).	c #7F6F68",
"Q).	c #8C7C74",
"R).	c #9D8D83",
"S).	c #98887E",
"T).	c #42595B",
"U).	c #455B5E",
"V).	c #2F4043",
"W).	c #132021",
"X).	c #041616",
"Y).	c #7F8283",
"Z).	c #09181B",
"`).	c #5F7273",
" !.	c #91AEAF",
".!.	c #95B9BA",
"+!.	c #8EB1B1",
"@!.	c #758788",
"#!.	c #323A3B",
"$!.	c #9A9492",
"%!.	c #918C8B",
"&!.	c #5F5C60",
"*!.	c #5E5B5F",
"=!.	c #6F6B6D",
"-!.	c #938D8C",
";!.	c #9D9795",
">!.	c #928C8A",
",!.	c #867F7D",
"'!.	c #827A78",
")!.	c #77706E",
"!!.	c #696261",
"~!.	c #837267",
"{!.	c #85746A",
"]!.	c #9A8A7F",
"^!.	c #847368",
"/!.	c #17262A",
"(!.	c #132429",
"_!.	c #102428",
":!.	c #1D2E32",
"<!.	c #41494B",
"[!.	c #787D7D",
"}!.	c #959999",
"|!.	c #122123",
"1!.	c #304145",
"2!.	c #433F3F",
"3!.	c #706B6B",
"4!.	c #625F63",
"5!.	c #625F62",
"6!.	c #706C6F",
"7!.	c #898484",
"8!.	c #97918E",
"9!.	c #928C88",
"0!.	c #908986",
"a!.	c #908985",
"b!.	c #46403F",
"c!.	c #87766B",
"d!.	c #8B7A6F",
"e!.	c #8E7E73",
"f!.	c #8F7F74",
"g!.	c #3F4B4E",
"h!.	c #535C5E",
"i!.	c #656A6C",
"j!.	c #7B7F80",
"k!.	c #838889",
"l!.	c #8B8F90",
"m!.	c #949898",
"n!.	c #A0A2A3",
"o!.	c #B0B2B3",
"p!.	c #BBBDBD",
"q!.	c #818586",
"r!.	c #142223",
"s!.	c #141718",
"t!.	c #837B75",
"u!.	c #433F40",
"v!.	c #958F8E",
"w!.	c #8D8887",
"x!.	c #999392",
"y!.	c #999391",
"z!.	c #8B8481",
"A!.	c #87807B",
"B!.	c #867F7A",
"C!.	c #857E79",
"D!.	c #7E7773",
"E!.	c #7A7270",
"F!.	c #7B6B61",
"G!.	c #1F2122",
"H!.	c #212323",
"I!.	c #232525",
"J!.	c #242626",
"K!.	c #252827",
"L!.	c #282929",
"M!.	c #2A2A2A",
"N!.	c #2B2C2A",
"O!.	c #2B2C2B",
"P!.	c #2E2F2D",
"Q!.	c #30312E",
"R!.	c #2D2F2E",
"S!.	c #2D2E2D",
"T!.	c #2C2E2D",
"U!.	c #2C2F2E",
"V!.	c #2E2F2F",
"W!.	c #313231",
"X!.	c #323331",
"Y!.	c #2F3131",
"Z!.	c #2A2F30",
"`!.	c #445154",
" ~.	c #646E70",
".~.	c #858C8D",
"+~.	c #A3A6A7",
"@~.	c #C4C5C5",
"#~.	c #CCCDCD",
"$~.	c #CDCDCD",
"%~.	c #C8C9C9",
"&~.	c #A5A7A8",
"*~.	c #6F7374",
"=~.	c #474D51",
"-~.	c #988F87",
";~.	c #5C5654",
">~.	c #635E5E",
",~.	c #7E7875",
"'~.	c #6C5E56",
")~.	c #78665C",
"!~.	c #3A3431",
"~~.	c #3B3431",
"{~.	c #3B3532",
"]~.	c #403935",
"^~.	c #433C37",
"/~.	c #4C443D",
"(~.	c #504841",
"_~.	c #544B44",
":~.	c #564C45",
"<~.	c #584E46",
"[~.	c #5A5048",
"}~.	c #514841",
"|~.	c #4B433D",
"1~.	c #4E443F",
"2~.	c #4F4540",
"3~.	c #504740",
"4~.	c #514842",
"5~.	c #514843",
"6~.	c #524943",
"7~.	c #524944",
"8~.	c #514944",
"9~.	c #625850",
"0~.	c #655B52",
"a~.	c #60574E",
"b~.	c #26353C",
"c~.	c #CBCBCB",
"d~.	c #B5B7B8",
"e~.	c #7F838A",
"f~.	c #41494E",
"g~.	c #302F2D",
"h~.	c #4C4845",
"i~.	c #9B9593",
"j~.	c #827B79",
"k~.	c #4C4340",
"l~.	c #736057",
"m~.	c #988373",
"n~.	c #756358",
"o~.	c #77655A",
"p~.	c #181E1E",
"q~.	c #978E86",
"r~.	c #9A9088",
"s~.	c #8F8A88",
"t~.	c #86807E",
"u~.	c #817065",
"v~.	c #8C786A",
"w~.	c #776459",
"x~.	c #1E282B",
"y~.	c #171F21",
"z~.	c #161E21",
"A~.	c #444242",
"B~.	c #494445",
"C~.	c #9C9694",
".  .  .  .  .  .  .  .  +  @  @  @  #  $  $  %  &  *  *  *  =  -  ;  ;  ;  ;  ;  ;  ;  ;  ;  ;  ;  ;  ;  >  ,  ,  '  )  )  )  )  !  ~  ~  {  ]  ]  ]  ]  ]  ]  ]  ]  ]  ]  ]  ]  ]  ]  ]  ]  ]  ]  ]  ]  ]  ]  ]  ]  ]  ]  ^  /  (  _  :  <  <  <  [  [  [  [  [  }  [  <  <  [  [  [  [  [  [  |  |  [  1  1  2  3  4  5  6  7  8  9  0  a  b  b  c  d  e  f  g  h  i  j  k  l  m  m  l  l  l  l  l  l  l  l  l  l  l  l  l  l  l  l  l  l  l  l  l  l  l  l  l  l  l  l  l  l  l  l  l  l  l  l  l  k  k  k  k  k  k  k  n  n  n  o  p  q  q  r  s  t  t  u  v  w  x  x  y  y  z  z  A  A  A  A  z  z  z  z  z  z  z  z  z  z  z  z  z  z  z  z  z  z  z  z  z  z  z  z  z  z  z  z  z  z  z  z  z  z  z  z  z  z  z  z  z  z  z  z  z  z  z  z  z  z  z  z  z  z  z  z  z  z  z  z  z  z  z  z  z  z  z  z  z  z  z  z  z  z  z  z  z  z  z  z  z  z  z  z  z  z  z  z  z  z  z  z  z  z  z  z  z  z  z  z  z  z  z  z  z  z  z  z  z  z  z  z  z  z  z  z  z  z  z  z  z  z  z  z  z  z  z  z  z  z  z  z  z  z  z  z  z  z  z  z  z  z  z  z  z  z  z  z  z  z  z  z  z  z  z  z  z  z  z  z  z  z  z  z  z  z  z  z  z  z  z  z  z  z  z  z  z  z  z  z  z  z  z  z  A  z  z  z  A  A  A  B  C  D  D  E  C  F  G  H  H  H  G  G  G  H  H  H  G  G  G  I  I  J  J  J  J  K  K  L  K  M  N  M  O  P  Q  R  S  T  U  U  Q  Q  R  V  S  W  X  S  S  Y  Z  `   . .. .. .. .. .. .. .. .. .. .. .. .. .. .. .. .. .. .. .. +. @. #. #. #. #. #. $. %. %. %. %. %. %. %. %. %. &. *. *. *. *. *. *. *. *. *. *. *. =. -. -. -. -. -. -. -. -. -. -. -. -. -. -. -. -. -. -. -. -. -. -. -. -. -. ",
".  .  .  .  .  .  .  ;. @  @  @  @  >. $  $  ,. &  *  *  *  '. ). ;  ;  ;  ;  ;  ;  ;  ;  ;  ;  ;  ;  ;  >  ,  ,  !. )  )  )  )  !  ~  ~  ~  ]  ]  ]  ]  ]  ]  ]  ]  ]  ]  ]  ]  ]  ]  ]  ]  ]  ]  ]  ]  ]  ]  ]  ]  ]  ]  ~. {. ]. _  :  <  <  <  [  [  [  [  [  |  ^. [  <  [  [  [  [  [  ^. |  [  1  1  [  2  /. (. _. :. 6  0  f  b  b  b  c  8  d  f  e  <. [. }. |. 1. j  2. m  m  m  m  m  m  m  m  m  m  m  m  m  m  m  m  m  m  m  m  m  m  m  m  m  m  3. 3. 3. 3. 3. m  j  j  j  4. 5. r  t  v  w  6. x  x  z  A  z  z  A  z  z  z  z  z  z  z  7. 7. 8. 8. 8. 8. 8. 8. 8. 8. 8. 8. 8. 8. 8. 8. 8. 8. 8. 8. 8. 8. 8. 8. 8. 8. 8. 8. 8. 8. 8. 8. 8. 8. 8. 8. 8. 8. 8. 8. 8. 8. 8. 8. 8. 8. 8. 8. 8. 8. 8. 8. 8. 8. 8. 8. 8. 8. 8. 8. 8. 8. 8. 8. 8. 8. 8. 8. 8. 8. 8. 8. 8. 8. 8. 8. 8. 8. 8. 8. 8. 8. 8. 8. 8. 8. 8. 8. 8. 8. 8. 8. 8. 8. 8. 8. 8. 8. 8. 8. 8. 8. 8. 8. 8. 8. 8. 8. 8. 8. 8. 8. 8. 8. 8. 8. 8. 8. 8. 8. 8. 8. 8. 8. 8. 8. 8. 8. 8. 8. 8. 8. 8. 8. 8. 8. 8. 8. 8. 8. 8. 8. 8. 8. 8. 8. 8. 8. 8. 8. 8. 8. 8. 8. 8. 8. 8. 8. 8. 8. 8. 8. 8. 8. 8. 8. 8. 8. 8. 8. 8. 8. 8. 8. 8. 8. 8. 8. 8. 8. 8. 8. 8. 8. 8. 8. 8. 8. 8. 8. 8. 8. 8. 8. 8. 8. 8. 8. 8. 8. C  C  C  C  C  E  E  H  H  H  9. G  9. G  G  G  G  I  I  G  G  9. 9. G  G  K  K  K  K  0. I  a. b. b. b. c. d. e. f. e. g. e. X  h. i. Q  j. j. k. l. i. m. S  S  V  n. o. p. q. q. .. .. .. .. .. .. .. .. .. .. .. .. .. .. .. .. .. .. r. s. t. #. #. #. u. %. %. %. %. %. %. %. %. %. v. *. *. *. *. *. *. *. *. *. *. *. *. w. -. -. -. -. -. -. -. -. -. -. -. -. -. -. -. -. -. -. -. -. -. -. -. -. ",
".  .  .  .  .  .  .  x. @  @  @  @  y. $  $  ,. &  *  *  *  z. A. ;  ;  ;  ;  ;  ;  ;  ;  ;  ;  ;  ;  ;  >  ,  ,  ,  B. )  )  )  !  ~  ~  ~  {  ]  ]  ]  ]  ]  ]  ]  ]  ]  ]  ]  ]  ]  ]  ]  ]  ]  ]  ]  ]  ]  ]  ]  ]  ]  C. D. E. _  }  :  <  [  [  [  [  [  [  [  [  [  [  [  F. /. G. :  :  :  :  :  :  [  /. [  4  H. :. I. a  f  f  f  J. J. J. K. L. L. M. N. |. O. |. |. 1. 1. 1. 1. 1. 1. 1. 1. 1. 1. 1. 1. m  m  m  j  j  j  }. P. 5. Q. Q. R. S. T. U. U. V. V. W. X. Y. Y. Z. Z. Z. `.  +  + `. `. C  C  C  C  C  C  C  C  C  C  C  C  C  C  C  C  C  C  C  C  C  C  C  C  C  C  C  C  C  C  C  C  C  C  C  C  C  C  C  C  C  C  C  C  C  C  C  C  C  C  C  C  C  C  C  C  C  C  C  C  C  C  C  C  C  C  C  C  C  C  C  C  C  C  C  C  C  C  C  C  C  C  C  C  C  C  C  C  C  C  C  C  C  C  C  C  C  C  C  C  C  C  C  C  C  C  C  C  C  C  C  C  C  C  C  C  C  C  C  C  C  C  C  C  C  C  C  C  C  C  C  C  C  C  C  C  C  C  C  C  C  C  C  C  C  C  C  C  C  C  C  C  C  C  C  C  C  C  C  C  C  C  C  C  C  C  C  C  C  C  C  C  C  C  C  C  C  C  C  C  C  C  C  C  C  C  C  C  C  C  C  C  C  C  C  C  C  C  C  C  C  C  C  C  C  C  C  C  C  C  C  C  D  C  C  .+ F  ++ @+ .+ H  H  G  G  9. 9. G  #+ G  G  I  I  J  #+ $+ #+ %+ %+ &+ $+ *+ *+ =+ %+ -+ -+ R  R  S  X  X  X  X  i. i. i. U  i. h. ;+ >+ >+ ;+ ;+ ,+ ;+ '+ U  )+ !+ ~+ {+ ]+ ^+ ^+ /+ .. .. .. .. .. .. .. .. .. .. .. .. .. .. .. .. .. (+ _+ _+ s. t. #. #. %. %. %. %. %. %. %. %. :+ *. *. *. *. *. *. *. *. *. *. *. *. *. *. <+ -. -. -. -. -. -. -. -. -. -. -. -. -. -. -. -. -. -. -. -. -. -. -. ",
".  .  .  .  .  .  [+ @  @  @  @  @  $  $  $  ,. }+ *  *  *  z. A. ;  ;  ;  ;  ;  ;  ;  ;  ;  ;  ;  ;  ;  |+ ,  ,  ,  !. )  )  )  )  ~  ~  ~  ~  ]  ]  ]  ]  ]  ]  ]  ]  ]  ]  ]  ]  ]  ]  ]  ]  ]  ]  ]  ]  ]  ]  ]  ]  1+ 2+ 3+ 4+ 5+ 6+ <  <  <  [  [  [  [  [  [  [  [  <  <  F. ^. /. 1  :  :  :  :  G. G. 3  4  (. :. 7+ I. 7+ a  8  J. J. J. g  M. M. 8+ 9+ 0+ 0+ |. a+ |. |. b+ b+ |. a+ 0+ N. c+ d+ e+ f+ g+ h+ i+ i+ j+ k+ l+ l+ m+ l+ l+ l+ l+ @+ @+ @+ @+ ++ ++ ++ F  F  F  F  F  F  F  F  F  F  F  F  F  F  F  F  F  F  F  F  F  F  F  F  F  F  F  F  F  F  F  F  F  F  F  F  F  F  F  F  F  F  F  F  F  F  F  F  F  F  F  F  F  F  F  F  F  F  F  F  F  F  F  F  F  F  F  F  F  F  F  F  F  F  F  F  F  F  F  F  F  F  F  F  F  F  F  F  F  F  F  F  F  F  F  F  F  F  F  F  F  F  F  F  F  F  F  F  F  F  F  F  F  F  F  F  F  F  F  F  F  F  F  F  F  F  F  F  F  F  F  F  F  F  F  F  F  F  F  F  F  F  F  F  F  F  F  F  F  F  F  F  F  F  F  F  F  F  F  F  F  F  F  F  F  F  F  F  F  F  F  F  F  F  F  F  F  F  F  F  F  F  F  F  F  F  F  F  F  F  F  F  F  F  F  F  F  F  F  F  F  F  F  F  F  F  F  F  F  F  F  F  F  F  F  F  F  F  F  F  F  F  F  F  F  F  F  9. 9. 9. G  J  #+ #+ G  n+ #+ K  $+ #+ #+ o+ o+ $+ o+ $+ $+ o+ -+ -+ M  R  p+ R  R  R  Q  Q  X  X  j. X  j. X  l. ;+ q+ ;+ ;+ ;+ r+ k. ;+ s+ t+ u+ u+ ;+ v+ ,+ w+ >+ x+ y+ ^+ ^+ z+ .. .. .. .. .. .. .. .. .. .. .. .. (+ A+ _+ _+ A+ B+ C+ _+ _+ _+ D+ E+ F+ %. %. %. %. %. %. %. G+ *. *. *. *. *. *. *. *. *. *. *. *. *. *. *. =. -. -. -. -. -. -. -. -. -. -. -. -. -. -. -. -. -. -. -. -. -. -. ",
".  .  .  .  .  H+ @  @  @  @  @  I+ $  $  $  ,. J+ *  *  *  z. A. K+ ;  ;  ;  ;  ;  ;  ;  ;  ;  ;  ;  ;  ;  ,  ,  ,  ,  '  )  )  )  L+ ~  ~  ~  M+ ]  ]  ]  ]  ]  ]  ]  ]  ]  ]  ]  ]  ]  ]  ]  ]  ]  ]  ]  ]  ]  ]  ]  N+ O+ P+ 5+ <  6+ [  [  [  [  [  [  [  [  [  [  [  [  [  1  [  [  ^. ^. 1  1  G. Q+ G. [  F. [  F. :. _. a  a  R+ b  b  b  J. K. M. M. M. 9+ 8+ 0+ 0+ 0+ 0+ d+ i+ j+ l+ l+ l+ ++ ++ ++ F  F  F  9. G  G  G  G  G  G  G  G  G  G  G  G  G  G  G  G  G  G  G  G  G  G  G  G  G  G  G  G  G  G  G  G  G  G  G  G  9. 9. 9. 9. 9. 9. 9. 9. 9. 9. 9. 9. 9. 9. 9. 9. 9. 9. 9. 9. 9. 9. 9. 9. 9. 9. 9. 9. 9. 9. 9. 9. 9. 9. 9. 9. 9. 9. 9. 9. 9. 9. 9. 9. 9. 9. 9. 9. 9. 9. 9. 9. 9. 9. 9. 9. 9. 9. 9. 9. 9. 9. 9. 9. 9. 9. 9. 9. 9. 9. 9. 9. 9. 9. 9. 9. 9. 9. 9. 9. 9. 9. 9. 9. 9. 9. 9. 9. 9. 9. 9. 9. 9. 9. 9. 9. 9. 9. 9. 9. 9. 9. 9. 9. 9. 9. 9. 9. 9. 9. 9. 9. 9. 9. 9. 9. 9. 9. 9. 9. 9. 9. 9. 9. 9. 9. 9. 9. 9. 9. 9. 9. 9. 9. 9. 9. 9. 9. 9. 9. 9. 9. 9. 9. 9. 9. 9. 9. 9. 9. 9. 9. 9. 9. 9. 9. 9. 9. 9. 9. 9. 9. 9. 9. 9. 9. 9. 9. 9. 9. 9. 9. 9. 9. 9. 9. 9. 9. 9. 9. 9. 9. 9. 9. 9. 9. 9. 9. 9. 9. 9. 9. 9. 9. 9. 9. 9. 9. 9. 9. 9. 9. G  9. 9. 9. 9. 9. 9. G  n+ S+ #+ T+ $+ $+ $+ %+ $+ $+ %+ %+ =+ =+ =+ -+ R  R  -+ ~+ U+ Q  ~+ j. V+ r+ r+ k. ;+ k. k. k. k. W+ ;+ ;+ W+ W+ t+ t+ t+ W+ t+ w+ w+ s+ X+ w+ Y+ '+ Y+ Y+ ,+ Z+ `+ ^+ ^+ .. .. .. .. .. .. .. .. .. .. .. ..  @ _+ _+ _+ _+ _+ _+ _+ _+ _+ _+ _+ _+ .@ %. %. %. %. %. %. +@ *. *. *. *. *. *. *. *. *. *. *. *. *. *. *. *. *. *. w. -. -. -. -. -. -. -. -. -. -. -. -. -. -. -. -. -. -. -. -. ",
".  .  .  .  @@ @  @  @  @  @  @  y. $  $  $  ,. J+ *  *  *  z. A. K+ ;  ;  ;  ;  ;  ;  ;  ;  ;  ;  ;  ;  ;  ,  ,  ,  ,  ,  #@ )  )  $@ ~  ~  ~  ~  ]  ]  ]  ]  ]  ]  ]  ]  ]  ]  ]  ]  ]  ]  ]  ]  ]  ]  ]  ]  ]  ]  ]  %@ &@ *@ 5+ 5+ <  6+ [  [  [  [  [  [  [  [  [  [  [  [  1  1  [  [  ^. ^. G. Q+ Q+ Q+ [  [  :  <  ^. _. =@ a  b  8  f  f  J. -@ ;@ M. N. >@ 0+ 8+ 0+ 0+ d+ l+ 9. n+ n+ n+ n+ n+ n+ n+ n+ n+ n+ n+ n+ n+ n+ n+ n+ n+ n+ n+ n+ n+ n+ n+ n+ n+ n+ n+ n+ n+ n+ n+ n+ n+ n+ n+ n+ n+ n+ n+ n+ n+ n+ n+ n+ n+ n+ n+ n+ n+ n+ n+ n+ n+ n+ n+ n+ n+ n+ n+ n+ n+ n+ n+ n+ n+ n+ n+ n+ n+ n+ n+ n+ n+ n+ n+ n+ n+ n+ n+ n+ n+ n+ n+ n+ n+ n+ n+ n+ n+ n+ n+ n+ n+ n+ n+ n+ n+ n+ n+ n+ n+ n+ n+ n+ n+ n+ n+ n+ n+ n+ n+ n+ n+ n+ n+ n+ n+ n+ n+ n+ n+ n+ n+ n+ n+ n+ n+ n+ n+ n+ n+ n+ n+ n+ n+ n+ n+ n+ n+ n+ n+ n+ n+ n+ n+ n+ n+ n+ n+ n+ n+ n+ n+ n+ n+ n+ n+ n+ n+ n+ n+ n+ n+ n+ n+ n+ n+ n+ n+ n+ n+ n+ n+ n+ n+ n+ n+ n+ n+ n+ n+ n+ n+ n+ n+ n+ n+ n+ n+ n+ n+ n+ n+ n+ n+ n+ n+ n+ n+ n+ n+ n+ n+ n+ n+ n+ n+ n+ n+ n+ n+ n+ n+ n+ n+ n+ n+ n+ n+ n+ n+ n+ n+ n+ n+ n+ n+ n+ n+ n+ n+ n+ n+ n+ n+ n+ n+ n+ n+ n+ n+ n+ n+ n+ n+ n+ n+ n+ n+ n+ n+ n+ n+ o+ n+ #+ $+ %+ %+ *+ =+ %+ %+ R  %+ %+ -+ -+ R  R  R  R  R  Q  Q  Q  V+ ,@ k. r+ t+ t+ '@ )@ !@ W+ w+ t+ t+ t+ ~@ w+ ~@ ~@ ~@ {@ ]@ ~@ ~@ ^@ t+ t+ /@ Y+ Y+ Y+ w+ Y+ w+ w+ W+ (@ _@ :@ .. .. .. .. .. .. .. .. .. .. <@ A+ _+ _+ _+ _+ _+ _+ _+ _+ _+ _+ _+ _+ _+ _+ %. %. %. %. %. [@ }@ *. *. *. *. *. *. *. *. *. *. *. *. *. *. *. *. *. *. *. w. -. -. -. -. -. -. -. -. -. -. -. -. -. -. -. -. -. -. -. ",
".  .  .  |@ @  @  @  @  @  @  #  $  $  $  $  1@ J+ *  *  *  2@ A. 3@ ;  ;  ;  ;  ;  ;  ;  ;  ;  ;  ;  ;  ;  ,  ,  ,  ,  ,  4@ )  )  )  5@ ~  ~  ~  6@ ]  ]  ]  ]  ]  ]  ]  ]  ]  ]  ]  ]  ]  ]  ]  ]  ]  ]  ]  ]  ]  7@ 8@ 9@ :  <  <  <  <  [  [  [  [  [  [  [  [  [  [  [  [  [  [  [  5+ Q+ ^. Q+ Q+ Q+ ^. ^. <  5+ _  2  H. H. a  8  8  8  f  J. g  g  -@ M. M. M. M. M. h  0@ a@ %+ %+ %+ %+ %+ %+ %+ %+ %+ %+ %+ %+ %+ %+ %+ %+ %+ %+ %+ %+ %+ %+ %+ %+ %+ %+ %+ %+ %+ %+ %+ %+ %+ %+ %+ %+ %+ %+ %+ %+ %+ %+ %+ %+ %+ %+ %+ %+ %+ %+ %+ %+ %+ %+ %+ %+ %+ %+ %+ %+ %+ %+ %+ %+ %+ %+ %+ %+ %+ %+ %+ %+ %+ %+ %+ %+ %+ %+ %+ %+ %+ %+ %+ %+ %+ %+ %+ %+ %+ %+ %+ %+ %+ %+ %+ %+ %+ %+ %+ %+ %+ %+ %+ %+ %+ %+ %+ %+ %+ %+ %+ %+ %+ %+ %+ %+ %+ %+ %+ %+ %+ %+ %+ %+ %+ %+ %+ %+ %+ %+ %+ %+ %+ %+ %+ %+ %+ %+ %+ %+ %+ %+ %+ %+ %+ %+ %+ %+ %+ %+ %+ %+ %+ %+ %+ %+ %+ %+ %+ %+ %+ %+ %+ %+ %+ %+ %+ %+ %+ %+ %+ %+ %+ %+ %+ %+ %+ %+ %+ %+ %+ %+ %+ %+ %+ %+ %+ %+ %+ %+ %+ %+ %+ %+ %+ %+ %+ %+ %+ %+ %+ %+ %+ %+ %+ %+ %+ %+ %+ %+ %+ %+ %+ %+ %+ %+ %+ %+ %+ %+ %+ %+ %+ %+ %+ %+ %+ %+ %+ %+ %+ %+ %+ %+ %+ %+ %+ %+ %+ %+ %+ %+ %+ %+ %+ %+ %+ %+ %+ %+ %+ %+ %+ %+ %+ %+ R  R  U+ R  R  R  R  R  R  Q  Q  R  R  b@ ~+ Q  Q  ~+ ~+ j. k. >+ t+ t+ t+ t+ t+ '@ '@ )@ ~@ '@ '@ '@ '@ '@ w+ '@ ]@ ]@ ]@ ]@ '@ c@ ]@ ]@ d@ ]@ e@ f@ /@ w+ ~@ )@ )@ W+ g@ h@ /+ .. .. .. .. .. .. .. .. .. A+ _+ _+ _+ _+ _+ _+ _+ _+ _+ _+ _+ _+ _+ _+ _+ _+ i@ j@ k@ l@ m@ n@ o@ *. *. *. *. *. *. *. *. *. *. *. *. *. *. *. *. *. *. *. p@ -. -. -. -. -. -. -. -. -. -. -. -. -. -. -. -. -. -. -. ",
".  .  |@ @  @  @  @  @  @  @  q@ $  $  $  r@ s@ t@ *  *  *  u@ A. v@ ;  ;  ;  ;  ;  ;  ;  ;  ;  ;  ;  ;  ;  ,  ,  ,  ,  ,  4@ )  )  )  )  L+ ~  ~  ~  {  ]  ]  ]  ]  ]  ]  ]  ]  ]  ]  ]  ]  ]  ]  ]  ]  ]  ]  ]  ]  w@ x@ y@ 1  [  [  <  G. [  [  [  [  [  [  [  [  [  [  <  <  [  [  [  [  Q+ <  <  Q+ ^. ^. F. _  :  [  3  :. 7+ a  8  8  8  8  J. J. g  g  g  g  z@ z@ A@ A@ B@ C@ U+ =+ =+ =+ =+ =+ =+ =+ =+ =+ =+ =+ =+ =+ =+ =+ =+ =+ =+ =+ =+ =+ =+ =+ =+ =+ =+ =+ =+ =+ =+ =+ =+ =+ =+ =+ =+ =+ =+ =+ =+ =+ =+ =+ =+ =+ =+ =+ =+ =+ =+ =+ =+ =+ =+ =+ =+ =+ =+ =+ =+ =+ =+ =+ =+ =+ =+ =+ =+ =+ =+ =+ =+ =+ =+ =+ =+ =+ =+ =+ =+ =+ =+ =+ =+ =+ =+ =+ =+ =+ =+ =+ =+ =+ =+ =+ =+ =+ =+ =+ =+ =+ =+ =+ =+ =+ =+ =+ =+ =+ =+ =+ =+ =+ =+ =+ =+ =+ =+ =+ =+ =+ =+ =+ =+ =+ =+ =+ =+ =+ =+ =+ =+ =+ =+ =+ =+ =+ =+ =+ =+ =+ =+ =+ =+ =+ =+ =+ =+ =+ =+ =+ =+ =+ =+ =+ =+ =+ =+ =+ =+ =+ =+ =+ =+ =+ =+ =+ =+ =+ =+ =+ =+ =+ =+ =+ =+ =+ =+ =+ =+ =+ =+ =+ =+ =+ =+ =+ =+ =+ =+ =+ =+ =+ =+ =+ =+ =+ =+ =+ =+ =+ =+ =+ =+ =+ =+ =+ =+ =+ =+ =+ =+ =+ =+ =+ =+ =+ =+ =+ =+ =+ =+ =+ =+ =+ =+ =+ =+ =+ =+ =+ =+ =+ =+ =+ =+ =+ =+ =+ =+ =+ =+ =+ =+ =+ =+ =+ =+ =+ =+ =+ =+ R  R  R  R  U+ U+ ~+ R  Q  Q  Q  ~+ ~+ ~+ ~+ ~+ b@ D@ D@ D@ V+ r+ !+ t+ t+ ^@ {@ {@ {@ ~@ ]@ ]@ c@ ]@ E@ E@ E@ '@ '@ '@ ]@ ]@ ]@ ]@ ]@ ]@ F@ F@ G@ G@ G@ F@ f@ H@ '@ ~@ ^@ t+ w+ I@ J@ z+ .. .. .. .. .. .. .. .. <@ _+ _+ _+ _+ _+ _+ _+ _+ _+ _+ _+ _+ _+ _+ _+ _+ _+ K@ k@ k@ k@ L@ M@ N@ *. *. *. *. *. *. *. *. *. *. *. *. *. *. *. *. *. *. *. *. -. -. -. -. -. -. -. -. -. -. -. -. -. -. -. -. -. -. -. ",
".  ;. O@ @  @  @  @  @  @  P@ $  $  $  $  Q@ R@ S@ *  *  *  T@ A. v@ ;  ;  ;  ;  ;  ;  ;  ;  ;  ;  ;  ;  ;  ,  ,  ,  ,  ,  4@ )  )  )  )  )  ~  ~  ~  ~  {  ]  ]  ]  ]  ]  ]  ]  ]  ]  ]  ]  ]  ]  ]  ]  ]  ]  ]  ]  2+ 3+ [  [  |  [  [  G. [  [  [  [  [  [  [  |  <  [  <  <  [  5+ [  [  [  <  <  [  ^. /. ^. U@ ^. /. /. :. a  a  b  8  8  8  J. J. J. g  V@ g  g  g  g  g  W@ X@ U+ U+ U+ U+ U+ U+ U+ U+ U+ U+ U+ U+ U+ U+ U+ U+ U+ U+ U+ U+ U+ U+ U+ U+ U+ U+ U+ U+ U+ U+ U+ U+ U+ U+ U+ U+ U+ U+ U+ U+ U+ U+ U+ U+ U+ U+ U+ U+ U+ U+ U+ U+ U+ U+ U+ U+ U+ U+ U+ R  R  R  R  R  R  R  R  R  R  R  R  R  R  R  R  R  R  R  R  R  R  R  R  R  R  R  R  R  R  R  R  R  R  R  R  R  R  R  R  R  R  R  R  R  R  R  R  R  R  R  R  R  R  R  R  R  R  R  R  R  R  R  R  R  R  R  R  R  R  R  R  R  R  R  R  R  R  R  R  R  R  R  R  R  R  R  R  R  R  R  R  R  R  R  R  R  R  R  R  R  R  R  R  R  R  R  R  R  R  R  R  R  R  R  R  R  R  R  R  R  R  R  R  R  R  R  R  R  R  R  R  R  R  R  R  R  R  R  R  R  R  R  R  R  R  R  R  R  R  R  R  R  R  R  R  R  R  R  R  R  R  R  R  R  R  R  R  R  R  R  R  R  R  R  R  R  R  R  R  R  R  R  R  R  R  R  R  R  R  R  R  U+ U+ U+ U+ ~+ ~+ D@ ,@ ~+ ~+ ~+ j. ~+ D@ D@ D@ ~+ j. j. r+ r+ r+ r+ t+ ^@ ~@ ~@ {@ Y@ c@ c@ Y@ ]@ ]@ c@ c@ F@ F@ F@ e@ Z@ '@ '@ `@ `@ F@ G@ G@ G@ G@  #  # .# +# F@ Z@ ]@ {@ @# @# @# !@ ## $# .. .. .. .. .. .. .. .. %# _+ _+ _+ _+ _+ _+ _+ _+ _+ _+ _+ _+ _+ _+ _+ _+ _+ k@ k@ k@ k@ &# M@ o@ *. *. *. *. *. *. *. *. *. *. *. *. *. *. *. *. *. *. *. *# -. -. -. -. -. -. -. -. -. -. -. -. -. -. -. -. -. =# p@ ",
".  -# @  @  @  @  @  @  P@ $  $  $  $  $  R@ R@ ;# *  *  *  ># A. ,# ;  ;  ;  ;  ;  ;  ;  ;  ;  ;  ;  ;  ;  ,  ,  ,  ,  ,  4@ )  )  )  )  )  )  ~  ~  ~  ~  ~  '# 6@ {  M+ )# ]  ]  ]  ]  ]  ]  ]  ]  ]  ]  ]  ]  !# ~# :  [  [  1  [  G. G. [  [  [  [  [  [  [  [  <  <  [  [  [  5+ 5+ [  [  [  [  [  ^. [  /. _  3  3  (. H. a  a  7  R+ 8  b  8  J. V@ W@ g  V@ g  g  g  g  V@ {# =+ ~+ ~+ ~+ ~+ ~+ ~+ ~+ ~+ ~+ ~+ ~+ ~+ ~+ ~+ ~+ ~+ ~+ ~+ ~+ ~+ ~+ ~+ ~+ ~+ ~+ ~+ ~+ ~+ ~+ ~+ ~+ ~+ ~+ ~+ ~+ ~+ ~+ ~+ ~+ ~+ ~+ ~+ ~+ ~+ ~+ ~+ ~+ ~+ ~+ ~+ ~+ ~+ ~+ ~+ ~+ ~+ ~+ ~+ ~+ ~+ ~+ ~+ ~+ ~+ ~+ ~+ ~+ ~+ ~+ ~+ ~+ ~+ ~+ ~+ ~+ ~+ ~+ ~+ ~+ ~+ ~+ ~+ ~+ ~+ ~+ ~+ ~+ ~+ ~+ ~+ ~+ ~+ ~+ ~+ ~+ ~+ ~+ ~+ ~+ ~+ ~+ ~+ ~+ ~+ ~+ ~+ ~+ ~+ ~+ ~+ ~+ ~+ ~+ ~+ ~+ ~+ ~+ ~+ ~+ ~+ ~+ ~+ ~+ ~+ ~+ ~+ ~+ ~+ ~+ ~+ ~+ ~+ ~+ ~+ ~+ ~+ ~+ ~+ ~+ ~+ ~+ ~+ ~+ ~+ ~+ ~+ ~+ ~+ ~+ ~+ ~+ ~+ ~+ ~+ ~+ ~+ ~+ ~+ ~+ ~+ ~+ ~+ ~+ ~+ ~+ ~+ ~+ ~+ ~+ ~+ ~+ ~+ ~+ ~+ ~+ ~+ ~+ ~+ ~+ ~+ ~+ ~+ ~+ ~+ ~+ ~+ ~+ ~+ ~+ ~+ ~+ ~+ ~+ ~+ ~+ ~+ ~+ ~+ ~+ ~+ ~+ ~+ ~+ ~+ ~+ ~+ ~+ ~+ ~+ ~+ ~+ ~+ ~+ ~+ ~+ ~+ ~+ ~+ ~+ ~+ ~+ ~+ ~+ ~+ ~+ ~+ ~+ ~+ ~+ ~+ ~+ ~+ ~+ ~+ ~+ ~+ ~+ ~+ ~+ ~+ ~+ ~+ ~+ ~+ ~+ ~+ ~+ ~+ ~+ ~+ ~+ V+ ,@ D@ ]# ]# ^# /# r+ r+ ]# W+ j. ]# k. k. j. k. k. t+ t+ t+ w+ ~@ {@ ]@ ]@ ]@ ]@ `@ F@ c@ c@ ]@ c@ F@ F@ F@ F@ `@ `@ F@ F@ F@ (# G@  #  # G@ _# +# +# +# .# F@ f@ ]@ :# <# [# @# /# }# <+ .. .. .. .. .. .. .. .. %# _+ _+ _+ _+ _+ _+ _+ _+ _+ _+ _+ _+ _+ _+ _+ _+ _+ k@ k@ k@ k@ |# M@ o@ *. *. *. *. *. *. *. *. *. *. *. *. *. *. *. *. *. *. *# -. -. -. -. -. -. -. -. -. -. -. -. -. -. -. -. -. 1# *. *. ",
"2# @  @  @  @  @  @  @  $  $  $  $  $  3# R@ R@ 4# *  *  *  5# A. -  ;  ;  ;  ;  ;  ;  ;  ;  ;  ;  ;  ;  ;  ,  ,  ,  ,  ,  4@ )  )  )  )  )  )  )  ~  ~  ~  ~  ~  ~  ~  ~  '# ]  ]  ]  ]  ]  ]  ]  L+ 6# 7# 8# 8# 9# 0# <  [  [  1  [  [  G. [  [  [  [  [  [  [  [  [  [  [  5+ [  5+ 5+ 5+ 5+ :  [  [  [  [  /. 3  /. a# b# b# 7+ a  7  R+ R+ 0  0  8  8  c# 8  8  8  8  8  8  8  8  d# ,@ r+ r+ r+ r+ r+ r+ r+ r+ r+ r+ r+ r+ r+ r+ r+ r+ r+ r+ r+ r+ r+ r+ r+ r+ r+ r+ r+ r+ r+ r+ r+ r+ r+ r+ r+ r+ r+ r+ r+ r+ r+ r+ r+ r+ r+ r+ r+ r+ r+ r+ r+ r+ r+ r+ r+ r+ r+ r+ r+ r+ r+ r+ r+ r+ r+ r+ r+ r+ r+ r+ r+ r+ r+ r+ r+ r+ r+ r+ r+ r+ r+ r+ r+ r+ r+ r+ r+ r+ r+ r+ r+ r+ r+ r+ r+ r+ r+ r+ r+ r+ r+ r+ r+ r+ r+ r+ r+ r+ r+ r+ r+ r+ r+ r+ r+ r+ r+ r+ r+ r+ r+ r+ r+ r+ r+ r+ r+ r+ r+ r+ r+ r+ r+ r+ r+ r+ r+ r+ r+ r+ r+ r+ r+ r+ r+ r+ r+ r+ r+ r+ r+ r+ r+ r+ r+ r+ r+ r+ r+ r+ r+ r+ r+ r+ r+ r+ r+ r+ r+ r+ r+ r+ r+ r+ r+ r+ r+ r+ r+ r+ r+ r+ r+ r+ r+ r+ r+ r+ r+ r+ r+ r+ r+ r+ r+ r+ r+ r+ r+ r+ r+ r+ r+ r+ r+ r+ r+ r+ r+ r+ r+ r+ r+ r+ r+ r+ r+ r+ r+ r+ r+ r+ r+ r+ r+ r+ r+ r+ r+ r+ r+ r+ r+ r+ r+ r+ r+ r+ r+ r+ r+ r+ r+ r+ r+ r+ r+ r+ r+ r+ r+ /# /# /# /# /# /# /# /# r+ !@ r+ r+ !+ t+ W+ t+ ~@ '@ '@ E@ `@ E@ E@ F@ F@ F@ F@ F@ F@ (# (# F@ F@ F@ .# F@ (# (# (#  # e# (# f# g#  #  # e# e# +# .# +# F@ G@ F@ d@ /@ @# !+ !+ W+ h# i# .. .. .. .. .. .. .. .. %# _+ _+ _+ _+ _+ _+ _+ _+ _+ _+ _+ _+ _+ _+ _+ _+ _+ k@ k@ k@ k@ k@ j# k# *. *. *. *. *. *. *. *. *. *. *. *. *. *. *. *. *. l# -. -. -. -. -. -. -. -. -. -. -. -. -. -. -. -. -. *# *. *. *. ",
"@  @  @  @  @  @  @  @  $  $  $  $  $  m# R@ R@ R@ n# *  *  *  o# -  ;  ;  ;  ;  ;  ;  ;  ;  ;  ;  ;  ;  |+ ,  ,  ,  ,  ,  4@ )  )  )  )  )  )  )  )  ~  ~  ~  ~  ~  ~  ~  ~  )# ]  ]  ]  ]  ]  ]  ]  p# q# q# q# {  r# <  [  _  [  _  [  [  [  [  [  [  [  [  [  [  [  [  5+ 5+ 5+ [  [  [  :  5+ :  :  :  [  [  ^. 3  3  5  (. 7+ 7  7  7  R+ 7  s# 8  8  8  8  8  8  8  8  8  8  8  t# u# /# /# /# /# /# /# /# /# /# /# /# /# /# /# /# /# /# /# /# /# /# /# /# /# /# /# /# /# /# /# /# /# /# /# /# /# /# /# /# /# /# /# /# /# /# /# /# /# /# /# /# /# /# /# /# /# /# /# /# /# /# /# /# /# /# /# /# /# /# /# /# /# /# /# /# /# /# /# /# /# /# /# /# /# /# /# /# /# /# /# /# /# /# /# /# /# /# /# /# /# /# /# /# /# /# /# /# /# /# /# /# /# /# /# /# /# /# /# /# /# /# /# /# /# /# /# /# /# /# /# /# /# /# /# /# /# /# /# /# /# /# /# /# /# /# /# /# /# /# /# /# /# /# /# /# /# /# /# /# /# /# /# /# /# /# /# /# /# /# /# /# /# /# /# /# /# /# /# /# /# /# /# /# /# /# /# /# /# /# /# /# /# /# /# /# /# /# /# /# /# /# /# /# /# /# /# /# /# /# /# /# /# /# /# /# /# /# /# /# /# /# /# /# /# /# /# /# /# /# /# /# /# /# /# /# /# /# /# /# /# /# /# /# /# /# /# /# /# /# /# /# n. n. /# /# /# /# /# n. n. n. /# n. n. ~@ !@ '@ `@ `@ `@ v# w# v# v# x# F@ G@ G@ G@ F@ (#  # e# .# e#  # (# f# .# e# e# y# g# g# g# g# g# y# z# A# e# e# g# B# C# D# {@ ^@ ]@ ^@ '+ d@ E# q. .. .. .. .. .. .. .. F# _+ _+ _+ _+ _+ _+ _+ _+ _+ _+ _+ _+ _+ _+ _+ _+ _+ k@ k@ k@ k@ k@ G# H# *. *. *. *. *. *. *. *. *. *. *. *. *. *. *. *. w. -. -. -. -. -. -. -. -. -. -. -. -. -. -. -. -. -. w. *. *. *. I# ",
"@  @  @  @  @  @  @  @  J# $  $  $  $  m# R@ R@ R@ K# *  *  *  L# -  ;  ;  ;  ;  ;  ;  ;  ;  ;  ;  ;  ;  >  ,  ,  ,  ,  ,  4@ )  )  )  )  )  )  )  )  )  ~  ~  ~  ~  ~  ~  ~  {  ]  ]  ]  ]  ]  ]  ]  L+ q# q# 6# M# [  [  [  _  [  _  [  [  [  [  [  [  [  [  [  [  [  [  1  [  1  1  :  5+ 5+ 5+ :  :  5+ N# ^. /. /. O# P# (. :. _. _. _. :. :. 7  7  7  7  7  7  7  7  7  7  7  7  7  Q# !+ ~@ ~@ ~@ ~@ ~@ ~@ ~@ ~@ ~@ ~@ ~@ ~@ ~@ ~@ ~@ ~@ ~@ ~@ ~@ ~@ ~@ ~@ ~@ ~@ ~@ ~@ ~@ ~@ ~@ ~@ ~@ ~@ ~@ ~@ ~@ ~@ ~@ ~@ ~@ ~@ ~@ ~@ ~@ ~@ ~@ ~@ ~@ ~@ ~@ ~@ ~@ ~@ ~@ ~@ ~@ ~@ ~@ ~@ ~@ ~@ ~@ ~@ ~@ ~@ ~@ ~@ ~@ ~@ ~@ ~@ ~@ ~@ ~@ ~@ ~@ ~@ ~@ ~@ ~@ ~@ ~@ ~@ ~@ ~@ ~@ ~@ ~@ ~@ ~@ ~@ ~@ ~@ ~@ ~@ ~@ ~@ ~@ ~@ ~@ ~@ ~@ ~@ ~@ ~@ ~@ ~@ ~@ ~@ ~@ ~@ ~@ ~@ ~@ ~@ ~@ ~@ ~@ ~@ ~@ ~@ ~@ ~@ ~@ ~@ ~@ ~@ ~@ ~@ ~@ ~@ ~@ ~@ ~@ ~@ ~@ ~@ ~@ ~@ ~@ ~@ ~@ ~@ ~@ ~@ ~@ ~@ ~@ ~@ ~@ ~@ ~@ ~@ ~@ ~@ ~@ ~@ ~@ ~@ ~@ ~@ ~@ ~@ ~@ ~@ ~@ ~@ ~@ ~@ ~@ ~@ ~@ ~@ ~@ ~@ ~@ ~@ ~@ ~@ ~@ ~@ ~@ ~@ ~@ ~@ ~@ ~@ ~@ ~@ ~@ ~@ ~@ ~@ ~@ ~@ ~@ ~@ ~@ ~@ ~@ ~@ ~@ ~@ ~@ ~@ ~@ ~@ ~@ ~@ ~@ ~@ ~@ ~@ ~@ ~@ ~@ ~@ ~@ ~@ ~@ ~@ ~@ ~@ ~@ ~@ ~@ ~@ ~@ ~@ ~@ ~@ ~@ ~@ ~@ ~@ ~@ ~@ ~@ ~@ ~@ ~@ ~@ ~@ ~@ ~@ ~@ ~@ ~@ ~@ ~@ ~@ ~@ ~@ ~@ ~@ ~@ ~@ R# ~@ ~@ ~@ ~@ ~@ E@ E@ `@ `@ F@ F@ F@ (# +# +# (# +# (# S# A# +# e# e# S# S# y# e# e# y# y# +# T# z# z# e# e# y# y# y# y# y# y# e# e# A# +#  # C# {@ D# D# ^@ ^@ t+ U# V# .. .. .. .. .. .. .. .. _+ _+ _+ _+ _+ _+ _+ _+ _+ _+ _+ _+ _+ _+ _+ _+ _+ k@ k@ k@ k@ k@ W# H# *. *. *. *. *. *. *. *. *. *. *. *. *. *. *. =# -. -. -. -. -. -. -. -. -. -. -. -. -. -. -. -. -. -. *. *. *. X# $# ",
"@  @  @  @  @  @  @  @  @  Y# $  $  $  m# R@ R@ R@ R@ *  *  *  u@ Z# ;  ;  |+ `#  $ >  ;  ;  ;  ;  ;  ;  .$ ,  ,  ,  ,  ,  B. )  )  )  )  )  )  )  )  )  )  ~  ~  ~  ~  '# )# +$ ]  ]  ]  ]  ]  ]  ]  ]  @$ q# )  #$ [  [  [  [  [  [  [  [  [  [  <  [  [  [  [  [  [  [  [  [  1  1  [  5+ 5+ 5+ 5+ 5+ [  [  1  2  /. /. 3  5  5  4  (. 5  5  _. 5  _. _. _. _. _. _. _. _. _. _. _. _. _. $$ v# E@ E@ E@ E@ E@ E@ E@ E@ E@ E@ E@ E@ E@ E@ E@ E@ E@ E@ E@ E@ E@ E@ E@ E@ E@ E@ E@ E@ E@ E@ E@ E@ E@ E@ E@ E@ E@ E@ E@ E@ E@ E@ E@ E@ E@ E@ E@ E@ E@ E@ E@ E@ E@ E@ E@ E@ E@ E@ E@ E@ E@ E@ E@ E@ E@ E@ E@ E@ E@ E@ E@ E@ E@ E@ E@ E@ E@ E@ E@ E@ E@ E@ E@ E@ E@ E@ E@ E@ E@ E@ E@ E@ E@ E@ E@ E@ E@ E@ E@ E@ E@ E@ E@ E@ E@ E@ E@ E@ E@ E@ E@ E@ E@ E@ E@ E@ E@ E@ E@ E@ E@ E@ E@ E@ E@ E@ E@ E@ E@ E@ E@ E@ E@ E@ E@ E@ E@ E@ E@ E@ E@ E@ E@ E@ E@ E@ E@ E@ E@ E@ E@ E@ E@ E@ E@ E@ E@ E@ E@ E@ E@ E@ E@ E@ E@ E@ E@ E@ E@ E@ E@ E@ E@ E@ E@ E@ E@ E@ E@ E@ E@ E@ E@ E@ E@ E@ E@ E@ E@ E@ E@ E@ E@ E@ E@ E@ E@ E@ E@ E@ E@ E@ E@ E@ E@ E@ E@ E@ E@ E@ E@ E@ E@ E@ E@ E@ E@ E@ E@ E@ E@ E@ E@ E@ E@ E@ E@ E@ E@ E@ E@ E@ E@ E@ E@ E@ E@ E@ E@ E@ E@ E@ E@ E@ E@ E@ E@ E@ E@ E@ E@ E@ E@ `@ E@ E@ E@ E@ E@ c@ F@ c@ (# S# S# +# +# +# y# +# S# S# y# e# %$ y# y# S# z# T# &$ y# e# e# y# z# z# z# y# z# y# z# z# z# y# y# y# e# *$ e# e# y#  #  # =$ C# D# ]@ ]@ t+ -$ ;$ .. .. .. .. .. .. .. .. C+ _+ _+ _+ _+ _+ _+ _+ _+ _+ _+ _+ _+ _+ _+ _+ _+ k@ k@ k@ k@ k@ k@ >$ *. *. *. *. *. *. *. *. *. *. *. *. *. p@ -. -. -. -. -. -. -. -. -. -. -. -. -. -. -. -. -. -. -. l# *. *. ,$ $# $# ",
"@  @  @  @  @  @  @  @  @  '$ $  $  $  m# R@ R@ R@ R@ )$ *  *  !$ A. ;  ;  ~$ ,  ,  ,  ~$ >  >  .$ `# ,  ,  ,  ,  ,  ,  ,  #@ )  )  )  )  )  )  )  )  )  )  )  ~  ~  ~  '# ]  ]  ]  ]  ]  ]  ]  ]  ]  ]  ]  {$ ]$ ^$ [  [  [  [  <  [  [  [  [  <  <  [  [  [  [  [  [  [  [  [  [  [  1  [  [  [  [  5+ 5+ [  [  ^. /$ ($ ($ 3  I. _$ I. I. I. 5  I. 3  3  /. 3  3  3  3  3  3  I. 5  5  5  :$ c@ (# (# (# (# (# (# (# (# (# (# (# (# (# (# (# (# (# (# (# (# (# (# (# (# (# (# (# (# (# (# (# (# (# (# (# (# (# (# (# (# (# (# (# (# (# (# (# (# (# (# (# (# (# (# (# (# (# (# (# (# (# (# (# (# (# (# (# (# (# (# (# (# (# (# (# (# (# (# (# (# (# (# (# (# (# (# (# (# (# (# (# (# (# (# (# (# (# (# (# (# (# (# (# (# (# (# (# (# (# (# (# (# (# (# (# (# (# (# (# (# (# (# (# (# (# (# (# (# (# (# (# (# (# (# (# (# (# (# (# (# (# (# (# (# (# (# (# (# (# (# (# (# (# (# (# (# (# (# (# (# (# (# (# (# (# (# (# (# (# (# (# (# (# (# (# (# (# (# (# (# (# (# (# (# (# (# (# (# (# (# (# (# (# (# (# (# (# (# (# (# (# (# (# (# (# (# (# (# (# (# (# (# (# (# (# (# (# (# (# (# (# (# (# (# (# (# (# (# (# (# (# (# (# (# (# (# (# (# (# (# (# (# (# (# (# (# (# (# (# (# (# (# (# (# f# (# (# (# (# (# (# f# (# e# z# y# y# z# <$ <$ &$ <$ <$ &$ %$ [$ [$ y# <$ T# [$ y# e# z# y# y# %$ S# y# y# y# }$ }$ y# z# z# z# }$ z# z# y# }$ y# }$ _# F@ C# C# '@ t+ |$ 1$ .. .. .. .. .. .. .. .. (+ _+ _+ _+ _+ _+ _+ _+ _+ _+ _+ _+ _+ _+ _+ _+ _+ k@ k@ k@ k@ k@ k@ 2$ *. *. *. *. *. *. *. *. *. *. *. *. p@ -. -. -. -. -. -. -. -. -. -. -. -. -. -. -. -. -. -. -. -. *. *. 3$ $# $# $# ",
"@  @  @  @  @  @  @  @  @  @  P@ $  $  4$ R@ R@ R@ R@ 5$ *  *  6$ A. ;  |+ ,  ,  ,  ,  ,  ,  ,  ,  ,  ,  ,  ,  ,  ,  ,  ,  #@ )  )  )  )  )  )  )  )  )  )  )  !  ~  ~  ~  +$ ]  ]  ]  ]  ]  1+ 1+ ]  ]  ]  7$ 8$ U@ 9$ _  [  [  <  [  [  [  [  [  <  [  [  [  1  [  [  [  1  [  [  1  1  [  [  [  [  [  [  [  [  [  2  [  0$ 2  /. /. 2  3  3  a$ b$ c$ [# {@ {@ c@ ]@ {@ @# [# d$ e$ a$ a$ c$ (# S# S# S# S# S# S# S# S# S# S# S# S# S# S# S# S# S# S# S# S# S# S# S# S# S# S# S# S# S# S# S# S# S# S# S# S# S# S# S# S# S# S# S# S# S# S# S# S# S# S# S# S# S# S# S# S# S# S# S# S# S# S# S# S# S# S# S# S# S# S# S# S# S# S# S# S# S# S# S# S# S# S# S# S# S# S# S# S# S# S# S# S# S# S# S# S# S# S# S# S# S# S# S# S# S# S# S# S# S# S# S# S# S# S# S# S# S# S# S# S# S# S# S# S# S# S# S# S# S# S# S# S# S# S# S# S# S# S# S# S# S# S# S# S# S# S# S# S# S# S# S# S# S# S# S# S# S# S# S# S# S# S# S# S# S# S# S# S# S# S# S# S# S# S# S# S# S# S# S# S# S# S# S# S# S# S# S# S# S# S# S# S# S# S# S# S# S# S# S# S# S# S# S# S# S# S# S# S# S# S# S# S# S# S# S# S# S# S# S# S# S# S# S# S# S# S# S# S# S# S# S# S# S# S# S# S# S# S# S# S# S# S# S# S# S# S# S# S# S# S# S# S# S# S# S# S# S# S# S# S# &$ y# [$ %$ <$ <$ <$ <$ <$ <$ <$ <$ <$ <$ &$ <$ <$ <$ [$ &$ [$ [$ [$ [$ [$ [$ [$ y# <$ [$ <$ <$ S# }$ y# z# z# z# y# y# z# y# z# y# S# +# (# (# c@ ]@ '@ f$ g$ .. .. .. .. .. .. .. .. B+ _+ _+ _+ _+ _+ _+ _+ _+ _+ _+ _+ _+ _+ _+ _+ k@ k@ k@ k@ k@ k@ h$ *. *. *. *. *. *. *. *. *. *. *. *. -. -. -. -. -. -. -. -. -. -. -. -. -. -. -. -. -. -. -. -. w. *. *. i$ $# $# $# ",
"@  @  @  @  @  @  @  @  @  @  I+ $  $  4$ R@ R@ R@ R@ j$ *  *  *  A. ;  `# ,  ,  ,  ,  ,  ,  ,  ,  ,  ,  ,  ,  ,  ,  ,  ,  #@ )  )  )  )  )  )  )  )  )  )  )  $@ ~  ~  ~  '# ]  ]  ]  ]  1+ k$ k$ k$ 1+ ]  l$ m$ n$ U@ <  [  [  <  <  [  [  [  [  [  [  [  1  [  1  [  [  1  1  1  [  [  [  [  [  [  [  [  [  [  [  [  :  [  9$ [  [  o$ p$ C# g# y# y# y# z# <$ <$ <$ z# y# y# y# g# g# y# y# <$ <$ <$ <$ <$ <$ <$ <$ <$ <$ <$ <$ <$ <$ <$ <$ <$ <$ <$ <$ <$ <$ <$ <$ <$ <$ <$ <$ <$ <$ <$ <$ <$ <$ <$ <$ <$ <$ <$ <$ <$ <$ <$ <$ <$ <$ <$ <$ <$ <$ <$ <$ <$ <$ <$ <$ <$ <$ <$ <$ <$ <$ <$ <$ <$ <$ <$ <$ <$ <$ <$ <$ <$ <$ <$ <$ <$ <$ <$ <$ <$ <$ <$ <$ <$ <$ <$ <$ <$ <$ <$ <$ <$ <$ <$ <$ <$ <$ <$ <$ <$ <$ <$ <$ <$ <$ <$ <$ <$ <$ <$ <$ <$ <$ <$ <$ <$ <$ <$ <$ <$ <$ <$ <$ <$ <$ <$ <$ <$ <$ <$ <$ <$ <$ <$ <$ <$ <$ <$ <$ <$ <$ <$ <$ <$ <$ <$ <$ <$ <$ <$ <$ <$ <$ <$ <$ <$ <$ <$ <$ <$ <$ <$ <$ <$ <$ <$ <$ <$ <$ <$ <$ <$ <$ <$ <$ <$ <$ <$ <$ <$ <$ <$ <$ <$ <$ <$ <$ <$ <$ <$ <$ <$ <$ <$ <$ <$ <$ <$ <$ <$ <$ <$ <$ <$ <$ <$ <$ <$ <$ <$ <$ <$ <$ <$ <$ <$ <$ <$ <$ <$ <$ <$ <$ <$ <$ <$ <$ <$ <$ <$ <$ <$ <$ <$ <$ <$ <$ <$ <$ <$ <$ <$ <$ <$ <$ <$ <$ <$ <$ <$ <$ <$ <$ <$ <$ <$ <$ <$ <$ <$ <$ <$ <$ <$ <$ <$ <$ <$ <$ <$ <$ <$ <$ <$ <$ <$ <$ <$ <$ <$ <$ <$ <$ <$ <$ z# z# &$ <$ z# z# %$ [$ [$ %$ %$ %$ %$ y# %$ q$ S# T# y# z# S# e# +# F@ F@ `@ r$ s$ .. .. .. .. .. .. .. .. .. _+ _+ _+ _+ _+ _+ _+ _+ _+ _+ _+ _+ _+ _+ _+ k@ k@ k@ k@ k@ k@ t$ *. *. *. *. *. *. *. *. *. *. *. =# -. -. -. -. -. -. -. -. -. -. -. -. -. -. -. -. -. -. -. -. =. *. *. X# $# $# $# ",
"@  @  @  @  @  @  @  @  @  @  >. $  $  u$ R@ R@ R@ R@ v$ *  *  *  A. w$ ,  ,  ,  ,  ,  ,  ,  ,  ,  ,  ,  ,  ,  ,  ,  ,  ,  )  )  )  )  )  )  )  )  )  )  )  )  L+ ~  ~  ~  ~  x$ ]  ]  ]  ]$ k$ k$ k$ k$ ]  y$ z$ A$ Q+ _  [  [  [  <  <  [  [  [  [  [  [  [  1  [  [  1  1  1  [  [  [  [  [  [  [  [  [  [  [  [  G. :  9$ [  B$ C$ =$ y# <$ <$ <$ <$ <$ <$ <$ <$ <$ <$ <$ <$ <$ <$ <$ <$ <$ <$ <$ <$ <$ <$ <$ <$ <$ <$ <$ <$ <$ <$ <$ <$ <$ <$ <$ <$ <$ <$ <$ <$ <$ <$ <$ <$ <$ <$ <$ <$ <$ <$ <$ <$ <$ <$ <$ <$ <$ <$ <$ <$ <$ <$ <$ <$ <$ <$ <$ <$ <$ <$ <$ <$ <$ <$ <$ <$ <$ <$ <$ <$ <$ <$ <$ <$ <$ <$ <$ <$ <$ <$ <$ <$ <$ <$ <$ <$ <$ <$ &$ <$ <$ <$ <$ <$ <$ D$ D$ E$ F$ F$ F$ F$ F$ G$ G$ G$ G$ G$ H$ I$ I$ I$ I$ I$ I$ I$ I$ I$ I$ I$ I$ I$ I$ I$ I$ I$ I$ I$ I$ I$ I$ I$ I$ I$ I$ I$ I$ I$ I$ I$ I$ I$ I$ I$ I$ I$ I$ I$ I$ I$ G$ G$ G$ G$ G$ G$ F$ F$ F$ F$ E$ D$ D$ <$ <$ <$ <$ <$ [$ &$ &$ <$ <$ <$ <$ <$ <$ <$ <$ <$ <$ <$ <$ <$ <$ <$ <$ <$ <$ <$ <$ <$ <$ <$ <$ <$ <$ <$ <$ <$ <$ <$ <$ <$ <$ <$ <$ <$ <$ <$ <$ <$ <$ <$ <$ <$ <$ <$ <$ <$ <$ <$ <$ <$ <$ <$ <$ <$ <$ <$ <$ <$ <$ <$ <$ <$ <$ <$ <$ <$ <$ <$ <$ <$ <$ <$ <$ <$ <$ <$ <$ <$ <$ <$ <$ <$ <$ <$ <$ <$ <$ <$ <$ <$ <$ <$ <$ <$ <$ <$ <$ <$ <$ <$ <$ <$ <$ <$ <$ <$ <$ <$ <$ <$ <$ <$ <$ <$ <$ <$ <$ <$ <$ <$ <$ <$ <$ z# %$ z# &$ &$ [$ %$ <$ z# y# J$ q$ K$ y# }$ z# e# |$ e# F@ G@ F@ L$ M$ q. .. .. .. .. .. .. .. .. <@ _+ _+ _+ _+ _+ _+ _+ _+ _+ _+ _+ _+ _+ _+ k@ k@ k@ k@ k@ k@ N$ *. *. *. *. *. *. *. *. *. *. *# -. -. -. -. -. -. -. -. -. -. -. -. -. -. -. -. -. -. -. -. -. *. *. *. $# $# $# $# ",
"@  @  @  @  @  @  @  @  @  O$ $  $  3# R@ R@ R@ R@ R@ R@ *  *  *  P$ ,  ,  ,  !. #@ #@ B. #@ #@ !. ,  ,  ,  ,  ,  ,  ,  ,  )  )  )  )  )  )  )  )  )  )  !  L+ ~  ~  ~  ~  ~  x$ ]  ]  ]  Q$ k$ k$ k$ k$ R$ S$ T$ N# _  <  <  [  [  [  [  <  [  [  [  [  [  [  [  1  [  [  1  [  [  [  [  [  [  [  [  [  [  [  [  [  9$ U$ V$ C$ =$ y# <$ <$ <$ <$ <$ <$ <$ <$ <$ <$ <$ <$ <$ <$ <$ <$ <$ <$ <$ <$ <$ <$ <$ <$ <$ <$ <$ <$ <$ <$ <$ <$ <$ <$ <$ <$ <$ <$ <$ <$ <$ <$ <$ <$ <$ <$ <$ <$ <$ <$ <$ <$ <$ <$ <$ <$ <$ <$ <$ <$ <$ <$ <$ <$ <$ <$ <$ <$ <$ <$ <$ <$ <$ <$ <$ <$ <$ <$ <$ &$ y# <$ <$ <$ D$ F$ F$ F$ F$ G$ H$ H$ H$ W$ W$ X$ X$ Y$ Y$ Y$ Z$ Y$ `$  % .% .%  %  %  % +% +% +% +% +% +% @% @% @% #% $% $% $% $% $% %% %% %% %% %% %% %% %% %% &% &% &% &% &% &% &% &% &% &% &% &% &% &% &% &% %% %% %% %% %% %% %% %% %% %% $% $% $% $% $% @% @% @% @% +% +% +% *% *%  %  % .% .% .% .% .% .% Y$ Y$ Y$ =% -% X$ ;% W$ H$ H$ H$ G$ F$ F$ F$ F$ F$ D$ <$ <$ <$ <$ &$ <$ <$ <$ <$ <$ <$ <$ <$ <$ <$ <$ <$ <$ <$ <$ <$ <$ <$ <$ <$ <$ <$ <$ <$ <$ <$ <$ <$ <$ <$ <$ <$ <$ <$ <$ <$ <$ <$ <$ <$ <$ <$ <$ <$ <$ <$ <$ <$ <$ <$ <$ <$ <$ <$ <$ <$ <$ <$ <$ <$ <$ <$ <$ <$ <$ <$ <$ <$ <$ <$ <$ <$ <$ <$ <$ <$ <$ <$ <$ <$ <$ <$ <$ <$ <$ <$ <$ <$ <$ <$ <$ <$ <$ <$ <$ <$ <$ <$ <$ <$ <$ <$ <$ <$ <$ <$ <$ %$ %$ S# S# %$ [$ y# z# <$ T# q$ J$ J$ S# J$ *$ e#  # G@ C# '@ >% ,% .. .. .. .. .. .. .. .. .. B+ _+ _+ _+ _+ _+ _+ _+ _+ _+ _+ _+ _+ _+ k@ k@ k@ k@ k@ k@ N$ *. *. *. *. *. *. *. *. *. *. =# -. -. -. -. -. -. -. -. -. -. -. -. -. -. -. -. -. -. -. -. w. *. *. I# $# $# $# $# ",
"@  @  @  @  @  @  @  @  @  P@ $  $  '% )% R@ R@ R@ R@ R@ !% *  *  ,  ,  ,  ,  )  )  )  )  )  )  )  ,  ,  ,  ,  ,  ,  ,  !. )  )  )  )  )  )  )  $@ L+ ~  ~  ~  ~  ~  ~  ~  ~  ]  ]  ]  ]  ~% k$ k$ k$ k$ {% ]% y@ 5+ <  [  [  [  [  [  [  [  <  [  [  [  [  [  1  1  1  [  [  [  [  [  [  [  [  [  [  [  [  [  [  [  :  ^% /% y# <$ <$ <$ <$ <$ <$ <$ <$ <$ <$ <$ <$ <$ <$ <$ <$ <$ <$ <$ <$ <$ <$ <$ <$ <$ <$ <$ <$ <$ <$ <$ <$ <$ <$ <$ <$ <$ <$ <$ <$ <$ <$ <$ <$ <$ <$ <$ <$ <$ <$ <$ <$ <$ <$ <$ <$ <$ <$ <$ <$ <$ <$ <$ <$ <$ <$ <$ <$ <$ <$ <$ &$ z# <$ <$ F$ F$ G$ W$ ;% -% -% -% Y$ Z$  %  %  %  % +% *% @% $% (% (% _% &% &% &% :% <% <% <% <% [% [% }% |% |% |% |% |% |% 1% 1% 2% 2% 2% 2% 2% 3% 2% 2% 2% 4% 4% 5% 5% 5% 5% 5% 5% 5% 5% 5% 6% 7% 7% 7% 7% 7% 7% 7% 7% 7% 7% 7% 7% 7% 7% 7% 5% 5% 5% 5% 5% 5% 5% 5% 5% 5% 4% 2% 2% 2% 3% 2% 2% 2% 2% 2% 2% 1% |% |% |% |% |% |% |% [% [% [% <% <% <% <% :% &% &% 8% (% (% $% 9% 9% +% +%  %  %  %  % Y$ Y$ -% Y$ ;% ;% G$ F$ F$ F$ <$ y# T# <$ <$ <$ <$ <$ <$ <$ <$ <$ <$ <$ <$ <$ <$ <$ <$ <$ <$ <$ <$ <$ <$ <$ <$ <$ <$ <$ <$ <$ <$ <$ <$ <$ <$ <$ <$ <$ <$ <$ <$ <$ <$ <$ <$ <$ <$ <$ <$ <$ <$ <$ <$ <$ <$ <$ <$ <$ <$ <$ <$ <$ <$ <$ <$ <$ <$ <$ <$ <$ <$ <$ <$ <$ <$ <$ <$ <$ <$ <$ <$ <$ <$ <$ <$ <$ <$ <$ <$ <$ <$ <$ <$ <$ <$ <$ <$ <$ <$ <$ %$ %$ [$ S# S# S# z# <$ z# J$ T# %$ z# y# e#  #  # G@ F@ `@ 0% a% b% .. .. .. .. .. .. .. .. .. _+ _+ _+ _+ _+ _+ _+ _+ _+ _+ _+ _+ _+ k@ k@ k@ k@ k@ k@ N$ *. *. *. *. *. *. *. *. *. p@ =# l# 1# l# =# -. -. -. -. -. -. -. -. -. -. -. -. -. -. -. -. =. *. *. $# $# $# $# $# ",
"@  @  @  @  @  @  @  @  @  $  $  c% d% u$ R@ R@ R@ R@ R@ )$ *  *  ,  ,  ,  ,  )  )  )  )  )  )  )  '  ,  ,  ,  ,  ,  ,  4@ )  )  )  )  )  )  )  e% ~  ~  ~  ~  ~  ~  ~  ~  ~  ]  ]  ]  ]  ~% k$ k$ k$ k$ f% g% N# [  <  [  [  [  [  [  [  [  [  [  [  [  [  [  1  1  [  [  [  [  [  [  [  [  [  [  [  [  G. [  [  [  V$ h% <$ <$ <$ <$ <$ <$ <$ <$ <$ <$ <$ <$ <$ <$ <$ <$ <$ <$ <$ <$ <$ <$ <$ <$ <$ <$ <$ <$ <$ <$ <$ <$ <$ <$ <$ <$ <$ <$ <$ <$ <$ <$ <$ <$ <$ <$ <$ <$ <$ <$ <$ <$ <$ <$ <$ <$ <$ <$ <$ <$ <$ <$ &$ T# T# <$ D$ F$ H$ I$ I$ ;% =% Y$ Y$ Z$ +% +% @% #% %% &% i% <% <% j% |% |% |% |% |% |% k% l% 2% 2% 2% 3% 3% m% 7% n% o% o% o% p% p% q% r% r% r% s% s% s% t% u% u% v% v% v% v% v% v% v% w% w% x% y% z% y% y% y% y% y% y% y% y% y% y% A% A% B% B% B% B% B% B% B% B% A% A% A% y% y% y% y% y% y% y% y% y% z% z% z% w% w% w% v% v% v% v% v% v% v% u% s% s% s% s% s% r% r% r% q% p% o% o% o% n% 7% 7% m% 3% 2% 2% 2% 2% l% k% |% |% |% |% |% j% [% <% <% :% &% %% @% *% +%  % .% Y$ X$ ;% I$ I$ H$ F$ D$ <$ <$ S# S# &$ <$ <$ <$ <$ <$ <$ <$ <$ <$ <$ <$ <$ <$ <$ <$ <$ <$ <$ <$ <$ <$ <$ <$ <$ <$ <$ <$ <$ <$ <$ <$ <$ <$ <$ <$ <$ <$ <$ <$ <$ <$ <$ <$ <$ <$ <$ <$ <$ <$ <$ <$ <$ <$ <$ <$ <$ <$ <$ <$ <$ <$ <$ <$ <$ <$ <$ <$ <$ <$ <$ <$ <$ <$ <$ <$ <$ <$ <$ <$ <$ <$ <$ <$ <$ <$ <$ <$ <$ <$ <$ <$ %$ [$ S# z# <$ <$ z# T# %$ y# y# y# |$ G@  # F@ C% D% b% .. .. .. .. .. .. .. .. .. <@ _+ _+ _+ _+ _+ _+ _+ _+ _+ _+ _+ _+ k@ k@ k@ k@ k@ E% F% *. *. *. *. *. *. *. *. *. *. *. *. *. *. *. *# -. -. -. -. -. -. -. -. -. -. -. -. -. -. -. *. *. i$ $# $# $# $# $# ",
"@  @  @  @  @  @  @  @  '$ $  $  G% d% u$ R@ R@ R@ R@ R@ )$ *  H% ,  ,  ,  !. )  )  )  )  )  )  )  4@ ,  ,  ,  ,  ,  ,  #@ )  )  )  )  )  )  )  )  ~  ~  ~  ~  ~  ~  ~  ~  6@ ]  ]  ]  ]  ~% k$ k$ k$ I% J% 0$ 5+ <  [  [  [  [  [  [  [  [  [  [  [  [  [  [  1  1  [  [  [  [  [  [  [  [  [  [  [  [  [  [  [  :  K% y# <$ <$ <$ <$ <$ <$ <$ <$ <$ <$ <$ <$ <$ <$ <$ <$ <$ <$ <$ <$ <$ <$ <$ <$ <$ <$ <$ <$ <$ <$ <$ <$ <$ <$ <$ <$ <$ <$ <$ <$ <$ <$ <$ <$ <$ <$ <$ <$ <$ <$ <$ <$ <$ <$ <$ <$ [$ S# <$ <$ F$ H$ ;% -% Y$  % +% 9% $% &% &% :% <% [% |% |% 2% 2% 2% 4% 5% 7% 7% 7% n% p% p% p% q% r% s% s% s% u% v% v% z% z% z% z% y% A% A% A% L% M% M% M% N% N% N% N% N% N% N% O% P% P% P% P% Q% Q% R% R% R% R% S% T% T% S% S% S% S% S% U% U% U% U% U% U% U% U% U% U% U% U% U% U% U% U% U% U% U% U% U% U% V% S% S% S% S% S% T% T% W% R% R% Q% X% Q% P% P% P% P% P% O% N% N% N% N% N% Y% M% M% M% M% L% A% A% A% y% z% z% w% v% v% u% Z% s% s% s% r% q% p% p% `% n% 7% 7% 7% 4% 2% 2% 2% l%  & |% <% <% :% &% (% 9% *% +% .% -% X$ ;% G$ D$ <$ <$ &$ <$ <$ <$ <$ <$ <$ <$ <$ <$ <$ <$ <$ <$ <$ <$ <$ <$ <$ <$ <$ <$ <$ <$ <$ <$ <$ <$ <$ <$ <$ <$ <$ <$ <$ <$ <$ <$ <$ <$ <$ <$ <$ <$ <$ <$ <$ <$ <$ <$ <$ <$ <$ <$ <$ <$ <$ <$ <$ <$ <$ <$ <$ <$ <$ <$ <$ <$ <$ <$ <$ <$ <$ <$ <$ <$ <$ <$ <$ <$ <$ <$ <$ &$ <$ <$ <$ <$ y# S# S# [$ <$ z# z# <$ y# y# e# y# y# e# e# e# .& +& .. .. .. .. .. .. .. .. .. .. A+ _+ _+ _+ _+ _+ _+ _+ _+ _+ r. _+ k@ k@ k@ k@ k@ @& #& *. *. *. *. *. *. *. *. *. *. *. *. *. *. *. *. *# -. -. -. -. -. -. -. -. -. -. -. -. -. w. *. *. $# $# $# $# $# $# ",
"@  @  @  @  @  @  @  @  J# $  $  $& d% u$ R@ R@ R@ R@ R@ )$ *  %& ,  ,  ,  !. )  )  )  )  )  )  )  4@ ,  ,  ,  ,  ,  ,  )  )  )  )  )  )  )  )  )  $@ ~  ~  ~  ~  ~  ~  ~  M+ ]  ]  ]  ]  ~% k$ k$ k$ && *& 1  =& <  [  [  [  [  [  [  [  [  [  [  [  [  [  [  [  1  [  [  [  [  [  [  [  [  [  [  [  [  [  [  [  -& y# <$ <$ <$ <$ <$ <$ <$ <$ <$ <$ <$ <$ <$ <$ <$ <$ <$ <$ <$ <$ <$ <$ <$ <$ <$ <$ <$ <$ <$ <$ <$ <$ <$ <$ <$ <$ <$ <$ <$ <$ <$ <$ <$ <$ <$ <$ <$ <$ <$ <$ <$ <$ <$ <$ F$ H$ I$ ;% ;% Y$ +% 9% &% <% |%  &  & 2% 2% 2% 3% 7% 7% n% o% p% ;& r% s% Z% u% v% z% z% y% A% A% >& M% M% M% N% N% N% N% P% P% X% Q% R% R% R% S% ,& U% U% '& )& !& ~& {& {& {& ]& ^& /& (& _& _& :& <& [& }& }& |& |& |& 1& 1& 1& 1& 2& 3& 3& 3& 4& 5& 5& 5& 5& 5& 5& 6& 7& 7& 7& 7& 7& 7& 6& 6& 5& 5& 5& 5& 5& 4& 4& 3& 3& 3& 2& 2& 1& 1& 8& |& |& }& }& }& <& <& _& 9& (& /& /& ^& ]& {& {& 0& a& !& )& b& U% ,& ,& S% c& R% Q% Q% P% P% O% N% N% N% d& M% M% e& A% A% y% y% z% f& u% u% Z% r% r% p% p% o% 7% 7% 7% 3% 2% 2% 2%  & |% [% <% $% *%  % -% ;% ;% H$ F$ F$ <$ <$ S# <$ <$ <$ <$ <$ <$ <$ <$ <$ <$ <$ <$ <$ <$ <$ <$ <$ <$ <$ <$ <$ <$ <$ <$ <$ <$ <$ <$ <$ <$ <$ <$ <$ <$ <$ <$ <$ <$ <$ <$ <$ <$ <$ <$ <$ <$ <$ <$ <$ <$ <$ <$ <$ <$ <$ <$ <$ <$ <$ <$ <$ <$ <$ <$ <$ <$ <$ <$ <$ <$ <$ <$ <$ <$ <$ &$ &$ <$ <$ <$ z# T# [$ S# S# %$ %$ z# y# K$ y# <$ z# }$ _# F@ g& h& b% .. .. .. .. .. .. .. .. .. F# _+ _+ _+ _+ _+ _+ _+ _+ _+ i& _+ k@ k@ k@ k@ k@ j& k& l& *. *. *. *. *. *. *. *. *. *. *. *. *. *. *. *. <+ -. -. -. -. -. -. -. -. -. -. -. -. =. *. *. X# $# $# $# $# $# ",
"@  @  @  @  @  @  @  @  %  $  $  m& d% u$ R@ R@ R@ R@ R@ )$ *  %& ,  ,  ,  '  )  )  )  )  )  )  )  #@ !. ,  ,  ,  ,  n& )  )  )  )  )  )  )  )  )  )  o& ~  ~  ~  ~  ~  ~  ]  ]  ]  ]  ]  ~% k$ k$ k$ p& q& |  [  [  [  [  [  [  [  [  [  [  [  [  [  [  [  [  [  [  [  [  [  [  [  [  [  [  [  [  [  [  [  [  :  r& %$ <$ <$ <$ <$ <$ <$ <$ <$ <$ <$ <$ <$ <$ <$ <$ <$ <$ <$ <$ <$ <$ <$ <$ <$ <$ <$ <$ <$ <$ <$ <$ <$ <$ <$ <$ <$ <$ <$ <$ <$ <$ <$ <$ <$ <$ <$ <$ <$ F$ H$ I$ ;% Y$ +% 9% &% [% |% l% 2% 7% 7% 7% 7% p% p% p% s% s% u% u% w% z% z% B% A% >& M% M% s& N% N% P% P% R% R% R% S% S% U% )& !& {& {& t& ^& u& (& 9& [& }& v& w& 1& 3& 5& 5& 6& x& y& y& y& z& A& B& B& C& D& D& E& F& G& H& H& I& I& J& K& K& L& M& M& N& O& O& O& P& P& P& P& P& P& Q& R& R& R& R& R& R& Q& P& P& P& P& P& P& O& O& O& N& M& M& M& L& L& S& S& I& I& H& T& F& E& E& D& U& V& B& B& W& z& y& X& Y& 7& 7& 4& 4& Z& 1& w& }& [& `& _& /& ^& ^&  * {& a& !& )& U% S% S% c& R% .* P% P% +* N% @* M% M% A% A% B% z% z% v% u% Z% r% r% p% o% n% 7% 7% 7% 3% 2%  & j% #* (% *% Z$ Y$ I$ H$ F$ D$ <$ <$ <$ <$ <$ <$ <$ <$ <$ <$ <$ <$ <$ <$ <$ <$ <$ <$ <$ <$ <$ <$ <$ <$ <$ <$ <$ <$ <$ <$ <$ <$ <$ <$ <$ <$ <$ <$ <$ <$ <$ <$ <$ <$ <$ <$ <$ <$ <$ <$ <$ <$ <$ <$ <$ <$ <$ <$ <$ <$ <$ <$ <$ <$ <$ <$ <$ <$ <$ <$ <$ <$ <$ <$ <$ <$ <$ <$ z# z# %$ %$ [$ S# [$ %$ %$ D$ <$ z# }$ e# _# $* D% %* .. .. .. .. .. .. .. .. ..  @ _+ _+ _+ _+ _+ _+ _+ _+ &* ** A+ k@ k@ k@ k@ =* k& k& -* *. *. *. *. *. *. *. *. *. *. *. *. *. *. *. *. *. -. -. -. -. -. -. -. -. -. -. -. ;* *. *. *. X# $# $# $# $# $# ",
"@  @  @  @  @  @  @  @  $  $  $  m& d% )% R@ R@ R@ R@ R@ )$ *  %& ,  ,  ,  4@ )  )  )  )  )  )  )  )  )  4@ ,  ,  ,  #@ )  )  )  )  )  )  )  )  )  )  )  ~  ~  ~  ~  ~  '# ]  ]  ]  ]  ]  ]$ k$ k$ >* ,* [  [  [  1  1  [  [  [  [  [  [  [  [  [  [  [  [  [  [  [  [  [  [  [  [  [  [  [  [  [  [  [  [  [  '* p$ <$ <$ <$ <$ <$ <$ <$ <$ <$ <$ <$ <$ <$ <$ <$ <$ <$ <$ <$ <$ <$ <$ <$ <$ <$ <$ <$ <$ <$ <$ <$ <$ <$ <$ <$ <$ <$ <$ <$ <$ <$ <$ <$ <$ <$ <$ F$ ;% )* !* &% <% k% k% l% 2% 5% 7% n% o% q% r% s% s% u% v% z% z% A% A% ~* M% s& N% N% P% P% R% R% S% U% )& !& ~& {* ^& u& (& `& [& |& w& 1& 4& 7& x& X& z& ]* B& B& U& ^* F& G& I& J& K& M& /* O& (* R& _* :* <* [* }* |* 1* 2* 3* 4* 5* 6* 7* 7* 8* 8* 9* 0* a* a* b* c* d* d* e* f* f* f* f* f* g* h* h* h* h* h* h* g* g* f* f* f* f* f* d* d* i* b* j* a* a* k* 0* 8* 8* l* 7* 5* m* 4* 2* n* 1* }* }* <* o* p* _* Q& O& O& M& K& K& q* H& F& ^* U& r* B& ]* s* s* t* 7& 4& 3& 1& w& |& [& _& (& ^& ]& {& !& )& U% U% T% R% Q% P% +* N% N% @* M% >& A% A% y% v% v% u% s% s% q% p% p% n% 7% 3% 2% l% |% <% $%  % X$ G$ <$ S# S# <$ <$ <$ <$ <$ <$ <$ <$ <$ <$ <$ <$ <$ <$ <$ <$ <$ <$ <$ <$ <$ <$ <$ <$ <$ <$ <$ <$ <$ <$ <$ <$ <$ <$ <$ <$ <$ <$ <$ <$ <$ <$ <$ <$ <$ <$ <$ <$ <$ <$ <$ <$ <$ <$ <$ <$ <$ <$ <$ <$ <$ <$ <$ <$ <$ <$ <$ <$ <$ <$ <$ <$ &$ <$ <$ <$ <$ z# %$ [$ %$ [$ [$ y# z# <$ z# z# u* v* w* +& .. .. .. .. .. .. .. .. (+ _+ _+ _+ _+ _+ _+ _+ _+ _+ x* ** y* k@ k@ k@ k@ =* k& z* *. *. *. I# ,$ X# $# X# ,$ I# *. *. *. *. *. *. *. *. l# -. -. -. -. -. -. -. -. -. -. p@ *. *. *. $# $# $# $# $# $# ",
"@  @  @  @  @  @  @  '$ $  $  $  d% d% R@ R@ R@ R@ R@ R@ )$ *  A* ,  ,  ,  #@ )  )  )  )  )  )  )  )  )  )  )  B. n& )  )  )  )  )  )  )  )  )  )  )  )  5@ ~  ~  ~  ~  {  ]  ]  ]  ]  ]  1+ k$ k$ B* C* [  [  [  [  [  [  [  [  [  [  [  [  [  [  [  [  [  [  [  [  [  [  [  [  [  [  [  [  [  [  [  [  [  [  :  r& %$ <$ <$ <$ <$ <$ <$ <$ <$ <$ <$ <$ <$ <$ <$ <$ <$ <$ <$ <$ <$ <$ <$ <$ <$ <$ <$ <$ <$ <$ <$ <$ <$ <$ <$ <$ <$ <$ <$ <$ <$ <$ <$ F$ G$ =% (% 1% m% m% 7% q% <& D* E* M& D* D* O& O& P& P& Q& Q& R& _* F* G* :* :* H* <* [* I* I* }* 1* 1* J* 3* K* L* 6* 7* 7* M* 9* 0* k* N* b* c* d* O* f* P* Q* R* S* S* T* U* V* W* X* Y* Z* `*  = .= += @= #= $= %= &= *= == -= ;= >= ,= '= )= != ~= {= ]= ^= ^= /= (= (= _= := <= [= }= |= 1= 2= 3= 3= 3= 3= 3= 4= 4= 4= 3= 3= 3= 3= 3= 1= 1= |= }= [= := 5= _= (= 6= /= 7= 8= 9= {= 0= != '= a= b= c= d= -= *= e= &= %= f= g= h= .= i= j= k= Z* X* l= m= V* n= o= S* R* p= P* f* q= d* d* c* a* N* r= 9* 8* s= 7* 6* 6* K* 4* 2* n* 1* 1* }* }* <* <* o* o* :* :* G* F* _* R& Q& Q& P& O& O& D* D* t= E* M& u= L& K& K& K& S& H& v= w= <$ E$ <$ <$ <$ <$ <$ <$ <$ <$ <$ <$ <$ <$ <$ <$ <$ <$ <$ <$ <$ <$ <$ <$ <$ <$ <$ <$ <$ <$ <$ <$ <$ <$ <$ <$ <$ <$ <$ <$ <$ <$ <$ <$ <$ <$ <$ <$ <$ <$ <$ <$ <$ <$ <$ <$ <$ <$ <$ <$ <$ <$ <$ <$ <$ <$ <$ <$ <$ <$ <$ <$ &$ &$ <$ <$ <$ z# z# z# [$ %$ %$ %$ q$ K$ <$ x= v* y= z= A= b% .. .. .. .. .. .. .. A+ _+ _+ _+ _+ _+ _+ _+ _+ _+ i& ** y* k@ k@ k@ k@ =* B= I# *. I# $# $# $# $# $# $# $# $# $# I# *. *. *. *. *. *. *. -. -. -. -. -. -. -. -. -. =. *. *. *. C= $# $# $# $# $# $# ",
"@  @  @  @  @  @  @  y. $  $  c% d% d% R@ R@ R@ R@ R@ R@ )$ *  D= ,  ,  ,  )  )  )  )  )  )  )  )  )  )  )  )  )  )  )  )  )  )  )  )  )  )  )  )  )  )  !  ~  ~  ~  ~  )# ]  ]  ]  ]  ]  ]  E= F= G= H= [  [  <  <  [  [  <  [  [  [  [  [  [  [  [  [  [  [  [  [  [  [  [  [  [  [  [  [  [  [  [  [  [  [  [  -& y# <$ <$ <$ <$ <$ <$ <$ <$ <$ <$ <$ <$ <$ <$ <$ <$ <$ <$ <$ <$ <$ <$ <$ <$ <$ <$ <$ <$ <$ <$ <$ <$ <$ <$ <$ <$ <$ <$ <$ <$ <$ I= +% |% 7% 7% 7% o% p% p% M% J= K= L= L= L= L= L= L= L= M= L= L= L= L= L= L= N= L= L= O= O= P= P= P= Q= Q= Q= R= R= S= T= T= T= U= K= V= W= W= X= X= Y= Y= Z= `=  - .- +- @- #- $- %- &- *- =- -- ;- >- ,- '- )- !- ~- {- ]- ^- /- (- _- :- <- [- }- |- 1- 2- 3- 4- 5- 6- 7- 8- 9- 0- a- b- c- d- d- e- f- g- g- g- h- h- h- h- g- g- g- g- g- e- d- d- b- i- 0- j- 8- k- 7- l- 5- m- 2- 2- |- n- }- <- o- :- (- p- /- q- ]- ~- r- !- '- s- >- >- ;- =- *- t- u- %- %- #- +- +- v- `= w- x- Y= Y= X= W= W= W= y- K= T= T= T= T= S= R= z- Q= Q= P= P= P= O= O= O= L= L= L= O= L= L= L= L= L= M= L= L= L= L= L= L= L= A- L= L= L= P= A- Q= L=  = q$ Z$ F$ <$ <$ <$ <$ <$ <$ <$ <$ <$ <$ <$ <$ <$ <$ <$ <$ <$ <$ <$ <$ <$ <$ <$ <$ <$ <$ <$ <$ <$ <$ <$ <$ <$ <$ <$ <$ <$ <$ <$ <$ <$ <$ <$ <$ <$ <$ <$ <$ <$ <$ <$ <$ <$ <$ <$ <$ <$ <$ <$ <$ <$ <$ <$ <$ <$ <$ <$ <$ <$ <$ <$ <$ <$ <$ <$ <$ z# <$ <$ %$ [$ %$ q$ <$ B- C- D- E- F- G- .. .. .. .. .. .. B+ _+ _+ _+ _+ _+ _+ _+ _+ _+ _+ H- ** y* k@ k@ k@ k@ I- *. *. 3$ $# $# $# $# $# $# $# $# $# $# $# I# *. *. *. *. *. *. l# -. -. -. -. -. -. -. *# *. *. *. *. $# $# $# $# $# $# $# ",
"@  @  @  @  @  @  >. $  $  $  J- d% K- R@ R@ R@ R@ R@ R@ )$ *  L- 4@ !. B. )  )  )  )  )  )  )  )  )  )  )  )  )  )  )  )  )  )  )  )  )  )  )  )  )  )  )  ~  ~  ~  ~  ]  ]  ]  ]  ]  ]  ]  1+ M- N- 2  1  [  <  [  [  [  [  [  [  [  [  [  [  [  [  [  [  [  [  [  [  [  [  [  [  [  [  [  [  [  [  [  [  [  [  G. /% <$ <$ <$ <$ <$ <$ <$ <$ <$ <$ <$ <$ <$ <$ <$ <$ <$ <$ <$ <$ <$ <$ <$ <$ <$ <$ <$ <$ <$ <$ <$ <$ <$ <$ <$ <$ <$ <$ <$ <$ Y$ k% 7% n% p% p% r% s% u% s% .* O- P- Q- R- S- S- T- U- V- V- V- W- W- W- W- X- X- X- X- Y- Y- Z- Z- Z- `- `- `- `- `- `- `- `- `- `- `- `- `- `- `- `-  ;  ; `- Z- Z- X- X- X- .; W- W- V- U- T- S- S- +; Q- @; #; $; %; %; &; *; =; P- -; ;; >; ,; '; ); !; !; ~; {; ]; ^; /; (; _; :; <; [; }; |; 1; 2; 3; 4; 5; 6; 6; 6; 6; 6; 6; 5; 5; 4; 2; 1; |; }; [; 7; 8; 9; 9; /; ^; 0; a; b; c; !; ); d; '; ,; e; f; -; P- =; *; &; %; g; $; #; h; +; R- R- S- U- V- i; W- W- .; j; X- X- Z- Y- `- `- `- `- `- `- `- `- `- `- `- `- `- `- `- `- `- `- `- `- Z- Z- Y- X- X- X- X- X- W- W- W- i; i; V- U- U- T- S- S- Q- Q- Q- Q- #; $; $; k; %; Q- l; |$ 2% &% G$ <$ <$ <$ <$ <$ <$ <$ <$ <$ <$ <$ <$ <$ <$ <$ <$ <$ <$ <$ <$ <$ <$ <$ <$ <$ <$ <$ <$ <$ <$ <$ <$ <$ <$ <$ <$ <$ <$ <$ <$ <$ <$ <$ <$ <$ <$ <$ <$ <$ <$ <$ <$ <$ <$ <$ <$ <$ <$ <$ <$ <$ <$ <$ <$ <$ <$ <$ <$ <$ <$ <$ <$ <$ <$ <$ <$ z# z# %$ <$ %$ y# m; G$ C- n; o; p; ,% .. .. .. .. .. .. _+ _+ _+ _+ _+ _+ _+ _+ _+ _+ _+ ** ** q; k@ k@ k@ k@ r; *. *. ,$ $# $# $# $# $# $# $# $# $# $# $# $# *. *. *. *. *. *. *. -. -. -. -. -. -. p@ *. *. *. *. s; $# $# $# $# $# $# $# ",
"@  @  @  q@ q@ q@ $  $  $  $  t; d% K- R@ R@ R@ R@ R@ R@ *  *  7$ )  )  )  )  )  )  )  )  )  )  )  )  )  )  )  )  )  )  )  )  )  )  )  )  )  )  )  )  )  )  ~  ~  ~  6@ ]  ]  ]  ]  ]  ]  ]  9# u; v; 1  [  [  [  [  [  [  [  [  [  [  [  [  [  [  [  [  [  [  [  [  [  [  [  [  [  [  [  [  [  [  [  [  [  [  [  [  w; y# <$ <$ <$ <$ <$ <$ <$ <$ <$ <$ <$ <$ <$ <$ <$ <$ <$ <$ <$ <$ <$ <$ <$ <$ <$ <$ <$ <$ <$ <$ <$ <$ <$ <$ <$ <$ <$ <$ F$ <% 7% n% p% r% s% s% v% v% u% T% x; d; y; =; *; &; z; %; %; %; %; A; $; $; h; h; Q- Q- Q- R- R- R- R- R- R- S- S- S- S- S- S- S- S- S- S- S- R- S- S- R- R- R- R- Q- Q- Q- h; $; $; A; $; %; %; &; &; *; =; P- -; ;; e; B; ,; '; d; ); C; c; ~; a; ]; ^; D; 9; 8; E; F; G; 2; 4; H; I; J; K; L; M; N; O; P; Q; R; S; T; U; V; U; U; W; X; Y; Q; Z; `; O;  > .> +> @> #> $> %> 3; 1; &> E; <; _; D; ^; *> ]; {; => c; !; ); '; ,; >; ;; ;; -> ;> ;> =; *; *; &; %; %; $; $; h; h; h; Q- Q- Q- R- R- R- R- S- S- S- S- S- S- S- S- R- R- S- S- S- R- R- R- R- R- R- R- Q- Q- h; h; $; $; $; %; %; %; %; %; z; &; *; =; y; P- ;> -; -; ;; e; >; y; >> |$ n% 2% $% S# <$ <$ <$ <$ <$ <$ <$ <$ <$ <$ <$ <$ <$ <$ <$ <$ <$ <$ <$ <$ <$ <$ <$ <$ <$ <$ <$ <$ <$ <$ <$ <$ <$ <$ <$ <$ <$ <$ <$ <$ <$ <$ <$ <$ <$ <$ <$ <$ <$ <$ <$ <$ <$ <$ <$ <$ <$ <$ <$ <$ <$ <$ <$ <$ <$ <$ <$ <$ <$ <$ <$ <$ <$ <$ <$ &$ &$ z# <$ <$ %$ D$ E$ ,> '> )> !> ~> b% .. .. .. .. <@ _+ _+ _+ _+ _+ _+ _+ _+ _+ _+ _+ ** ** {> k@ k@ k@ k@ ]> *. I# $# $# $# $# $# $# $# $# $# $# $# $# $# *. *. *. *. *. *. *. *. *# l# l# =. *. *. *. *. *. i$ $# $# $# $# $# $# $# $# ",
"@  @  @  q@ $  $  $  $  $  $  ^> d% /> R@ R@ R@ R@ (> R@ *  *  7$ )  )  )  )  )  )  )  )  )  )  )  )  )  )  )  )  )  )  )  )  )  )  )  )  )  )  )  )  )  )  e% ~  ~  M+ ]  ]  ]  ]  ]  ]  ]  7@ _> 4+ [  [  [  [  [  [  [  [  [  [  [  [  [  [  [  [  [  [  [  [  [  [  [  [  [  [  [  [  [  [  [  [  [  [  [  [  [  :  =$ <$ <$ <$ <$ <$ <$ <$ <$ <$ <$ <$ <$ <$ <$ <$ <$ <$ <$ <$ <$ <$ <$ <$ <$ <$ <$ <$ <$ <$ <$ <$ <$ <$ <$ <$ <$ <$ <$ x= &% m% n% p% p% r% s% u% v% u% T% x; :> y; =; *; &; z; %; %; %; %; %; A; $; $; h; Q- Q- Q- R- R- R- R- R- R- R- R- S- S- S- S- S- S- S- S- S- S- S- S- R- R- R- R- Q- Q- Q- Q- h; #; $; $; %; %; z; *; =; y; P- ;> -; ;; e; >; ,; <> ); [> c; b; {; }> ]; ^; |> (; 8; 1> }; 2> 2; 4; 3> $> I; J; K; L; 4> 5>  > O; 6> P; Z; 7> 7> 7> Z; 8> 6> O;  > 5> 4> L; @> J; I; H; 5; 2; |; G; }; 1> :; (; |> *> ]; {; b; c; [> ); ); '; '; B; e; ;; -; y; y; *; *; %; %; %; %; $; $; $; h; Q- Q- Q- R- R- R- R- R- S- S- S- S- S- S- S- S- S- S- S- S- S- R- R- R- R- R- R- Q- Q- Q- h; h; $; $; $; %; %; %; %; z; *; *; =; y; y; P- ;> -; -; ;; e; >; ;> 9> G@ n% 1% )* S# <$ <$ <$ <$ <$ <$ <$ <$ <$ <$ <$ <$ <$ <$ <$ <$ <$ <$ <$ <$ <$ <$ <$ <$ <$ <$ <$ <$ <$ <$ <$ <$ <$ <$ <$ <$ <$ <$ <$ <$ <$ <$ <$ <$ <$ <$ <$ <$ <$ <$ <$ <$ <$ <$ <$ <$ <$ <$ <$ <$ <$ <$ <$ <$ <$ <$ <$ <$ <$ <$ <$ <$ <$ <$ <$ &$ <$ &$ z# <$ %$ q$ K$ B- 0> a> b> c> d> .. .. .. .. (+ A+ A+ _+ _+ _+ _+ _+ _+ _+ _+ _+ ** ** e> k@ k@ k@ f> X# s; $# $# $# $# $# $# $# $# $# $# $# $# $# i$ *. *. *. *. *. *. *. *. *. *. *. *. *. *. *. *. i$ $# $# $# $# $# $# $# $# $# ",
"@  @  @  q@ $  $  $  $  $  r@ d% d% g> R@ R@ R@ h> i> j> *  *  7$ )  )  )  )  )  )  )  )  )  )  )  )  )  )  )  )  )  )  )  )  )  )  )  )  )  )  )  )  )  )  e% ~  ~  x$ ]  ]  ]  ]  ]  ]  ^  /  k> [  <  [  [  [  [  [  [  [  [  [  [  [  [  [  [  [  [  [  [  [  [  [  [  [  [  [  [  [  [  [  [  [  [  [  [  [  [  [  p$ y# <$ <$ <$ <$ <$ <$ <$ <$ <$ <$ <$ <$ <$ <$ <$ <$ <$ <$ <$ <$ <$ <$ <$ <$ <$ <$ <$ <$ <$ <$ <$ <$ <$ <$ <$ <$ <$ <$ H$ 9% |% 7% 7% n% p% p% s% s% l> m> b; n> e; e; e; -; -; -; ;> P- P- y; y; *; *; o> %; %; p> p> A; A; $; $; h; h; h; h; h; h; h; h; h; Q- h; h; Q- Q- h; h; h; Q- $; $; $; $; $; $; $; g; k; %; %; z; o> o> *; =; P- P- P- -; -> ;; q> B; '; <> ); ); C; !; c; ~; b; {; }> 0; ^; D; D; r> :; 8; <; 7; E; [; &> &> |; 2> 2> s> s> t> |; |; u> &> &> E; 7; <; <; :; :; (; D; v> ^; 0; }> {; b; ~; c; c; C; ); d; <> '; B; q> ;; -> -> P- P- y; *; o> o> o> z; %; %; k; $; $; $; $; $; $; $; h; Q- h; Q- h; Q- Q- h; h; h; h; h; h; h; h; h; h; h; h; w> w> A; p> p> %; %; %; o> *; y; y; y; P- ;> ;> ;> -; -; e; e; e; >; ,; ,; '; x> y> :> [> B; z> {@ [% Y$ <$ <$ <$ <$ <$ <$ <$ <$ <$ <$ <$ <$ <$ <$ <$ <$ <$ <$ <$ <$ <$ <$ <$ <$ <$ <$ <$ <$ <$ <$ <$ <$ <$ <$ <$ <$ <$ <$ <$ <$ <$ <$ <$ <$ <$ <$ <$ <$ <$ <$ <$ <$ <$ <$ <$ <$ <$ <$ <$ <$ <$ <$ <$ <$ <$ <$ <$ <$ <$ <$ <$ <$ <$ <$ <$ <$ <$ <$ <$ <$ z# z# <$ <$ %$ E$ A> B> C> D> g$ .. .. .. .. .. .. .. .. (+  @ A+ _+ _+ _+ _+ r. ** ** E> k@ k@ k@ f> $# $# $# $# $# $# $# $# $# $# $# $# $# $# s; *. *. *. *. *. *. *. *. *. *. *. *. *. *. *. *. i$ $# $# $# $# $# $# $# $# $# $# ",
"@  @  @  $  $  $  $  $  $  F> d% d% g> R@ R@ R@ G> H> v$ *  *  ~  )  )  )  )  )  )  )  )  )  )  )  )  )  )  )  )  )  )  )  )  )  )  )  )  )  )  )  )  )  )  e% ~  ~  x$ ]  ]  ]  ]  ]  ]  1+ I> J> [  [  [  [  [  [  [  [  [  [  [  [  [  [  [  [  [  [  [  [  [  [  [  [  [  [  [  [  [  [  [  [  [  [  [  [  [  [  [  '* g# <$ <$ <$ <$ <$ <$ <$ <$ <$ <$ <$ <$ <$ <$ <$ <$ <$ <$ <$ <$ <$ <$ <$ <$ <$ <$ <$ <$ <$ <$ <$ <$ <$ <$ <$ <$ <$ <$ <$ F$ H$ *% 1% 7% 7% 7% o% p% z% 0* 1= K> K> K> K> K> K> K> K> K> K> K> L> L> L> L> <= <= L> M> <= <= }= }= N> N> O> 2= P> Q> R> S> T> T> T> U> V> V> W> X> X> Y> Z> `> `>  , ., ., +, @, #, #, $, %, &, &, *, =, -, O- ;, >, >> x; ,, ', ), N= O= Q= z- !, K= V= X= ~, {, `= .- ], #- #- %- ^, ^, &- /, /, *- (, (, (, (, (, (, (, _, (, (, (, /, /, t- t- ^, %- :, #- ], .- .- `= Y= W= W= K= <, !, z- Q= O= ), ', z> ,, x; >> >, [, O- =, *, &, &, }, %, |, #, 1, 2, +, ., 3, 4, 4, 5, Z> Y> X> 6, W> V> V> 7, T> T> S> R> Q> P> 2= 2= N> N> }= M> <= <= <= <= L> <= 8, L> L> L> L> L> K> K> K> K> K> K> K> _= K> K> K> K> K> _= := K> K> 6= 5* (# F$ D$ <$ <$ <$ <$ <$ <$ <$ <$ <$ <$ <$ <$ <$ <$ <$ <$ <$ <$ <$ <$ <$ <$ <$ <$ <$ <$ <$ <$ <$ <$ <$ <$ <$ <$ <$ <$ <$ <$ <$ <$ <$ <$ <$ <$ <$ <$ <$ <$ <$ <$ <$ <$ <$ <$ <$ <$ <$ <$ <$ <$ <$ <$ <$ <$ <$ <$ <$ <$ <$ <$ <$ <$ <$ <$ <$ <$ <$ <$ <$ <$ <$ D$ <$ z# <$ q$ A> B> a> 9, ~> b% .. .. .. .. .. .. .. .. .. .. (+  @ A+ _+ 0, a, s. K@ k@ k@ k@ f> $# $# $# $# $# $# $# $# $# $# $# $# $# $# *. *. *. *. *. *. *. *. *. *. *. *. *. *. *. *. I# $# $# $# $# $# $# $# $# $# $# $# ",
"@  @  O$ $  $  $  $  $  $  d% d% d% g> R@ R@ b, H> H> c, *  *  )  )  )  )  )  )  )  )  )  )  )  )  )  )  )  )  )  )  )  )  )  )  )  )  )  )  )  )  )  )  )  ~  ~  ~  x$ ]  ]  ]  ]  ]  ]  ]$ d, e, [  [  [  [  [  [  [  [  [  [  [  [  [  [  [  [  [  [  [  [  [  [  [  [  [  [  [  [  [  [  [  [  [  [  [  [  [  [  [  [  /% <$ <$ <$ <$ <$ <$ <$ <$ <$ <$ <$ <$ <$ <$ <$ <$ <$ <$ <$ <$ <$ <$ <$ <$ <$ <$ <$ <$ <$ <$ <$ <$ <$ <$ <$ <$ <$ <$ <$ <$ <$ f, X$  % $% <% 1% 3% n% v% g, h, h, +* i, l> .* j, T% T% T% U% '& !& !& k,  * ]& /& (& 9& <& <& |& 1& 3& 4& 6& 7& X& y& z& A& V& V& D& E& G& I& l, m, M& D* P& R& _* :* o* <* }* 1* J* 4* L* 5* 7* 8* 9* N* n, i* d* f* P* p= o, p, o= V* q, r, X* Y* s, `*  = t, += u, @= v, f= w, w, x, y, y, z, z, A, A, A, A, A, A, A, A, A, A, z, B, &= y, y, %= w, f= f= g= @= += += i=  = `* Z* X* X* W* V* n= T* o, p= P* C, f* i* b* N* 0* 8* D, 7* 5* 4* 3* n* E, }* <* F, p* R& Q& (* t= u= K& q* H& F& E& G, C& B& ]* ]* y& X& 7& 6& 4& 2& w& |& <& <& _& H, ^&  * {& I, !& '& U% U% T% T% J, .* .* P% i, +* h, M% M% L% K, L, M, N, m% O, )* <$ <$ <$ <$ <$ <$ <$ <$ <$ <$ <$ <$ <$ <$ <$ <$ <$ <$ <$ <$ <$ <$ <$ <$ <$ <$ <$ <$ <$ <$ <$ <$ <$ <$ <$ <$ <$ <$ <$ <$ <$ <$ <$ <$ <$ <$ <$ <$ <$ <$ <$ <$ <$ <$ <$ <$ <$ <$ <$ <$ <$ <$ <$ <$ <$ <$ <$ <$ <$ <$ <$ <$ <$ <$ <$ <$ <$ <$ <$ <$ <$ <$ <$ <$ D$ D$ z# z# D$ x= I= P, Q, R, g$ .. .. .. .. .. .. .. .. .. .. .. .. .. .. .. .. +& k@ k@ k@ k@ f> $# $# $# $# $# $# $# $# $# $# $# $# $# i$ *. *. *. *. *. *. *. *. *. *. *. *. *. *. *. I# $# $# $# $# $# $# $# $# $# $# $# $# ",
"@  @  >. $  $  $  $  $  $  d% d% d% u$ R@ R@ S, H> H> T, *  *  )  )  )  )  )  )  )  )  )  )  #@ @$ U, )  )  )  )  )  )  )  )  )  )  )  )  )  )  )  )  )  )  ~  ~  ~  x$ ]  ]  ]  ]  ]  1+ V, W, 5+ [  [  [  [  [  [  [  [  [  [  [  [  [  [  [  [  [  [  [  [  [  [  [  [  [  [  [  [  [  [  [  [  [  [  [  [  [  [  [  [  X, g# <$ <$ <$ <$ <$ <$ <$ <$ <$ <$ <$ <$ <$ <$ <$ <$ <$ <$ <$ <$ <$ <$ <$ <$ <$ <$ <$ <$ <$ <$ <$ <$ <$ <$ <$ <$ <$ <$ <$ <$ <$ <$ <$ F$ H$ X$ =% +% $% #* }% k% 2% 7% 7% n% p% p% q% r% s% t% v% v% z% y% A% A% Y, M% g, h, N% P% P% R% R% R% S% ,& U% !& a& {& {* t& /& _& `& }& v& 1& 2& 3& 6& 7& x& y& Z, ]* A& B& C& D& E& G& G& I& J& K& L& M& D* (* (* R& _* _* :* <* <* `,  ' }* |* 1* 1* J* 2* 4* K* K* .' 5* 5* 5* +' +' +' 7* 7* 7* 7* 7* 7* 7* @' +' +' #' #' 5* 5* .' .' K* 4* 3* 2* 1* 1* 1* |* }*  ' <* <* :* :* _* R& (* (* O& M& M& L& S& I& $' E& E& ^* U& V& A& W& ]* y& X& %' 7& 4& 3& 1& v& &' [& `& _& /& ^& t& {& !& )& U% ,& S% R% R% .* P% i, N% h, M% M% L% A% *' z% w% v% u% s% s% r% p% p% o% 7% 7% m% 3% |% <% (% *% Z$ ;% H$ G$ <$ &$ <$ <$ <$ <$ <$ <$ <$ <$ <$ <$ <$ <$ <$ <$ <$ <$ <$ <$ <$ <$ <$ <$ <$ <$ <$ <$ <$ <$ <$ <$ <$ <$ <$ <$ <$ <$ <$ <$ <$ <$ <$ <$ <$ <$ <$ <$ <$ <$ <$ <$ <$ <$ <$ <$ <$ <$ <$ <$ <$ <$ <$ <$ <$ <$ <$ <$ <$ <$ <$ <$ <$ <$ <$ <$ <$ <$ <$ <$ <$ <$ <$ <$ <$ <$ <$ <$ <$ <$ D$ z# D$ G$ n; =' -' ;' .. .. .. .. .. .. .. .. .. .. .. .. .. .. .. .. >' k@ k@ k@ k@ f> $# $# $# $# $# $# $# $# $# $# $# $# $# ,' *. *. *. *. *. *. *. *. *. *. *. *. *. *. C= $# $# $# $# '' )' !' ~' .. $# $# $# $# ",
"@  @  %  $  $  $  $  $  $  d% d% d% g> R@ R@ S, H> H> {' *  *  )  )  )  )  )  )  )  )  )  n& ]' ]' ]' U, )  )  )  )  )  )  )  )  )  )  )  )  )  )  )  )  )  ~  ~  ~  )# ]  ]  ]  ]  ]  ^' /' (' [  [  [  [  [  [  [  [  [  [  [  [  [  [  [  [  [  [  [  [  [  [  [  [  [  [  [  [  [  [  [  [  [  [  [  [  [  [  [  [  [  :  =$ <$ <$ <$ <$ <$ <$ <$ <$ <$ <$ <$ <$ <$ <$ <$ <$ <$ <$ <$ <$ <$ <$ <$ <$ <$ <$ <$ <$ <$ <$ <$ <$ <$ <$ <$ <$ <$ <$ <$ <$ <$ <$ <$ <$ <$ &$ <$ <$ F$ H$ I$ X$ Z$ *% &% <% |% k% 2% 2% 2% 7% 7% 7% o% p% p% r% s% s% u% u% z% z% z% *' A% A% M% M% h, N% O% O% P% X% R% R% c& S% S% U% b& !& a& {& {& {& ^& ^& (& _& 9& <& _' |& w& v& 2& :' 4& 5& 5& 7& 7& <' X& y& z& ]* ]* W& A& B& V& r* U& U& U& [' E& E& E& E& ^* }' F& F& F& G& G& G& G& G& G& G& G& F& F& F& F& E& ^* ^* E& E& D& U& U& U& r* V& B& A& A& W& ]* ]* y& y& X& |' 7& 6& 5& 5& 4& 3& 1& v& }& }& <& 9& 9& _& (& ^& t& {* {& a& !& 1' U% U% S% S% c& R% Q% P% P% i, N% N% @* M% M% A% A% A% z% z% v% u% s% s% r% r% p% o% 7% 7% m% 2% 2% 2% 2%  & <% &% 9% )* =% ;% I$ H$ F$ <$ [$ S# <$ <$ <$ <$ <$ <$ <$ <$ <$ <$ <$ <$ <$ <$ <$ <$ <$ <$ <$ <$ <$ <$ <$ <$ <$ <$ <$ <$ <$ <$ <$ <$ <$ <$ <$ <$ <$ <$ <$ <$ <$ <$ <$ <$ <$ <$ <$ <$ <$ <$ <$ <$ <$ <$ <$ <$ <$ <$ <$ <$ <$ <$ <$ <$ <$ <$ <$ <$ <$ <$ <$ <$ <$ <$ <$ <$ <$ <$ <$ <$ <$ <$ <$ <$ <$ <$ <$ <$ <$ <$ <$ <$ <$ <$ G$ 2' 3' 4' ~> b% .. .. .. .. .. .. .. .. .. .. .. .. 5' 6' 6' v@ k@ k@ k@ k@ f> $# $# $# $# $# $# $# $# $# $# $# $# X# *. *. *. *. *. *. *. *. *. *. *. *. *. *. *. $# $# b% 7' 8' 9' 9' 9' 9' 9' 0' a' q. $# ",
"@  #  $  $  $  $  $  $  $  b' d% d% g> R@ R@ c' H> H> d' *  e' )  )  )  )  )  )  )  f' @$ ]' ]' ]' ]' ]' #@ )  )  )  )  )  )  )  )  )  )  )  )  )  )  )  )  L+ ~  ~  {  ]  ]  ]  g' h' i' j' *@ [  <  [  [  [  [  [  [  [  [  [  [  [  [  [  [  [  [  [  [  [  [  [  [  [  [  [  [  [  [  [  [  [  [  [  [  [  [  [  [  [  /$ k' y# <$ <$ <$ <$ <$ <$ <$ <$ <$ <$ <$ <$ <$ <$ <$ <$ <$ <$ <$ <$ <$ <$ <$ <$ <$ <$ <$ <$ <$ <$ <$ <$ <$ <$ <$ <$ <$ <$ <$ <$ <$ <$ <$ <$ <$ <$ <$ <$ <$ &$ S# <$ <$ G$ I$ X$ Y$ )* *% 9% &% :% #* <% |% k% 2% 4% 5% 5% 7% 7% n% o% p% p% r% s% s% t% u% v% w% w% z% *' B% A% ~* >& M% g, M% N% N% l' N% i, P% P% X% .* R% R% T% S% S% V% b& b& )& )& )& !& a& ~& {& {& ^& t& ^& ^& ^& ^& m' _& _& _& 9& `& `& `& `& <& [& [& [& [& [& }& }& }& }& }& _' }& [& [& [& [& [& 9& 9& 9& `& 9& _& _& _& _& u& ^& ^& ^& t& t&  * {& ~& a& !& !& )& )& )& b& ,& ,& S% T% R% R% R% R% X% n' P% i, N% l' Y% M% g, M% M% >& >& A% B% y% z% f& v% v% u% s% s% r% q% q% p% o% 7% 7% 7% 5% 2% 2% k% |% [% <% :% &% $% *% *% +% Y$ ;% H$ F$ <$ [$ S# &$ <$ <$ <$ <$ <$ <$ <$ <$ <$ <$ <$ <$ <$ <$ <$ <$ <$ <$ <$ <$ <$ <$ <$ <$ <$ <$ <$ <$ <$ <$ <$ <$ <$ <$ <$ <$ <$ <$ <$ <$ <$ <$ <$ <$ <$ <$ <$ <$ <$ <$ <$ <$ <$ <$ <$ <$ <$ <$ <$ <$ <$ <$ <$ <$ <$ <$ <$ <$ <$ <$ <$ <$ <$ <$ <$ <$ <$ <$ <$ <$ <$ <$ <$ <$ <$ <$ <$ <$ <$ <$ <$ <$ <$ <$ <$ <$ <$ <$ q$ E$ H$ n; o' p' g$ .. .. .. .. .. .. .. .. .. .. .. q' r' r' r' r' s' t' u' k@ v' $# $# $# $# $# $# $# $# $# $# $# $# s; *. *. *. *. *. *. *. *. *. *. *. *. *. *. i$ $# b% 9' 9' 9' 9' 9' 9' 9' 9' 9' 9' 9' 9' ",
"@  J# $  $  $  $  $  $  $  m& d% d% w' R@ R@ x' H> H> *  *  y' )  )  )  )  )  )  U, ]' ]' ]' ]' ]' ]' ]' z' )  )  )  )  )  )  )  )  )  )  )  )  )  )  )  )  !  ~  ~  ~  ]  A' B' C' D' E' F' [  [  [  [  [  [  [  [  [  [  [  [  [  [  [  [  [  [  [  [  [  [  [  [  [  [  [  [  [  [  [  [  [  [  [  [  [  [  [  [  [  [  [  w;  # <$ <$ <$ <$ <$ <$ <$ <$ <$ <$ <$ <$ <$ <$ <$ <$ <$ <$ <$ <$ <$ <$ <$ <$ <$ <$ <$ <$ <$ <$ <$ <$ <$ <$ <$ <$ <$ <$ <$ <$ <$ <$ <$ <$ <$ <$ <$ <$ <$ <$ <$ <$ <$ <$ <$ &$ z# G' f, F$ I$ I$ ;% Y$ Z$ Y$ +% !* $% $% &% &% #* [% |% |% k% 2% 2% 2% 2% 3% 3% 3% 7% 7% n% o% o% p% q% r% r% r% s% Z% u% u% v% v% w% z% y% y% y% A% A% A% A% >& M% M% M% M% d& d& @* N% N% N% N% i, i, P% P% P% P% P% P% P% P% P% P% n' n' P% P% n' P% P% P% l> l> P% P% P% Q% n' P% P% P% P% P% P% P% P% P% P% H' P% P% P% i, N% N% N% N% @* @* M% M% M% M% M% e& >& A% A% A% *' y% y% z% z% v% v% v% u% u% Z% s% r% r% q% p% o% o% o% n% 7% 5% 3% 2% m% 2% l% 2% l% |% |% }% <% &% &% $% $% 9% *% )* Y$ Y$ ;% ;% I$ G$ F$ m; <$ z# &$ <$ <$ <$ <$ <$ <$ <$ <$ <$ <$ <$ <$ <$ <$ <$ <$ <$ <$ <$ <$ <$ <$ <$ <$ <$ <$ <$ <$ <$ <$ <$ <$ <$ <$ <$ <$ <$ <$ <$ <$ <$ <$ <$ <$ <$ <$ <$ <$ <$ <$ <$ <$ <$ <$ <$ <$ <$ <$ <$ <$ <$ <$ <$ <$ <$ <$ <$ <$ <$ <$ <$ <$ <$ <$ <$ <$ <$ <$ <$ <$ <$ <$ <$ <$ <$ <$ <$ <$ <$ <$ <$ <$ <$ <$ <$ <$ <$ <$ <$ <$ <$ <$ <$ <$ D$ D$ I' X$ J' K' l# .. .. .. .. .. .. .. .. .. .. L' M' r' r' r' r' r' r' r' N' k@ $# $# $# $# $# $# $# $# $# $# $# $# i$ *. *. *. *. *. *. *. *. *. *. *. *. *. C= $# $# O' 9' 9' 9' 9' 9' 9' 9' 9' 9' 9' 9' 9' ",
"O$ $  $  $  $  $  $  $  $  ^> d% d% P' R@ R@ x' H> Q' *  *  y' )  )  )  )  #@ ]' ]' ]' ]' ]' ]' ]' ]' ]' R' )  )  )  )  )  )  )  )  )  )  )  )  )  )  )  )  )  L+ ~  ~  S' C' C' C' T' U' V' <  [  [  [  [  [  [  [  [  [  [  [  [  [  [  [  [  [  [  [  [  [  [  [  [  [  [  [  [  [  [  [  [  [  [  [  [  [  [  [  [  [  [  '*  # <$ <$ <$ <$ <$ <$ <$ <$ <$ <$ <$ <$ <$ <$ <$ <$ <$ <$ <$ <$ <$ <$ <$ <$ <$ <$ <$ <$ <$ <$ <$ <$ <$ <$ <$ <$ <$ <$ <$ <$ <$ <$ f# !@ /# /# /# /# /# /# /# /# /# /# /# /# /# /# /# /# /# /# /# /# /# ]# /# !@ ~@ ~@ Y@ C#  # W' X' Y' Z' y= v* v* D- D- `' 0> n; '> '> P, 3' 3'  ) .) .) .) +) +) @) @) @) #) $) $) $) $) $) <% <% %) &) &) &) &) &) *)  &  &  &  &  &  &  &  & =) -) -) -) -) -) -) -) -) -) -) -) -) -) -) -) -) -) 4% 4% 4% 4% -) -) ;) -) -) -) -) -) -) -) -) -) -) -) -) -) -) >) 2%  &  &  &  &  &  &  & |% &) &) &) &) &) &) %) i% ,) $) $) $) $) #) @) @) @) +) +) .) .) .)  ) 3' 3' 3' P, '> '> n; `' `' D- D- v* y= y= Z' Z' W' |$ =$ c@ Y@ ~@ !@ !@ r+ ]# ^# /# /# /# /# /# /# /# /# /# /# /# /# /# /# /# /# /# /# /# /# /# /# /# /# /# /# /# /# /# !@ S# <$ <$ <$ <$ <$ <$ <$ <$ <$ <$ <$ <$ <$ <$ <$ <$ <$ <$ <$ <$ <$ <$ <$ <$ <$ <$ <$ <$ <$ <$ <$ <$ <$ <$ <$ <$ <$ <$ <$ <$ <$ <$ <$ <$ <$ <$ <$ <$ <$ <$ <$ <$ <$ <$ <$ <$ <$ <$ <$ <$ <$ <$ <$ <$ <$ <$ <$ <$ <$ <$ <$ <$ <$ <$ <$ <$ <$ <$ <$ <$ <$ <$ D$ D$ D$ G$ 3' 4' ~> .. .. .. .. .. .. .. .. .. .. ') )) r' r' r' r' r' r' !) k@ k@ F# ~) (+ $# $# $# $# $# $# $# $# $# i$ *. *. *. *. *. *. *. *. *. *. *. *. *. ,$ $# $# 8' 9' 9' 9' 9' 9' 9' 9' 9' 9' 9' 9' 9' ",
">. $  $  $  $  $  $  $  $  {) d% d% d% s@ R@ x' H> ]) *  *  y' )  )  )  4@ ]' ]' ]' ]' ]' ]' ]' ]' ]' ]' @$ )  )  )  )  )  )  )  )  )  )  )  )  )  )  )  )  )  !  ~  ~  ^) D' D' /) () &@ N# <  [  [  [  [  [  [  [  [  [  [  [  [  [  [  [  [  [  [  [  [  [  [  [  [  [  [  [  [  [  [  [  [  [  [  [  [  [  [  [  [  [  [  V$  # <$ <$ <$ <$ <$ <$ <$ <$ <$ <$ <$ <$ <$ <$ <$ <$ <$ <$ <$ <$ <$ <$ <$ <$ <$ <$ <$ <$ <$ <$ <$ <$ <$ <$ <$ <$ <$ <$ <$ <$ <$ S# %+ _) :) <) <) <) <) <) <) <) <) <) <) <) <) <) <) <) <) <) <) <) <) <) <) <) <) <) <) [) [) [) [) [) [) [) }) }) }) |) |) v  v  1) V. g+ 2) i+ i+ 3) {# 4) 4) 5) 6) 6) d# d# 6) d# d# d# d# 7) 7) e$ e$ e$ e$ e$ e$ 8) b$ w; w; 9) 9) 9) b$ d$ d$ d$ 0) r& r& r& r& a) a) a) a) a) a) a) a) r& r& r& r& r& r& r& r& r& r& a) a) a) a) a) a) a) a) r& r& r& r& r& 0) d$ d$ d$ d$ 9) 9) w; w; w; b$ e$ e$ e$ e$ e$ e$ 7) b) d# d# d# d# d# 6) d# d# 5) 5) 5) 4) c) {# 3) i+ i+ 2) g+ V. v  v  u  |) d) }) :) <) [) [) [) [) [) [) [) <) <) <) <) <) <) <) <) <) <) <) <) <) <) <) <) <) <) <) <) <) <) <) <) <) <) <) <) <) <) <) <) <) <) <) :) _) %+ (# <$ <$ <$ <$ <$ <$ <$ <$ <$ <$ <$ <$ <$ <$ <$ <$ <$ <$ <$ <$ <$ <$ <$ <$ <$ <$ <$ <$ <$ <$ <$ <$ <$ <$ <$ <$ <$ <$ <$ <$ <$ <$ <$ <$ <$ <$ <$ <$ <$ <$ <$ <$ <$ <$ <$ <$ <$ <$ <$ <$ <$ <$ <$ <$ <$ <$ <$ <$ <$ <$ <$ <$ <$ <$ <$ <$ <$ <$ <$ <$ <$ D$ D$ D$ I' n; Q, ;$ d> .. .. .. .. .. .. .. .. .. e) )) r' r' r' r' r' f) k@ k@ k@ g) h) +. $# $# $# $# $# $# $# $# $# X# *. *. *. *. *. *. *. *. *. *. *. *. I# $# $# .. 9' 9' i) j) 9' 9' 9' 9' 9' 9' 9' 9' 9' ",
"Y# $  $  $  $  $  $  $  $  J- d% d% d% k) R@ x' H> l) *  *  m) )  )  4@ ]' ]' ]' ]' ]' ]' ]' ]' ]' ]' ]' @$ )  )  )  )  )  )  )  )  )  )  )  )  )  )  )  )  )  )  L+ ~  ~  ~  ~  )# n) 3+ [  [  [  [  [  [  [  [  [  [  [  [  [  [  [  [  [  [  [  [  [  [  [  [  [  [  [  [  [  [  [  [  [  [  [  [  [  [  [  [  [  [  [  [  C$ y# <$ <$ <$ <$ <$ <$ <$ <$ <$ <$ <$ <$ <$ <$ <$ <$ <$ <$ <$ <$ <$ <$ <$ <$ <$ <$ <$ <$ <$ <$ <$ <$ <$ <$ <$ <$ <$ <$ <$ <$ <$ o) <) p) q) r) r) r) r) r) r) r) r) r) r) r) r) r) r) r) r) r) r) r) r) r) r) r) r) r) r) r) r) r) r) r) r) r) r) r) r) r) r) r) r) r) r) r) r) r) s) s) t) t) r) u) v) u) q) w) w) w) w) x) y) y) z) A) A) A) A) A) B) B) B) B) B) C) C) C) C) C) C) C) C) C) D) D) D) D) D) D) D) D) D) D) D) D) D) D) D) D) D) D) D) D) D) D) D) D) D) D) D) D) D) D) D) D) D) C) C) C) C) C) C) C) C) C) B) B) B) B) A) A) A) A) A) A) E) y) x) x) w) w) w) w) u) u) u) u) r) t) s) s) s) r) r) r) r) r) r) r) r) r) r) r) r) r) r) r) r) r) r) r) r) r) r) r) r) r) r) r) r) r) r) r) r) r) r) r) r) r) r) r) r) r) r) r) r) r) r) r) r) r) r) r) r) r) r) F) p) G) %+ S# <$ <$ <$ <$ <$ <$ <$ <$ <$ <$ <$ <$ <$ <$ <$ <$ <$ <$ <$ <$ <$ <$ <$ <$ <$ <$ <$ <$ <$ <$ <$ <$ <$ <$ <$ <$ <$ <$ <$ <$ <$ <$ <$ <$ <$ <$ <$ <$ <$ <$ <$ <$ <$ <$ <$ <$ <$ <$ <$ <$ <$ <$ <$ <$ <$ <$ <$ <$ <$ <$ <$ <$ <$ <$ <$ <$ <$ <$ <$ <$ <$ D$ x= E$ X$ H) I) J) .. .. .. .. .. .. .. .. .. )) )) r' r' r' r' r' u' k@ k@ k@ K) h) L) $# $# $# $# $# $# $# $# $# $# *. *. *. *. *. *. *. *. *. *. *. *. $# $# $# O' 9' i) m# m# M) N) 9' 9' 9' 9' 9' 9' 9' ",
"$  $  $  $  $  $  $  $  $  c% d% d% d% P' s@ x' H> O) *  *  P) )  4@ ]' ]' ]' ]' ]' ]' ]' ]' ]' ]' ]' ]' n& )  )  )  )  )  )  )  )  )  )  )  )  )  )  )  )  )  )  $@ ~  ~  ~  ~  Q$ Q) N# [  [  [  [  [  [  [  [  [  [  [  [  [  [  [  [  [  [  [  [  [  [  [  [  [  [  [  [  |  [  [  [  [  [  [  [  [  [  [  [  [  [  :  -& g# <$ <$ <$ <$ <$ <$ <$ <$ <$ <$ <$ <$ <$ <$ <$ <$ <$ <$ <$ <$ <$ <$ <$ <$ <$ <$ <$ <$ <$ <$ <$ <$ <$ <$ <$ <$ <$ <$ <$ <$ <$ E@ d) R) R) S) u) r) r) r) r) r) r) r) r) r) r) r) r) r) r) r) r) r) r) r) r) r) r) r) r) r) r) r) r) r) r) r) r) r) r) r) r) r) r) r) r) r) r) r) r) r) r) r) r) r) r) r) r) r) r) r) r) r) r) r) r) r) r) r) r) r) r) r) r) r) r) r) r) r) s) s) s) s) s) s) s) s) s) s) s) s) s) s) r) r) r) r) r) r) r) r) r) r) r) r) r) r) r) r) r) r) r) s) s) s) s) s) s) s) s) s) s) s) s) s) r) r) r) r) r) r) r) r) r) r) r) r) r) r) r) r) r) r) r) r) r) r) r) r) r) r) r) r) r) r) r) r) r) r) r) r) r) r) r) r) r) r) r) r) r) r) r) r) r) r) r) r) r) r) r) r) r) r) r) r) r) r) r) r) r) r) r) r) r) r) r) r) r) r) r) r) r) r) r) r) r) r) r) T) U) R) R) V) /# <$ <$ <$ <$ <$ <$ <$ <$ <$ <$ <$ <$ <$ <$ <$ <$ <$ <$ <$ <$ <$ <$ <$ <$ <$ <$ <$ <$ <$ <$ <$ <$ <$ <$ <$ <$ <$ <$ <$ <$ <$ <$ <$ <$ <$ <$ <$ <$ <$ <$ <$ <$ <$ <$ <$ <$ <$ <$ <$ <$ <$ <$ <$ <$ <$ <$ <$ <$ <$ <$ <$ <$ <$ <$ <$ <$ <$ <$ <$ <$ <$ D$ x= <$ 2' '> W) F% .. .. .. .. .. .. .. .. X) )) )) r' r' r' r' r' k@ k@ k@ k@ k@ h) Y) $# $# $# $# $# $# $# $# $# $# i$ *. *. *. *. *. *. *. *. *. *. i$ $# $# $# )' 9' i) m# m# m# m# Z) j) 9' 9' 9' 9' 9' ",
"$  $  $  $  $  $  $  $  $  $  ^> d% d% d% `) H> H> {' *  *   ! )  ]' ]' ]' ]' ]' ]' ]' ]' ]' ]' ]' ]' ]' n& )  )  )  )  )  )  )  )  )  )  )  )  )  )  )  )  )  )  )  ~  ~  ~  ~  .! +! [  [  [  [  [  [  [  [  [  [  [  [  [  [  [  [  [  [  [  [  [  [  [  [  [  [  [  [  [  [  [  [  9$ :  G. :  '* '* '* B$ B$ V$ @! p$  # <$ <$ <$ <$ <$ <$ <$ <$ <$ <$ <$ <$ <$ <$ <$ <$ <$ <$ <$ <$ <$ <$ <$ <$ <$ <$ <$ <$ <$ <$ <$ <$ <$ <$ <$ <$ <$ <$ <$ <$ <$ !@ #! R) R) R) $! q) r) r) r) r) r) r) r) r) r) r) r) r) r) r) r) r) r) r) r) r) r) r) r) r) r) r) r) r) r) r) r) r) r) r) r) r) r) r) r) r) r) r) r) r) r) r) r) r) r) r) r) r) r) r) r) r) r) r) r) r) r) r) r) r) r) r) r) r) r) r) r) r) r) r) r) r) r) r) r) r) r) r) r) r) r) r) r) r) r) r) r) r) r) r) r) r) r) r) r) r) r) r) r) r) r) r) r) r) r) r) r) r) r) r) r) r) r) r) r) r) r) r) r) r) r) r) r) r) r) r) r) r) r) r) r) r) r) r) r) r) r) r) r) r) r) r) r) r) r) r) r) r) r) r) r) r) r) r) r) r) r) r) r) r) r) r) r) r) r) r) r) r) r) r) r) r) r) r) r) r) r) r) r) r) r) r) r) r) r) r) r) r) r) r) r) r) r) r) r) r) r) r) F) p) R) R) R) %! !@ <$ <$ <$ <$ <$ <$ <$ <$ <$ <$ <$ <$ <$ <$ <$ <$ <$ <$ <$ <$ <$ <$ <$ <$ <$ <$ <$ <$ <$ <$ <$ <$ <$ <$ <$ <$ <$ <$ <$ <$ <$ <$ <$ <$ <$ <$ <$ <$ <$ <$ <$ <$ <$ <$ <$ <$ <$ <$ <$ <$ <$ <$ <$ <$ <$ <$ <$ <$ <$ <$ <$ <$ <$ <$ <$ <$ <$ <$ <$ <$ <$ G' D$ D$ 2' &! *! =! .. .. .. .. .. .. .. -! )) ;! r' r' r' r' >! k@ k@ k@ k@ k@ ,! h) (+ $# $# $# $# $# $# $# $# $# $# I# *. *. *. *. *. *. *. *. C= $# $# $# $# '! 9' i) m# m# m# m# m# m# )! 9' 9' 9' 9' ",
"$  $  $  $  $  $  $  $  $  $  G% d% d% d% !! H> H> {' *  *  7$ U, ]' ]' ]' ]' ]' ]' ]' ]' ]' ]' ]' ]' ]' z' )  )  )  )  )  )  )  )  )  )  )  )  )  )  )  )  )  )  !  ~  ~  ~  ~! {! e, [  [  [  [  [  [  [  [  [  [  [  [  [  [  [  [  [  [  [  [  [  [  [  [  [  [  [  [  [  [  :  -& C$ /%  # y# y# y# y# y# y# y# y# %$ <$ <$ <$ <$ <$ <$ <$ <$ <$ <$ <$ <$ <$ <$ <$ <$ <$ <$ <$ <$ <$ <$ <$ <$ <$ <$ <$ <$ <$ <$ <$ <$ <$ <$ <$ <$ <$ <$ <$ <$ <$ E@ ]! ^! R) R) R) R) p) U) r) r) r) r) r) r) r) r) r) r) r) r) r) r) r) r) r) r) r) r) r) r) r) r) r) r) r) r) r) r) r) r) r) r) r) r) r) r) r) r) r) r) r) r) r) r) r) r) r) r) r) r) r) r) r) r) r) r) r) r) r) r) r) r) r) r) r) r) r) r) r) r) r) r) r) r) r) r) r) r) r) r) r) r) r) r) r) r) r) r) r) r) r) r) r) r) r) r) r) r) r) r) r) r) r) r) r) r) r) r) r) r) r) r) r) r) r) r) r) r) r) r) r) r) r) r) r) r) r) r) r) r) r) r) r) r) r) r) r) r) r) r) r) r) r) r) r) r) r) r) r) r) r) r) r) r) r) r) r) r) r) r) r) r) r) r) r) r) r) r) r) r) r) r) r) r) r) r) r) r) r) r) r) r) r) r) r) r) r) r) r) r) r) r) r) r) r) r) r) r) F) p) R) R) R) R) R) #! r+ <$ <$ <$ <$ <$ <$ <$ <$ <$ <$ <$ <$ <$ <$ <$ <$ <$ <$ <$ <$ <$ <$ <$ <$ <$ <$ <$ <$ <$ <$ <$ <$ <$ <$ <$ <$ <$ <$ <$ <$ <$ <$ <$ <$ <$ <$ <$ <$ <$ <$ <$ <$ <$ <$ <$ <$ <$ <$ <$ <$ <$ <$ <$ <$ <$ <$ <$ <$ <$ <$ <$ <$ <$ <$ <$ <$ <$ <$ <$ <$ <$ <$ J$ A> n; /! ;* .. .. .. .. .. .. .. -! )) (! r' r' _! :! <! k@ k@ k@ k@ k@ [! h) }! $# $# $# $# $# $# $# $# $# $# $# $# $# X# s; i$ I# C= I# $# $# $# $# $# 8' 9' i) m# m# m# m# m# m# m# )! 9' 9' 9' ",
"$  $  $  $  $  $  $  $  $  $  $  b' d% d% !! H> H> {' *  *  o& |! ]' ]' ]' ]' ]' ]' ]' ]' ]' ]' ]' ]' ]' f' )  )  )  )  )  )  )  )  )  )  )  )  )  )  )  )  )  )  L+ ~  ~  ~  1! 2! <  [  [  [  [  [  [  [  [  [  [  [  [  [  [  [  [  [  [  [  [  [  [  [  [  [  [  [  [  G. 3!  # y# y# <$ <$ <$ <$ <$ <$ <$ <$ <$ <$ <$ <$ <$ <$ <$ <$ <$ <$ <$ <$ <$ <$ <$ <$ <$ <$ <$ <$ <$ <$ <$ <$ <$ <$ <$ <$ <$ <$ <$ <$ <$ <$ <$ <$ <$ <$ <$ <$ <$ <$ <$ (# 4! 5! R) R) R) R) R) R) p) q) r) r) r) r) r) r) r) r) r) r) r) r) r) r) r) r) r) r) r) r) r) r) r) r) r) r) r) r) r) r) r) r) r) r) r) r) r) r) r) r) r) r) r) r) r) r) r) r) r) r) r) r) r) r) r) r) r) r) r) r) r) r) r) r) r) r) r) r) r) r) r) r) r) r) r) r) r) r) r) r) r) r) r) r) r) r) r) r) r) r) r) r) r) r) r) r) r) r) r) r) r) r) r) r) r) r) r) r) r) r) r) r) r) r) r) r) r) r) r) r) r) r) r) r) r) r) r) r) r) r) r) r) r) r) r) r) r) r) r) r) r) r) r) r) r) r) r) r) r) r) r) r) r) r) r) r) r) r) r) r) r) r) r) r) r) r) r) r) r) r) r) r) r) r) r) r) r) r) r) r) r) r) r) r) r) r) r) r) r) r) r) r) r) r) r) r) r) r) 6! S) R) R) R) R) R) R) 7! 8! 9! <$ <$ <$ <$ <$ <$ <$ <$ <$ <$ <$ <$ <$ <$ <$ <$ <$ <$ <$ <$ <$ <$ <$ <$ <$ <$ <$ <$ <$ <$ <$ <$ <$ <$ <$ <$ <$ <$ <$ <$ <$ <$ <$ <$ <$ <$ <$ <$ <$ <$ <$ <$ <$ <$ <$ <$ <$ <$ <$ <$ <$ <$ <$ <$ <$ <$ <$ <$ <$ <$ <$ <$ <$ <$ <$ <$ <$ <$ <$ <$ <$ E$ B- G$ 0! a! .. .. .. .. .. .. .. L' )) b! r' c! d! <! <! k@ k@ k@ k@ k@ e! h) f! $# $# $# $# $# $# $# $# $# $# $# $# $# $# $# $# $# $# $# $# $# $# $# $# 9' 9' i) m# m# m# m# m# m# m# m# )! 9' 9' ",
"$  $  $  $  $  $  $  $  $  $  $  G% d% d% g! H> H> {' *  *  h! i! i! j! k! ]' ]' ]' ]' ]' ]' ]' ]' ]' ]' f' )  )  )  )  )  )  )  )  )  )  )  )  )  )  )  )  )  )  ~  ~  ~  ~  /  l! [  [  [  [  [  [  [  [  [  [  [  [  [  [  [  [  [  [  [  [  [  [  [  [  [  [  [  [  -& /% y# <$ <$ <$ <$ <$ <$ <$ <$ <$ <$ <$ <$ <$ <$ <$ <$ <$ <$ <$ <$ <$ <$ <$ <$ <$ <$ <$ <$ <$ <$ <$ <$ <$ <$ <$ <$ <$ <$ <$ <$ <$ <$ <$ <$ <$ <$ <$ <$ <$ <$ <$ <$ <$ (# m! G) R) R) R) R) R) R) R) R) S) r) r) r) r) r) r) r) r) r) r) r) r) r) r) r) r) r) r) r) r) r) r) r) r) r) r) r) r) r) r) r) r) r) r) r) r) r) r) r) r) r) r) r) r) r) r) r) r) r) r) r) r) r) r) r) r) r) r) r) r) r) r) r) r) r) r) r) r) r) r) r) r) r) r) r) r) r) r) r) r) r) r) r) r) r) r) r) r) r) r) r) r) r) r) r) r) r) r) r) r) r) r) r) r) r) r) r) r) r) r) r) r) r) r) r) r) r) r) r) r) r) r) r) r) r) r) r) r) r) r) r) r) r) r) r) r) r) r) r) r) r) r) r) r) r) r) r) r) r) r) r) r) r) r) r) r) r) r) r) r) r) r) r) r) r) r) r) r) r) r) r) r) r) r) r) r) r) r) r) r) r) r) r) r) r) r) r) r) r) r) r) r) r) r) r) r) r) r) q) n! R) R) R) R) R) R) R) R) D  w# <$ <$ <$ <$ <$ <$ <$ <$ <$ <$ <$ <$ <$ <$ <$ <$ <$ <$ <$ <$ <$ <$ <$ <$ <$ <$ <$ <$ <$ <$ <$ <$ <$ <$ <$ <$ <$ <$ <$ <$ <$ <$ <$ <$ <$ <$ <$ <$ <$ <$ <$ <$ <$ <$ <$ <$ <$ <$ <$ <$ <$ <$ <$ <$ <$ <$ <$ <$ <$ <$ <$ <$ <$ <$ <$ <$ <$ <$ <$ D$ D$ D$ F$ n; *! s; .. .. .. .. .. .. .. )) o! r' p! <! <! <! k@ k@ k@ k@ k@ q! h) r! $# $# $# $# $# $# $# $# $# $# $# $# $# $# $# $# $# $# $# $# $# $# $# $# 8' 9' )! m# m# m# m# m# m# m# m# m# )! 9' ",
"$  $  $  $  $  $  $  $  $  $  $  $  s! d% t! H> H> u! v! w! x! i! i! i! i! k! ]' ]' ]' ]' ]' ]' ]' ]' ]' 4@ )  )  )  )  )  )  )  )  )  )  )  )  )  )  )  )  )  )  ~  ~  ~  ~. y! N# [  [  [  [  [  [  [  [  [  [  [  [  [  [  [  [  [  [  [  [  [  [  [  [  [  [  :  p$  # <$ <$ <$ <$ <$ <$ <$ <$ <$ <$ <$ <$ <$ <$ <$ <$ <$ <$ <$ <$ <$ <$ <$ <$ <$ <$ <$ <$ <$ <$ <$ <$ <$ <$ <$ <$ <$ <$ <$ <$ <$ <$ <$ <$ <$ <$ <$ <$ <$ <$ <$ <$ <$ <$ (# m! z! R) R) R) R) R) R) R) R) R) A! U) r) r) r) r) r) r) r) r) r) r) r) r) r) r) r) r) r) r) r) r) r) r) r) r) r) r) r) r) r) r) r) r) r) r) r) r) r) r) r) r) r) r) r) r) r) r) r) r) r) r) r) r) r) r) r) r) r) r) r) r) r) r) r) r) r) r) r) r) r) r) r) r) r) r) r) r) r) r) r) r) r) r) r) r) r) r) r) r) r) r) r) r) r) r) r) r) r) r) r) r) r) r) r) r) r) r) r) r) r) r) r) r) r) r) r) r) r) r) r) r) r) r) r) r) r) r) r) r) r) r) r) r) r) r) r) r) r) r) r) r) r) r) r) r) r) r) r) r) r) r) r) r) r) r) r) r) r) r) r) r) r) r) r) r) r) r) r) r) r) r) r) r) r) r) r) r) r) r) r) r) r) r) r) r) r) r) r) r) r) r) r) r) r) r) r) r) F) p) R) R) R) R) R) R) R) R) R) z! D  w# <$ <$ <$ <$ <$ <$ <$ <$ <$ <$ <$ <$ <$ <$ <$ <$ <$ <$ <$ <$ <$ <$ <$ <$ <$ <$ <$ <$ <$ <$ <$ <$ <$ <$ <$ <$ <$ <$ <$ <$ <$ <$ <$ <$ <$ <$ <$ <$ <$ <$ <$ <$ <$ <$ <$ <$ <$ <$ <$ <$ <$ <$ <$ <$ <$ <$ <$ <$ <$ <$ <$ <$ <$ <$ <$ <$ <$ <$ <$ D$ J$ D$ I= B! ;* .. .. .. .. .. .. .. )) C! r' <! <! <! <! k@ k@ k@ k@ k@ k@ h) ~) $# $# $# $# $# $# $# $# $# $# $# $# $# $# $# $# $# $# $# $# $# $# $# $# '! 9' 9' m# m# m# m# m# m# m# m# m# m# N) ",
"$  $  $  $  $  $  $  $  $  $  $  $  r@ d% G> H> H> D! u! u! E! i! i! i! i! i! k! ]' ]' ]' ]' ]' ]' ]' ]' U, )  )  )  )  )  )  )  )  )  )  )  )  )  )  )  )  )  )  )  )  5@ F! G! <  [  [  [  [  [  [  [  [  [  [  [  [  [  ^. ^. ^. [  [  [  [  [  [  [  [  [  V$ /% y# <$ <$ <$ <$ <$ <$ <$ <$ <$ <$ <$ <$ <$ <$ <$ <$ <$ <$ <$ <$ <$ <$ <$ <$ <$ <$ <$ <$ <$ <$ <$ <$ <$ <$ <$ <$ <$ <$ <$ <$ <$ <$ <$ <$ <$ <$ <$ <$ <$ <$ <$ <$ <$ <$ S# %+ z! R) R) R) R) R) R) R) R) R) R) R) p) U) r) 6! 6! 6! 6! 6! 6! 6! 6! 6! 6! 6! 6! 6! 6! 6! 6! 6! 6! 6! 6! 6! 6! 6! 6! 6! 6! 6! 6! 6! 6! 6! 6! 6! 6! 6! 6! 6! 6! 6! 6! 6! 6! 6! 6! 6! 6! 6! 6! 6! 6! T) r) r) r) r) r) r) r) r) 6! 6! 6! 6! 6! 6! 6! 6! 6! 6! 6! 6! 6! 6! 6! 6! 6! 6! 6! 6! 6! 6! 6! 6! 6! 6! 6! 6! 6! 6! 6! 6! 6! 6! 6! 6! 6! 6! 6! 6! 6! 6! 6! 6! 6! 6! 6! 6! 6! 6! 6! 6! 6! 6! 6! 6! 6! 6! 6! 6! 6! 6! 6! 6! 6! 6! 6! 6! 6! 6! 6! 6! 6! 6! 6! 6! 6! T) r) r) r) r) r) r) r) r) r) r) r) r) r) r) r) r) r) r) T) 6! 6! 6! 6! 6! 6! 6! 6! 6! 6! 6! 6! 6! 6! 6! 6! 6! 6! 6! 6! 6! 6! 6! 6! 6! 6! 6! 6! 6! 6! 6! 6! 6! 6! 6! 6! r) 6! S) R) R) R) R) R) R) R) R) R) R) R) z! 9. (# <$ <$ <$ <$ <$ <$ <$ <$ <$ <$ <$ <$ <$ <$ <$ <$ <$ <$ <$ <$ <$ <$ <$ <$ <$ <$ <$ <$ <$ <$ <$ <$ <$ <$ <$ <$ <$ <$ <$ <$ <$ <$ <$ <$ <$ <$ <$ <$ <$ <$ <$ <$ <$ <$ <$ <$ <$ <$ <$ <$ <$ <$ <$ <$ <$ <$ <$ <$ <$ <$ <$ <$ <$ <$ <$ <$ <$ <$ D$ z# x= F$ H! I! .. .. .. .. .. .. .. )) J! >! <! <! <! <! k@ k@ k@ k@ k@ k@ K! L! $# $# $# $# $# $# $# $# $# $# $# $# $# $# $# $# $# $# $# $# $# $# $# $# '! 9' 9' m# m# m# m# m# m# m# m# m# m# m# ",
"r@ $  $  $  $  $  $  $  $  $  $  $  $  M! H> H> H> N! u! u! u! O! i! i! i! i! j! P! ]' ]' ]' ]' ]' ]' ]' ]' )  )  )  )  )  )  )  )  )  )  )  )  )  )  )  )  )  )  )  )  !  Q! N# [  [  [  [  [  [  [  [  1  1  /. ^. ^. ^. |  /$ [  [  [  [  [  [  [  [  [  w; C# <$ <$ <$ <$ <$ <$ <$ <$ <$ <$ <$ <$ <$ <$ <$ <$ <$ <$ <$ <$ <$ <$ <$ <$ <$ <$ <$ <$ <$ <$ <$ <$ <$ <$ <$ <$ <$ <$ <$ <$ <$ <$ <$ <$ <$ <$ <$ <$ <$ <$ <$ <$ <$ <$ <$ S# ~+ #! R) R) R) R) R) R) R) R) R) R) R) R) p) R! =+ S! S! S! S! S! S! S! S! S! S! S! S! S! S! S! S! S! S! S! S! S! S! S! S! S! S! S! S! S! S! S! S! S! S! S! S! S! S! S! S! S! S! S! S! S! S! S! S! S! g# T! U! V! W! X! Y! Z! }% (% G$ g# S! S! S! S! S! S! S! S! S! S! S! S! S! S! S! S! S! S! S! S! S! S! S! S! S! S! S! S! S! S! S! S! S! S! S! S! S! S! S! S! S! S! S! S! S! S! S! S! S! S! S! S! S! S! S! S! S! S! S! S! S! E@ c@ c@ c@ c@ c@ c@ c@ c@ c@ c@ c@ c@ S! W$ (% `! Z!  ~  ~  ~  ~  ~ .~ .~ .~ .~  ~  ~  ~  ~  ~ +~ I$ f# c@ c@ c@ c@ c@ c@ c@ c@ c@ c@ c@ c@ S! S! S! S! S! S! S! S! S! S! S! S! S! S! S! S! S! S! S! S! S! S! (# S! Z. @~ R) R) R) R) R) R) R) R) R) R) R) @~ V) #+ S# <$ <$ <$ <$ <$ <$ <$ <$ <$ <$ <$ <$ <$ <$ <$ <$ <$ <$ <$ <$ <$ <$ <$ <$ <$ <$ <$ <$ <$ <$ <$ <$ <$ <$ <$ <$ <$ <$ <$ <$ <$ <$ <$ <$ <$ <$ <$ <$ <$ <$ <$ <$ <$ <$ <$ <$ <$ <$ <$ <$ <$ <$ <$ <$ <$ <$ <$ <$ <$ <$ <$ <$ <$ <$ <$ <$ <$ <$ D$ D$ #~ n; a% b% .. .. .. .. .. .. (! r' $~ <! <! <! <! k@ k@ k@ k@ k@ k@ %~ h) $# $# $# $# $# $# $# $# $# $# $# $# $# $# $# $# $# $# $# $# $# $# $# $# '! 9' 9' M) m# m# m# m# m# m# m# m# m# m# ",
"&~ *~ J- $  $  $  $  $  $  $  $  $  $  =~ H> H> H> -~ u! u! u! ;~ i! i! i! i! i! >~ ]' ]' ]' ]' ]' ]' ]' ]' U, )  )  )  )  )  )  )  )  )  )  )  )  )  )  )  )  )  )  )  ]$ ,~ <  [  [  [  [  [  [  [  [  /. /. /. /. /$ 3  /. /. /$ [  [  [  [  [  [  B$ C$  # <$ <$ <$ <$ <$ <$ <$ <$ <$ <$ <$ <$ <$ <$ <$ <$ <$ <$ <$ <$ <$ <$ <$ <$ <$ <$ <$ <$ <$ <$ <$ <$ <$ <$ <$ <$ <$ <$ <$ <$ <$ <$ <$ <$ <$ <$ <$ <$ <$ <$ <$ <$ <$ <$ <$ <$ ]# d) R) R) R) R) R) R) R) R) R) R) R) R) p) <) =% '~ )~ !~ !~ !~ !~ !~ !~ !~ !~ !~ !~ !~ !~ !~ !~ !~ !~ !~ !~ !~ !~ !~ !~ !~ !~ !~ !~ !~ !~ !~ !~ !~ !~ !~ !~ !~ !~ !~ !~ !~ !~ !~ !~ !~ !~ !~ !~ !~ !~ ~~ {~ ]~ ^~ /~ (~ _~ :~ x; <~ [~ }~ !~ !~ !~ !~ !~ !~ !~ !~ !~ !~ !~ !~ !~ !~ !~ !~ !~ !~ !~ !~ !~ !~ !~ !~ !~ !~ !~ !~ !~ !~ !~ !~ !~ !~ !~ !~ !~ !~ !~ !~ !~ !~ !~ !~ !~ !~ !~ !~ !~ !~ !~ !~ !~ !~ !~ !~ !~ !~ !~ Z! |~ 1~ 2~ 2~ 2~ 2~ 2~ 2~ 2~ 2~ 2~ 2~ 2~ 2~ |~ 3~ 4~ 5~ 6~ 7~ 8~ 9~ 0~ a~ b~ c~ c~ d~ e~ f~ g~ h~ i~ j~ k~ l~ 2~ 2~ 2~ 2~ 2~ 2~ 2~ 2~ 2~ 2~ m~ |~ Z! !~ !~ !~ !~ !~ !~ !~ !~ !~ !~ !~ !~ !~ !~ !~ !~ !~ !~ !~ !~ !~ !~ n~ E$ A! 5! R) R) R) R) R) R) R) R) R) R) R) R) <) $+ T# <$ <$ <$ <$ <$ <$ <$ <$ <$ <$ <$ <$ <$ <$ <$ <$ <$ <$ <$ <$ <$ <$ <$ <$ <$ <$ <$ <$ <$ <$ <$ <$ <$ <$ <$ <$ <$ <$ <$ <$ <$ <$ <$ <$ <$ <$ <$ <$ <$ <$ <$ <$ <$ <$ <$ <$ <$ <$ <$ <$ <$ <$ <$ <$ <$ <$ <$ <$ <$ <$ <$ <$ <$ <$ <$ <$ &$ &$ <$ J$ D$ o~ p~ q~ r~ s~ t~ (+ .. u~ r' v~ <! <! <! <! k@ k@ k@ k@ k@ k@ w~ h) (+ $# $# $# $# $# $# $# $# $# $# $# $# $# $# $# $# $# $# $# $# $# $# $# !' 9' 9' M) m# m# m# m# m# m# m# m# m# m# ",
"&~ &~ &~ &~ M) x~ x~ y~ *~ &~ &~ x~ $  =~ H> H> H> z~ u! u! u! A~ B~ i! i! i! i! i! C~ ]' ]' ]' ]' ]' ]' ]' ]' f' )  )  )  )  )  )  )  )  )  )  )  )  )  )  )  )  )  )  D~ +! [  [  [  [  [  [  1  ^. /. _$ I. (. _. 5  5  I. 3  3  [  [  [  /$ G. w; /% y# <$ <$ <$ <$ <$ <$ <$ <$ <$ <$ <$ <$ <$ <$ <$ <$ <$ <$ <$ <$ <$ <$ <$ <$ <$ <$ <$ <$ <$ <$ <$ <$ <$ <$ <$ <$ <$ <$ <$ <$ <$ <$ <$ <$ <$ <$ <$ <$ <$ <$ <$ <$ <$ <$ <$ <$ !@ E~ p) R) R) R) R) R) R) R) R) R) R) R) R) F~ G~ H~ I~ J~ !~ !~ !~ !~ !~ !~ !~ !~ !~ !~ !~ !~ !~ !~ !~ !~ !~ !~ !~ !~ !~ !~ !~ !~ !~ !~ !~ !~ !~ !~ !~ !~ !~ !~ !~ !~ !~ !~ !~ !~ !~ !~ !~ !~ !~ !~ !~ !~ K~ L~ M~ N~ O~ P~ Q~ R~ S~ T~ U~ V~ !~ !~ !~ !~ !~ !~ !~ !~ !~ !~ !~ !~ !~ !~ !~ !~ !~ !~ !~ !~ !~ !~ !~ !~ !~ !~ !~ !~ !~ !~ !~ !~ !~ !~ !~ !~ !~ !~ !~ !~ !~ !~ !~ !~ !~ !~ !~ !~ !~ !~ !~ !~ !~ !~ !~ !~ !~ !~ J~ W~ X~ Y~ Z~ `~ `~ `~ `~ `~ `~ `~ `~ `~ `~ s*  { @= .{ +{ @{ #{ ${ %{ &{ *{ ={ -{ -{ ;{ >{ ,{ '{ ){ ${ !{ ~{ {{ `~ `~ `~ `~ `~ `~ `~ `~ `~ ]{ Y~ ^{ /{ ({ !~ !~ !~ !~ !~ !~ !~ !~ !~ !~ !~ !~ !~ !~ !~ !~ !~ !~ !~ !~ !~ _{ :{ <{ [{ R) R) R) R) R) R) R) R) R) R) R) R) p) :) ~+ <$ <$ <$ <$ <$ <$ <$ <$ <$ <$ <$ <$ <$ <$ <$ <$ <$ <$ <$ <$ <$ <$ <$ <$ <$ <$ <$ <$ <$ <$ <$ <$ <$ <$ <$ <$ <$ <$ <$ <$ <$ <$ <$ <$ <$ <$ <$ <$ <$ <$ <$ <$ <$ <$ <$ <$ <$ <$ <$ <$ <$ <$ <$ <$ <$ <$ <$ <$ <$ <$ <$ <$ <$ <$ <$ <$ &$ &$ <$ D$ I= }{ ;* ;# ;# ;# ;# ;# ;# |{ r' 1{ <! <! <! <! k@ k@ k@ k@ k@ k@ 2{ h) }! $# $# $# $# $# $# $# $# $# $# $# $# $# $# $# $# $# $# $# $# $# $# $# 9' 9' 9' x~ m# m# m# m# m# m# m# m# m# m# ",
"&~ &~ &~ &~ &~ &~ &~ &~ &~ &~ &~ &~ x~ =~ H> H> H> z~ 3{ u! 4{ 5{ 6{ B~ i! i! i! i! i! k! ]' ]' ]' ]' ]' ]' ]' n& )  )  )  )  )  )  )  )  )  )  )  )  )  )  )  )  )  7{ 8{ [  [  [  [  [  [  [  /. I. (. (. _. =@ 7  :. 5  P# 3  3  [  |  :  w; C$ =$ <$ <$ <$ <$ <$ <$ <$ <$ <$ <$ <$ <$ <$ <$ <$ <$ <$ <$ <$ <$ <$ <$ <$ <$ <$ <$ <$ <$ <$ <$ <$ <$ <$ <$ <$ <$ <$ <$ <$ <$ <$ <$ <$ <$ <$ <$ <$ <$ <$ <$ <$ <$ <$ <$ <$ <$ <$ E@ 7. ^! R) R) R) R) R) R) R) R) R) R) R) R) @~ )* 9{ 0{ !~ !~ !~ !~ !~ !~ !~ !~ !~ !~ !~ !~ !~ !~ !~ !~ !~ !~ !~ !~ !~ !~ !~ !~ !~ !~ !~ !~ !~ !~ !~ !~ !~ !~ !~ !~ !~ !~ !~ !~ !~ !~ !~ !~ !~ !~ !~ !~ !~ !~ a{ b{ c{ d{ e{ f{ g{ h{ i{ j{ k{ V~ !~ !~ !~ !~ !~ !~ !~ !~ !~ !~ !~ !~ !~ !~ !~ !~ !~ !~ !~ !~ !~ !~ !~ !~ !~ !~ !~ !~ !~ !~ !~ !~ !~ !~ !~ !~ !~ !~ !~ !~ !~ !~ !~ !~ !~ !~ !~ !~ !~ !~ !~ !~ !~ !~ !~ !~ !~ l{ m{ n{ Q* o{ 4, p{ q{ r{ r{ s{ q{ q{ q{ q{ q{ t{ u{ v{ w{ x{ y{ z{ A{ B{ C{ &{ D{ E{ F{ G{ H{ I{ ){ J{ K{ L{ M{ N{ t{ t{ t{ t{ q{ q{ q{ q{ p{ O{ P{ h* Q{ J~ l{ !~ !~ !~ !~ !~ !~ !~ !~ !~ !~ !~ !~ !~ !~ !~ !~ !~ !~ !~ !~ !~ X! g# R{ R) R) R) R) R) R) R) R) R) R) R) R) R) R) _) /# <$ <$ <$ <$ <$ <$ <$ <$ <$ <$ <$ <$ <$ <$ <$ <$ <$ <$ <$ <$ <$ <$ <$ <$ <$ <$ <$ <$ <$ <$ <$ <$ <$ <$ <$ <$ <$ <$ <$ <$ <$ <$ <$ <$ <$ <$ <$ <$ <$ <$ <$ <$ <$ <$ <$ <$ <$ <$ <$ <$ <$ <$ <$ <$ <$ <$ <$ <$ <$ <$ <$ <$ <$ <$ <$ <$ &$ <$ D$ G$ W$ S{ T{ ;# ;# ;# ;# U{ r' r' 1{ <! <! <! <! k@ k@ k@ k@ k@ k@ 2{ h) }! $# $# $# $# $# $# $# $# $# $# $# $# $# $# $# $# $# $# $# $# $# $# V{ 9' 9' 9' W{ m# m# m# m# m# m# m# m# m# m# ",
"&~ &~ &~ &~ &~ &~ &~ &~ &~ &~ &~ &~ *~ =~ H> H> X{ z~ 3{ u! Y{ Z{ Z{ 6{ `{ i! i! i! i! j! ]' ]' ]' ]' ]' ]' ]' @$ )  )  )  )  )  )  )  )  )  )  )  )  )  )  )  )  L+ N+ ,~ [  [  [  1  /. /. I.  ] .] a  a  c# c# 7  7  =@ P# 3  3  [  -& C$ g# <$ <$ <$ <$ <$ <$ <$ <$ <$ <$ <$ <$ <$ <$ <$ <$ <$ <$ <$ <$ <$ <$ <$ <$ <$ <$ <$ <$ <$ <$ <$ <$ <$ <$ <$ <$ <$ <$ <$ <$ <$ <$ <$ <$ <$ <$ <$ <$ <$ <$ <$ <$ <$ <$ <$ <$ <$ <$ E@ Z. 5! R) R) R) R) R) R) R) R) R) R) R) 5! +] g# @] #] !~ !~ !~ !~ !~ !~ !~ !~ !~ !~ !~ !~ !~ !~ !~ !~ !~ !~ !~ !~ !~ !~ !~ !~ !~ !~ !~ !~ !~ !~ !~ !~ !~ !~ !~ !~ !~ !~ !~ !~ !~ !~ !~ !~ !~ !~ !~ !~ !~ !~ !~ a{ $] %] &] *] =] -] ;] i{ j{ k{ V~ !~ !~ !~ !~ !~ !~ !~ !~ !~ !~ !~ !~ !~ !~ !~ !~ !~ !~ !~ !~ !~ !~ !~ !~ !~ !~ !~ !~ !~ !~ !~ !~ !~ !~ !~ !~ !~ !~ !~ !~ !~ !~ !~ !~ !~ !~ !~ !~ !~ !~ !~ !~ !~ !~ !~ !~ !~ !~ !~ >] ,] '] )] !] ~] {] {] >- >- s- s- ]] ^] ^] !- /] (] _] :] <] K{ [] ){ }] |] D{ *{ 1] 2] 3] 4] 5] 6] 7] 8] 9] !- !- ^] '- ^] ]] 0] 0] a] b] c] d] e] f] g] J~ !~ !~ !~ !~ !~ !~ !~ !~ !~ !~ !~ !~ !~ !~ !~ !~ !~ !~ !~ !~ !~ h] S! i] R) R) R) R) R) R) R) R) R) R) R) R) R) j] 8! ~@ <$ <$ <$ <$ <$ <$ <$ <$ <$ <$ <$ <$ <$ <$ <$ <$ <$ <$ <$ <$ <$ <$ <$ <$ <$ <$ <$ <$ <$ <$ <$ <$ <$ <$ <$ <$ <$ <$ <$ <$ <$ <$ <$ <$ <$ <$ <$ <$ <$ <$ <$ <$ <$ <$ <$ <$ <$ <$ <$ <$ <$ <$ <$ <$ <$ <$ <$ <$ <$ <$ <$ <$ <$ <$ <$ <$ <$ <$ q$ y# k] .. ;# ;# q~ ;# l] r' r' <! <! <! <! m] k@ k@ k@ k@ k@ k@ 2{ h) }! $# $# $# $# $# $# $# $# $# $# $# $# $# $# $# $# $# $# $# $# $# $# n] 9' 9' 9' W{ m# m# m# m# m# m# m# m# m# m# ",
"&~ &~ &~ &~ &~ &~ &~ &~ &~ &~ &~ &~ &~ o] H> H> X{ z~ D! u! p] Z{ Z{ Z{ q] i! r] i! i! i! C~ ]' ]' ]' ]' ]' ]' @$ )  )  )  )  )  )  )  )  )  )  )  )  )  )  )  )  ~  s] t] ^. ^. 3  (.  ] :. b  d  J. g  9  u] u] 8  c# 7  _. 1  a$ 3! =$ <$ <$ <$ <$ <$ <$ <$ <$ <$ <$ <$ <$ <$ <$ <$ <$ <$ <$ <$ <$ <$ <$ <$ <$ <$ <$ <$ <$ <$ <$ <$ <$ <$ <$ <$ <$ <$ <$ <$ <$ <$ <$ <$ <$ <$ <$ <$ <$ <$ <$ <$ <$ <$ <$ <$ <$ <$ <$ <$ (# m! 7! @~ R) R) R) R) R) R) R) R) R) R) R) p) v] w] H~ J~ !~ !~ !~ !~ !~ !~ !~ !~ !~ !~ !~ !~ !~ !~ !~ !~ !~ !~ !~ !~ !~ !~ !~ !~ !~ !~ !~ !~ !~ !~ !~ !~ !~ !~ !~ !~ !~ !~ !~ !~ !~ !~ !~ !~ !~ !~ !~ !~ !~ !~ !~ a{ $] x] y] d{ z] A] ;] i{ j{ k{ V~ !~ !~ !~ !~ !~ !~ !~ !~ !~ !~ !~ !~ !~ !~ !~ !~ !~ !~ !~ !~ !~ !~ !~ !~ !~ !~ !~ !~ !~ !~ !~ !~ !~ !~ !~ !~ !~ !~ !~ !~ !~ !~ !~ !~ !~ !~ !~ !~ !~ !~ !~ !~ !~ !~ !~ !~ !~ !~ l{ B] C] D] E] F] G] H] I] J] K] L] M] N] O] P] Q] R] S] T] U] -] 6] V] W] X] }] Y] Y] Y] 3] Z] J{ `]  ^ .^ +^ @^ #^ R] Q] P] O] $^ %^ &^ *^ =^ -^ ;^ >^ ,^ '^ B] !~ !~ !~ !~ !~ !~ !~ !~ !~ !~ !~ !~ !~ !~ !~ !~ !~ !~ !~ !~ !~ !~ +~ n. #! 5! 5! R) R) R) R) R) R) R) R) R) R) R) R) E~ E@ <$ <$ <$ <$ <$ <$ <$ <$ <$ <$ <$ <$ <$ <$ <$ <$ <$ <$ <$ <$ <$ <$ <$ <$ <$ <$ <$ <$ <$ <$ <$ <$ <$ <$ <$ <$ <$ <$ <$ <$ <$ <$ <$ <$ <$ <$ <$ <$ <$ <$ <$ <$ <$ <$ <$ <$ <$ <$ <$ <$ <$ <$ <$ <$ <$ <$ <$ <$ <$ <$ <$ <$ <$ <$ <$ <$ <$ <$ z# g& )^ ;# ;# !^ ;# ~^ r' r' <! <! <! <! {^ k@ k@ k@ k@ k@ k@ 2{ h) ]^ $# $# $# $# $# $# $# $# $# $# $# $# $# $# $# $# $# $# $# $# $# $# 8' 9' 9' 9' ^^ m# m# m# m# m# m# m# m# m# m# ",
"&~ &~ &~ &~ &~ &~ &~ &~ &~ &~ &~ &~ &~ o] H> H> /^ z~ u! (^ Z{ Z{ Z{ Z{ Z{ _^ :^ <^ [^ i! i! P! ]' ]' ]' ]' ]' n& )  )  )  )  )  )  )  )  )  )  )  )  )  )  )  o& 6@ }^ 6+ }  :. .] |^ f  g  -@ M. N. M. A@ g  9  8  7+ O# 1^ c$ c@ <$ <$ <$ <$ <$ <$ <$ <$ <$ <$ <$ <$ <$ <$ <$ <$ <$ <$ <$ <$ <$ <$ <$ <$ <$ <$ <$ <$ <$ <$ <$ <$ <$ <$ <$ <$ <$ <$ <$ <$ <$ <$ <$ <$ <$ <$ <$ <$ <$ <$ <$ <$ <$ <$ <$ <$ <$ <$ <$ <$ (# 2^ V) A! R) R) R) R) R) R) R) R) R) R) R) 3^ &+ 4^ 5^ 6^ !~ !~ !~ !~ !~ !~ !~ !~ !~ !~ !~ !~ !~ !~ !~ !~ !~ !~ !~ !~ !~ !~ !~ !~ !~ !~ !~ !~ !~ !~ !~ !~ !~ !~ !~ !~ !~ !~ !~ !~ !~ !~ !~ !~ !~ !~ !~ !~ !~ !~ !~ !~ a{ 7^ 8^ 9^ 0^ a^ O~ b^ i{ j{ k{ V~ !~ !~ !~ !~ !~ !~ !~ !~ !~ !~ !~ !~ !~ !~ !~ !~ !~ !~ !~ !~ !~ !~ !~ !~ !~ !~ !~ !~ !~ !~ !~ !~ !~ !~ !~ !~ !~ !~ !~ !~ !~ !~ !~ !~ !~ !~ !~ !~ !~ !~ !~ !~ !~ !~ !~ !~ !~ !~ !~ l{ )~ c^ d^ e^ f^ g^ h^ i^ j^ k^ l^ m^ n^ o^ p^ q^ r^ s^ t^ u^  ^ `] v^ J{ Z] ){ %{ ){ Z] J{ v^ 6] w^ N~ x^ y^ z^ A^ B^ C^ D^ E^ F^ G^ H^ I^ J^ K^ L^ M^ N^ J~ !~ !~ !~ !~ !~ !~ !~ !~ !~ !~ !~ !~ !~ !~ !~ !~ !~ !~ !~ !~ !~ !~ !~ :{ V  O^ 5! R) R) R) R) R) R) R) R) R) R) R) R) ^! 7. v# <$ <$ <$ <$ <$ <$ <$ <$ <$ <$ <$ <$ <$ <$ <$ <$ <$ <$ <$ <$ <$ <$ <$ <$ <$ <$ <$ <$ <$ <$ <$ <$ <$ <$ <$ <$ <$ <$ <$ <$ <$ <$ <$ <$ <$ <$ <$ <$ <$ <$ <$ <$ <$ <$ <$ <$ <$ <$ <$ <$ <$ <$ <$ <$ <$ <$ <$ <$ <$ <$ <$ <$ <$ <$ <$ <$ <$ <$ ;% P^ ;# Q^ 8' s! R^ r' r' :! <! <! <! S^ k@ k@ k@ k@ k@ T^ 2{ h) U^ $# $# $# $# $# $# $# $# $# $# $# $# $# $# $# $# $# $# $# $# $# q. 9' 9' 9' 9' i) m# m# m# m# m# m# m# m# m# m# ",
"&~ &~ &~ &~ &~ &~ &~ &~ &~ &~ &~ &~ &~ &~ H> H> H> z~ u! v! Z{ Z{ Z{ Z{ Z{ V^ i! W^ X^ Y^ i! Z^ ]' ]' ]' ]' ]' n& )  )  )  )  )  )  )  )  )  )  )  )  )  )  )  ~  `^ O+  / ./ 0  +/ 9+ 9+ 0+ }. a+ 0+ [. -@ W@ B@ c) @/ )+ `@ (# S# <$ <$ <$ <$ <$ <$ <$ <$ <$ <$ <$ <$ <$ <$ <$ <$ <$ <$ <$ <$ <$ <$ <$ <$ <$ <$ <$ <$ <$ <$ <$ <$ <$ <$ <$ <$ <$ <$ <$ <$ <$ <$ <$ <$ <$ <$ <$ <$ <$ <$ <$ <$ <$ <$ <$ <$ <$ <$ <$ f# 2^ F~ R) R) R) R) R) R) R) R) R) R) R) R) R) 8! I~ H~ #/ !~ !~ !~ !~ !~ !~ !~ !~ !~ !~ !~ !~ !~ !~ !~ !~ !~ !~ !~ !~ !~ !~ !~ !~ !~ !~ !~ !~ !~ !~ !~ !~ !~ !~ !~ !~ !~ !~ !~ !~ !~ !~ !~ !~ !~ !~ !~ !~ !~ !~ !~ !~ !~ $/ 7^ %/ &/ y] 0^ */ b^ =/ j{ k{ V~ !~ !~ !~ !~ !~ !~ !~ !~ !~ !~ !~ !~ !~ !~ !~ !~ !~ !~ !~ !~ !~ !~ !~ !~ !~ !~ !~ !~ !~ !~ !~ !~ !~ !~ !~ !~ !~ !~ !~ !~ !~ !~ !~ !~ !~ !~ !~ !~ !~ !~ !~ !~ !~ !~ !~ !~ !~ !~ !~ !~ l{ Z! -/ ;/ >/ ,/ '/ )/ !/ ~/ {/ ]/ ^/ // (/ _/ :/ </ [/ }/ |/  ^ `] v^ [] J{ J{ J{ v^ 5] `]  ^ f{ d{ 9^ 1/ 2/ 3/ 4/ 5/ 6/ 7/ 8/ ~/ !/ )/ ,/ 9/ 0/ a/ b/ Z! !~ !~ !~ !~ !~ !~ !~ !~ !~ !~ !~ !~ !~ !~ !~ !~ !~ !~ !~ !~ !~ !~ !~ !~ :{ %+ R! R) R) R) R) R) R) R) R) R) R) R) R) R) G) c/ f# <$ <$ <$ <$ <$ <$ <$ <$ <$ <$ <$ <$ <$ <$ <$ <$ <$ <$ <$ <$ <$ <$ <$ <$ <$ <$ <$ <$ <$ <$ <$ <$ <$ <$ <$ <$ <$ <$ <$ <$ <$ <$ <$ <$ <$ <$ <$ <$ <$ <$ <$ <$ <$ <$ <$ <$ <$ <$ <$ <$ <$ <$ <$ <$ <$ <$ &$ z# <$ z# <$ <$ <$ %$ <$ <$ D$ <$ d/ 7' e/ '! f/ g/ r' r' h/ <! <! <! i/ k@ k@ k@ k@ k@ f> 2{ h) U^ $# $# $# $# $# $# $# $# $# $# $# $# $# $# $# $# $# $# $# $# $# a' 9' 9' 9' 9' N) m# m# m# m# m# m# m# m# m# m# ",
"&~ &~ &~ &~ &~ &~ &~ &~ &~ &~ &~ &~ &~ &~ j/ H> H> z~ u! v! Z{ Z{ Z{ Z{ Z{ Z{ `{ k/ W^ W^ l/ i! k! ]' ]' ]' ]' n& )  )  )  )  )  )  )  )  )  )  )  )  )  )  o& ~  m/ n/ o/ p/ h  j  q/ j  |. i  0+ 9+ d+ r/ s/ R  ]# /# ~@ E@ (# S# <$ <$ <$ <$ <$ <$ <$ <$ <$ <$ <$ <$ <$ <$ <$ <$ <$ <$ <$ <$ <$ <$ <$ <$ <$ <$ <$ <$ <$ <$ <$ <$ <$ <$ <$ <$ <$ <$ <$ <$ <$ <$ <$ <$ <$ <$ <$ <$ <$ <$ <$ <$ <$ <$ <$ <$ <$ <$ y# n+ V) R) R) R) R) R) R) R) R) R) R) R) 5! 5! t/ a{ u/ v/ !~ !~ !~ !~ !~ !~ !~ !~ !~ !~ !~ !~ !~ !~ !~ !~ !~ !~ !~ !~ !~ !~ !~ !~ !~ !~ !~ !~ Z! l{ l{ l{ l{ l{ l{ l{ l{ l{ l{ l{ l{ l{ l{ l{ l{ l{ l{ l{ l{ l{ l{ l{ l{ l{ w/ x/ y/ z/ &/ !{ t^ A/ =/ j{ k{ V~ !~ !~ !~ !~ !~ !~ !~ !~ !~ !~ !~ !~ !~ !~ !~ !~ !~ !~ !~ !~ !~ !~ !~ !~ !~ !~ !~ !~ !~ !~ !~ !~ !~ !~ !~ !~ !~ !~ !~ !~ !~ !~ !~ !~ !~ !~ !~ !~ !~ !~ !~ !~ !~ !~ !~ !~ !~ !~ !~ !~ !~ B/ C/ D/ E/ F/ G/ H/ I/ J/ K/ L/ M/ 5/ N/ O/ P/ Q/ R/ S/ T/ w^ U/ V/ W/ 5] 5] W/ `] 6]  ^ X/ Y/ y] </ Z/ `/  ( // .( 7/ +( @( #( $( H/ %( &( *( 6^ =( !~ !~ !~ !~ !~ !~ !~ !~ !~ !~ !~ !~ !~ !~ !~ !~ !~ !~ !~ !~ !~ !~ !~ !~ !~ !~ -( l+ 5! R) R) R) R) R) R) R) R) R) R) R) R) R) z! ;( S# <$ <$ <$ <$ <$ <$ <$ <$ <$ <$ <$ <$ <$ <$ <$ <$ <$ <$ <$ <$ <$ <$ <$ <$ <$ <$ <$ <$ <$ <$ <$ <$ <$ <$ <$ <$ <$ <$ <$ <$ <$ <$ <$ <$ <$ <$ <$ <$ <$ <$ <$ <$ <$ <$ <$ <$ <$ <$ <$ <$ <$ %$ %$ %$ %$ S# z# }$ z# y# <$ <$ <$ <$ q$ D$ <$ }{ >( 9' ,( J! g/ r' r' '( <! <! <! i/ k@ k@ k@ k@ )( !( 2{ h) U^ $# $# $# $# $# $# $# $# $# $# $# $# $# $# $# $# $# $# $# $# $# )' 9' 9' 9' 9' W{ m# m# m# m# m# m# m# m# m# m# ",
"&~ &~ &~ &~ &~ &~ &~ &~ &~ &~ &~ &~ &~ &~ ~( H> H> {( u! ]( Z{ Z{ Z{ Z{ Z{ Z{ ^( /( W^ W^ W^ (( _( ]' ]' ]' ]' U, )  )  )  )  )  )  )  )  )  )  )  )  )  )  ~  ~  :( <( [( m  }( j  o  }. Q. |( h+ l+ 9. $+ R  U+ D@ /# ~@ E@ (# S# <$ <$ <$ <$ <$ <$ <$ <$ <$ <$ <$ <$ <$ <$ <$ <$ <$ <$ <$ <$ <$ <$ <$ <$ <$ <$ <$ <$ <$ <$ <$ <$ <$ <$ <$ <$ <$ <$ <$ <$ <$ <$ <$ <$ <$ <$ <$ <$ <$ <$ <$ <$ <$ <$ <$ <$ <$ y# r+ :) R) R) R) R) R) R) R) R) R) R) R) R) 5! 1( 2( 3( w] !~ !~ !~ !~ !~ !~ !~ !~ !~ !~ !~ !~ !~ !~ !~ !~ !~ !~ !~ !~ !~ !~ !~ !~ !~ !~ !~ !~ !~ 4( 5( J~ 5( 5( 6( 6( 4( 4( J~ )~ )~ 7( ({ 6( ({ ({ ({ J~ J~ J~ J~ ({ 6( ({ ({ 8( 9( y/ 0( z/ a( b( c( d( j{ k{ V~ !~ !~ !~ !~ !~ !~ !~ !~ !~ !~ !~ !~ !~ !~ !~ !~ !~ !~ !~ !~ !~ !~ !~ !~ !~ !~ !~ !~ !~ !~ !~ !~ !~ !~ !~ !~ !~ !~ !~ !~ !~ !~ !~ !~ !~ !~ !~ !~ !~ !~ !~ !~ !~ !~ !~ !~ !~ !~ !~ !~ !~ !~ =( 6^ e( f( g( h( I/ i( j( k( l( .( //  ( _/ m( n( R/ 0^ Y/ f{ w^ o( o( o( o( w^ X/ T/ *] p( </ q( 2/ r( 4/ s( t( +( u( v( w( x( y( z( A( B( B/ =( !~ !~ !~ !~ !~ !~ !~ !~ !~ !~ !~ !~ !~ !~ !~ !~ !~ !~ !~ !~ !~ !~ !~ !~ !~ !~ B/ G$ C( F~ 5! 5! R) R) R) R) R) R) R) R) R) R) R) V) ;( S# <$ <$ <$ <$ <$ <$ <$ <$ <$ <$ <$ <$ <$ <$ <$ <$ <$ <$ <$ <$ <$ <$ <$ <$ <$ <$ <$ <$ <$ <$ <$ <$ <$ <$ <$ <$ <$ <$ <$ <$ <$ <$ <$ <$ <$ <$ <$ <$ <$ <$ <$ <$ <$ <$ <$ <$ <$ <$ <$ <$ %$ D( y# S# S# (# f# A# z# S# z# <$ z# z# J$ z# E$ E( F( G( H( g/ r' r' I( <! <! <! J( K( k@ k@ k@ L( M( 2{ h) U^ $# $# $# $# $# $# $# $# $# $# $# $# $# $# $# $# $# $# $# $# $# '! 9' 9' 9' 9' x~ m# m# m# m# m# m# m# m# m# m# ",
"&~ &~ &~ &~ &~ &~ &~ &~ &~ &~ &~ &~ &~ &~ N( H> H> O( u! P( Z{ Z{ Z{ Z{ Z{ Z{ Q( [^ W^ W^ W^ W^ R( '  ]' ]' ]' ]' U, f' )  )  )  )  )  )  )  )  )  )  )  5@ ~  ~  S( P. T( U( V( W( X( w  6.  + @+ 9. n+ %+ R  U+ D@ /# ~@ E@ (# S# <$ <$ <$ <$ <$ <$ <$ <$ <$ <$ <$ <$ <$ <$ <$ <$ <$ <$ <$ <$ <$ <$ <$ <$ <$ <$ <$ <$ <$ <$ <$ <$ <$ <$ <$ <$ <$ <$ <$ <$ <$ <$ <$ <$ <$ <$ <$ <$ <$ <$ <$ <$ <$ <$ <$ <$ %$ /# #! R) R) R) R) R) R) R) R) R) R) R) R) R) F~ Y( Z( `(  _ 5( 5( 5( 5( 5( 5( 5( 5( 5( 5( 5( 5( 5( 5( 5( 5( 5( 5( 5( 5( 5( 5( 5( 5( 5( 5( 5( 5( b/ ._ +_ @_ #_ #_ $_ %_ &_ *_ =_ -_ ;_ >_ ,_ ,^ ,^ ,^ '_ )_ !_ ~_ {_ ]_ ]_ ^_ ^_ /_ (_ 7/ __ 0( :_ &] @^ d( j{ k{ <_ 5( 5( 5( 5( 5( 5( 5( 5( 5( 5( 5( 5( 5( 5( 5( 5( 5( 5( 5( 5( 5( 5( 5( 5( 5( 5( 5( 5( 5( 5( 5( 5( 5( 5( 5( 5( 5( 5( 5( 5( 5( 5( 5( 5( 5( 5( 5( 5( 5( 5( 5( 5( 5( 5( 5( 5( 5( 5( 5( 5( 5( 5( [_ !~ }_ |_ 1_ 2_ 3_ x( J/ K/ %] 7/ .( 4/ 3/ 4_ 5_ 1/ a( y] S/ Y/ e{ e{ N~ e{ =] Y/ S/ !{ </ 1/ 6_ 7_  ( // .( 7/ 8_ @( ~/ 9_ 0_ a_ b_ c_ 4( 5( 5( 5( 5( 5( 5( 5( 5( 5( 5( 5( 5( 5( 5( 5( 5( 5( 5( 5( 5( 5( 5( 5( 5( 5( 5( 5( 5( 5( Z! q$ d_ e_ 5! R) R) R) R) R) R) R) R) R) R) R) R) R! ~+ y# <$ <$ <$ <$ <$ <$ <$ <$ <$ <$ <$ <$ <$ <$ <$ <$ <$ <$ <$ <$ <$ <$ <$ <$ <$ <$ <$ <$ <$ <$ <$ <$ <$ <$ <$ <$ <$ <$ <$ <$ <$ <$ <$ <$ <$ <$ <$ <$ <$ <$ <$ <$ <$ <$ <$ <$ <$ %$ y# g# f# f# f# v# F@ v# v# w# (#  # +# S# y# e# y# %$ f_ g_ 2# H( g/ h_ r' c! <! <! <! J( i_ k@ k@ )( !( j_ 2{ h) +. $# $# $# $# $# $# $# $# $# $# $# $# $# $# $# $# $# $# $# $# $# '! 9' 9' 9' 9' M) m# m# m# m# m# m# m# m# m# m# ",
"&~ &~ &~ &~ &~ &~ &~ &~ &~ &~ &~ &~ &~ &~ k_ H> H> l_ u! P( Z{ Z{ Z{ Z{ Z{ Z{ Z{ m_ n_ W^ W^ W^ W^ o_ P! ]' ]' p_ @$ ]' ]' q_ )  )  )  )  )  )  )  )  $@ ~  ~  ~  r_ s_ t_ u_ v_ w_ w  z  A  `. F  9. n+ %+ U+ U+ D@ /# ~@ E@ (# S# <$ <$ <$ <$ <$ <$ <$ <$ <$ <$ <$ <$ <$ <$ <$ <$ <$ <$ <$ <$ <$ <$ <$ <$ <$ <$ <$ <$ <$ <$ <$ <$ <$ <$ <$ <$ <$ <$ <$ <$ <$ <$ <$ <$ <$ <$ <$ <$ <$ <$ <$ <$ <$ <$ <$ <$ !@ O^ R) R) R) R) R) R) R) R) R) R) R) R) R) R) d_ x_ y_ z_ 5( 5( 5( 5( 5( 5( 5( 5( 5( 5( 5( 5( 5( 5( 5( 5( 5( 5( 5( 5( 5( 5( 5( 5( 5( 5( 5( 5( 5( A_ B_ 1_ C_ D_ E_ F_ G_ H_ I_ J_ K_ L^ L_ M_ N_ O_ P_ Q_ R_ S_ T_ U_ V_ W_ X_ Y_ Z_ 8/ 4/ :/ Q/ Q/ `_ @^ d( j{ k{ <_ 5( 5( 5( 5( 5( 5( 5( 5( 5( 5( 5( 5( 5( 5( 5( 5( 5( 5( 5( 5( 5( 5( 5( 5( 5( 5( 5( 5( 5( 5( 5( 5( 5( 5( 5( 5( 5( 5( 5( 5( 5( 5( 5( 5( 5( 5( 5( 5( 5( 5( 5( 5( 5( 5( 5( 5( 5( 5( 5( 5( 5( 5( 5( 5(  : .: +: @: #: 9_ w( ~/ @( +( 6/ 5/ 4/ 3/ 4_ 6_ Z/ :_ a( 9^ p( p( p( p( p( 9^ a( 1/ Z/ 6_ 7_  ( $: %: &: *: K/ =: -: ;: >: '_ ,: J~ 5( 5( 5( 5( 5( 5( 5( 5( 5( 5( 5( 5( 5( 5( 5( 5( 5( 5( 5( 5( 5( 5( 5( 5( 5( 5( 5( 5( 5( 5( 5( ': S! %! z! R) R) R) R) R) R) R) R) R) R) R) R) R) O^ )@ <$ <$ <$ <$ <$ <$ <$ <$ <$ <$ <$ <$ <$ <$ <$ <$ <$ <$ <$ <$ <$ <$ <$ <$ <$ <$ <$ <$ <$ <$ <$ <$ <$ <$ <$ <$ <$ <$ <$ <$ <$ <$ <$ <$ <$ <$ <$ <$ <$ <$ <$ <$ <$ <$ <$ <$ <$ %$ f# g# (# (# ): w# !: E@ ]@ 9! !@ R# ]@ c@ F@ G@  # e# ~: 3+ {: ]: g/ ^: r' r' <! <! <! J( i_ k@ k@ /: !( (: _: :: }! $# $# $# $# $# $# $# $# $# $# $# $# $# $# $# $# $# $# $# $# $# '! 9' 9' 9' 9' <: m# m# m# m# m# m# m# m# m# m# ",
"&~ &~ &~ &~ &~ &~ &~ &~ &~ &~ &~ &~ &~ &~ [: H> H> l_ u! P( Z{ Z{ Z{ Z{ Z{ Z{ Z{ }: r] |: W^ W^ W^ 1: 2: @$ 3: 3: 3: P! 4: 5: 6: )  !  L+ ~  e% !  )  L+ ~  ~  ~  7: s_ 8: 9: 0: a: E~ z  A  `. F  9. n+ %+ U+ U+ D@ /# ~@ E@ (# S# <$ <$ <$ <$ <$ <$ <$ <$ <$ <$ <$ <$ <$ <$ <$ <$ <$ <$ <$ <$ <$ <$ <$ <$ <$ <$ <$ <$ <$ <$ <$ <$ <$ <$ <$ <$ <$ <$ <$ <$ <$ <$ <$ <$ <$ <$ <$ <$ <$ <$ <$ <$ <$ <$ <$ w# E~ R) R) R) R) R) R) R) R) R) R) R) R) R) R) m! Z( b: c: 5( 5( 5( 5( 5( 5( 5( 5( 5( 5( 5( 5( 5( 5( 5( 5( 5( 5( 5( 5( 5( 5( 5( 5( 5( 5( 5( 5( 5( 5( d: e: f: g: h: i: j: k: l: m: n: o: p: q: r: ,/ s: t: u: 9_ =: v: {/ w: x: 6/ 5/ y:  ( 3/ P/ m( z: A: B: d( 9> C: <_ 5( 5( 5( 5( 5( 5( 5( 5( 5( 5( 5( 5( 5( 5( 5( 5( 5( 5( 5( 5( 5( 5( 5( 5( 5( 5( 5( 5( 5( 5( 5( 5( 5( 5( 5( 5( 5( 5( 5( 5( 5( 5( 5( 5( 5( 5( 5( 5( 5( 5( 5( 5( 5( 5( 5( 5( 5( 5( 5( 5( 5( 5( 5( 5( 5( 5( D: E: F: G: =: ~/ H: {/ 7/ I: J: 4/ K: 7_ L: 6_ Q/ 1/ </ </ </ </ M: 1/ Z/ 6_ P/ 3/  ( // %: t( +( 8/ H: N: O: O_ P: Q: `!  : 5( 5( 5( 5( 5( 5( 5( 5( 5( 5( 5( 5( 5( 5( 5( 5( 5( 5( 5( 5( 5( 5( 5( 5( 5( 5( 5( 5( 5( 5( 5( 5( X! ,@ #! R) R) R) R) R) R) R) R) R) R) R) R) R) R) R: !@ <$ <$ <$ <$ <$ <$ <$ <$ <$ <$ <$ <$ <$ <$ <$ <$ <$ <$ <$ <$ <$ <$ <$ <$ <$ <$ <$ <$ <$ <$ <$ <$ <$ <$ <$ <$ <$ <$ <$ <$ <$ <$ <$ <$ <$ <$ <$ <$ <$ <$ <$ <$ <$ <$ <$ <$ z# y# (# `@ E@ E@ {@ n. n. i. ~+ j. D@ j. r+ !+ w+ '@ G@ S: T: U: V: g/ W: r' r' 1{ <! <! J( i_ k@ k@ X: !( Y: Z: `: }! $# $# $# $# $# $# $# $# $# $# $# $# $# $# $# $# $# $# $# $# $# '! 9' 9' 9' 9' 9' x~ m# m# m# m# m# m# m# m# m# ",
"&~ &~ &~ &~ &~ &~ &~ &~ &~ &~ &~ &~ &~ &~  < H> H> .< u! Y{ Z{ Z{ Z{ Z{ Z{ Z{ Z{ V^ i! :^ +< W^ W^ @< i! #< 3: 3: 3: $< 5: 5: %< e% ~  ~  ~  ~  ~  L+ ~  ~  ~  ~  R! &< 8: *< 0: a: E~ z  A  `. F  9. n+ %+ U+ U+ D@ /# ~@ E@ (# S# <$ <$ <$ <$ <$ <$ <$ <$ <$ <$ <$ <$ <$ <$ <$ <$ <$ <$ <$ <$ <$ <$ <$ <$ <$ <$ <$ <$ <$ <$ <$ <$ <$ <$ <$ <$ <$ <$ <$ <$ <$ <$ <$ <$ <$ <$ <$ <$ <$ <$ <$ <$ <$ <$ f# D  5! R) R) R) R) R) R) R) R) R) R) R) 5! R) 8! =< -< ;< 5( 5( 5( 5( 5( 5( 5( 5( 5( 5( 5( 5( 5( 5( 5( 5( 5( 5( 5( 5( 5( 5( 5( 5( 5( 5( 5( 5( 5( 5( 5( ,: >< ,< m: '< '< )< )< !< ~< n: {< ]< r: #: ^< t: $( x( =: v: /< w: (< _< 5/ y: 4/  ( (/ 7_ L: 4_ :< << d( 9> C: <_ 5( 5( 5( 5( 5( 5( 5( 5( 5( 5( 5( 5( 5( 5( 5( 5( 5( 5( 5( 5( 5( 5( 5( 5( 5( 5( 5( 5( 5( 5( 5( 5( 5( 5( 5( 5( 5( 5( 5( 5( 5( 5( 5( 5( 5( 5( 5( 5( 5( 5( 5( 5( 5( 5( 5( 5( 5( 5( 5( 5( 5( 5( 5( 5( 5( 5( 5( [< }< |< 1< =: H: j( k( x: I: 2< // 3< O/ 7_ P/ 6_ :/ :/ :/ :/ :/ P/ _/ 3/  ( 4/ y: 4< t( +( 8/ K/ v: x( 5< 6< N^ 5( `! 5( 5( 5( 5( 5( 5( 5( 5( 5( 5( 5( 5( 5( 5( 5( 5( 5( 5( 5( 5( 5( 5( 5( 5( 5( 5( 5( 5( 5( 5( 5( 5( 5( 5( !* =+ <) R) R) R) R) R) R) R) R) R) R) R) R) R) ^! <{ R# <$ <$ <$ <$ <$ <$ <$ <$ <$ <$ <$ <$ <$ <$ <$ <$ <$ <$ <$ <$ <$ <$ <$ <$ <$ <$ <$ <$ <$ <$ <$ <$ <$ <$ <$ <$ <$ <$ <$ <$ <$ <$ <$ <$ <$ <$ <$ <$ <$ <$ <$ <$ <$ <$ <$ z# S# (# E@ !@ r+ V+ U+ =+ G  9. F  D  B  8. z  y  7< x  w_ T: 8< 9< g/ 0< r' r' v~ <! <! J( i_ k@ k@ L( !( j_ !( !( ;' $# $# $# $# $# $# $# $# $# $# $# $# $# $# $# $# $# $# $# $# $# O' 9' 9' 9' 9' 9' 9' i) Z) m# m# m# m# m# m# m# ",
"&~ &~ &~ &~ &~ &~ &~ &~ &~ &~ &~ &~ &~ &~ a< H> H> H> u! b< Z{ Z{ Z{ Z{ Z{ Z{ Z{ Z{ m_ i! i! Y^ Y^ Y^ i! 2: 3: 3: c< d< 5: 4: #@ ~  ~  ~  ~  ~  ~  ~  ~  ~  ~  ~  R! &< 8: *< 0: a: E~ z  A  `. F  9. n+ %+ U+ U+ D@ /# ~@ E@ (# S# <$ <$ <$ <$ <$ <$ <$ <$ <$ <$ <$ <$ <$ <$ <$ <$ <$ <$ <$ <$ <$ <$ <$ <$ <$ <$ <$ <$ <$ <$ <$ <$ <$ <$ <$ <$ <$ <$ <$ <$ <$ <$ <$ <$ <$ <$ <$ <$ <$ <$ <$ <$ <$ f# e< R! R) R) R) R) R) R) R) R) R) R) R) R) 5! <) f< g< V~ 5( 5( 5( 5( 5( 5( 5( 5( 5( 5( 5( 5( 5( 5( 5( 5( 5( 5( 5( 5( 5( 5( 5( 5( 5( 5( 5( 5( 5( 5( 5( 5( ,: >< h< i< j: j: j: j< k< l< m< n< o< p< q< r< 1< '/ s< $( t< =: j( u< v< &: .( 5/ // 4/  ( O/ w< :/ x< y< 9> C: <_ 5( 5( 5( 5( 5( 5( 5( 5( 5( 5( 5( 5( 5( 5( 5( 5( 5( 5( 5( 5( 5( 5( 5( 5( 5( 5( 5( 5( 5( 5( 5( 5( 5( 5( 5( 5( 5( 5( 5( 5( 5( 5( 5( 5( 5( 5( 5( 5( 5( 5( 5( 5( 5( 5( 5( 5( 5( 5( 5( 5( 5( 5( 5( 5( 5( 5( 5( 5( A_ z< A< B< C< =: j( k( D< (< .( 5/ 4/  ( (/ 3/ E< _/ _/ E< 3/ (/ (/ 4/ // 5/ _< &: +( 8/ K/ F< t< G< H< I< O,  : 5( 5( 5( 5( 5( 5( 5( 5( 5( 5( 5( 5( 5( 5( 5( 5( 5( 5( 5( 5( 5( 5( 5( 5( 5( 5( 5( 5( 5( 5( 5( 5( 5( 5( 5( 5( Z$ a@ R! J< 5! R) R) R) R) R) R) R) R) R) R) R) 5! Z. E@ <$ <$ <$ <$ <$ <$ <$ <$ <$ <$ <$ <$ <$ <$ <$ <$ <$ <$ <$ <$ <$ <$ <$ <$ <$ <$ <$ <$ <$ <$ <$ <$ <$ <$ <$ <$ <$ <$ <$ <$ <$ <$ <$ <$ <$ <$ <$ <$ <$ <$ <$ <$ <$ <$ S# (# E@ K< !@ r+ ~+ -+ #+ 9. D  `. z  L< w_ 0: *< M< &< 7: 7: N< O< g/ R^ r' r' p! <! P< J( i_ k@ k@ Q< !( !( !( !( R< S< $# $# $# $# $# $# $# $# $# $# $# $# $# $# $# $# $# $# $# $# b% 9' 9' 9' 9' 9' 9' 9' 9' T< <: U< m# m# m# m# ",
"M) &~ &~ &~ &~ &~ &~ &~ &~ &~ &~ &~ &~ &~ c, V< j/ H> 4{ Z{ Z{ Z{ Z{ Z{ Z{ Z{ Z{ Z{ ^( i! i! i! i! i! i! i! W< X< Y< d< 4: Z< ~  ~  ~  ~  ~  ~  ~  ~  ~  ~  ~  ~  R! &< 8: *< 0: a: E~ z  A  `. F  9. n+ %+ U+ U+ D@ /# ~@ E@ (# S# <$ <$ <$ <$ <$ <$ <$ <$ <$ <$ <$ <$ <$ <$ <$ <$ <$ <$ <$ <$ <$ <$ <$ <$ <$ <$ <$ <$ <$ <$ <$ <$ <$ <$ <$ <$ <$ <$ <$ <$ <$ <$ <$ <$ <$ <$ <$ <$ <$ <$ <$ <$ (# 9. R! R) R) R) R) R) R) R) R) R) R) R) R) R) t/ H$ `< c_ ({ 5( 5( 5( 5( 5( 5( 5( 5( 5( 5( 5( 5( 5( 5( 5( 5( 5( 5( 5( 5( 5( 5( 5( 5( 5( 5( 5( 5( 5( 5( 5( 5( ,: >< h<  [ h: j: k: .[ +[ @[ #[ $[ %[ &[ J^ *[ =[ -[ ;[ >[ ,[ '[ )[ ![ ~[ {[ ][ ^[ /[ ([ _[ :[ :[ <[ [[ }[ |[ 1[ <_ 5( 5( 5( 5( 5( 5( 5( 5( 5( 5( 5( 5( 5( 5( 5( 5( 5( 5( 5( 5( 5( 5( 5( 5( 5( 5( 5( 5( 5( 5( 5( 5( 5( 5( 5( 5( 5( 5( 5( 5( 5( 5( 5( 5( 5( 5( 5( 5( 5( 5( 5( 5( 5( 5( 5( 5( 5( 5( 5( 5( 5( 5( 5( 5( 5( 5( 5( 5( [_ 2[ 3[ |< G: 4[ =: j( 8/ *: D< 6/ .( 5/ // 5[ 4/ 4/ 4/ 4/ 5[ y: // 5/ .( &: D< *: @( H: N: 9_ S_ 6[ 7[  _  : 5( 5( 5( 5( 5( 5( 5( 5( 5( 5( 5( 5( 5( 5( 5( 5( 5( 5( 5( 5( 5( 5( 5( 5( 5( 5( 5( 5( 5( 5( 5( 5( 5( 5( 5( 5( 5( 5( ;% ++ 8[ 5! 5! R) R) R) R) R) R) R) R) R) R) R) z! Z. R# <$ <$ <$ <$ <$ <$ <$ <$ <$ <$ <$ <$ <$ <$ <$ <$ <$ <$ <$ <$ <$ <$ <$ <$ <$ <$ <$ <$ <$ <$ <$ <$ <$ <$ <$ <$ <$ <$ <$ <$ <$ <$ <$ <$ <$ <$ <$ <$ <$ <$ <$ <$ <$ S# (# E@ E@ !@ r+ ~+ -+ #+ 9. D  `. z  L< w_ 0: *< 9[ 0[ 7: 7: a[ O< g/ b[ r' r' I( <! c[ J( i_ k@ k@ Q< !( !( !( !( !( d[ e[ ,$ $# $# $# $# $# $# $# $# $# $# $# $# $# $# $# $# $# $# $# '' 9' 9' 9' 9' 9' 9' 9' 9' 9' 9' 9' i) x~ f[ ",
")' q' &~ &~ &~ &~ &~ &~ &~ &~ &~ &~ &~ N) g[ h[ h[ h[ i[ Z{ Z{ Z{ Z{ Z{ Z{ Z{ Z{ Z{ j[ k[ k[ k[ i! i! i! i! i! l[ i! n& ~  ~  ~  ~  ~  ~  ~  ~  ~  ~  ~  ~  ~  ~  m[ &< 8: *< 0: a: E~ z  A  `. F  9. n+ %+ U+ U+ D@ /# ~@ E@ (# S# <$ <$ <$ <$ <$ <$ <$ <$ <$ <$ <$ <$ <$ <$ <$ <$ <$ <$ <$ <$ <$ <$ <$ <$ <$ <$ <$ <$ <$ <$ <$ <$ <$ <$ <$ <$ <$ <$ <$ <$ <$ <$ <$ <$ <$ <$ <$ <$ <$ <$ <$ S# o) V) R) R) R) R) R) R) R) R) R) R) R) R) R) F~ n[ g< o[  _ 5( 5( 5( 5( 5( 5( 5( 5( 5( 5( 5( 5( 5( 5( 5( 5( 5( 5( 5( 5( 5( 5( 5( 5( 5( 5( 5( 5( 5( 5( 5( 5( 5( ,: >< p[ q[ h: j: r[ s[ t[ t[ u[ v[ w[ x[ y[ z[ A[ B[ C[ D[ E[ F[ G[ H[ I[ J[ K[ L[ M[ N[ O[ P[ Q[ R[ S[ T[ U[ C: <_ 5( 5( 5( 5( 5( 5( 5( 5( 5( 5( 5( 5( 5( 5( 5( 5( 5( 5( 5( 5( 5( 5( 5( 5( 5( 5( 5( 5( 5( 5( 5( 5( 5( 5( 5( 5( 5( 5( 5( 5( 5( 5( 5( 5( 5( 5( 5( 5( 5( 5( 5( 5( 5( 5( 5( 5( 5( 5( 5( 5( 5( 5( 5( 5( 5( 5( 5( 5( [_  : .: V[ W[ 0_ X[ ~/ Y[ K/ k( w: x: 6/ 6/ Z[ 4< 4< 4< 4< 4< _< 6/ x: ]/ w: {/ j( =: =: `[  } .} +}  _  : 5( 5( 5( 5( 5( 5( 5( 5( 5( 5( 5( 5( 5( 5( 5( 5( 5( 5( 5( 5( 5( 5( 5( 5( 5( 5( 5( 5( 5( 5( 5( 5( 5( 5( 5( 5( 5( 5( 5( 5( Z' Z. F~ R) R) R) R) R) R) R) R) R) R) R) R) @~ ^! 2^ f# <$ <$ <$ <$ <$ <$ <$ <$ <$ <$ <$ <$ <$ <$ <$ <$ <$ <$ <$ <$ <$ <$ <$ <$ <$ <$ <$ <$ <$ <$ <$ <$ <$ <$ <$ <$ <$ <$ <$ <$ <$ <$ <$ <$ <$ <$ <$ <$ <$ <$ <$ <$ S# (# E@ E@ !@ r+ ~+ -+ #+ 9. D  `. z  L< w_ 0: *< 9[ 0[ 7: V( a[ O< g/ g/ @} r' r' <! c[ J( i_ k@ k@ Q< !( !( !( !( !( #} $} %} ,' &} j& *} =} $# $# $# $# $# $# $# $# $# $# $# $# $# $# $# V{ 9' 9' 9' 9' 9' 9' 9' 9' 9' 9' 9' 9' 9' ",
")' )' M) &~ &~ &~ &~ &~ &~ &~ &~ c, -} h[ h[ h[ h[ h[ ;} Z{ Z{ Z{ Z{ Z{ Z{ Z{ Z{ Z{ >} ,} '} '} '} '} '} i! i! )} !} ~} ~  ~  ~  ~  ~  ~  ~  ~  ~  ~  ~  ~  ~  ~  m[ &< 8: *< 0: a: E~ z  A  `. F  9. n+ %+ U+ U+ D@ /# ~@ E@ (# S# <$ <$ <$ <$ <$ <$ <$ <$ <$ <$ <$ <$ <$ <$ <$ <$ <$ <$ <$ <$ <$ <$ <$ <$ <$ <$ <$ <$ <$ <$ <$ <$ <$ <$ <$ <$ <$ <$ <$ <$ <$ <$ <$ <$ <$ <$ <$ <$ <$ <$ <$ /# _) R) R) R) R) R) R) R) R) R) R) R) R) R) 3^ {} =< g<  _ 5( 5( 5( 5( 5( 5( 5( 5( 5( 5( 5( 5( 5( 5( 5( 5( 5( 5( 5( 5( 5( 5( 5( 5( 5( 5( 5( 5( 5( 5( 5( 5( 5( 5( ,: >< p[ q[ h: '< ]} ^} /} (} _} :} <} <} <} <} <} [} }} }} }} |} |} k- 1} 1} 1} 2} 3} 3} 3} 4} 3} 5} 6} 7} 8} 9} <_ 5( 5( 5( 5( 5( 5( 5( 5( 5( 5( 5( 5( 5( 5( 5( 5( 5( 5( 5( 5( 5( 5( 5( 5( 5( 5( 5( 5( 5( 5( 5( 5( 5( 5( 5( 5( 5( 5( 5( 5( 5( 5( 5( 5( 5( 5( 5( 5( 5( 5( 5( 5( 5( 5( 5( 5( 5( 5( 5( 5( 5( 5( 5( 5( 5( 5( 5( 5( 5(  :  : D: 0} >: 0_ 9_ w( a} v: /< b} L/ c} d} d} x: x: x: d} c} e} b} {/ F< =: w( w( 9_ f} g} h} i}  : 5( 5( 5( 5( 5( 5( 5( 5( 5( 5( 5( 5( 5( 5( 5( 5( 5( 5( 5( 5( 5( 5( 5( 5( 5( 5( 5( 5( 5( 5( 5( 5( 5( 5( 5( 5( 5( 5( 5( 5( 5( j} g# <{ 5! R) R) R) R) R) R) R) R) R) R) R) R) A! <) %+ S# <$ <$ <$ <$ <$ <$ <$ <$ <$ <$ <$ <$ <$ <$ <$ <$ <$ <$ <$ <$ <$ <$ <$ <$ <$ <$ <$ <$ <$ <$ <$ <$ <$ <$ <$ <$ <$ <$ <$ <$ <$ <$ <$ <$ <$ <$ <$ <$ <$ <$ <$ S# (# E@ E@ !@ r+ ~+ -+ #+ 9. D  `. z  L< w_ 0: *< 9[ 0[ 7: T: a[ 9< g/ g/ k} r' r' v~ c[ J( i_ k@ k@ Q< !( !( !( !( !( !( d[ $} $} l} m} n} o} k& p} $# $# $# $# $# $# $# $# $# $# $# $# $# $# b% a' 0' 9' 9' 9' 9' 9' 9' 9' 9' 9' 9' ",
")' )' )' m# &~ &~ &~ &~ &~ &~ q} r} s} s} t} h[ h[ h[ u} Z{ Z{ Z{ Z{ Z{ Z{ Z{ Z{ Z{ Z{ v} w} '} '} '} '} m_ !} )} x} y} ~  ~  ~  ~  ~  ~  ~  ~  ~  ~  ~  ~  '# +$ R! &< 8: *< 0: a: E~ z  A  `. F  9. n+ %+ U+ U+ D@ /# ~@ E@ (# S# <$ <$ <$ <$ <$ <$ <$ <$ <$ <$ <$ <$ <$ <$ <$ <$ <$ <$ <$ <$ <$ <$ <$ <$ <$ <$ <$ <$ <$ <$ <$ <$ <$ <$ <$ <$ <$ <$ <$ <$ <$ <$ <$ <$ <$ <$ <$ <$ <$ S# /# z} R) R) R) R) R) R) R) R) R) R) R) R) 7! S) 2^ A} B}  _ 5( 5( 5( 5( 5( 5( 5( 5( 5( 5( 5( 5( 5( 5( 5( 5( 5( 5( 5( 5( 5( 5( 5( 5( 5( 5( 5( 5( 5( 5( 5( 5( 5( 5( 5( ,: >< p[ q[ h: g: C} s- D} E} F} G} H} H} I} I} I} H} J} J} J} J} J} J} H} H} J} J} H} H} I} K} L} M} N} O} |, P} D: 5( 5( 5( 5( 5( 5( 5( 5( 5( 5( 5( 5( 5( 5( 5( 5( 5( 5( 5( 5( 5( 5( 5( 5( 5( 5( 5( 5( 5( 5( 5( 5( 5( 5( 5( 5( 5( 5( 5( 5( 5( 5( 5( 5( 5( 5( 5( 5( 5( 5( 5( 5( 5( 5( 5( 5( 5( 5( 5( 5( 5( 5( 5( 5( 5( 5( 5( 5( 5( 5(  :  : A_ Q} >: G: 3_ 3_ 9_ 9_ C< v: F< /< b} b} b} b} R} R} /< v: H: w( x( x( S} T} U} V} i}  : 5( 5( 5( 5( 5( 5( 5( 5( 5( 5( 5( 5( 5( 5( 5( 5( 5( 5( 5( 5( 5( 5( 5( 5( 5( 5( 5( 5( 5( 5( 5( 5( 5( 5( 5( 5( 5( 5( 5( 5( 5( 5( 5( W! R# %! ^! R) R) R) R) R) R) R) R) R) R) R) R) R) O^ %+ S# <$ <$ <$ <$ <$ <$ <$ <$ <$ <$ <$ <$ <$ <$ <$ <$ <$ <$ <$ <$ <$ <$ <$ <$ <$ <$ <$ <$ <$ <$ <$ <$ <$ <$ <$ <$ <$ <$ <$ <$ <$ <$ <$ <$ <$ <$ <$ <$ <$ <$ S# (# E@ E@ !@ r+ ~+ -+ #+ 9. D  `. z  L< w_ 0: *< 9[ 0[ 7: T: a[ W} g/ g/ X} r' r' >! c[ J( k@ k@ k@ Q< !( !( !( !( !( !( Y} $} $} $} $} Z} o} n} n} `}  | $# $# $# $# $# $# $# $# $# $# $# $# $# $# $# $# b% V{ V{ V{ 7' 7' )' !' 9' ",
")' )' )' e/ &~ &~ &~ &~ .| +| @| @| @| @| @| #| $| h[ %| Z{ Z{ Z{ Z{ Z{ Z{ Z{ Z{ Z{ Z{ v} v} w} '} '} '} k[ !} )} &| A* ~  ~  ~  ~  ~  ~  ~  ~  {  +$ x$ ]  ]  ]  R! &< 8: *< 0: a: E~ z  A  `. F  9. n+ %+ U+ U+ D@ /# ~@ E@ (# S# <$ <$ <$ <$ <$ <$ <$ <$ <$ <$ <$ <$ <$ <$ <$ <$ <$ <$ <$ <$ <$ <$ <$ <$ <$ <$ <$ <$ <$ <$ <$ <$ <$ <$ <$ <$ <$ <$ <$ <$ <$ <$ <$ <$ <$ <$ <$ <$ <$ /# R: p) R) R) R) R) R) R) R) R) R) R) R) 5! A! e< *| -<  _ 5( 5( 5( 5( 5( 5( 5( 5( 5( 5( 5( 5( 5( 5( 5( 5( 5( 5( 5( 5( 5( 5( 5( 5( 5( 5( 5( 5( 5( 5( 5( 5( 5( 5( 5( 5( ,: >< p[ q[ h: g: C} s- E} =| [= )= )= )= )= )= )= )= )= )= )= )= )= )= )= )= )= )= )= )= )= )= )= )= -| ~= h* ;| >| 5( 5( 5( 5( 5( 5( 5( 5( 5( 5( 5( 5( 5( 5( 5( 5( 5( 5( 5( 5( 5( 5( 5( 5( 5( 5( 5( 5( 5( 5( 5( 5( 5( 5( 5( 5( 5( 5( 5( 5( 5( 5( 5( 5( 5( 5( 5( 5( 5( 5( 5( 5( 5( 5( 5( 5( 5( 5( 5( 5( 5( 5( 5( 5( 5( 5( 5( 5( 5( 5( 5( Z! Z! ,| Q} L_ ,/ u: u: u: x( `[ 9_ =: =: =: =: =: C< '| 9_ 9_ x( $( $( H/ )| !| ~| b/ Z! 5( 5( 5( 5( 5( 5( 5( 5( 5( 5( 5( 5( 5( 5( 5( 5( 5( 5( 5( 5( 5( 5( 5( 5( 5( 5( 5( 5( 5( 5( 5( 5( 5( 5( 5( 5( 5( 5( 5( 5( 5( 5( 5( 5( 5( )* ,@ d) 5! R) R) R) R) R) R) R) R) R) R) R) R) A! <) ;( <$ <$ <$ <$ <$ <$ <$ <$ <$ <$ <$ <$ <$ <$ <$ <$ <$ <$ <$ <$ <$ <$ <$ <$ <$ <$ <$ <$ <$ <$ <$ <$ <$ <$ <$ <$ <$ <$ <$ <$ <$ <$ <$ <$ <$ <$ <$ <$ <$ <$ S# (# E@ E@ !@ r+ ~+ -+ #+ 9. D  `. z  L< w_ 0: *< 9[ 0[ 7: T: a[ {| g/ g/ b[ r' r' r' ]| J( k@ k@ k@ Q< !( !( !( !( !( !( !( ^| $} $} $} $} /| (| m} n} _| $# $# $# $# $# $# $# $# $# $# $# $# $# $# $# $# $# $# $# $# $# $# $# $# q. ",
")' )' )' )' x~ &~ T< :| @| @| @| @| @| @| @| @| @| <| Z{ Z{ Z{ Z{ Z{ Z{ Z{ Z{ Z{ Z{ Z{ v} v} v} [| '} '} `{ }| )} || 1| M+ ~  ~  ~  ~  ~  ~  ]  ]  ]  ]  ]  ]  ]  R! &< 8: *< 0: a: E~ z  A  `. F  9. n+ %+ U+ U+ D@ /# ~@ E@ (# S# <$ <$ <$ <$ <$ <$ <$ <$ <$ <$ <$ <$ <$ <$ <$ <$ <$ <$ <$ <$ <$ <$ <$ <$ <$ <$ <$ <$ <$ <$ <$ <$ <$ <$ <$ <$ <$ <$ <$ <$ <$ <$ <$ <$ <$ <$ <$ <$ E@ 7. R) R) R) R) R) R) R) R) R) R) R) R) R) R) 2| 3| #] }_ 5( 5( 5( 5( 5( 5( 5( 5( 5( 5( 5( 5( 5( 5( 5( 5( 5( 5( 5( 5( 5( 5( 5( 5( 5( 5( 5( 5( 5( 5( 5( 5( 5( 5( 5( 5( 5( ,: >< p[ q[ h: g: C} {] 4| 5| 6| 7| 8| 9| 9| 9| 9| 9| 9| 9| 9| 9| 9| 9| 9| 9| 9| 9| 9| 9| 9| 9| 9| 9| 9| 9| 0| >| 5( 5( 5( 5( 5( 5( 5( 5( 5( 5( 5( 5( 5( 5( 5( 5( 5( 5( 5( 5( 5( 5( 5( 5( 5( 5( 5( 5( 5( 5( 5( 5( 5( 5( 5( 5( 5( 5( 5( 5( 5( 5( 5( 5( 5( 5( 5( 5( 5( 5( 5( 5( 5( 5( 5( 5( 5( 5( 5( 5( 5( 5( 5( 5( 5( 5( 5( 5( 5( 5( 5( 5( 5( Z! :% <_ a| b| c| ;: ;: ;: H/ h( u: u: d| d| d| u: u: e| e| ;: ;: 0_ f| g| ~| b/ Z! 5( 5( 5( 5( 5( 5( 5( 5( 5( 5( 5( 5( 5( 5( 5( 5( 5( 5( 5( 5( 5( 5( 5( 5( 5( 5( 5( 5( 5( 5( 5( 5( 5( 5( 5( 5( 5( 5( 5( 5( 5( 5( 5( 5( 5( 5( 5( Z$ =+ #! z! 5! R) R) R) R) R) R) R) R) R) R) R) R) ]! R# <$ <$ <$ <$ <$ <$ <$ <$ <$ <$ <$ <$ <$ <$ <$ <$ <$ <$ <$ <$ <$ <$ <$ <$ <$ <$ <$ <$ <$ <$ <$ <$ <$ <$ <$ <$ <$ <$ <$ <$ <$ <$ <$ <$ <$ <$ <$ <$ <$ S# (# E@ E@ !@ r+ ~+ -+ #+ 9. D  `. z  L< w_ 0: *< 9[ 0[ 7: h| a[ i| g/ g/ g/ j| r' r' k| J( k@ k@ k@ !( !( !( !( !( !( !( !( !( d[ $} $} $} $} $} $} l| X# $# $# $# $# $# $# $# $# $# $# $# $# $# $# $# $# $# $# $# $# $# $# $# $# $# ",
")' )' )' )' e/ m| @| @| @| @| @| @| @| @| @| @| n| o| Z{ Z{ Z{ Z{ Z{ Z{ Z{ Z{ Z{ Z{ Z{ v} v} v} <^ '} p| q| )} )} r| r| s| M+ ~  ~  ~  ~  ~  ]  ]  ]  t| t| t| u| v| &< 8: *< 0: a: E~ z  A  `. F  9. n+ %+ U+ U+ D@ /# ~@ E@ (# S# <$ <$ <$ <$ <$ <$ <$ <$ <$ <$ <$ <$ <$ <$ <$ <$ <$ <$ <$ <$ <$ <$ <$ <$ <$ <$ <$ <$ <$ <$ <$ <$ <$ <$ <$ <$ <$ <$ <$ <$ <$ <$ <$ <$ <$ <$ <$ R# <{ R) R) R) R) R) R) R) R) R) R) R) R) R) R) R! j} w| V~ 5( 5( 5( 5( 5( 5( 5( 5( 5( 5( 5( 5( 5( 5( 5( 5( 5( 5( 5( 5( 5( 5( 5( 5( 5( 5( 5( 5( 5( 5( 5( 5( 5( 5( 5( 5( 5( 5( ,: >< p[ q[ h: g: x| {] y| '= z| A| B| +~ +~ +~ +~ +~ +~ +~ +~ +~ +~ +~ +~ +~ +~ +~ +~ +~ +~ +~ +~ +~ +~ +~ X! Z! 5( 5( 5( 5( 5( 5( 5( 5( 5( 5( 5( 5( 5( 5( 5( 5( 5( 5( 5( 5( 5( 5( 5( 5( 5( 5( 5( 5( 5( 5( 5( 5( 5( 5( 5( 5( 5( 5( 5( 5( 5( 5( 5( 5( 5( 5( 5( 5( 5( 5( 5( 5( 5( 5( 5( 5( 5( 5( 5( 5( 5( 5( 5( 5( 5( 5( 5( 5( 5( 5( 5( 5( 5( 5(  :  : C| >< D| c| ,/ ,/ E| ^< F| ;: ;: ;: ;: F| F| ^< ,/ ,/ #: G| H| I|  _ Z! 5( 5( 5( 5( 5( 5( 5( 5( 5( 5( 5( 5( 5( 5( 5( 5( 5( 5( 5( 5( 5( 5( 5( 5( 5( 5( 5( 5( 5( 5( 5( 5( 5( 5( 5( 5( 5( 5( 5( 5( 5( 5( 5( 5( 5( 5( 5( 5( 5( =% e< <) 5! R) R) R) R) R) R) R) R) R) R) R) R) 5! E~ E@ <$ <$ <$ <$ <$ <$ <$ <$ <$ <$ <$ <$ <$ <$ <$ <$ <$ <$ <$ <$ <$ <$ <$ <$ <$ <$ <$ <$ <$ <$ <$ <$ <$ <$ <$ <$ <$ <$ <$ <$ <$ <$ <$ <$ <$ <$ <$ <$ S# (# E@ E@ !@ r+ ~+ -+ #+ 9. D  `. z  L< w_ 0: *< 9[ 0[ 7: h| a[ J| g/ g/ g/ X} r' r' [^ K| k@ k@ L| !( !( !( !( !( !( !( !( !( M| $} $} $} $} $} N| O| O| P| g$ $# $# $# $# $# $# $# $# $# $# $# $# $# $# $# $# $# $# $# $# $# $# $# ",
")' )' )' )' Q| @| @| @| j_ j_ j_ j_ R| S| T| U| Z{ Z{ Z{ Z{ Z{ Z{ Z{ Z{ Z{ Z{ Z{ Z{ Z{ V| v} v} v} W| X| )} )} Y| r| r| r| Z| `|  1 .1 +1 @1 #1 #1 #1 #1 #1 #1 #1 v| &< 8: *< 0: a: E~ z  A  `. F  9. n+ %+ U+ U+ D@ /# ~@ E@ (# S# <$ <$ <$ <$ <$ <$ <$ <$ <$ <$ <$ <$ <$ <$ <$ <$ <$ <$ <$ <$ <$ <$ <$ <$ <$ <$ <$ <$ <$ <$ <$ <$ <$ <$ <$ <$ <$ <$ <$ <$ <$ <$ <$ <$ <$ <$ (# 7. 7! R) R) R) R) R) R) R) R) R) R) R) R) R) p) D( *| *| 5( 5( 5( 5( 5( 5( 5( 5( 5( 5( 5( 5( 5( 5( 5( 5( 5( 5( 5( 5( 5( 5( 5( 5( 5( 5( 5( 5( 5( 5( 5( 5( 5( 5( 5( 5( 5( 5( 5( ,: >< p[ q[ h: g: x| {] y| != $1 !* X! Z! Z! Z! Z! Z! Z! Z! Z! Z! Z! Z! Z! Z! Z! Z! Z! Z! Z! Z! Z! Z! Z! Z! 5( 5( 5( 5( 5( 5( 5( 5( 5( 5( 5( 5( 5( 5( 5( 5( 5( 5( 5( 5( 5( 5( 5( 5( 5( 5( 5( 5( 5( 5( 5( 5( 5( 5( 5( 5( 5( 5( 5( 5( 5( 5( 5( 5( 5( 5( 5( 5( 5( 5( 5( 5( 5( 5( 5( 5( 5( 5( 5( 5( 5( 5( 5( 5( 5( 5( 5( 5( 5( 5( 5( 5( 5( 5( 5( 5( 5(  : Z! %1 &1 *1 =1 -1 -1 c| #: 1< 1< 1< y( y( ;1 ;1 ;1 ;1 >1 ,1 '1 i} Z! 5( 5( 5( 5( 5( 5( 5( 5( 5( 5( 5( 5( 5( 5( 5( 5( 5( 5( 5( 5( 5( 5( 5( 5( 5( 5( 5( 5( 5( 5( 5( 5( 5( 5( 5( 5( 5( 5( 5( 5( 5( 5( 5( 5( 5( 5( 5( 5( 5( 5( 5( X$ )1 [) R) R) R) R) R) R) R) R) R) R) R) R) R) R) ]! R# <$ <$ <$ <$ <$ <$ <$ <$ <$ <$ <$ <$ <$ <$ <$ <$ <$ <$ <$ <$ <$ <$ <$ <$ <$ <$ <$ <$ <$ <$ <$ <$ <$ <$ <$ <$ <$ <$ <$ <$ <$ <$ <$ <$ <$ <$ <$ S# (# E@ E@ !@ r+ ~+ -+ #+ 9. D  `. z  L< w_ 0: *< 9[ 0[ 7: h| !1 g/ g/ g/ g/ b[ r' r' _! K| k@ k@ ~1 !( !( !( !( !( !( !( !( !( !( {1 $} $} ]1 ^1 /1 E% (1 (1 O| _1 :1 $# $# $# $# $# $# $# $# $# $# $# $# $# $# $# $# $# $# $# $# $# ",
")' )' <1 [1 }1 |1 Z{ Z{ Z{ Z{ Z{ Z{ Z{ Z{ Z{ Z{ Z{ Z{ Z{ Z{ Z{ Z{ Z{ Z{ Z{ Z{ Z{ Z{ Z{ 11 21 ,} p| X| )} )} )} P@ Z{ 31 41 #1 #1 #1 #1 #1 #1 #1 #1 #1 #1 #1 #1 #1 v| &< 8: *< 0: a: E~ z  A  `. F  9. n+ %+ U+ U+ D@ /# ~@ E@ (# S# <$ <$ <$ <$ <$ <$ <$ <$ <$ <$ <$ <$ <$ <$ <$ <$ <$ <$ <$ <$ <$ <$ <$ <$ <$ <$ <$ <$ <$ <$ <$ <$ <$ <$ <$ <$ <$ <$ <$ <$ <$ <$ <$ <$ <$ S# c/ V) R) R) R) R) R) R) R) R) R) R) R) 5! 5! 5! )1 c_ 51 5( 5( 5( 5( 5( 5( 5( 5( 5( 5( 5( 5( 5( 5( 5( 5( 5( 5( 5( 5( 5( 5( 5( 5( 5( 5( 5( 5( 5( 5( 5( 5( 5( 5( 5( 5( 5( 5( 5( 5( ,: >< p[ q[ h: g: x| {] y| 61 71 ': Z! 5( 5( 5( 5( 5( 5( 5( 5( 5( 5( 5( 5( 5( 5( 5( 5( 5( 5( 5( 5( 5( 5( 5( 5( 5( 5( 5( 5( 5( 5( 5( 5( 5( 5( 5( 5( 5( 5( 5( 5( 5( 5( 5( 5( 5( 5( 5( 5( 5( 5( 5( 5( 5( 5( 5( 5( 5( 5( 5( 5( 5( 5( 5( 5( 5( 5( 5( 5( 5( 5( 5( 5( 5( 5( 5( 5( 5( 5( 5( 5( 5( 5( 5( 5( 5( 5( 5( 5( 5( 5( 5( 5( 5( 5( 5( 5( 5( 5( 5( 5( 5( Z!  : 81 91 01 a1 q: q: q: b1 b1 b1 c1 q: q: q: r: {< d1 &_ }_ 2( 5( 5( 5( 5( 5( 5( 5( 5( 5( 5( 5( 5( 5( 5( 5( 5( 5( 5( 5( 5( 5( 5( 5( 5( 5( 5( 5( 5( 5( 5( 5( 5( 5( 5( 5( 5( 5( 5( 5( 5( 5( 5( 5( 5( 5( 5( 5( 5( 5( 5( 5( 5( Z! e1 7. z! R) R) R) R) R) R) R) R) R) R) R) R) R) 5! z} (# <$ <$ <$ <$ <$ <$ <$ <$ <$ <$ <$ <$ <$ <$ <$ <$ <$ <$ <$ <$ <$ <$ <$ <$ <$ <$ <$ <$ <$ <$ <$ <$ <$ <$ <$ <$ <$ <$ <$ <$ <$ <$ <$ <$ <$ <$ S# (# E@ E@ !@ r+ ~+ -+ #+ 9. D  `. z  L< w_ 0: *< 9[ 0[ 7: h| f1 g/ g/ g/ g/ g/ W: r' r' g1 k@ k@ F+ !( !( !( !( !( !( !( !( !( !( !( h1 v. i1 /1 /1 j1 (1 (1 (1 (1 (1 k1 l1 :1 $# $# $# $# $# $# $# $# $# $# $# $# $# $# $# $# $# $# ",
"m1 Z{ Z{ Z{ Z{ Z{ Z{ Z{ Z{ Z{ Z{ Z{ Z{ Z{ Z{ Z{ Z{ Z{ Z{ Z{ Z{ Z{ Z{ Z{ Z{ Z{ Z{ Z{ Z{ Z{ n1 o1 )} )} )} p1 q1 Z{ Z{ Z{ r1 #1 #1 #1 #1 #1 #1 #1 #1 #1 #1 #1 #1 #1 v| &< 8: *< 0: a: E~ z  A  `. F  9. n+ %+ U+ U+ D@ /# ~@ E@ (# S# <$ <$ <$ <$ <$ <$ <$ <$ <$ <$ <$ <$ <$ <$ <$ <$ <$ <$ <$ <$ <$ <$ <$ <$ <$ <$ <$ <$ <$ <$ <$ <$ <$ <$ <$ <$ <$ <$ <$ <$ <$ <$ <$ <$ S# s1 V) R) R) R) R) R) R) R) R) R) R) R) R) 5! 5! 2^ t1 u1  _ 5( 5( 5( 5( 5( 5( 5( 5( 5( 5( 5( 5( 5( 5( 5( 5( 5( 5( 5( 5( 5( 5( 5( 5( 5( 5( 5( 5( 5( 5( 5( 5( 5( 5( 5( 5( 5( 5( 5( 5( ,: >< p[ q[ h: g: x| {] y| 61 71 ': Z! 5( 5( 5( 5( 5( 5( 5( 5( 5( 5( 5( 5( 5( 5( 5( 5( 5( 5( 5( 5( 5( 5( 5( 5( 5( 5( 5( 5( 5( 5( 5( 5( 5( 5( 5( 5( 5( 5( 5( 5( 5( 5( 5( 5( 5( 5( 5( 5( 5( 5( 5( 5( 5( 5( 5( 5( 5( 5( 5( 5( 5( 5( 5( 5( 5( 5( 5( 5( 5( 5( 5( 5( 5( 5( 5( 5( 5( 5( 5( 5( 5( 5( 5( 5( 5( 5( 5( 5( 5( 5( 5( 5( 5( 5( 5( 5( 5( 5( 5( 5( 5( 5(  : `! I< v1 >/ %( g( {< {< w1 w1 {< x1 F/ F/ y1 z1 A1 B1 5( 5( 5( 5( 5( 5( 5( 5( 5( 5( 5( 5( 5( 5( 5( 5( 5( 5( 5( 5( 5( 5( 5( 5( 5( 5( 5( 5( 5( 5( 5( 5( 5( 5( 5( 5( 5( 5( 5( 5( 5( 5( 5( 5( 5( 5( 5( 5( 5( 5( 5( 5( 5( 5( 5( ': g# 8! 5! R) R) R) R) R) R) R) R) R) R) R) R) R) z! s1 f# <$ <$ <$ <$ <$ <$ <$ <$ <$ <$ <$ <$ <$ <$ <$ <$ <$ <$ <$ <$ <$ <$ <$ <$ <$ <$ <$ <$ <$ <$ <$ <$ <$ <$ <$ <$ <$ <$ <$ <$ <$ <$ <$ <$ <$ S# (# E@ E@ !@ r+ ~+ -+ #+ 9. D  `. z  L< w_ 0: *< 9[ 0[ T: h| C1 g/ g/ g/ g/ g/ b[ r' r' D1 k@ k@ Q< !( !( !( !( !( !( !( !( !( !( !( E1 /1 /1 /1 F1 G1 (1 (1 (1 (1 (1 (1 (1 (1 O| H1 I1 J1 K1 g$ $# $# $# $# $# $# :1 K1 l1 L1 E% (1 ",
"Z{ Z{ Z{ Z{ Z{ Z{ Z{ Z{ Z{ 31 M1 M1 M1 31 Z{ Z{ Z{ Z{ Z{ Z{ Z{ Z{ Z{ Z{ Z{ Z{ Z{ Z{ Z{ Z{ Z{ u} q1 q1 Z{ Z{ Z{ Z{ Z{ Z{ Z{ N1 #1 #1 #1 #1 #1 O1 P1 Q1 R1 S1 T1 T1 v| &< 8: *< 0: a: E~ z  A  `. F  9. n+ %+ U+ U+ D@ /# ~@ E@ (# S# <$ <$ <$ <$ <$ <$ <$ <$ <$ <$ <$ <$ <$ <$ <$ <$ <$ <$ <$ <$ <$ <$ <$ <$ <$ <$ <$ <$ <$ <$ <$ <$ <$ <$ <$ <$ <$ <$ <$ <$ <$ <$ <$ y# 9. V) R) R) R) R) R) R) R) R) R) R) R) R) R) R) d_ =< g< b/ 5( 5( 5( 5( 5( 5( 5( 5( 5( 5( 5( 5( 5( 5( 5( 5( 5( 5( 5( 5( 5( 5( 5( 5( 5( 5( 5( 5( 5( 5( 5( 5( 5( 5( 5( 5( 5( 5( 5( 5( 5( ,: >< p[ q[ h: g: x| {] y| 61 71 ': Z! 5( 5( 5( 5( 5( 5( 5( 5( 5( 5( 5( 5( 5( 5( 5( 5( 5( 5( 5( 5( 5( 5( 5( 5( 5( 5( 5( 5( 5( 5( 5( 5( 5( 5( 5( 5( 5( 5( 5( 5( 5( 5( 5( 5( 5( 5( 5( 5( 5( 5( 5( 5( 5( 5( 5( 5( 5( 5( 5( 5( 5( 5( 5( 5( 5( 5( 5( 5( 5( 5( 5( 5( 5( 5( 5( 5( 5( 5( 5( 5( 5( 5( 5( 5( 5( 5( 5( 5( 5( 5( 5( 5( 5( 5( 5( 5( 5( 5( 5( 5( 5( 5( 5( Z! i} U1 v1 V1 y1 W1 X1 ~< ~< ~< y1 Y1 Z1 `1  2 A_ 5( 5( 5( 5( 5( 5( 5( 5( 5( 5( 5( 5( 5( 5( 5( 5( 5( 5( 5( 5( 5( 5( 5( 5( 5( 5( 5( 5( 5( 5( 5( 5( 5( 5( 5( 5( 5( 5( 5( 5( 5( 5( 5( 5( 5( 5( 5( 5( 5( 5( 5( 5( 5( 5( 5( 5( 5( X! Y@ %! z! 5! R) R) R) R) R) R) R) R) R) R) R) R) F~ 2^ (# <$ <$ <$ <$ <$ <$ <$ <$ <$ <$ <$ <$ <$ <$ <$ <$ <$ <$ <$ <$ <$ <$ <$ <$ <$ <$ <$ <$ <$ <$ <$ <$ <$ <$ <$ <$ <$ <$ <$ <$ <$ <$ <$ <$ S# (# E@ E@ !@ r+ ~+ -+ #+ 9. D  `. z  L< w_ 0: *< 9[ 0[ h| Q. .2 +2 g/ g/ g/ g/ g/ r' r' @2 k@ k@ Q< !( !( !( !( !( !( !( !( !( !( #2 /1 /1 $2 %2 !( &2 *2 (1 (1 (1 (1 (1 (1 (1 (1 (1 (1 (1 (1 (1 (1 (1 (1 (1 (1 (1 (1 (1 (1 (1 (1 (1 ",
"Z{ Z{ Z{ Z{ =2 -2 @  ;2 >2 >2 >2 >2 >2 >2 ,2 '2 )2 !2 ,. ~2 Z{ Z{ Z{ Z{ Z{ Z{ Z{ Z{ Z{ Z{ Z{ Z{ Z{ Z{ Z{ Z{ Z{ Z{ Z{ Z{ {2 ]2 ^2 >  /2 h' h' h' (2 T1 T1 T1 T1 T1 v| &< 8: *< 0: a: E~ z  A  `. F  9. n+ %+ U+ U+ D@ /# ~@ E@ (# S# <$ <$ <$ <$ <$ <$ <$ <$ <$ <$ <$ <$ <$ <$ <$ <$ <$ <$ <$ <$ <$ <$ <$ <$ <$ <$ <$ <$ <$ <$ <$ <$ <$ <$ <$ <$ <$ <$ <$ <$ <$ <$ %$ D@ <) R) R) R) R) R) R) R) R) R) R) R) R) R) R) 1( _2 3( g] 5( 5( 5( 5( 5( 5( 5( 5( 5( 5( 5( 5( 5( 5( 5( 5( 5( 5( 5( 5( 5( 5( 5( 5( 5( 5( 5( 5( 5( 5( 5( 5( 5( 5( 5( 5( 5( 5( 5( 5( 5( 5( ,: >< p[ q[ h: g: x| {] y| 61 71 ': Z! 5( 5( 5( 5( 5( 5( 5( 5( 5( 5( 5( 5( 5( 5( 5( 5( 5( 5( 5( 5( 5( 5( 5( 5( 5( 5( 5( 5( 5( 5( 5( 5( 5( 5( 5( 5( 5( 5( 5( 5( 5( 5( 5( 5( 5( 5( 5( 5( 5( 5( 5( 5( 5( 5( 5( 5( 5( 5( 5( 5( 5( 5( 5( 5( 5( 5( 5( 5( 5( 5( 5( 5( 5( 5( 5( 5( 5( 5( 5( 5( 5( 5( 5( 5( 5( 5( 5( 5( 5( 5( 5( 5( 5( 5( 5( 5( 5( 5( 5( 5( 5( 5( 5( 5( 5( b/ :2 <2 [2 !< m< }2 }2 }2 !< }2 |2 12 A_ [_ 5( 5( 5( 5( 5( 5( 5( 5( 5( 5( 5( 5( 5( 5( 5( 5( 5( 5( 5( 5( 5( 5( 5( 5( 5( 5( 5( 5( 5( 5( 5( 5( 5( 5( 5( 5( 5( 5( 5( 5( 5( 5( 5( 5( 5( 5( 5( 5( 5( 5( 5( 5( 5( 5( 5( 5( 5( ({ W! =+ 8! F~ R) R) R) R) R) R) R) R) R) R) R) R) R) F~ &+ S# <$ <$ <$ <$ <$ <$ <$ <$ <$ <$ <$ <$ <$ <$ <$ <$ <$ <$ <$ <$ <$ <$ <$ <$ <$ <$ <$ <$ <$ <$ <$ <$ <$ <$ <$ <$ <$ <$ <$ <$ <$ <$ <$ S# (# E@ E@ !@ r+ ~+ -+ #+ 9. D  `. z  L< w_ 0: *< 9[ 0[ Q. Q. 22 32 42 g/ g/ g/ 52 r' r' 62 k@ k@ Q< !( !( !( !( !( !( !( !( !( 72 /1 82 92 !( !( t$ <@ 02 (1 (1 (1 (1 (1 (1 (1 (1 (1 (1 (1 (1 (1 (1 (1 (1 (1 (1 (1 (1 (1 (1 (1 (1 (1 ",
"~2 a2 b2 c2 d2 d2 d2 d2 d2 d2 d2 d2 d2 d2 d2 d2 d2 d2 d2 e2 Z{ Z{ Z{ Z{ Z{ Z{ Z{ Z{ Z{ Z{ Z{ Z{ Z{ Z{ Z{ j[ f2 g2 h2 i2 h' h' h' h' h' h' h' h' h' j2 T1 T1 T1 T1 v| &< 8: *< 0: a: E~ z  A  `. F  9. n+ %+ U+ U+ D@ /# ~@ E@ (# S# <$ <$ <$ <$ <$ <$ <$ <$ <$ <$ <$ <$ <$ <$ <$ <$ <$ <$ <$ <$ <$ <$ <$ <$ <$ <$ <$ <$ <$ <$ <$ <$ <$ <$ <$ <$ <$ <$ <$ <$ <$ <$ 9! ]! R) R) R) R) R) R) R) R) R) R) R) R) R) R) 5! k2 u/ l2 5( J~ J~ J~ J~ J~ J~ J~ J~ J~ J~ J~ J~ J~ J~ J~ J~ J~ J~ J~ J~ J~ J~ J~ J~ J~ J~ J~ J~ J~ J~ J~ J~ J~ J~ J~ J~ J~ J~ J~ J~ J~ J~ ,: >< p[ q[ h: g: x| {] y| 61 71 B/ !~ J~ J~ J~ J~ J~ J~ J~ J~ J~ J~ J~ J~ J~ J~ J~ J~ J~ J~ J~ J~ J~ J~ J~ J~ J~ J~ J~ J~ J~ J~ J~ J~ J~ J~ J~ J~ J~ J~ J~ J~ J~ J~ J~ J~ J~ J~ J~ J~ J~ J~ J~ J~ J~ J~ J~ J~ J~ J~ J~ J~ J~ J~ J~ J~ J~ J~ J~ J~ J~ J~ J~ J~ J~ J~ J~ J~ J~ J~ J~ J~ J~ J~ J~ J~ J~ J~ J~ J~ J~ J~ J~ J~ J~ J~ J~ J~ J~ J~ J~ J~ J~ J~ J~ J~ J~ !~ 5( m2 n2 o2 l: )< j< )< j< G_ p2 $/ 5( J~ J~ J~ J~ J~ J~ J~ J~ J~ J~ J~ J~ J~ J~ J~ J~ J~ J~ J~ J~ J~ J~ J~ J~ J~ J~ J~ J~ J~ J~ J~ J~ J~ J~ J~ J~ J~ J~ J~ J~ J~ J~ J~ J~ J~ J~ J~ J~ J~ J~ J~ J~ J~ J~ J~ J~ J~ J~ B] J~ I$ q2 #! ^! R) R) R) R) R) R) R) R) R) R) R) R) R) <) U+ S# <$ <$ <$ <$ <$ <$ <$ <$ <$ <$ <$ <$ <$ <$ <$ <$ <$ <$ <$ <$ <$ <$ <$ <$ <$ <$ <$ <$ <$ <$ <$ <$ <$ <$ <$ <$ <$ <$ <$ <$ <$ <$ S# (# E@ E@ !@ r+ ~+ -+ #+ 9. D  `. z  L< w_ 0: *< 9[ 0[ Q. Q. 22 r2 s2 t2 g/ g/ h_ r' r' k@ k@ k@ Q< !( !( !( !( !( !( !( u2 {1 92 !( !( !( @| s; v2 v2 v2 E% (1 (1 (1 (1 (1 (1 (1 (1 (1 (1 (1 (1 (1 (1 (1 (1 (1 (1 (1 (1 K( K( K( K( ",
"d2 d2 d2 d2 d2 d2 d2 d2 d2 d2 d2 d2 d2 d2 d2 d2 d2 d2 d2 d2 [1 Z{ Z{ Z{ Z{ Z{ Z{ Z{ Z{ Z{ Z{ w2 x2 y2 z2 A2 A2 A2 A2 B2 C2 h' h' h' h' h' h' h' h' D2 T1 T1 T1 T1 R! &< 8: *< 0: a: E~ z  A  `. F  9. n+ %+ U+ U+ D@ /# ~@ E@ (# S# <$ <$ <$ <$ <$ <$ <$ <$ <$ <$ <$ <$ <$ <$ <$ <$ <$ <$ <$ <$ <$ <$ <$ <$ <$ <$ <$ <$ <$ <$ <$ <$ <$ <$ <$ <$ <$ <$ <$ <$ <$ E@ %! 7! R) R) R) R) R) R) R) R) R) R) R) 5! 5! F~ E$ 51 E2 J~ J~ J~ J~ J~ J~ J~ J~ J~ J~ J~ J~ J~ J~ J~ J~ J~ J~ J~ J~ J~ J~ J~ J~ J~ J~ J~ J~ J~ J~ J~ J~ J~ J~ J~ J~ J~ J~ J~ J~ J~ J~ J~ J~ l2 91 F2 q[ h: g: x| {] y| 61 71 =( !~ J~ J~ J~ J~ J~ J~ J~ J~ J~ J~ J~ J~ J~ J~ J~ J~ J~ J~ J~ J~ J~ J~ J~ J~ J~ J~ J~ J~ J~ J~ J~ J~ J~ J~ J~ J~ J~ J~ J~ J~ J~ J~ J~ J~ J~ J~ J~ J~ J~ J~ J~ J~ J~ J~ J~ J~ J~ J~ J~ J~ J~ J~ J~ J~ J~ J~ J~ J~ J~ J~ J~ J~ J~ J~ J~ J~ J~ J~ J~ J~ J~ J~ J~ J~ J~ J~ J~ J~ J~ J~ J~ J~ J~ J~ J~ J~ J~ J~ J~ J~ J~ J~ J~ J~ J~ J~ !~ ({ G2 H2 I2 o2 '< o2 J2 p2 K2 J~ J~ J~ J~ J~ J~ J~ J~ J~ J~ J~ J~ J~ J~ J~ J~ J~ J~ J~ J~ J~ J~ J~ J~ J~ J~ J~ J~ J~ J~ J~ J~ J~ J~ J~ J~ J~ J~ J~ J~ J~ J~ J~ J~ J~ J~ J~ J~ J~ J~ J~ J~ J~ J~ J~ J~ J~ J~ J~ J~ B] C/ :{ ,@ L2 M2 R) R) R) R) R) R) R) R) R) R) R) R) R) R) <) {} [$ <$ <$ <$ <$ <$ <$ <$ <$ <$ <$ <$ <$ <$ <$ <$ <$ <$ <$ <$ <$ <$ <$ <$ <$ <$ <$ <$ <$ <$ <$ <$ <$ <$ <$ <$ <$ <$ <$ <$ <$ <$ S# (# E@ E@ !@ r+ ~+ -+ #+ 9. D  `. z  L< w_ 0: *< 9[ 0[ Q. Q. 22 r2 r2 N2 R^ j| r' r' O2 k@ k@ k@ Q< !( !( !( !( !( ~1 j@ k@ k@ P2 !( !( Q2 v2 v2 v2 v2 v2 R2 (1 (1 (1 (1 (1 S2 T2 U2 U2 S2 S2 S2 (1 (1 V2 W2 X2 Y2 Z2 Z2 Z2 Z2 Z2 Z2 ",
"d2 d2 `2  3  3  3  3  3  3  3 .3 +3 +3 +3 +3 +3 +3 +3 +3 +3 [+ @3 #3 $3 %3 j[ &3 *3 =3 -3 ;3 >3 ,3 A2 A2 A2 A2 A2 A2 A2 A2 '3 )3 !3 ~3 ~3 !3 )3 {3 A2 T1 T1 T1 ]3 [) &< 8: *< 0: a: E~ z  A  `. F  9. n+ %+ U+ U+ D@ /# ~@ E@ (# S# <$ <$ <$ <$ <$ <$ <$ <$ <$ <$ <$ <$ <$ <$ <$ <$ <$ <$ <$ <$ <$ <$ <$ <$ <$ <$ <$ <$ <$ <$ <$ <$ <$ <$ <$ <$ <$ <$ <$ <$ (# 7. R) R) R) R) R) R) R) R) R) R) R) R) R) 5! 5! ^3 /3 c_ m{ J~ J~ J~ J~ J~ J~ J~ J~ J~ J~ J~ J~ J~ J~ J~ J~ J~ J~ J~ J~ J~ J~ J~ J~ J~ J~ J~ J~ J~ J~ J~ J~ J~ J~ J~ J~ J~ J~ J~ J~ J~ J~ J~ J~ l2 91 F2 q[ h: g: x| {] y| 61 71 B/ !~ J~ J~ J~ J~ J~ J~ J~ J~ J~ J~ J~ J~ J~ J~ J~ J~ J~ J~ J~ J~ J~ J~ J~ J~ J~ J~ J~ J~ J~ J~ J~ J~ J~ J~ J~ J~ J~ J~ J~ J~ J~ J~ J~ J~ J~ J~ J~ J~ J~ J~ J~ J~ J~ J~ J~ J~ J~ J~ J~ J~ J~ J~ J~ J~ J~ J~ J~ J~ J~ J~ J~ J~ J~ J~ J~ J~ J~ J~ J~ J~ J~ J~ J~ J~ J~ J~ J~ J~ J~ J~ J~ J~ J~ J~ J~ J~ J~ J~ J~ J~ J~ J~ J~ J~ J~ J~ J~ !~ }_ (3 _3 :3 ,< F_ <3 f] J~ [3 J~ J~ J~ J~ J~ J~ J~ J~ J~ J~ J~ J~ J~ J~ J~ J~ J~ J~ J~ J~ J~ J~ J~ J~ J~ J~ J~ J~ J~ J~ J~ J~ J~ J~ J~ J~ J~ J~ J~ J~ J~ J~ J~ J~ J~ J~ J~ J~ J~ J~ J~ J~ J~ J~ J~ J~ J~ J~ J~ B] C/ }3 R# 2^ R: R! J< J< R) R) R) R) R) R) R) R) R) R) R) A! ]! /# <$ <$ <$ <$ <$ <$ <$ <$ <$ <$ <$ <$ <$ <$ <$ <$ <$ <$ <$ <$ <$ <$ <$ <$ <$ <$ <$ <$ <$ <$ <$ <$ <$ <$ <$ <$ <$ <$ <$ <$ <$ S# (# E@ E@ !@ r+ ~+ -+ #+ 9. D  `. z  L< w_ 0: *< 9[ 0[ Q. Q. 22 r2 r2 r2 |3 r' r' r' 13 k@ k@ k@ 23 !( !( !( u2 L| k@ k@ k@ k@ k@ /: 33 v2 v2 v2 v2 v2 v2 v2 43 (1 (1 V2 53 63 63 63 63 63 63 63 63 63 63 63 63 63 63 63 63 63 63 73 ",
"83 83 83 83 83 83 83 83 83 83 83 83 83 83 83 83 83 83 83 83 83 83 83 83 83 93 03 ;3 ;3 ;3 a3 ,3 A2 A2 A2 A2 A2 A2 A2 A2 A2 A2 A2 A2 A2 A2 A2 A2 A2 A2 b3 T1 T1 c3 [) &< 8: *< 0: a: E~ z  A  `. F  9. n+ %+ U+ U+ D@ /# ~@ E@ (# S# <$ <$ <$ <$ <$ <$ <$ <$ <$ <$ <$ <$ <$ <$ <$ <$ <$ <$ <$ <$ <$ <$ <$ <$ <$ <$ <$ <$ <$ <$ <$ <$ <$ <$ <$ <$ <$ <$ <$ f# c/ 5! R) R) R) R) R) R) R) R) R) R) R) R) R) 8[ U+ d3 e3 6^ J~ J~ J~ J~ J~ J~ J~ J~ J~ J~ J~ J~ J~ J~ J~ J~ J~ J~ J~ J~ J~ J~ J~ J~ J~ J~ J~ J~ J~ J~ J~ J~ J~ J~ J~ J~ J~ J~ J~ J~ J~ J~ J~ J~ J~ l2 91 F2 q[ h: g: x| {] y| 61 71 B/ !~ J~ J~ J~ J~ J~ J~ J~ J~ J~ J~ J~ J~ J~ J~ J~ J~ J~ J~ J~ J~ J~ J~ J~ J~ J~ J~ J~ J~ J~ J~ J~ J~ J~ J~ J~ J~ J~ J~ J~ J~ J~ J~ J~ J~ J~ J~ J~ J~ J~ J~ J~ J~ J~ J~ J~ J~ J~ J~ J~ J~ J~ J~ J~ J~ J~ J~ J~ J~ J~ J~ J~ J~ J~ J~ J~ J~ J~ J~ J~ J~ J~ J~ J~ J~ J~ J~ J~ J~ J~ J~ J~ J~ J~ J~ J~ J~ J~ J~ J~ J~ J~ J~ J~ J~ J~ J~ J~ J~ !~ J~ K2 f3 g3 a| K2 !~ !~ J~ J~ J~ J~ J~ J~ J~ J~ J~ J~ J~ J~ J~ J~ J~ J~ J~ J~ J~ J~ J~ J~ J~ J~ J~ J~ J~ J~ J~ J~ J~ J~ J~ J~ J~ J~ J~ J~ J~ J~ J~ J~ J~ J~ J~ J~ J~ J~ J~ J~ J~ J~ J~ J~ J~ J~ J~ J~ J~ J~ B] C/ }3 R# n+ h3 w_ 1( 5! R) R) R) R) R) R) R) R) R) R) R) R) R) <{ ~@ <$ <$ <$ <$ <$ <$ <$ <$ <$ <$ <$ <$ <$ <$ <$ <$ <$ <$ <$ <$ <$ <$ <$ <$ <$ <$ <$ <$ <$ <$ <$ <$ <$ <$ <$ <$ <$ <$ <$ <$ S# (# E@ E@ !@ r+ ~+ -+ #+ 9. D  `. z  L< w_ 0: *< 9[ 0[ Q. Q. 22 r2 r2 r2 r2 i3 r' r' t' k@ k@ j@ !( !( !( u2 j@ k@ k@ k@ k@ k@ k@ j3 v2 v2 v2 v2 v2 v2 v2 v2 k3 l3 m3 n3 63 63 63 73 o3 o3 p3 q3 q3 q3 %~ r3 r3 r3 r3 r3 02 02 02 02 ",
"83 83 83 83 83 83 83 83 83 83 83 83 83 83 83 83 83 83 83 83 83 83 83 83 83 s3 t3 u3 ;3 a3 ,3 A2 A2 A2 A2 A2 A2 A2 A2 A2 A2 A2 A2 A2 A2 A2 A2 A2 A2 v3 w3 T1 Z| x3 [) &< 8: *< 0: a: E~ z  A  `. F  9. n+ %+ U+ U+ D@ /# ~@ E@ (# S# <$ <$ <$ <$ <$ <$ <$ <$ <$ <$ <$ <$ <$ <$ <$ <$ <$ <$ <$ <$ <$ <$ <$ <$ <$ <$ <$ <$ <$ <$ <$ <$ <$ <$ <$ <$ <$ <$ f# s1 F~ R) R) R) R) R) R) R) R) R) R) R) R) R) @~ y3 z3 w] A3 J~ J~ J~ J~ J~ J~ J~ J~ J~ J~ J~ J~ J~ J~ J~ J~ J~ J~ J~ J~ J~ J~ J~ J~ J~ J~ J~ J~ J~ J~ J~ J~ J~ J~ J~ J~ J~ J~ J~ J~ J~ J~ J~ J~ J~ J~ l2 91 F2 q[ h: g: x| {] y| 61 71 B/ !~ J~ J~ J~ J~ J~ J~ J~ J~ J~ J~ J~ J~ J~ J~ J~ J~ J~ J~ J~ J~ J~ J~ J~ J~ J~ J~ J~ J~ J~ J~ J~ J~ J~ J~ J~ J~ J~ J~ J~ J~ J~ J~ J~ J~ J~ J~ J~ J~ J~ J~ J~ J~ J~ J~ J~ J~ J~ J~ J~ J~ J~ J~ J~ J~ J~ J~ J~ J~ J~ J~ J~ J~ J~ J~ J~ J~ J~ J~ J~ J~ J~ J~ J~ J~ J~ J~ J~ J~ J~ J~ J~ J~ J~ J~ J~ J~ J~ J~ J~ J~ J~ J~ J~ J~ J~ J~ J~ J~ !~ B/ !~ B3 a/ B3 B] !~ J~ J~ J~ J~ J~ J~ J~ J~ J~ J~ J~ J~ J~ J~ J~ J~ J~ J~ J~ J~ J~ J~ J~ J~ J~ J~ J~ J~ J~ J~ J~ J~ J~ J~ J~ J~ J~ J~ J~ J~ J~ J~ J~ J~ J~ J~ J~ J~ J~ J~ J~ J~ J~ J~ J~ J~ J~ J~ J~ J~ J~ B] C/ }3 R# n+ C3 D  E~ 1( J< R) R) R) R) R) R) R) R) R) R) R) R) R) <{ R# <$ <$ <$ <$ <$ <$ <$ <$ <$ <$ <$ <$ <$ <$ <$ <$ <$ <$ <$ <$ <$ <$ <$ <$ <$ <$ <$ <$ <$ <$ <$ <$ <$ <$ <$ <$ <$ <$ <$ S# (# E@ E@ !@ r+ ~+ -+ #+ 9. D  `. z  L< w_ 0: *< 9[ 0[ T: h| D3 r2 r2 r2 r2 E3 ^: r' u' k@ k@ /: !( !( F3 j@ k@ k@ k@ k@ k@ k@ k@ >' v2 v2 v2 v2 v2 v2 v2 G3 k3 k3 @| 2{ r3 02 02 02 02 02 02 02 02 02 02 02 02 02 02 02 02 02 02 02 ",
"83 83 83 83 83 83 83 83 83 83 83 83 83 83 83 83 83 83 83 83 83 83 83 83 83 H3 I3 03 J3 K3 L3 M3 M3 N3 A2 A2 A2 A2 A2 A2 A2 A2 A2 A2 A2 A2 A2 O3 P3 Q3 R3 e' S3 x3 [) &< 8: *< 0: a: E~ z  A  `. F  9. n+ %+ U+ U+ D@ /# ~@ E@ (# S# <$ <$ <$ <$ <$ <$ <$ <$ <$ <$ <$ <$ <$ <$ <$ <$ <$ <$ <$ <$ <$ <$ <$ <$ <$ <$ <$ <$ <$ <$ <$ <$ <$ <$ <$ <$ <$ S# &+ 5! @~ R) R) R) R) R) R) R) R) R) R) R) R) p) 1( Y! I~ B] J~ J~ J~ J~ J~ J~ J~ J~ J~ J~ J~ J~ J~ J~ J~ J~ J~ J~ J~ J~ J~ J~ J~ J~ J~ J~ J~ J~ J~ J~ J~ J~ J~ J~ J~ J~ J~ J~ J~ J~ J~ J~ J~ J~ J~ J~ J~ l2 91 F2 q[ h: g: x| {] y| 61 71 B/ !~ J~ J~ J~ J~ J~ J~ J~ J~ J~ J~ J~ J~ J~ J~ J~ J~ J~ J~ J~ J~ J~ J~ J~ J~ J~ J~ J~ J~ J~ J~ J~ J~ J~ J~ J~ J~ J~ J~ J~ J~ J~ J~ J~ J~ J~ J~ J~ J~ J~ J~ J~ J~ J~ J~ J~ J~ J~ J~ J~ J~ J~ J~ J~ J~ J~ J~ J~ J~ J~ J~ J~ J~ J~ J~ J~ J~ J~ J~ J~ J~ J~ J~ J~ J~ J~ J~ J~ J~ J~ J~ J~ J~ J~ J~ J~ J~ J~ J~ J~ J~ J~ J~ J~ J~ J~ J~ J~ J~ J~ J~ !~ J~ J~ 4( )~ J~ J~ J~ J~ J~ J~ J~ J~ J~ J~ J~ J~ J~ J~ J~ J~ J~ J~ J~ J~ J~ J~ J~ J~ J~ J~ J~ J~ J~ J~ J~ J~ J~ J~ J~ J~ J~ J~ J~ J~ J~ J~ J~ J~ J~ J~ J~ J~ J~ J~ J~ J~ J~ J~ J~ J~ J~ J~ J~ J~ J~ J~ B] C/ }3 R# n+ C3 C3 8. %! F~ R) R) R) R) R) R) R) R) R) R) R) R) R) R) 7. w# <$ <$ <$ <$ <$ <$ <$ <$ <$ <$ <$ <$ <$ <$ <$ <$ <$ <$ <$ <$ <$ <$ <$ <$ <$ <$ <$ <$ <$ <$ <$ <$ <$ <$ <$ <$ <$ <$ S# (# E@ E@ !@ r+ ~+ -+ #+ 9. D  `. z  L< w_ 0: *< 9[ 0[ v| v| T3 U3 V3 m_ i! W3 X3 _! k@ k@ j@ 23 23 /: k@ k@ k@ k@ k@ k@ k@ k@ j3 v2 v2 v2 v2 v2 v2 v2 v2 Y3 k3 k3 Z3 02 02 02 02 02 02 02 02 02 02 02 02 02 02 02 02 02 02 02 02 02 ",
"83 83 83 83 83 83 83 83 83 83 83 83 83 83 83 83 83 83 83 83 83 83 83 83 83 `3 M3 L3  4 .4 M3 M3 M3 +4 A2 A2 A2 A2 A2 A2 A2 A2 A2 A2 A2 A2 A2 P3 @4 #4 R3 $4 x3 x3 [) &< 8: *< 0: a: E~ z  A  `. F  9. n+ %+ U+ U+ D@ /# ~@ E@ (# S# <$ <$ <$ <$ <$ <$ <$ <$ <$ <$ <$ <$ <$ <$ <$ <$ <$ <$ <$ <$ <$ <$ <$ <$ <$ <$ <$ <$ <$ <$ <$ <$ <$ <$ <$ <$ S# %+ O^ R) R) R) R) R) R) R) R) R) R) R) R) R) R) 8! X! 3| %4 l{ J~ J~ J~ J~ J~ J~ J~ J~ J~ J~ J~ J~ J~ J~ J~ J~ J~ J~ J~ J~ J~ J~ J~ J~ J~ J~ J~ J~ J~ J~ J~ J~ J~ J~ J~ J~ J~ J~ J~ J~ J~ J~ J~ J~ J~ J~ J~ l2 91 F2 q[ h: g: x| {] y| 61 71 B/ !~ J~ J~ J~ J~ J~ J~ J~ J~ J~ J~ J~ J~ J~ J~ J~ J~ J~ J~ J~ J~ J~ J~ J~ J~ J~ J~ J~ J~ J~ J~ J~ J~ J~ J~ J~ J~ J~ J~ J~ J~ J~ J~ J~ J~ J~ J~ J~ J~ J~ J~ J~ J~ J~ J~ J~ J~ J~ J~ J~ J~ J~ J~ J~ J~ J~ J~ J~ J~ J~ J~ J~ J~ J~ J~ J~ J~ J~ J~ J~ J~ J~ J~ J~ J~ J~ J~ J~ J~ J~ J~ J~ J~ J~ J~ J~ J~ J~ J~ J~ J~ J~ J~ J~ J~ J~ J~ J~ J~ J~ J~ J~ !~ B/ !~ J~ J~ J~ J~ J~ J~ J~ J~ J~ J~ J~ J~ J~ J~ J~ J~ J~ J~ J~ J~ J~ J~ J~ J~ J~ J~ J~ J~ J~ J~ J~ J~ J~ J~ J~ J~ J~ J~ J~ J~ J~ J~ J~ J~ J~ J~ J~ J~ J~ J~ J~ J~ J~ J~ J~ J~ J~ J~ J~ J~ J~ J~ J~ B] C/ }3 R# n+ C3 C3 C3 `. d) G) R) R) R) R) R) R) R) R) R) R) R) R) @~ F~ c/ (# <$ <$ <$ <$ <$ <$ <$ <$ <$ <$ <$ <$ <$ <$ <$ <$ <$ <$ <$ <$ <$ <$ <$ <$ <$ <$ <$ <$ <$ <$ <$ <$ <$ <$ <$ <$ <$ S# (# E@ E@ !@ r+ ~+ -+ #+ 9. D  `. z  L< w_ 0: *< 9[ 0[ v| v| T3 k@ k@ k@ k@ k@ k@ k@ k@ k@ j@ L| k@ k@ k@ k@ k@ &4 *4 *4 *4 *4 =4 -4 ;4 S< v2 v2 v2 >4 ,4 '4 k3 k3 )4 !4 !4 ~4 02 02 02 02 02 02 02 02 02 02 02 02 02 02 02 02 02 02 ",
"83 83 83 83 83 83 83 83 83 83 83 83 83 83 83 83 83 83 83 83 83 83 83 83 H3 M3 M3 M3 M3 M3 M3 M3 M3 {4 A2 A2 A2 A2 A2 A2 A2 A2 A2 A2 A2 A2 O3 @4 @4 m) R3 R3 x3 x3 [) &< 8: *< 0: a: E~ z  A  `. F  9. n+ %+ U+ U+ D@ /# ~@ E@ (# S# <$ <$ <$ <$ <$ <$ <$ <$ <$ <$ <$ <$ <$ <$ <$ <$ <$ <$ <$ <$ <$ <$ <$ <$ <$ <$ <$ <$ <$ <$ <$ <$ <$ <$ <$ S# %+ R! p) R) R) R) R) R) R) R) R) R) R) R) R) ]4 i] +~ ^4 c@ e1 ': J~ J~ J~ J~ J~ J~ J~ J~ J~ J~ J~ J~ J~ J~ J~ J~ J~ J~ J~ J~ J~ J~ J~ J~ J~ J~ J~ J~ J~ J~ J~ J~ J~ J~ J~ J~ J~ J~ J~ J~ J~ J~ J~ J~ J~ J~ J~ l2 91 F2 q[ h: g: x| {] y| 61 71 B/ !~ J~ J~ J~ J~ J~ J~ J~ J~ J~ J~ J~ J~ J~ J~ J~ J~ J~ J~ J~ J~ J~ J~ J~ J~ J~ J~ J~ J~ J~ J~ J~ J~ J~ J~ J~ J~ J~ J~ J~ J~ J~ J~ J~ J~ J~ J~ J~ J~ J~ J~ J~ J~ J~ J~ J~ J~ J~ J~ J~ J~ J~ J~ J~ J~ J~ J~ J~ J~ J~ J~ J~ J~ J~ J~ J~ J~ J~ J~ J~ J~ J~ J~ J~ J~ J~ J~ J~ J~ J~ J~ J~ J~ J~ J~ J~ J~ J~ J~ J~ J~ J~ J~ J~ J~ J~ J~ J~ J~ J~ J~ J~ J~ J~ J~ J~ J~ J~ J~ J~ J~ J~ J~ J~ J~ J~ J~ J~ J~ J~ J~ J~ J~ J~ J~ J~ J~ J~ J~ J~ J~ J~ J~ J~ J~ J~ J~ J~ J~ J~ J~ J~ J~ J~ J~ J~ J~ J~ J~ J~ J~ J~ J~ J~ J~ J~ J~ J~ J~ J~ J~ J~ J~ J~ J~ J~ J~ J~ B] C/ }3 R# n+ C3 C3 C3 9. 7. /4 z! R) R) R) R) R) R) R) R) R) R) R) R) A! V) n+ S# <$ <$ <$ <$ <$ <$ <$ <$ <$ <$ <$ <$ <$ <$ <$ <$ <$ <$ <$ <$ <$ <$ <$ <$ <$ <$ <$ <$ <$ <$ <$ <$ <$ <$ <$ <$ S# (# E@ E@ !@ r+ ~+ -+ #+ 9. D  `. z  L< w_ 0: *< 9[ 0[ v| v| T3 k@ k@ k@ k@ k@ k@ k@ k@ k@ k@ k@ k@ k@ k@ k@ k@ (4 *4 *4 *4 *4 *4 *4 *4 _4 j3 :4 <4 [4 [4 }4 k3 k3 )4 !4 !4 !4 ;4 02 02 02 02 02 02 02 02 02 02 02 02 02 02 02 02 02 ",
"83 83 83 83 83 83 83 83 83 83 83 83 83 83 83 83 83 83 83 83 83 83 83 83 |4 M3 M3 M3 M3 M3 M3 M3 M3 I3 A2 A2 A2 A2 A2 A2 A2 14 24 34 44 54 64 @4 @4 74 R3 R3 x3 x3 [) &< 8: *< 0: a: E~ z  A  `. F  9. n+ %+ U+ U+ D@ /# ~@ E@ (# S# <$ <$ <$ <$ <$ <$ <$ <$ <$ <$ <$ <$ <$ <$ <$ <$ <$ <$ <$ <$ <$ <$ <$ <$ <$ <$ <$ <$ <$ <$ <$ <$ <$ <$ <$ U+ O^ A! R) R) R) R) R) R) R) R) R) R) R) R) R) z! S! 3| 84 u# L$ %% 5( J~ J~ J~ J~ J~ J~ J~ J~ J~ J~ J~ J~ J~ J~ J~ J~ J~ J~ J~ J~ J~ J~ J~ J~ J~ J~ J~ J~ J~ J~ J~ J~ J~ J~ J~ J~ J~ J~ J~ J~ J~ J~ J~ J~ J~ J~ l2 91 F2 q[ h: g: x| {] y| 61 71 B/ !~ J~ J~ J~ J~ J~ J~ J~ J~ J~ J~ J~ J~ J~ J~ J~ J~ J~ J~ J~ J~ J~ J~ J~ J~ J~ J~ J~ J~ J~ J~ J~ J~ J~ J~ J~ J~ J~ J~ J~ J~ J~ J~ J~ J~ J~ J~ J~ J~ J~ J~ J~ J~ J~ J~ J~ J~ J~ J~ J~ J~ J~ J~ J~ J~ J~ J~ J~ J~ J~ J~ J~ J~ J~ J~ J~ J~ J~ J~ J~ J~ J~ J~ J~ J~ J~ J~ J~ J~ J~ J~ J~ J~ J~ J~ J~ J~ J~ J~ J~ J~ J~ J~ J~ J~ J~ J~ J~ J~ J~ J~ J~ J~ J~ J~ J~ J~ J~ J~ J~ J~ J~ J~ J~ J~ J~ J~ J~ J~ J~ J~ J~ J~ J~ J~ J~ J~ J~ J~ J~ J~ J~ J~ J~ J~ J~ J~ J~ J~ J~ J~ J~ J~ J~ J~ J~ J~ J~ J~ J~ J~ J~ J~ J~ J~ J~ J~ J~ J~ J~ J~ J~ J~ J~ J~ J~ J~ J~ B] C/ }3 R# n+ C3 C3 C3 o+ %+ m! d) F~ 5! R) R) R) R) R) R) R) R) R) R) R) A! 94 ;( S# <$ <$ <$ <$ <$ <$ <$ <$ <$ <$ <$ <$ <$ <$ <$ <$ <$ <$ <$ <$ <$ <$ <$ <$ <$ <$ <$ <$ <$ <$ <$ <$ <$ <$ <$ S# (# E@ E@ !@ r+ ~+ -+ #+ 9. D  `. z  L< w_ 0: *< 9[ 0[ v| v| 04 a4 a4 b4 k@ k@ k@ k@ k@ k@ k@ k@ k@ k@ k@ k@ c4 *4 *4 *4 *4 *4 *4 *4 d4 [4 [4 [4 [4 [4 [4 e4 k3 f4 )4 !4 !4 !4 !4 >' 02 02 02 02 02 02 02 02 02 02 02 02 02 02 02 02 ",
"83 83 83 83 83 83 83 83 83 83 83 83 83 83 83 83 83 83 83 83 83 83 83 g4 M3 M3 M3 h4 i4 M3 M3 M3 M3 j4 A2 A2 A2 A2 A2 k4 l4 m4 n4 o4 o4 o4 o4 o4 p4 R3 R3 R3 q4 x3 [) &< 8: *< 0: a: E~ z  A  `. F  9. n+ %+ U+ U+ D@ /# ~@ E@ (# S# <$ <$ <$ <$ <$ <$ <$ <$ <$ <$ <$ <$ <$ <$ <$ <$ <$ <$ <$ <$ <$ <$ <$ <$ <$ <$ <$ <$ <$ <$ <$ <$ <$ <$ !@ z} p) R) R) R) R) R) R) R) R) R) R) R) R) R) 5! r4 T! &$ s4 t4 u4 v4  : J~ J~ J~ J~ J~ J~ J~ J~ J~ J~ J~ J~ J~ J~ J~ J~ J~ J~ J~ J~ J~ J~ J~ J~ J~ J~ J~ J~ J~ J~ J~ J~ J~ J~ J~ J~ J~ J~ J~ J~ J~ J~ J~ J~ J~ J~ l2 91 F2 q[ h: g: x| {] y| 61 71 B/ !~ J~ J~ J~ J~ J~ J~ J~ J~ J~ J~ J~ J~ J~ J~ J~ J~ J~ J~ J~ J~ J~ J~ J~ J~ J~ J~ J~ J~ J~ J~ J~ J~ J~ J~ J~ J~ J~ J~ J~ J~ J~ J~ J~ J~ J~ J~ J~ J~ J~ J~ J~ J~ J~ J~ J~ J~ J~ J~ J~ J~ J~ J~ J~ J~ J~ J~ J~ J~ J~ J~ J~ J~ J~ J~ J~ J~ J~ J~ J~ J~ J~ J~ J~ J~ J~ J~ J~ J~ J~ J~ J~ J~ J~ J~ J~ J~ J~ J~ J~ J~ J~ J~ J~ J~ J~ J~ J~ J~ J~ J~ J~ J~ J~ J~ J~ J~ J~ J~ J~ J~ J~ J~ J~ J~ J~ J~ J~ J~ J~ J~ J~ J~ J~ J~ J~ J~ J~ J~ J~ J~ J~ J~ J~ J~ J~ J~ J~ J~ J~ J~ J~ J~ J~ J~ J~ J~ J~ J~ J~ J~ J~ J~ J~ J~ J~ J~ J~ J~ J~ J~ J~ J~ J~ J~ J~ J~ J~ B] C/ }3 R# n+ C3 C3 C3 o+ `@ ~@ Z. O^ 5! R) R) R) R) R) R) R) R) R) R) R) R) R) <) U+ y# <$ <$ <$ <$ <$ <$ <$ <$ <$ <$ <$ <$ <$ <$ <$ <$ <$ <$ <$ <$ <$ <$ <$ <$ <$ <$ <$ <$ <$ <$ <$ <$ <$ <$ S# (# E@ E@ !@ r+ ~+ -+ #+ 9. D  `. z  L< w_ 0: *< 9[ 0[ [) [) w4 x4 x4 x4 x4 x4 x4 y4 z4 A4 B4 C4 =* =* =* D4 (4 *4 *4 *4 *4 *4 *4 *4 (4 E4 [4 [4 [4 [4 [4 F4 k3 92 )4 !4 !4 !4 !4 G4 02 02 02 02 02 02 02 02 02 02 02 02 02 02 02 02 ",
"83 83 83 83 83 83 83 83 83 83 83 83 83 83 83 83 83 83 83 83 83 83 [1 M3 M3 M3 H4 D2 M3 M3 M3 M3 M3 +4 A2 A2 A2 A2 l4 m4 m4 m4 m4 I4 o4 o4 o4 o4 p4 R3 R3 R3 J4 x3 R! &< 8: *< 0: a: E~ z  A  `. F  9. n+ %+ U+ U+ D@ /# ~@ E@ (# S# <$ <$ <$ <$ <$ <$ <$ <$ <$ <$ <$ <$ <$ <$ <$ <$ <$ <$ <$ <$ <$ <$ <$ <$ <$ <$ <$ <$ <$ <$ <$ <$ <$ !@ z} R) R) R) R) R) R) R) R) R) R) R) R) R) R) A! m! f< K4 L4 C3 @/ M4 N4 O4  : J~ J~ J~ J~ J~ J~ J~ J~ J~ J~ J~ J~ J~ J~ J~ J~ J~ J~ J~ J~ J~ J~ J~ J~ J~ J~ J~ J~ J~ J~ J~ J~ J~ J~ J~ J~ J~ J~ J~ J~ J~ J~ J~ J~ J~ l2 91 F2 q[ h: g: x| {] y| 61 71 B/ !~ J~ J~ J~ J~ J~ J~ J~ J~ J~ J~ J~ J~ J~ J~ J~ J~ J~ J~ J~ J~ J~ J~ J~ J~ J~ J~ J~ J~ J~ J~ J~ J~ J~ J~ J~ J~ J~ J~ J~ J~ J~ J~ J~ J~ J~ J~ J~ J~ J~ J~ J~ J~ J~ J~ J~ J~ J~ J~ J~ J~ J~ J~ J~ J~ J~ J~ J~ J~ J~ J~ J~ J~ J~ J~ J~ J~ J~ J~ J~ J~ J~ J~ J~ J~ J~ J~ J~ J~ J~ J~ J~ J~ J~ J~ J~ J~ J~ J~ J~ J~ J~ J~ J~ J~ J~ J~ J~ J~ J~ J~ J~ J~ J~ J~ J~ J~ J~ J~ J~ J~ J~ J~ J~ J~ J~ J~ J~ J~ J~ J~ J~ J~ J~ J~ J~ J~ J~ J~ J~ J~ J~ J~ J~ J~ J~ J~ J~ J~ J~ J~ J~ J~ J~ J~ J~ J~ J~ J~ J~ J~ J~ J~ J~ J~ J~ J~ J~ J~ J~ J~ J~ J~ J~ J~ J~ J~ J~ B] C/ }3 R# n+ C3 C3 C3 o+ `@ =% y# z  #! R) R) R) R) R) R) R) R) R) R) R) R) R) R) #! /# <$ <$ <$ <$ <$ <$ <$ <$ <$ <$ <$ <$ <$ <$ <$ <$ <$ <$ <$ <$ <$ <$ <$ <$ <$ <$ <$ <$ <$ <$ <$ <$ <$ <$ S# (# E@ E@ !@ r+ ~+ -+ #+ 9. D  `. z  L< w_ 0: *< 9[ 0[ 7: 7: P4 Q4 Q4 Q4 Q4 Q4 Q4 Q4 Q4 Q4 Q4 R4 S4 S4 S4 S4 S4 S4 S4 S4 S4 S4 S4 S4 S4 S4 [4 [4 [4 [4 [4 k3 k3 92 )4 T4 !4 !4 !4 !4 >' 02 02 02 02 02 02 02 02 02 02 02 02 02 02 02 ",
"83 83 83 83 83 83 83 83 83 83 83 83 83 83 83 83 83 83 83 83 83 H3 U4 M3 M3 V4 A2 {4 M3 M3 M3 M3 M3 W4 A2 A2 A2 X4 m4 m4 Y4 Z4 m4 `4 o4 o4 o4 o4 R3 R3 R3 R3  5 .5 m[ &< 8: *< 0: a: E~ z  A  `. F  9. n+ %+ U+ U+ D@ /# ~@ E@ (# S# <$ <$ <$ <$ <$ <$ <$ <$ <$ <$ <$ <$ <$ <$ <$ <$ <$ <$ <$ <$ <$ <$ <$ <$ <$ <$ <$ <$ <$ <$ <$ <$ w# d_ R) R) R) R) R) R) R) R) R) R) R) R) R) R) R) ]! ({ K~ %+ C3 E  @/ M4 +5 @5 &% 5( J~ J~ J~ J~ J~ J~ J~ J~ J~ J~ J~ J~ J~ J~ J~ J~ J~ J~ J~ J~ J~ J~ J~ J~ J~ J~ J~ J~ J~ J~ J~ J~ J~ J~ J~ J~ J~ J~ J~ J~ J~ J~ J~ J~ l2 91 F2 q[ h: g: x| {] y| 61 71 B/ !~ J~ J~ J~ J~ J~ J~ J~ J~ J~ J~ J~ J~ J~ J~ J~ J~ J~ J~ J~ J~ J~ J~ J~ J~ J~ J~ J~ J~ J~ J~ J~ J~ J~ J~ J~ J~ J~ J~ J~ J~ J~ J~ J~ J~ J~ J~ J~ J~ J~ J~ J~ J~ J~ J~ J~ J~ J~ J~ J~ J~ J~ J~ J~ J~ J~ J~ J~ J~ J~ J~ J~ J~ J~ J~ J~ J~ J~ J~ J~ J~ J~ J~ J~ J~ J~ J~ J~ J~ J~ J~ J~ J~ J~ J~ J~ J~ J~ J~ J~ J~ J~ J~ J~ J~ J~ J~ J~ J~ J~ J~ J~ J~ J~ J~ J~ J~ J~ J~ J~ J~ J~ J~ J~ J~ J~ J~ J~ J~ J~ J~ J~ J~ J~ J~ J~ J~ J~ J~ J~ J~ J~ J~ J~ J~ J~ J~ J~ J~ J~ J~ J~ J~ J~ J~ J~ J~ J~ J~ J~ J~ J~ J~ J~ J~ J~ J~ J~ J~ J~ J~ J~ J~ J~ J~ J~ J~ J~ B] C/ }3 R# n+ C3 C3 C3 o+ E@ :{ #5 =$ E~ V) R) R) R) R) R) R) R) R) R) R) R) R) R) R) R: (# <$ <$ <$ <$ <$ <$ <$ <$ <$ <$ <$ <$ <$ <$ <$ <$ <$ <$ <$ <$ <$ <$ <$ <$ <$ <$ <$ <$ <$ <$ <$ <$ <$ S# (# E@ E@ !@ r+ ~+ -+ #+ 9. D  `. z  L< w_ 0: *< 9[ 0[ [) [) $5 %5 Q4 Q4 Q4 Q4 Q4 Q4 Q4 Q4 Q4 &5 S4 S4 S4 S4 S4 S4 S4 S4 S4 S4 S4 S4 S4 S4 [4 [4 [4 [4 E4 k3 k3 92 )4 =} T4 !4 !4 !4 -. 02 02 02 02 02 02 02 02 02 02 02 02 02 02 02 ",
"83 83 83 83 83 83 83 83 83 83 83 83 83 83 83 83 83 83 83 83 83 -2 M3 M3 M3  4 *5 M3 M3 M3 M3 M3 M3 =5 A2 A2 A2 A2 A2 A2 A2 A2 -5 m4 o4 o4 o4 ;5 R3 R3 >5 R3  5 .5 m[ &< 8: *< 0: a: E~ z  A  `. F  9. n+ %+ U+ U+ D@ /# ~@ E@ (# S# <$ <$ <$ <$ <$ <$ <$ <$ <$ <$ <$ <$ <$ <$ <$ <$ <$ <$ <$ <$ <$ <$ <$ <$ <$ <$ <$ <$ <$ <$ <$ S# m! 5! R) R) R) R) R) R) R) R) R) R) R) R) 5! 5! F~ B] A} y# n+ C3 E  t4 ,5 '5 )5 ='  : !5 J~ J~ J~ J~ J~ J~ J~ J~ J~ J~ J~ J~ J~ J~ J~ J~ J~ J~ J~ J~ J~ J~ J~ J~ J~ J~ J~ J~ J~ J~ J~ J~ J~ J~ J~ J~ J~ J~ J~ J~ J~ J~ J~ l2 91 F2 q[ o2 g: x| {] y| 61 71 B/ !~ J~ J~ J~ J~ J~ J~ J~ J~ J~ J~ J~ J~ J~ J~ J~ J~ J~ J~ J~ J~ J~ J~ J~ J~ J~ J~ J~ J~ J~ J~ J~ J~ J~ J~ J~ J~ J~ J~ J~ J~ J~ J~ J~ J~ J~ J~ J~ J~ J~ J~ J~ J~ J~ J~ J~ J~ J~ J~ J~ J~ J~ J~ J~ J~ J~ J~ J~ J~ J~ J~ J~ J~ J~ J~ J~ J~ J~ J~ J~ J~ J~ J~ J~ J~ J~ J~ J~ J~ J~ J~ J~ J~ J~ J~ J~ J~ J~ J~ J~ J~ J~ J~ J~ J~ J~ J~ J~ J~ J~ J~ J~ J~ J~ J~ J~ J~ J~ J~ J~ J~ J~ J~ J~ J~ J~ J~ J~ J~ J~ J~ J~ J~ J~ J~ J~ J~ J~ J~ J~ J~ J~ J~ J~ J~ J~ J~ J~ J~ J~ J~ J~ J~ J~ J~ J~ J~ J~ J~ J~ J~ J~ J~ J~ J~ J~ J~ J~ J~ J~ J~ J~ J~ J~ J~ J~ J~ J~ B] C/ +% R# n+ C3 C3 C3 o+ E@ :{ J~ h] r+ _) V) R) R) R) R) R) R) R) R) R) R) R) R) R) 7! E~ E@ <$ <$ <$ <$ <$ <$ <$ <$ <$ <$ <$ <$ <$ <$ <$ <$ <$ <$ <$ <$ <$ <$ <$ <$ <$ <$ <$ <$ <$ <$ <$ <$ S# (# E@ E@ !@ r+ ~+ -+ #+ 9. D  `. z  L< w_ 0: *< 9[ 0[ [) [) ~5 {5 ]5 S4 ^5 Q4 Q4 Q4 Q4 Q4 Q4 /5 S4 S4 S4 S4 S4 S4 S4 S4 S4 S4 S4 S4 S4 S4 [4 [4 [4 [4 (5 k3 k3 92 )4 =} i$ !4 !4 !4 !4 02 02 02 02 02 02 02 02 02 02 02 02 02 02 02 ",
"83 83 83 83 83 83 83 83 83 83 83 83 83 83 83 83 83 83 83 83 83 83 g4 M3 M3 _5 =5 *5 H4 +4 {4 +4 *5 A2 A2 A2 A2 A2 A2 A2 A2 A2 -5 :5 o4 o4 o4 <5 R3 R3 [5 >5 }5 .5 m[ &< 8: *< 0: a: E~ z  A  `. F  9. n+ %+ U+ U+ D@ /# ~@ E@ (# S# <$ <$ <$ <$ <$ <$ <$ <$ <$ <$ <$ <$ <$ <$ <$ <$ <$ <$ <$ <$ <$ <$ <$ <$ <$ <$ <$ <$ <$ <$ <$ #+ 1( R) R) R) R) R) R) R) R) R) R) R) R) R) 5! A! /3 |5 X! /# n+ C3 E  t4 15 25 25 35 +) [_ J~ J~ J~ J~ J~ J~ J~ J~ J~ J~ J~ J~ J~ J~ J~ J~ J~ J~ J~ J~ J~ J~ J~ J~ J~ J~ J~ J~ J~ J~ J~ J~ J~ J~ J~ J~ J~ J~ J~ J~ J~ J~ J~ l2 45 ,<  [ o2 '< 55 {] y| 61 71 B/ !~ J~ J~ J~ J~ J~ J~ J~ J~ J~ J~ J~ J~ J~ J~ J~ J~ J~ J~ J~ J~ J~ J~ J~ J~ J~ J~ J~ J~ J~ J~ J~ J~ J~ J~ J~ J~ J~ J~ J~ J~ J~ J~ J~ J~ J~ J~ J~ J~ J~ J~ J~ J~ J~ J~ J~ J~ J~ J~ J~ J~ J~ J~ J~ J~ J~ J~ J~ J~ J~ J~ J~ J~ J~ J~ J~ J~ J~ J~ J~ J~ J~ J~ J~ J~ J~ J~ J~ J~ J~ J~ J~ J~ J~ J~ J~ J~ J~ J~ J~ J~ J~ J~ J~ J~ J~ J~ J~ J~ J~ J~ J~ J~ J~ J~ J~ J~ J~ J~ J~ J~ J~ J~ J~ J~ J~ J~ J~ J~ J~ J~ J~ J~ J~ J~ J~ J~ J~ J~ J~ J~ J~ J~ J~ J~ J~ J~ J~ J~ J~ J~ J~ J~ J~ J~ J~ J~ J~ J~ J~ J~ J~ J~ J~ J~ J~ J~ J~ J~ J~ J~ J~ J~ J~ J~ J~ J~ J~ J~ C/ )* n. n+ C3 C3 C3 o+ E@ :{ C/ J~ 65 #+ 8! R! 5! R) R) R) R) R) R) R) R) R) R) R) R) z! 7. f# <$ <$ <$ <$ <$ <$ <$ <$ <$ <$ <$ <$ <$ <$ <$ <$ <$ <$ <$ <$ <$ <$ <$ <$ <$ <$ <$ <$ <$ <$ <$ S# (# E@ E@ !@ r+ ~+ -+ #+ 9. D  `. z  L< w_ 0: *< 9[ 0[ [) [) 75 {5 {5 {5 {5 {5 85 95 95 95 05 S4 S4 S4 S4 S4 S4 S4 S4 S4 S4 S4 S4 S4 S4 a5 [4 [4 [4 [4 b5 k3 k3 92 )4 =} =} c5 !4 !4 !4 -. 02 02 02 02 02 02 02 02 02 02 02 02 02 02 ",
"83 83 83 83 83 83 83 83 83 83 83 83 83 83 83 83 83 83 83 83 83 83 83 d5 e5 M3 M3 f5 =5 A2 A2 A2 A2 A2 A2 A2 A2 A2 A2 A2 A2 A2 g5 h5 o4 o4 ;5 i5 R3 $4 j5 k5 .5 .5 m[ &< 8: *< 0: a: E~ z  A  `. F  9. n+ %+ U+ U+ D@ /# ~@ E@ (# S# <$ <$ <$ <$ <$ <$ <$ <$ <$ <$ <$ <$ <$ <$ <$ <$ <$ <$ <$ <$ <$ <$ <$ <$ <$ <$ <$ <$ <$ <$ %+ <) R) R) R) R) R) R) R) R) R) R) R) R) R) R) A!  ~ l5 V~ m5 /# n+ C3 E  t4 15 25 '5 25 n5 &% 5( J~ J~ J~ J~ J~ J~ J~ J~ J~ J~ J~ J~ J~ J~ J~ J~ J~ J~ J~ J~ J~ J~ J~ J~ J~ J~ J~ J~ J~ J~ J~ J~ J~ J~ J~ J~ J~ J~ J~ J~ J~ J~ f] &1 o2 i< o5 o2 p5 ~] q5 r5 71 B/ !~ J~ J~ J~ J~ J~ J~ J~ J~ J~ J~ J~ J~ J~ J~ J~ J~ J~ J~ J~ J~ J~ J~ J~ J~ J~ J~ J~ J~ J~ J~ J~ J~ J~ J~ J~ J~ J~ J~ J~ J~ J~ J~ J~ J~ J~ J~ J~ J~ J~ J~ J~ J~ J~ J~ J~ J~ J~ J~ J~ J~ J~ J~ J~ J~ J~ J~ J~ J~ J~ J~ J~ J~ J~ J~ J~ J~ J~ J~ J~ J~ J~ J~ J~ J~ J~ J~ J~ J~ J~ J~ J~ J~ J~ J~ J~ J~ J~ J~ J~ J~ J~ J~ J~ J~ J~ J~ J~ J~ J~ J~ J~ J~ J~ J~ J~ J~ J~ J~ J~ J~ J~ J~ J~ J~ J~ J~ J~ J~ J~ J~ J~ J~ J~ J~ J~ J~ J~ J~ J~ J~ J~ J~ J~ J~ J~ J~ J~ J~ J~ J~ J~ J~ J~ J~ J~ J~ J~ J~ J~ J~ J~ J~ J~ J~ J~ J~ J~ J~ J~ J~ J~ J~ J~ J~ J~ J~ J~ C/ s5 t5 u5 9. C3 C3 C3 o+ E@ :{ C/ m{ [_ m5 q2 _) F~ R) R) R) R) R) R) R) R) R) R) R) R) R) F~ #+ S# <$ <$ <$ <$ <$ <$ <$ <$ <$ <$ <$ <$ <$ <$ <$ <$ <$ <$ <$ <$ <$ <$ <$ <$ <$ <$ <$ <$ <$ <$ S# (# E@ E@ !@ r+ ~+ -+ #+ 9. D  `. z  L< w_ 0: *< 9[ 0[ [) [) v5 w5 {5 {5 {5 {5 {5 85 S4 S4 S4 S4 S4 S4 S4 S4 S4 S4 S4 S4 S4 S4 S4 S4 S4 x5 y5 [4 [4 [4 e4 k3 k3 72 )4 =} =} =} T4 !4 !4 !4 ;4 02 02 02 02 02 02 02 02 02 02 02 02 02 ",
"83 83 83 83 83 83 83 83 83 83 83 83 83 83 83 83 83 83 83 83 83 83 83 83 83 `3 M3 M3 M3  4 A2 A2 A2 A2 A2 A2 A2 A2 A2 A2 A2 z5 A5 o4 o4 o4 B5 R3 R3 C5 j5 k5 .5 .5 m[ &< 8: *< 0: a: E~ z  A  `. F  9. n+ %+ U+ U+ D@ /# ~@ E@ (# S# <$ <$ <$ <$ <$ <$ <$ <$ <$ <$ <$ <$ <$ <$ <$ <$ <$ <$ <$ <$ <$ <$ <$ <$ <$ <$ <$ <$ %$ %+ :) R) R) R) R) R) R) R) R) R) R) R) R) R) R) @~ n[ D5 D5 [_ =% /# n+ C3 E  t4 15 25 25 '5 E5 v4  : J~ J~ J~ J~ J~ J~ J~ J~ J~ J~ J~ J~ J~ J~ J~ J~ J~ J~ J~ J~ J~ J~ J~ J~ J~ J~ J~ J~ J~ J~ J~ J~ J~ J~ J~ J~ J~ J~ J~ J~ J~ J~ $/ a| F5 G5 H5 I5 J5 K5 q5 r5 71 B/ !~ J~ J~ J~ J~ J~ J~ J~ J~ J~ J~ J~ J~ J~ J~ J~ J~ J~ J~ J~ J~ J~ J~ J~ J~ J~ J~ J~ J~ J~ J~ J~ J~ J~ J~ J~ J~ J~ J~ J~ J~ J~ J~ J~ J~ J~ J~ J~ J~ J~ J~ J~ J~ J~ J~ J~ J~ J~ J~ J~ J~ J~ J~ J~ J~ J~ J~ J~ J~ J~ J~ J~ J~ J~ J~ J~ J~ J~ J~ J~ J~ J~ J~ J~ J~ J~ J~ J~ J~ J~ J~ J~ J~ J~ J~ J~ J~ J~ J~ J~ J~ J~ J~ J~ J~ J~ J~ J~ J~ J~ J~ J~ J~ J~ J~ J~ J~ J~ J~ J~ J~ J~ J~ J~ J~ J~ J~ J~ J~ J~ J~ J~ J~ J~ J~ J~ J~ J~ J~ J~ J~ J~ J~ J~ J~ J~ J~ J~ J~ J~ J~ J~ J~ J~ J~ J~ J~ J~ J~ J~ J~ J~ J~ J~ J~ J~ J~ J~ J~ J~ J~ J~ J~ J~ J~ J~ J~ J~ L5 %% M5 u# 9. C3 C3 C3 o+ E@ :{ C/ m{ J~ !~ I$ m! ]! ^! R) R) R) R) R) R) R) R) R) R) R) R) R) <) n+ f# <$ <$ <$ <$ <$ <$ <$ <$ <$ <$ <$ <$ <$ <$ <$ <$ <$ <$ <$ <$ <$ <$ <$ <$ <$ <$ <$ <$ <$ S# (# E@ E@ !@ r+ ~+ -+ #+ 9. D  `. z  L< w_ 0: *< 9[ 0[ [) [) v5 N5 O5 {5 {5 {5 {5 {5 85 S4 S4 S4 S4 S4 S4 S4 S4 S4 S4 S4 S4 S4 S4 S4 S4 P5 Q5 [4 [4 [4 R5 k3 k3 l} )4 =} =} =} $# !4 !4 !4 !4 G4 >' 02 02 02 02 02 02 02 02 02 02 02 ",
"83 83 83 83 83 83 83 83 83 83 83 83 83 83 83 83 83 83 83 83 83 83 83 83 83 83 H3 S5 02 w. R2 T5 A2 A2 A2 A2 A2 A2 A2 ,3 U5 V5 o4 o4 o4 o4 W5 R3 R3 X5 j5 Y5 .5 .5 m[ &< 8: *< 0: a: E~ z  A  `. F  9. n+ %+ U+ U+ D@ /# ~@ E@ (# S# <$ <$ <$ <$ <$ <$ <$ <$ <$ <$ <$ <$ <$ <$ <$ <$ <$ <$ <$ <$ <$ <$ <$ <$ <$ <$ <$ <$ /# O^ R) R) R) R) R) R) R) R) R) R) R) R) 5! 5! ^! 2| 5( Z5 m{ J~ =% /# n+ C3 E  t4 15 25 25 '5 +5 `5  6 [3 J~ J~ J~ J~ J~ J~ J~ J~ J~ J~ J~ J~ J~ J~ J~ J~ J~ J~ J~ J~ J~ J~ J~ J~ J~ J~ J~ J~ J~ J~ J~ J~ J~ J~ J~ J~ J~ J~ J~ J~ J~ c: V} .6 +6 @6 #6 $6 %6 y| {= &6 B/ !~ J~ J~ J~ J~ J~ J~ J~ J~ J~ J~ J~ J~ J~ J~ J~ J~ J~ J~ J~ J~ J~ J~ J~ J~ J~ J~ J~ J~ J~ J~ J~ J~ J~ J~ J~ J~ J~ J~ J~ J~ J~ J~ J~ J~ J~ J~ J~ J~ J~ J~ J~ J~ J~ J~ J~ J~ J~ J~ J~ J~ J~ J~ J~ J~ J~ J~ J~ J~ J~ J~ J~ J~ J~ J~ J~ J~ J~ J~ J~ J~ J~ J~ J~ J~ J~ J~ J~ J~ J~ J~ J~ J~ J~ J~ J~ J~ J~ J~ J~ J~ J~ J~ J~ J~ J~ J~ J~ J~ J~ J~ J~ J~ J~ J~ J~ J~ J~ J~ J~ J~ J~ J~ J~ J~ J~ J~ J~ J~ J~ J~ J~ J~ J~ J~ J~ J~ J~ J~ J~ J~ J~ J~ J~ J~ J~ J~ J~ J~ J~ J~ J~ J~ J~ J~ J~ J~ J~ J~ J~ J~ J~ J~ J~ J~ J~ J~ J~ J~ J~ J~ J~ J~ J~ J~ J~ J~ J~ [% v4 u4 @/ G  C3 C3 C3 o+ E@ :{ C/ m{ J~ J~ !~ D$ 7. :) ^! R) R) R) R) R) R) R) R) R) R) R) R) R) 1( %+ S# <$ <$ <$ <$ <$ <$ <$ <$ <$ <$ <$ <$ <$ <$ <$ <$ <$ <$ <$ <$ <$ <$ <$ <$ <$ <$ <$ <$ S# (# E@ E@ !@ r+ ~+ -+ #+ 9. D  `. z  L< w_ 0: *< 9[ 0[ [) [) v5 N5 N5 *6 {5 {5 {5 {5 {5 a5 S4 S4 S4 S4 S4 S4 S4 S4 S4 S4 S4 S4 S4 S4 S4 P5 =6 [4 [4 [4 R5 k3 k3 ,' )4 =} =} =} =} s; !4 !4 !4 !4 !4 G4 02 02 02 02 02 02 02 02 02 02 ",
"83 83 83 83 83 83 83 83 83 83 83 83 83 83 83 83 83 83 83 83 83 83 83 83 83 83 83 H3 02 -. w. w. -6 ;6 >6 ,6 K3 '6 )6 !6 !6 ~6 o4 o4 o4 o4 {6 ]6 [5 j5 j5 ^6 .5 .5 m[ &< 8: *< 0: a: E~ z  A  `. F  9. n+ %+ U+ U+ D@ /# ~@ E@ (# S# <$ <$ <$ <$ <$ <$ <$ <$ <$ <$ <$ <$ <$ <$ <$ <$ <$ <$ <$ <$ <$ <$ <$ <$ <$ <$ <$ E@ L2 7! R) R) R) R) R) R) R) R) R) R) R) R) 5! 5! d_ j} Z5 m{ m{ J~ =% /# n+ C3 E  t4 15 25 25 25 +5 /6 v4 s5 J~ ({ ({ ({ ({ B] B] B] J~ J~ J~ J~ J~ J~ J~ J~ J~ J~ J~ J~ J~ J~ J~ J~ J~ J~ J~ J~ J~ J~ J~ J~ J~ J~ J~ J~ J~ J~ J~ J~ J~ J~ (6 -/ _6 =, y| H} :6 <6 '= 71 B/ !~ J~ J~ J~ J~ J~ J~ J~ J~ J~ J~ J~ J~ J~ J~ J~ J~ J~ J~ J~ J~ J~ J~ J~ J~ J~ J~ J~ J~ J~ J~ J~ J~ J~ J~ J~ J~ J~ J~ J~ J~ J~ J~ J~ J~ J~ J~ J~ J~ J~ J~ J~ J~ J~ J~ J~ J~ J~ J~ J~ J~ J~ J~ J~ J~ J~ J~ J~ J~ J~ J~ J~ J~ J~ J~ J~ J~ J~ J~ J~ J~ J~ J~ J~ J~ J~ J~ J~ J~ J~ J~ J~ J~ J~ J~ J~ J~ J~ J~ J~ J~ J~ J~ J~ J~ J~ J~ J~ J~ J~ J~ J~ J~ J~ J~ J~ J~ J~ J~ J~ J~ J~ J~ J~ J~ J~ J~ J~ J~ J~ J~ J~ J~ J~ J~ J~ J~ J~ J~ J~ J~ J~ J~ J~ J~ J~ J~ J~ J~ J~ J~ J~ J~ J~ J~ J~ J~ J~ J~ J~ J~ J~ J~ J~ J~ J~ J~ J~ J~ J~ J~ J~ J~ J~ J~ J~ J~ 5( #) Z  ,5 u# G  C3 C3 C3 o+ E@ :{ C/ m{ J~ J~ J~ B/ c@ <{ }) 5! J< R) R) R) R) R) R) R) R) R) R) R) R) #! D@ S# <$ <$ <$ <$ <$ <$ <$ <$ <$ <$ <$ <$ <$ <$ <$ <$ <$ <$ <$ <$ <$ <$ <$ <$ <$ <$ <$ S# (# E@ E@ !@ r+ ~+ -+ #+ 9. D  `. z  L< w_ 0: *< 9[ 0[ [) [) v5 N5 N5 w5 {5 {5 {5 {5 {5 {5 a5 S4 S4 S4 S4 S4 95 [6 )4 }6 |6 |6 16 )4 26 36 =6 P2 [4 [4 F4 k3 k3 ,$ )4 =} =} =} =} =} 46 !4 !4 !4 !4 !4 !4 56 02 02 02 02 02 02 02 02 ",
"83 83 83 83 83 83 83 83 83 83 83 83 83 83 83 83 83 83 83 83 83 83 83 83 83 83 83 83 r} 02 =# w. w. 66 76 76 86 !6 !6 !6 !6 96 o4 o4 o4 o4 06 Q3 j5 j5 j5 ^6 .5 .5 m[ &< 8: *< 0: a: E~ z  A  `. F  9. n+ %+ U+ U+ D@ /# ~@ E@ (# S# <$ <$ <$ <$ <$ <$ <$ <$ <$ <$ <$ <$ <$ <$ <$ <$ <$ <$ <$ <$ <$ <$ <$ <$ <$ %$ !@ 7. ^! R) R) R) R) R) R) R) R) R) R) R) R) R) 5! t/ h] E2 A3 J~ m{ J~ =% /# n+ C3 E  t4 15 25 25 25 25 25 N4 .)  : 5( 5( 5( 5( J~ ({ J~ J~ J~ J~ J~ J~ J~ J~ J~ J~ J~ J~ J~ J~ J~ J~ J~ J~ J~ J~ J~ J~ J~ J~ J~ J~ J~ J~ J~ J~ J~ J~ J~ J~ [_ h] J~ a6 Q> b6 c6 d6 e6 q, f6 =( !~ J~ J~ J~ J~ J~ J~ J~ J~ J~ J~ J~ J~ J~ J~ J~ J~ J~ J~ J~ J~ J~ J~ J~ J~ J~ J~ J~ J~ J~ J~ J~ J~ J~ J~ J~ J~ J~ J~ J~ J~ J~ J~ J~ J~ J~ J~ J~ J~ J~ J~ J~ J~ J~ J~ J~ J~ J~ J~ J~ J~ J~ J~ J~ J~ J~ J~ J~ J~ J~ J~ J~ J~ J~ J~ J~ J~ J~ J~ J~ J~ J~ J~ J~ J~ J~ J~ J~ J~ J~ J~ J~ J~ J~ J~ J~ J~ J~ J~ J~ J~ J~ J~ J~ J~ J~ J~ J~ J~ J~ J~ J~ J~ J~ J~ J~ J~ J~ J~ J~ J~ J~ J~ J~ J~ J~ J~ J~ J~ J~ J~ J~ J~ J~ J~ J~ J~ J~ J~ J~ J~ J~ J~ J~ J~ J~ J~ J~ J~ J~ J~ J~ J~ J~ J~ J~ J~ J~ J~ J~ J~ J~ J~ J~ J~ J~ J~ J~ J~ J~ J~ J~ J~ J~ J~ J~ J~  : g6 E5 M4 h6 9. C3 C3 C3 o+ E@ :{ C/ m{ J~ J~ J~ J~ h] n. <{ }) F~ R) R) R) R) R) R) R) R) R) R) R) R) R) ]! U+ S# <$ <$ <$ <$ <$ <$ <$ <$ <$ <$ <$ <$ <$ <$ <$ <$ <$ <$ <$ <$ <$ <$ <$ <$ <$ <$ S# (# E@ E@ !@ r+ ~+ -+ #+ 9. D  `. z  L< w_ 0: *< 9[ 0[ [) [) v5 N5 N5 i6 {5 {5 {5 {5 {5 {5 {5 j6 S4 S4 S4 S4 k6 l6 l6 l6 l6 l6 l6 l6 l6 l6 =6 L@ [4 [4 k3 k3 k3 ,$ m6 =} =} =} =} =} =} n6 !4 !4 !4 !4 !4 !4 ;4 02 02 02 02 02 02 02 ",
"83 83 83 83 83 83 83 83 83 83 83 83 83 83 83 83 83 83 83 83 83 83 83 83 83 83 83 83 o6 02 02 w. w. w. 66 76 76 p6 !6 !6 q6 o4 o4 o4 o4 r6 06 s6 j5 j5 j5 [5 .5 .5 m[ &< 8: *< 0: a: E~ z  A  `. F  9. n+ %+ U+ U+ D@ /# ~@ E@ (# S# <$ <$ <$ <$ <$ <$ <$ <$ <$ <$ <$ <$ <$ <$ <$ <$ <$ <$ <$ <$ <$ <$ <$ <$ <$ v# <{ R) R) R) R) R) R) R) R) R) R) R) R) R) R) R) 5! )* E2 6^ J~ J~ m{ J~ =% /# n+ C3 E  t4 15 25 25 25 25 t6 u6 v6 v4 .) O4 O4 +) +) +) +) %% :%  : J~ J~ J~ J~ J~ J~ J~ J~ J~ J~ J~ J~ J~ J~ J~ J~ J~ J~ J~ J~ J~ J~ J~ J~ J~ J~ J~ J~ J~ J~ J~ 4( m{ w6 x6 y6 z6 o, A6 B6 ,: !~ J~ J~ J~ J~ J~ J~ J~ J~ J~ J~ J~ J~ J~ J~ J~ J~ J~ J~ J~ J~ J~ J~ J~ J~ J~ J~ J~ J~ J~ J~ J~ J~ J~ J~ J~ J~ J~ J~ J~ J~ J~ J~ J~ J~ J~ J~ J~ J~ J~ J~ J~ J~ J~ J~ J~ J~ J~ J~ J~ J~ J~ J~ J~ J~ J~ J~ J~ J~ J~ J~ J~ J~ J~ J~ J~ J~ J~ J~ J~ J~ J~ J~ J~ J~ J~ J~ J~ J~ J~ J~ J~ J~ J~ J~ J~ J~ J~ J~ J~ J~ J~ J~ J~ J~ J~ J~ J~ J~ J~ J~ J~ J~ J~ J~ J~ J~ J~ J~ J~ J~ J~ J~ J~ J~ J~ J~ J~ J~ J~ J~ J~ J~ J~ J~ J~ J~ J~ J~ J~ J~ J~ J~ J~ J~ J~ J~ J~ J~ J~ J~ J~ J~ J~ J~ J~ J~ J~ J~ J~ J~ J~ J~ J~ J~ J~ J~ J~ J~ J~ J~ J~ J~ J~ J~ J~ ({ 5( %% C6 25 M4 h6 9. C3 C3 C3 o+ E@ :{ C/ m{ J~ J~ J~ J~ J~ :{ U+ <{ #! 5! R) R) R) R) R) R) R) R) R) R) R) R) p) #! D@ <$ <$ <$ <$ <$ <$ <$ <$ <$ <$ <$ <$ <$ <$ <$ <$ <$ <$ <$ <$ <$ <$ <$ <$ <$ <$ S# (# E@ E@ !@ r+ ~+ -+ #+ 9. D  `. z  L< w_ 0: *< 9[ 0[ [) [) v5 N5 N5 N5 D6 {5 {5 {5 {5 {5 {5 {5 E6 F6 S4 S4 S4 05 |6 |6 |6 |6 G6 l6 l6 l6 =6 L@ [4 [4 k3 k3 k3 =} =} =} =} =} =} =} =} =} X# T4 !4 !4 !4 !4 !4 ;4 02 02 02 02 02 02 ",
"83 83 83 83 83 83 83 83 83 83 83 83 83 83 83 83 83 83 83 83 83 83 83 83 83 83 83 83 o6 02 02 >' w. w. w. 66 76 76 p6 !6 !6 q6 o4 o4 o4 H6 06 j5 j5 j5 j5 I6 .5 .5 m[ &< 8: *< 0: a: E~ z  A  `. F  9. n+ %+ U+ U+ D@ /# ~@ E@ (# S# <$ <$ <$ <$ <$ <$ <$ <$ <$ <$ <$ <$ <$ <$ <$ <$ <$ <$ <$ <$ <$ <$ <$ <$ v# s1 7! R) R) R) R) R) R) R) R) R) R) R) R) R) R) ^! y# *| }_ J~ J~ J~ m{ ({ =% /# n+ C3 E  t4 15 25 25 25 25 25 25 25 J6 E5 E5 E5 /6 /6 /6 N4 Z  n5 .) &%  : J~ ({ ({ ({ ({ ({ J~ J~ J~ J~ J~ J~ J~ J~ J~ J~ J~ J~ J~ J~ J~ J~ J~ J~ J~ J~ J~ J~ ({ ({ ({ (6 6^ 6^ b/ >| B( (6 ({ ({ J~ J~ J~ J~ J~ J~ J~ J~ J~ J~ J~ J~ J~ J~ J~ J~ J~ J~ J~ J~ J~ J~ J~ J~ J~ J~ J~ J~ J~ J~ J~ J~ J~ J~ J~ J~ J~ J~ J~ J~ J~ J~ J~ J~ J~ J~ J~ J~ J~ J~ J~ J~ J~ J~ J~ J~ J~ J~ J~ J~ J~ J~ J~ J~ J~ J~ J~ J~ J~ J~ J~ J~ J~ J~ J~ J~ J~ J~ J~ J~ J~ J~ J~ J~ J~ J~ J~ J~ J~ J~ J~ J~ J~ J~ J~ J~ J~ J~ J~ J~ J~ J~ J~ J~ J~ J~ J~ J~ J~ J~ J~ J~ J~ J~ J~ J~ J~ J~ J~ J~ J~ J~ J~ J~ J~ J~ J~ J~ J~ J~ J~ J~ J~ J~ J~ J~ J~ J~ J~ J~ J~ J~ J~ J~ J~ J~ J~ J~ J~ J~ J~ J~ J~ J~ J~ J~ J~ J~ J~ J~ J~ J~ J~ J~ J~ J~ J~ J~ J~ J~ J~ J~ J~ J~ ({ 5( &% $* K6 t6 15 h6 s1 C3 C3 C3 o+ E@ :{ C/ m{ J~ J~ J~ J~ J~ J~ L6 &+ E~ 1( R) R) R) R) R) R) R) R) R) R) R) R) R) p) <{ E@ <$ <$ <$ <$ <$ <$ <$ <$ <$ <$ <$ <$ <$ <$ <$ <$ <$ <$ <$ <$ <$ <$ <$ <$ <$ S# (# E@ E@ !@ r+ ~+ -+ #+ 9. D  `. z  L< w_ 0: *< 9[ 0[ [) [) v5 N5 N5 N5 N5 M6 {5 {5 {5 {5 {5 {5 {5 {5 N6 S4 S4 S4 S4 S4 S4 S4 S4 95 l6 l6 =6 L@ [4 [4 k3 k3 k3 =} =} =} =} =} =} =} =} =} =} q. 46 !4 !4 !4 !4 !4 ;4 02 02 02 02 02 ",
"83 83 83 83 83 83 83 83 83 83 83 83 83 83 83 83 83 83 83 83 83 83 83 83 83 83 83 83 O6 02 02 02 ~4 w. w. w. 66 76 76 P6 !6 !6 ~6 o4 o4 H6 06 j5 j5 j5 j5 X5 .5 .5 m[ &< 8: *< 0: a: E~ z  A  `. F  9. n+ %+ U+ U+ D@ /# ~@ E@ (# S# <$ <$ <$ <$ <$ <$ <$ <$ <$ <$ <$ <$ <$ <$ <$ <$ <$ <$ F$ G$ D$ <$ <$ f# s1 ^! R) R) R) R) R) R) R) R) R) R) R) R) R) R) F~ R# Q6 b/ ({ ({ ({ ({ b/ ({ =% /# n+ C3 E  t4 15 25 25 25 25 25 25 t6 '5 '5 '5 '5 '5 '5 '5 '5 25 25 E5 N4 R6 &% #* `! ({ S6 ({ ({ ({ ({ ({ ({ ({ ({ ({ ({ ({ ({ ({ ({ ({ ({ ({ ({ ({ ({ ({ ({ ({ ({ ({ ({ .~ T6 A| A| A| B| Y! 6( ({ ({ ({ ({ ({ ({ ({ ({ ({ ({ ({ ({ ({ ({ ({ ({ ({ ({ ({ ({ ({ ({ ({ ({ ({ ({ ({ ({ ({ ({ ({ ({ ({ ({ ({ ({ ({ ({ ({ ({ ({ ({ ({ ({ ({ ({ ({ ({ ({ ({ ({ ({ ({ ({ ({ ({ ({ ({ ({ ({ ({ ({ ({ ({ ({ ({ ({ ({ ({ ({ ({ ({ ({ ({ ({ ({ ({ ({ ({ ({ ({ ({ ({ ({ ({ ({ ({ ({ ({ ({ ({ ({ ({ ({ ({ ({ ({ ({ ({ ({ ({ ({ ({ ({ ({ ({ ({ ({ ({ ({ ({ ({ ({ ({ ({ ({ ({ ({ ({ ({ ({ ({ ({ ({ ({ ({ ({ ({ ({ ({ ({ ({ ({ ({ ({ ({ ({ ({ ({ ({ ({ ({ ({ ({ ({ ({ ({ ({ ({ ({ ({ ({ ({ ({ ({ ({ ({ ({ ({ ({ ({ ({ ({ ({ ({ ({ ({ ({ ({ ({ ({ ({ ({ ({ 6( `! +) n5 E5 U6 25 15 h6 s1 C3 C3 C3 o+ E@ +~  _ b/ ({ ({ ({ ({ ({ ({ ({ F$ e< ]! V) R) R) R) R) R) R) R) R) R) R) R) R) R) 5! D  +# <$ <$ <$ <$ <$ <$ <$ <$ <$ <$ <$ <$ <$ <$ <$ <$ <$ <$ <$ <$ <$ <$ <$ <$ S# (# E@ E@ !@ r+ ~+ -+ #+ 9. D  `. z  L< w_ 0: *< 9[ 0[ [) [) v5 N5 N5 N5 N5 i6 M6 {5 {5 {5 {5 {5 {5 {5 {5 ]5 85 S4 S4 S4 S4 S4 S4 S4 V6 l6 =6 L@ [4 [4 k3 k3 k3 =} =} =} =} =} =} =} =} =} =} =} =} $# !4 !4 !4 !4 !4 ;4 02 02 02 02 ",
"83 83 83 83 83 83 83 83 83 83 83 83 83 83 83 83 83 83 83 83 83 83 83 83 83 83 83 83 02 02 02 02 02 w. w. w. w. 66 W6 X6 !6 !6 Y6 o4 o4 H6 06 j5 j5 j5 j5 j5 .5 .5 m[ &< 8: *< 0: a: E~ z  A  `. F  9. n+ %+ U+ U+ D@ /# ~@ E@ (# S# <$ <$ <$ <$ <$ <$ <$ <$ <$ <$ <$ <$ <$ <$ <$ <$ <$ X$ :% <% ;% <$ <$ R# z} z! R) R) R) R) R) R) R) R) R) R) R) R) 5! F~ Z6 [< b/ ({ ({ ({ ({ ({ b/ ({ =% /# n+ C3 E  t4 15 25 25 25 25 25 25 25 25 25 25 25 25 25 25 25 25 '5 `6 '5 25 N4 n5  7 %% #*  :  : 5( ({ ({ ({ ({ ({ ({ ({ ({ ({ ({ ({ ({ ({ ({ ({ ({ ({ ({ ({ ({ ({ ({ ({ ({ ({ b/ b/ b/ b/ ({ ({ ({ ({ ({ ({ ({ ({ ({ ({ ({ ({ ({ ({ ({ ({ ({ ({ ({ ({ ({ ({ ({ ({ ({ ({ ({ ({ ({ ({ ({ ({ ({ ({ ({ ({ ({ ({ ({ ({ ({ ({ ({ ({ ({ ({ ({ ({ ({ ({ ({ ({ ({ ({ ({ ({ ({ ({ ({ ({ ({ ({ ({ ({ ({ ({ ({ ({ ({ ({ ({ ({ ({ ({ ({ ({ ({ ({ ({ ({ ({ ({ ({ ({ ({ ({ ({ ({ ({ ({ ({ ({ ({ ({ ({ ({ ({ ({ ({ ({ ({ ({ ({ ({ ({ ({ ({ ({ ({ ({ ({ ({ ({ ({ ({ ({ ({ ({ ({ ({ ({ ({ ({ ({ ({ ({ ({ ({ ({ ({ ({ ({ ({ ({ ({ ({ ({ ({ ({ ({ ({ ({ ({ ({ ({ ({ ({ ({ ({ ({ ({ ({ ({ ({ ({ ({ ({ ({ ({ ({ ({ ({ ({ ({ ({ ({ ({ ({ ({ ({ ({ ({ ({ ({ ({ 5( &% .7 +7 25 '5 @7 25 15 h6 s1 C3 C3 C3 o+ E@ +~  _ b/ ({ ({ ({ ({ ({ ({ ({ ({ E$ D  /4 V) R) R) R) R) R) R) R) R) R) R) R) R) R) ]! D@ F$ I$ I$ <$ <$ <$ <$ <$ <$ <$ <$ <$ <$ <$ <$ <$ <$ <$ <$ <$ <$ <$ <$ <$ S# (# E@ E@ !@ r+ ~+ -+ #+ 9. D  `. z  L< w_ 0: *< 9[ 0[ m[ m[ #7 (| $7 N5 N5 N5 i6 {5 {5 {5 {5 {5 {5 {5 {5 {5 {5 j6 m6 S4 S4 S4 S4 S4 05 l6 =6 L@ [4 [4 k3 k3 k3 =} =} =} =} =} =} =} =} =} =} =} =} %7 !4 !4 !4 !4 !4 !4 ;4 02 02 02 ",
"83 83 83 83 83 83 83 83 83 83 83 83 83 83 83 83 83 83 83 83 83 83 83 83 83 83 83 &7 02 02 02 02 02 w. w. w. w. w. V{ *7 =7 !6 Y6 o4 o4 H6 06 j5 j5 j5 j5 j5 -7 .5 m[ &< 8: *< 0: a: E~ z  A  `. F  9. n+ %+ U+ U+ D@ /# ~@ E@ (# S# <$ <$ <$ <$ <$ <$ <$ <$ <$ <$ <$ <$ <$ <$ <$ <$ <$ #* 7% 7% &% F$ <$ E@ `. d) 5! R) R) R) R) R) R) R) R) R) R) R) 5! ;7 >7 (6 ({ ({ ({ ({ ({ ({ b/ ({ =% /# n+ C3 E  t4 15 25 25 25 25 25 25 25 25 25 25 25 25 25 25 25 25 25 25 '5 '5 '5 25 E5 N4 @5 ,7 =' %% #*  : `! 6( ({ ({ ({ ({ ({ ({ ({ ({ ({ ({ ({ ({ ({ ({ ({ ({ ({ ({ ({ ({ ({ ({ ({ ({ ({ ({ ({ ({ ({ ({ ({ ({ ({ ({ ({ ({ ({ ({ ({ ({ ({ ({ ({ ({ ({ ({ ({ ({ ({ ({ ({ ({ ({ ({ ({ ({ ({ ({ ({ ({ ({ ({ ({ ({ ({ ({ ({ ({ ({ ({ ({ ({ ({ ({ ({ ({ ({ ({ ({ ({ ({ ({ ({ ({ ({ ({ ({ ({ ({ ({ ({ ({ ({ ({ ({ ({ ({ ({ ({ ({ ({ ({ ({ ({ ({ ({ ({ ({ ({ ({ ({ ({ ({ ({ ({ ({ ({ ({ ({ ({ ({ ({ ({ ({ ({ ({ ({ ({ ({ ({ ({ ({ ({ ({ ({ ({ ({ ({ ({ ({ ({ ({ ({ ({ ({ ({ ({ ({ ({ ({ ({ ({ ({ ({ ({ ({ ({ ({ ({ ({ ({ ({ ({ ({ ({ ({ ({ ({ ({ ({ ({ ({ ({ ({ ({ ({ ({ ({ ({ ({ ({ ({ ({ ({ ({ ({ ({ ({ ({ ({ ({ ({ ({ ({ ({ ({ ({ ({ ({ `! +) n5 J6 '5 '5 25 U6 25 15 h6 s1 C3 C3 C3 o+ E@ +~  _ b/ ({ ({ ({ ({ ({ ({ ({ ({ ({ g# Z. ]! R! 5! R) R) R) R) R) R) R) R) R) R) M2 L2 D@ X$ |% |% X$ <$ <$ <$ <$ <$ <$ <$ <$ <$ <$ <$ <$ <$ <$ <$ <$ <$ <$ <$ <$ S# (# E@ E@ !@ r+ ~+ -+ #+ 9. D  `. z  L< w_ 0: *< 9[ 0[ m[ m[ #7 '7 )7 N5 N5 N5 N5 w5 {5 {5 {5 {5 {5 {5 {5 {5 {5 {5 E6 m6 S4 S4 S4 S4 S4 !7 =6 [4 [4 [4 k3 k3 k3 =} =} =} =} =} =} =} =} =} =} =} =} +& !4 !4 !4 !4 !4 !4 !4 ;4 02 02 ",
"83 83 83 83 83 83 83 83 83 83 83 83 83 83 83 83 83 83 83 83 83 83 83 83 83 83 83 02 02 02 02 02 -. w. w. w. w. w. w. ~7 {7 !6 Y6 o4 o4 ]7 06 j5 j5 j5 j5 j5 ^7 .5 m[ &< 8: *< 0: a: E~ z  A  `. F  9. n+ %+ U+ U+ D@ /# ~@ E@ (# S# <$ <$ <$ <$ <$ <$ <$ <$ <$ <$ <$ <$ <$ <$ <$ <$ X$ |% n% n% |% Y$ T# E@ `. E~ d) F~ R) R) R) R) R) R) R) R) R) R) /7 (7 b/ ({ ({ ({ ({ ({ ({ ({ b/ ({ =% /# n+ C3 E  t4 15 25 25 25 25 25 25 25 25 25 25 25 25 25 25 25 25 25 25 25 25 25 25 t6 '5 t6 25 E5 N4 Z  $* _7 &% #*  : 5( 5( ({ ({ ({ ({ ({ ({ ({ ({ ({ ({ ({ ({ ({ ({ ({ ({ ({ ({ ({ ({ ({ ({ ({ ({ ({ ({ ({ ({ ({ ({ ({ ({ ({ ({ ({ ({ ({ ({ ({ ({ ({ ({ ({ ({ ({ ({ ({ ({ ({ ({ ({ ({ ({ ({ ({ ({ ({ ({ ({ ({ ({ ({ ({ ({ ({ ({ ({ ({ ({ ({ ({ ({ ({ ({ ({ ({ ({ ({ ({ ({ ({ ({ ({ ({ ({ ({ ({ ({ ({ ({ ({ ({ ({ ({ ({ ({ ({ ({ ({ ({ ({ ({ ({ ({ ({ ({ ({ ({ ({ ({ ({ ({ ({ ({ ({ ({ ({ ({ ({ ({ ({ ({ ({ ({ ({ ({ ({ ({ ({ ({ ({ ({ ({ ({ ({ ({ ({ ({ ({ ({ ({ ({ ({ ({ ({ ({ ({ ({ ({ ({ ({ ({ ({ 5(  : :% s5  :  : `! 6( ({ ({ ({ ({ ({ ({ ({ ({ ({ ({ ({ ({ ({ ({ ({ ({ ({ ({ ({ ({ ({ ({ ({ ({ ({ ({ ({ ({ ({ ({ ({ ({ 6( #* =' N4 25 '5 '5 25 25 U6 25 15 h6 s1 C3 C3 C3 o+ E@ +~  _ b/ ({ ({ ({ ({ ({ ({ ({ ({ ({ Z! E@ <{ d) z! R) R) R) R) R) R) R) R) R) F~ d) 7. /# +% 2% m% #* <$ <$ <$ <$ <$ <$ <$ <$ <$ <$ <$ <$ <$ <$ <$ <$ <$ <$ <$ <$ S# (# E@ E@ !@ r+ ~+ -+ #+ 9. D  `. z  L< w_ 0: *< 9[ 0[ m[ m[ #7 '7 '7 '7 :7 N5 N5 N5 <7 [7 {5 {5 {5 {5 {5 {5 {5 {5 {5 }7 S4 S4 S4 S4 S4 |7 =6 [4 [4 [4 17 k3 k3 =} =} =} =} =} =} =} =} =} =} =} =} 27 !4 !4 !4 !4 !4 !4 !4 37 02 02 ",
"83 83 83 83 83 83 83 83 83 83 83 83 83 83 83 83 83 83 83 83 83 83 83 83 83 83 O6 02 02 02 02 =# w. w. w. w. w. w. w. .| 47 57 44 o4 o4 o4 06 j5 j5 j5 j5 j5 ^7 .5 m[ &< 8: *< 0: a: E~ z  A  `. F  9. n+ %+ U+ U+ D@ /# ~@ E@ (# S# <$ <$ <$ <$ <$ <$ <$ <$ <$ <$ <$ <$ <$ <$ <$ <$ 9% 2% p% n% 7% $% &$ E@ `. E~ E~ ]! V) R) R) R) R) R) R) R) R) F~ 67 2[ ({ ({ ({ ({ ({ ({ ({ ({ b/ ({ =% /# n+ C3 E  t4 15 25 25 25 25 25 25 25 25 25 25 25 25 25 25 25 25 25 25 25 25 25 25 25 25 25 25 '5 '5 '5 25 /6 Z  n5 v4 .) +) :%  : 5( 5( 5( 6( ({ ({ ({ ({ ({ ({ ({ ({ ({ ({ ({ ({ ({ ({ ({ ({ ({ ({ ({ ({ ({ ({ ({ ({ ({ ({ ({ ({ ({ ({ ({ ({ ({ ({ ({ ({ ({ ({ ({ ({ ({ ({ ({ ({ ({ ({ ({ ({ ({ ({ ({ ({ ({ ({ ({ ({ ({ ({ ({ ({ ({ ({ ({ ({ ({ ({ ({ ({ ({ ({ ({ ({ ({ ({ ({ ({ ({ ({ ({ ({ ({ ({ ({ ({ ({ ({ ({ ({ ({ ({ ({ ({ ({ ({ ({ ({ ({ ({ ({ ({ ({ ({ ({ ({ ({ ({ ({ ({ ({ ({ ({ ({ ({ ({ ({ ({ ({ ({ ({ ({ ({ ({ ({ ({ ({ ({ ({ ({ ({ ({ ({ ({ ({ ({ ({ ({ ({ ({ ({ ({ ({ ({ ({ ({ ({ ({  : +) $* `5 `5 n5 v4 .) +) #*  :  : 5( 5( 5( 6( ({ ({ ({ ({ ({ ({ ({ ({ ({ ({ ({ ({ ({ ({ ({ ({ ({ ({ ({ ({ ({ ({ ({ ({ 5( &% $* /6 25 25 25 25 25 25 U6 25 15 h6 s1 C3 C3 C3 o+ E@ +~  _ b/ ({ ({ ({ ({ ({ ({ ({ ({ ({ ({ +~ 77 d_ t/ R) R) R) R) R) R) R) R) F~ ]! E~ 7. c@ :% 2% 7% k% F$ <$ <$ <$ <$ <$ <$ <$ <$ <$ <$ <$ <$ <$ <$ <$ <$ <$ <$ <$ S# (# E@ E@ !@ r+ ~+ -+ #+ 9. D  `. z  L< w_ 0: *< 9[ 0[ m[ m[ 87 '7 '7 '7 '7 U2 N5 N5 N5 N5 N5 97 O5 *6 {5 {5 {5 {5 {5 {5 N6 S4 S4 S4 S4 a5 07 [4 [4 [4 R5 k3 k3 /+ =} =} =} =} =} =} =} =} =} =} =} T4 !4 !4 !4 !4 !4 !4 !4 >' 02 02 ",
"83 83 83 83 83 83 83 83 83 83 83 83 83 83 83 83 83 83 83 83 83 83 83 83 83 &7 02 02 02 >' w. w. w. w. w. w. w. w. a7 47 47 47 b7 o4 o4 o4 c7 j5 j5 j5 j5 j5 d7 .5 m[ &< 8: *< 0: a: E~ z  A  `. F  9. n+ %+ U+ U+ D@ /# ~@ E@ (# S# <$ <$ <$ <$ <$ <$ <$ <$ <$ <$ <$ <$ <$ <$ <$ <$ <% 7% p% o% o% <% G$ E@ `. E~ E~ E~ ]! V) 7! R) R) R) R) R) R) &+ ({ b/ ({ ({ ({ ({ ({ ({ ({ ({ b/ ({ =% /# n+ C3 E  t4 15 25 25 25 25 25 25 25 25 25 25 25 25 25 25 25 25 25 25 25 25 25 25 25 25 25 25 25 25 25 25 '5 '5 +5 E5 +7 35 Z  $* =' .) +) &% #*  : 5( ({ ({ ({ ({ ({ ({ ({ ({ ({ ({ ({ ({ ({ ({ ({ ({ ({ ({ ({ ({ ({ ({ ({ ({ ({ ({ ({ ({ ({ ({ ({ ({ ({ ({ ({ ({ ({ ({ ({ ({ ({ ({ ({ ({ ({ ({ ({ ({ ({ ({ ({ ({ ({ ({ ({ ({ ({ ({ ({ ({ ({ ({ ({ ({ ({ ({ ({ ({ ({ ({ ({ ({ ({ ({ ({ ({ ({ ({ ({ ({ ({ ({ ({ ({ ({ ({ ({ ({ ({ ({ ({ ({ ({ ({ ({ ({ ({ ({ ({ ({ ({ ({ ({ ({ ({ ({ ({ ({ ({ ({ ({ ({ ({ ({ ({ ({ ({ ({ ({ ({ ({ ({ ({ ({ ({ ({ ({ ({ ({ ({ ({ ({ ({ ({ ({ ({ ({ ({ ({ ({ ({ 5( #* =' 35 25 '5 '5 t6 u6 /6 N4 Z  n5 $* =' .) +) &% #*  : [_ 5( 5( 5( 6( ({ ({ ({ ({ ({ ({ ({ ({ ({ ({ ({ ({ ({ ({ ({ 6(  : +) n5 /6 25 25 25 25 25 25 25 U6 25 15 h6 s1 C3 C3 C3 o+ E@ +~  _ b/ ({ ({ ({ ({ ({ ({ ({ ({ ({ ({ ({ f< e7 E~ f7 R) R) R) R) R) R) F~ ]! E~ E~ z  =$ }% 3% n% m% Z$ <$ <$ <$ <$ <$ <$ <$ <$ <$ <$ <$ <$ <$ <$ <$ <$ <$ <$ <$ S# (# E@ E@ !@ r+ ~+ -+ #+ 9. D  `. z  L< w_ 0: *< 9[ 0[ m[ m[ g7 h7 i7 '7 '7 '7 U2 N5 N5 N5 N5 N5 N5 N5 i6 O5 M6 {5 {5 {5 {5 85 S4 S4 S4 S4 j7 [4 [4 [4 R5 k3 k3 k7 =} =} =} =} =} =} =} =} =} =} =} !4 !4 !4 !4 !4 !4 !4 ;4 02 02 02 ",
"83 83 83 83 83 83 83 83 83 83 83 83 83 83 83 83 83 83 83 83 83 83 83 83 &7 02 02 02 >' w. w. w. w. w. w. w. w. r3 .| 47 47 47 l7 o4 o4 o4 m7 j5 j5 j5 j5 j5 62 .5 m[ &< 8: *< 0: a: E~ z  A  `. F  9. n+ %+ U+ U+ D@ /# ~@ E@ (# S# <$ <$ <$ <$ <$ <$ <$ <$ <$ <$ <$ <$ <$ <$ <$ I$ k% o% p% p% o% 1% )* '@ `. E~ E~ E~ E~ i] :) 5! R) 5! 5! 5! e7 5( ({ ({ ({ ({ ({ ({ ({ ({ ({ ({ b/ ({ =% /# n+ C3 E  t4 15 25 25 25 25 25 25 25 25 25 25 25 25 25 25 25 25 25 25 25 25 25 25 25 25 25 25 25 25 25 25 25 25 25 25 25 t6 '5 '5 u6 )5 35 35 @5 R6 .) &% `! 5( ({ ({ ({ ({ ({ ({ ({ ({ ({ ({ ({ ({ ({ ({ ({ ({ ({ ({ ({ ({ ({ ({ ({ ({ ({ ({ ({ ({ ({ ({ ({ ({ ({ ({ ({ ({ ({ ({ ({ ({ ({ ({ ({ ({ ({ ({ ({ ({ ({ ({ ({ ({ ({ ({ ({ ({ ({ ({ ({ ({ ({ ({ ({ ({ ({ ({ ({ ({ ({ ({ ({ ({ ({ ({ ({ ({ ({ ({ ({ ({ ({ ({ ({ ({ ({ ({ ({ ({ ({ ({ ({ ({ ({ ({ ({ ({ ({ ({ ({ ({ ({ ({ ({ ({ ({ ({ ({ ({ ({ ({ ({ ({ ({ ({ ({ ({ ({ ({ ({ ({ ({ ({ ({ ({ ({ ({ ({ ({ ({ ({ ({ ({ ({ ({ ({ ({ ({ 6( &% n5 E5 25 t6 25 25 25 25 25 '5 '5 '5 +5 E5 +7 N4 Z  n5 $* )> =' O4 +) &% #*  : 5( 5( 5( ({ ({ ({ ({ ({ ({ ({ ({ 6(  : &% R6 N4 J6 25 25 25 25 25 25 25 25 U6 25 15 h6 s1 C3 C3 C3 o+ E@ +~  _ b/ ({ ({ ({ ({ ({ ({ ({ ({ ({ ({ ({ 6( X$ e< _) <) R) R) R) R) R! ]! E~ E~ E~ 7. W' 2% 7% o% 7% :% <$ <$ <$ <$ <$ <$ <$ <$ <$ <$ <$ <$ <$ <$ <$ <$ <$ <$ <$ S# (# E@ E@ !@ r+ ~+ -+ #+ 9. D  `. z  L< w_ 0: *< 9[ 0[ m[ m[ g7 h7 h7 h7 n7 '7 '7 :7 N5 N5 N5 N5 N5 N5 N5 N5 N5 O5 M6 {5 {5 ]5 S4 S4 S4 S4 o7 [4 [4 [4 R5 k3 k3 p7 =} =} =} =} =} =} =} =} =} =} $# !4 !4 !4 !4 !4 !4 ;4 02 02 02 02 ",
"83 83 83 83 83 83 83 83 83 83 83 83 83 83 83 83 83 83 83 83 83 83 83 H3 02 02 02 >' w. w. w. w. w. w. V# q7 .| 47 47 47 47 47 l7 o4 o4 o4 /2 j5 j5 j5 j5 j5 r7 .5 m[ &< 8: *< 0: a: E~ z  A  `. F  9. n+ %+ U+ U+ D@ /# ~@ E@ (# S# <$ <$ <$ <$ <$ <$ <$ <$ <$ <$ <$ <$ <$ <$ <$ $% 2% p% p% p% n% 7% :% E@ `. E~ E~ E~ E~ E~ %! #! z! 5! R) e< !* (6 ({ ({ ({ ({ ({ ({ ({ ({ ({ ({ b/ ({ =% /# n+ C3 E  t4 15 25 25 25 25 25 25 25 25 25 25 25 25 25 25 25 25 25 25 25 25 25 25 25 25 25 25 25 25 25 25 25 25 25 25 25 25 25 t6 25 25 25 t6 '5 +5 /6 Z  R6 O4 #* `! 5( 5( ({ ({ ({ ({ ({ ({ ({ ({ ({ ({ ({ ({ ({ ({ ({ ({ ({ ({ ({ ({ ({ ({ ({ ({ ({ ({ ({ ({ ({ ({ ({ ({ ({ ({ ({ ({ ({ ({ ({ ({ ({ ({ ({ ({ ({ ({ ({ ({ ({ ({ ({ ({ ({ ({ ({ ({ ({ ({ ({ ({ ({ ({ ({ ({ ({ ({ ({ ({ ({ ({ ({ ({ ({ ({ ({ ({ ({ ({ ({ ({ ({ ({ ({ ({ ({ ({ ({ ({ ({ ({ ({ ({ ({ ({ ({ ({ ({ ({ ({ ({ ({ ({ ({ ({ ({ ({ ({ 6( 6( 6( 6( 6( ({ ({ ({ ({ ({ ({ ({ ({ ({ ({ ({ ({ ({ ({ ({ ({ ({ ({ ({ ({ 5( s7 ,7 E5 25 25 25 25 25 25 25 25 25 25 25 25 25 25 25 '5 '5 '5 +5 J6 +7 +7 Z  n5 R6 v4 =' .) .) +) +) +) +) +) +) O4 t7 R6 Z  J6 t6 25 25 25 25 25 25 25 25 25 U6 25 15 h6 s1 C3 C3 C3 o+ E@ +~  _ b/ ({ ({ ({ ({ ({ ({ ({ ({ ({ ({ ({ ({ 4( D$ ;7 8! <) 5! R) V) _) E~ E~ E~ E~ m! y= 5% 7% p% p% |% <$ <$ <$ <$ <$ <$ <$ <$ <$ <$ <$ <$ <$ <$ <$ <$ <$ <$ <$ S# (# E@ E@ !@ r+ ~+ -+ #+ 9. D  `. z  L< w_ 0: *< 9[ 0[ m[ m[ g7 h7 h7 h7 h7 G+ '7 '7 u7 N5 N5 N5 N5 N5 N5 N5 N5 N5 v7 D6 {5 {5 a5 S4 S4 S4 o7 [4 [4 [4 R5 k3 k3 p7 =} =} =} =} =} =} =} =} =} =} 46 !4 !4 !4 !4 !4 ;4 02 02 02 02 02 ",
"83 83 83 83 83 83 83 83 83 83 83 83 83 83 83 83 83 83 83 83 83 83 83 O6 02 02 02 =# w. w. w. w. w7 47 47 47 47 47 47 47 47 47 x7 o4 o4 o4 /2 j5 j5 j5 j5 j5 y7 .5 R! &< 8: *< 0: a: E~ z  A  `. F  9. n+ %+ U+ U+ D@ /# ~@ E@ (# S# <$ <$ <$ <$ <$ <$ <$ <$ <$ <$ <$ <$ <$ <$ <$ <% 7% p% r% p% n% n% #* g# `. E~ E~ E~ E~ E~ E~ E~ <) z! z! Y@ ({ ({ ({ ({ ({ ({ ({ ({ ({ ({ ({ ({ b/ ({ =% /# n+ C3 E  t4 15 25 25 25 25 25 25 25 25 25 25 25 25 25 25 25 25 25 25 25 25 25 25 25 25 25 25 25 25 25 25 25 25 25 25 25 25 25 25 25 25 25 t6 '5 '5 25 25 25 +7 n5 =' +) :% `! 5( 5( 6( ({ ({ ({ ({ ({ ({ ({ ({ ({ ({ ({ ({ ({ ({ ({ ({ ({ ({ ({ ({ ({ ({ ({ ({ ({ ({ ({ ({ ({ ({ ({ ({ ({ ({ ({ ({ ({ ({ ({ ({ ({ ({ ({ ({ ({ ({ ({ ({ ({ ({ ({ ({ ({ ({ ({ ({ ({ ({ ({ ({ ({ ({ ({ ({ ({ ({ ({ ({ ({ ({ ({ ({ ({ ({ ({ ({ ({ ({ ({ ({ ({ ({ ({ ({ ({ ({ ({ ({ ({ ({ 6( 5( 5( 5( 5( 5( 5( 5( 5( `! `! #* #* :% &% &% &% &% :%  : `! 5( 5( 5( 5( ({ ({ ({ ({ ({ ({ ({ ({ ({ ({ ({ ({  : +) n5 /6 25 25 25 25 25 25 25 25 25 25 25 25 25 25 25 25 '5 '5 '5 '5 25 25 t6 '5 '5 25 25 25 J6 E5 E5 +7 +7 +7 +7 +7 +7 E5 25 '5 '5 t6 25 25 25 25 25 25 25 25 25 U6 25 15 h6 s1 C3 C3 C3 o+ E@ +~  _ b/ ({ ({ ({ ({ ({ ({ ({ ({ ({ ({ ({ ({ ({ (% z7 y3 /7 z! F~ /4 E~ E~ E~ E~ _) A7 n; 7% 7% p% p% 3% F$ <$ <$ <$ <$ <$ <$ <$ <$ <$ <$ <$ <$ <$ <$ <$ <$ <$ <$ S# (# E@ E@ !@ r+ ~+ -+ #+ 9. D  `. z  L< w_ 0: *< 9[ 0[ m[ m[ g7 h7 h7 h7 h7 h7 A= l} '7 (| $7 N5 N5 N5 N5 N5 N5 N5 N5 N5 D6 {5 {5 m6 S4 S4 B7 [4 [4 [4 C7 k3 k3 p7 /+ =} =} =} =} =} =} =} =} =} T4 !4 !4 !4 !4 ;4 02 02 02 02 02 02 ",
"83 83 83 83 83 83 83 83 83 83 83 83 83 83 83 83 83 83 83 83 83 83 83 02 02 02 -. w. w. w. w. a7 47 47 47 47 47 47 47 47 47 47 D7 o4 o4 o4 /2 j5 j5 j5 j5 j5 j5 E7 7: &< 8: *< 0: a: E~ z  A  `. F  9. n+ %+ U+ U+ D@ /# ~@ E@ (# S# <$ <$ <$ <$ <$ <$ <$ <$ <$ <$ <$ <$ <$ <$ I$ |% 7% p% r% r% p% n% }% q$ `. E~ E~ E~ E~ E~ E~ E~ d) F~ F7 W$ ({ ({ ({ ({ ({ ({ ({ ({ ({ ({ ({ ({ b/ ({ =% /# n+ C3 E  @/ ,5 25 25 25 25 25 25 25 25 25 25 25 25 25 25 25 25 25 25 25 25 25 25 25 25 25 25 25 25 25 25 25 25 25 25 25 25 25 25 25 25 25 25 25 25 25 t6 t6 t6 25 25 +7 n5 v4 .) +) #* 5( 5( 5( 5( J~ ({ ({ ({ ({ ({ ({ ({ ({ ({ ({ ({ ({ ({ ({ ({ ({ ({ ({ ({ ({ ({ ({ ({ ({ ({ ({ ({ ({ ({ ({ ({ ({ ({ ({ ({ ({ ({ ({ ({ ({ ({ ({ ({ ({ ({ ({ ({ ({ ({ ({ ({ ({ ({ ({ ({ ({ ({ ({ ({ ({ ({ ({ ({ ({ ({ ({ ({ ({ ({ ({ ({ ({ ({ ({ ({ ({ ({ ({ ({ ({ ({ 5( 5( `! #* :% &% %% %% +) _7  7 v4 v4 R6 R6 R6 n5 `5 `5 `5 `5 `5 G7 R6 =' .) +) %% :%  : 5( 5( 5( ({ ({ ({ J~ J~ 5( 5(  : .) v6 J6 +5 25 25 25 25 25 25 25 25 25 25 25 25 25 25 25 +5 +5 25 25 25 25 25 25 '5 '5 '5 '5 '5 '5 '5 '5 +5 +5 +5 +5 +5 +5 '5 '5 '5 25 25 25 25 25 25 25 25 25 25 25 25 25 H7 h6 s1 C3 C3 C3 o+ E@ +~  _ b/ ({ ({ ({ ({ ({ ({ ({ ({ ({ ({ ({ ({ ({ I7 J7 :$ K7 1( L7 E~ E~ E~ E~ E~ _) M7  ) 3% n% p% r% 7% +% <$ <$ <$ <$ <$ <$ <$ <$ <$ <$ <$ <$ <$ <$ <$ <$ <$ <$ S# (# E@ E@ !@ r+ ~+ -+ #+ 9. D  `. z  L< w_ 0: *< 9[ 0[ m[ m[ g7 h7 h7 h7 h7 h7 h7 h7 N7 '7 '7 O7 P7 Q7 Q7 R7 N5 N5 N5 N5 v7 {5 {5 S7 S4 S4 *4 [4 [4 [4 b5 k3 k3 p7 I# =} =} =} =} =} =} =} =} $# !4 !4 !4 !4 =# 02 02 02 02 02 02 02 ",
"83 83 83 83 83 83 83 83 83 83 83 83 83 83 83 83 83 83 83 83 83 83 o6 02 02 T7 w. w. w. w. w. U7 47 47 47 47 47 47 47 47 47 47 P@ o4 o4 o4 /2 j5 j5 j5 j5 j5 j5 V7 m[ &< 8: *< 0: a: E~ z  A  `. F  9. n+ %+ U+ U+ D@ /# ~@ E@ (# S# <$ <$ <$ <$ <$ <$ <$ <$ <$ <$ <$ <$ <$ <$ =% |% 7% p% s% s% r% p% 1% W$ `. E~ E~ E~ E~ E~ E~ E~ ]! F~ W7 Z$ ({ ({ ({ ({ ({ ({ ({ ({ ({ ({ ({ ({ b/ ({ =% /# n+ C3 E  t4 15 u6 X7 X7 X7 X7 X7 X7 X7 X7 X7 X7 X7 X7 X7 X7 X7 X7 X7 X7 X7 X7 X7 X7 X7 X7 X7 X7 X7 X7 X7 X7 X7 X7 X7 X7 X7 X7 X7 X7 X7 X7 X7 X7 X7 X7 X7 X7 X7 Y7 Y7 U6 U6 K6 Z7 C6 g6 @) $) <% [% L5 O, O, i} i} i} i} i} i} i} i} i} i} i} i} i} i} i} i} i} i} i} i} i} i} i} i} i} i} i} i} i} i} i} i} i} i} i} i} i} i} i} i} i} i} i} i} i} i} i} i} i} i} i} i} i} i} i} i} i} i} i} i} i} i} i} i} i} i} i} i} i} i} i} i} i} i} i} i} i} i} i} i} }% <% $) `7 o'  8 .8 +8 @8 C6 C6 C6 C6 #8 @8 C6 C6 C6 C6 C6 $8 C6 C6 $8 $8 +8 .8 o' $) [% }% }% O, O,  _ C/ L5 }% <% %8 C6 Z7 &8 K6 K6 K6 K6 K6 K6 K6 K6 K6 K6 K6 K6 K6 K6 K6 K6 K6 K6 K6 K6 K6 K6 K6 K6 K6 K6 K6 K6 K6 K6 K6 K6 K6 K6 K6 K6 K6 K6 K6 K6 K6 K6 K6 K6 K6 K6 K6 K6 K6 K6 K6 K6 *8 X7 15 =8 s1 C3 C3 C3 o+ E@ +~  _ b/ ({ ({ ({ ({ ({ ({ ({ ({ ({ ({ ({ ({ ({ `! v4 ,5 -8 /7 8! E~ E~ E~ E~ E~ _) ;8 +) >8 o% r% r% p% #* <$ <$ <$ <$ <$ <$ <$ <$ <$ <$ <$ <$ <$ <$ <$ <$ <$ <$ S# (# E@ E@ !@ r+ ~+ -+ #+ 9. D  `. z  L< w_ 0: *< 9[ 0[ m[ m[ g7 h7 h7 h7 h7 h7 h7 h7 h7 N7 '7 '7 '7 '7 '7 '7 R7 N5 N5 N5 N5 *6 {5 {5 m6 S4 *4 [4 [4 [4 b5 k3 k3 p7 =} =} =} =} =} =} =} =} =} 46 !4 !4 !4 !4 >' 02 02 02 02 02 02 02 ",
"83 83 83 83 83 83 83 83 83 83 83 83 83 83 83 83 83 83 83 83 83 H3 02 02 02 =# w. w. w. a7 .| 47 47 47 47 47 47 47 47 47 47 47 ,8 o4 o4 o4 '8 j5 j5 j5 j5 j5 j5 )8 m[ &< 8: *< 0: a: E~ z  A  `. F  9. n+ %+ U+ U+ D@ /# ~@ E@ (# S# <$ <$ <$ <$ <$ <$ <$ <$ <$ <$ <$ <$ <$ <$ Y$ 1% n% r% s% s% !8 p% 3% -% 8. E~ E~ E~ E~ E~ E~ E~ ]! F~ W7 Z$ ({ ({ ({ ({ ({ ({ ({ ({ ({ ({ ({ ({ b/ ({ =% /# n+ C3 ~8 {8 ]8 ^8 /8 /8 /8 /8 /8 /8 /8 /8 /8 (8 (8 (8 (8 (8 (8 (8 (8 (8 (8 (8 _8 /8 :8 :8 :8 :8 :8 :8 :8 :8 :8 :8 :8 :8 :8 :8 :8 :8 :8 :8 :8 :8 :8 :8 /8 <8 (8 (8 (8 [8 [8 }8 [8 (8 <8 |8 18 28 38 48 58 68 78 88 98 08 a8 b8 b8 b8 b8 b8 b8 b8 c8 d8 d8 d8 d8 d8 d8 d8 d8 d8 d8 d8 d8 d8 d8 d8 d8 d8 d8 d8 d8 d8 d8 c8 b8 b8 b8 b8 b8 b8 b8 b8 b8 b8 b8 b8 b8 b8 b8 b8 b8 b8 b8 b8 b8 b8 b8 b8 b8 b8 b8 b8 b8 b8 b8 e8 e8 e8 e8 e8 e8 e8 e8 e8 e8 e8 b8 b8 b8 f8 f8 g8 g8 h8 i8 j8 j8 k8 l8 l8 l8 m8 m8 m8 n8 o8 o8 o8 p8 p8 p8 q8 q8 q8 q8 o8 o8 o8 r8 l8 m8 k8 k8 k8 i8 s8 t8 u8 v8 w8 v8 w8 w8 x8 x8 x8 x8 x8 x8 x8 x8 x8 x8 y8 y8 y8 z8 A8 A8 B8 B8 B8 C8 C8 B8 B8 B8 B8 B8 B8 B8 D8 B8 B8 C8 C8 C8 C8 C8 C8 C8 C8 E8 E8 E8 F8 F8 F8 F8 F8 F8 F8 C8 G8 H8 I8 J8 n+ C3 C3 C3 o+ E@ +~  _ b/ ({ ({ ({ ({ ({ ({ ({ ({ ({ ({ ({ ({ ({ 5( .) K8 L8 /7 E~ E~ E~ E~ E~ E~ E~ M8 +) 7% p% s% s% p% k% f, <$ <$ <$ <$ <$ <$ <$ <$ <$ <$ <$ <$ <$ <$ <$ <$ <$ S# (# E@ E@ !@ r+ ~+ -+ #+ 9. D  `. z  L< w_ 0: *< 9[ 0[ m[ m[ N8 h7 h7 h7 h7 h7 h7 h7 h7 h7 N7 '7 '7 '7 '7 '7 '7 $7 N5 N5 N5 O5 {5 {5 S7 S4 *4 [4 [4 [4 (5 k3 k3 p7 =} =} =} =} =} =} =} =} q. !4 !4 !4 !4 37 02 02 02 02 02 02 02 02 ",
"83 83 83 83 83 83 83 83 83 83 83 83 83 83 83 83 83 83 83 83 83 r} 02 02 T7 w. w. w. r3 %* 47 47 47 47 47 47 47 47 47 47 47 47 47 o4 o4 O8 P8 j5 j5 j5 j5 j5 j5 r| m[ &< 8: *< 0: a: E~ z  A  `. F  9. n+ %+ U+ U+ D@ /# ~@ E@ (# S# <$ <$ <$ <$ <$ <$ <$ <$ <$ <$ <$ <$ <$ <$ $% 2% o% r% s% s% s% p% 7% 3' m! E~ E~ E~ E~ E~ E~ E~ ]! F~ W7 Z$ ({ ({ ({ ({ ({ ({ ({ ({ ({ ({ ({ ({ b/ ({ =% /# n+ ~8 Q8 R8 S8 T8 U8 V8 U8 V8 V8 V8 U8 U8 U8 W8 X8 Y8 Z8 `8  9 Y8 Y8 Y8 Y8 Y8 Z8 V8 Z8 Z8 Z8 Z8 Z8 Z8 Z8 Z8 Z8 Z8 Z8 Z8 Z8 Z8 Z8 Z8 Z8 Z8 Z8 Z8 Z8 V8 .9 .9 Y8 Y8 +9 +9 +9 +9 +9 +9 +9 Y8 Y8  9  9  9  9 @9 #9 $9 %9 &9 *9 =9 =9 =9 =9 =9 =9 =9 =9 =9 =9 =9 =9 =9 =9 =9 =9 =9 =9 =9 =9 =9 =9 =9 =9 =9 =9 =9 =9 =9 =9 *9 =9 -9 =9 =9 =9 =9 =9 =9 =9 =9 =9 =9 =9 =9 =9 =9 =9 =9 =9 =9 =9 =9 =9 =9 =9 =9 =9 =9 ;9 =9 >9 *9 *9 *9 *9 *9 *9 *9 *9 *9 *9 *9 *9 =9 =9 =9 =9 =9 =9 ,9 =9 '9 '9 '9 '9 =9 =9 =9 =9 *9 *9 *9 *9 *9 *9 *9 *9 >9 >9 )9 )9 >9 )9 !9 )9 )9 )9 )9 !9 )9 )9 ~9 )9 >9 >9 >9 >9 >9 )9 )9 )9 )9 )9 )9 )9 )9 )9 )9 )9 )9 {9 {9 {9 {9 {9 ]9 ^9 ]9 {9 {9 /9 ]9 ]9 (9 (9 /9 /9 _9 _9 _9 :9 :9 :9 :9 :9 :9 <9 <9 [9 }9 }9 }9 |9 |9 |9 |9 |9 |9 19 19 29 39 49 #+ 59 C3 C3 o+ E@ +~  _ b/ ({ ({ ({ ({ ({ ({ ({ ({ ({ ({ ({ ({ ({ 5( +) 69 L8 /7 E~ E~ E~ E~ E~ E~ <{ 79 +) 7% p% s% s% p% 7% 89 <$ <$ <$ <$ <$ <$ <$ <$ <$ <$ <$ <$ <$ <$ <$ <$ <$ S# (# E@ E@ !@ r+ ~+ -+ #+ 9. D  `. z  L< w_ 0: *< 9[ 0[ m[ m[ 99 09 09 09 09 a9 b9 h7 h7 h7 h7 '7 '7 '7 '7 '7 '7 c9 N5 N5 N5 97 {5 {5 d9 S4 _4 [4 [4 [4 E4 k3 k3 p7 =} =} =} =} =} =} =} =} 46 !4 !4 !4 !4 ;4 02 02 02 02 02 02 02 02 ",
"83 83 83 83 83 83 83 83 83 83 83 83 83 83 83 83 83 83 83 83 &7 02 02 02 e9 w. w. w. .| 47 47 47 47 47 47 47 47 47 47 47 47 47 47 l7 o4 f9 g9 j5 j5 j5 j5 j5 j5 h9 m[ &< 8: *< 0: a: E~ z  A  `. F  9. n+ %+ U+ U+ D@ /# ~@ E@ (# S# <$ <$ <$ <$ <$ <$ <$ <$ <$ <$ <$ <$ <$ <$ :% 3% p% r% u% u% u% s% n%  ) 2^ E~ E~ E~ E~ E~ E~ E~ ]! F~ i9 Z$ ({ ({ ({ ({ ({ ({ ({ ({ ({ ({ ({ ({ b/ ({ =% /# n+ ~8 j9 k9 l9 m9 n9 o9 p9 q9 q9 r9 r9 s9 n9 t9 u9 v9 w9 x9 y9 z9 A9 B9 C9 D9 E9 F9 G9 H9 H9 H9 H9 H9 H9 H9 H9 H9 H9 H9 H9 H9 H9 H9 H9 H9 H9 H9 H9 I9 n9 J9 K9 L9 L9 L9 L9 L9 L9 L9 L9 L9 L9 L9 D9 M9 N9 O9 P9 Q9 R9 S9 T9 T9 T9 T9 T9 U9 V9 W9 X9 Y9 Z9 `9 `9 `9 `9 `9 `9 `9 `9 `9 `9 `9 `9 `9 `9 `9 Z9 Z9 Z9  0 Y9 .0 V9 +0 @0 #0 #0 #0 #0 #0 #0 #0 #0 #0 #0 #0 #0 #0 #0 #0 #0 #0 #0 #0 #0 #0 #0 #0 #0 #0 $0 W9 X9 %0 &0 &0 &0 &0 &0 &0 &0 &0 &0 &0 &0 &0 &0 *0 *0 *0 *0 *0 *0 =0 -0 ;0 >0 ,0 #0 #0 #0 #0 #0 #0 #0 #0 #0 #0 #0 #0 >0 T9 '0 )0 !0 ~0 {0 ]0 ^0 #0 >0 V9 /0 (0 _0 :0 <0 [0 [0 [0 [0 [0 [0 [0 [0 [0 [0 [0 [0 [0 [0 [0 :0 }0 *0 |0 10 >0 20 >0 30 30 40 50 60 60 70 80 90 00 00 U9 U9 T9 a0 b0 b0 b0 J9 T9 T9 t9 c0 d0 e0 e0 e0 e0 e0 e0 e0 f0 g0 h0 i0 T+ j0 C3 C3 o+ E@ +~  _ b/ ({ ({ ({ ({ ({ ({ ({ ({ ({ ({ ({ ({ ({ 6( _% k0 L8 /7 E~ E~ E~ E~ E~ E~ Z. k' l0 2% 7% n% n% 7% 2% X$ <$ <$ <$ <$ <$ <$ <$ <$ <$ <$ <$ <$ <$ <$ <$ <$ <$ S# (# E@ E@ !@ r+ ~+ -+ #+ 9. D  `. z  L< w_ 0: *< 9[ 0[ m[ m[ m0 n0 n0 n0 n0 n0 n0 n0 09 h7 h7 o0 '7 '7 '7 '7 '7 p0 N5 N5 N5 N5 {5 {5 {5 |7 [4 [4 [4 [4 b5 k3 k3 q0 =} =} =} =} =} =} =} q. !4 !4 !4 !4 !4 >' 02 02 02 02 02 02 02 02 ",
"83 83 83 83 83 83 83 83 83 83 83 83 83 83 83 83 83 83 83 H3 02 02 02 02 w. w. w. V# 47 47 47 47 47 47 47 47 47 47 47 47 47 47 47 r0 f9 g9 g9 j5 j5 j5 j5 j5 j5 %& m[ &< 8: *< 0: a: E~ z  A  `. F  9. n+ %+ U+ U+ D@ /# ~@ E@ (# S# <$ <$ <$ <$ <$ <$ <$ <$ <$ <$ <$ <$ <$ <$ h, [= `> Y> Z> s0 e= t0 7% 9% s1 E~ E~ E~ E~ E~ E~ E~ ]! F~ i9 Z$ ({ ({ ({ ({ ({ ({ ({ ({ ({ ({ ({ ({ b/ ({ =% /# n+ ~8 j9 u0 v0 w0 x0 y0 z0 A0 B0 C0 D0 z0 E0 F0 G0 H0 I0 J0 K0 L0 M0 N0 O0 P0 Q0 R0 S0 T0 S0 S0 S0 S0 S0 S0 S0 S0 S0 S0 S0 S0 S0 S0 S0 S0 S0 S0 S0 U0 V0 W0 N0 X0 Y0 Z0 Z0 Z0 Z0 Z0 Z0 Z0 Z0 Z0 `0  a .a +a @a #a $a %a &a *a *a *a *a &a =a -a ;a >a ,a 'a 'a 'a 'a 'a 'a 'a 'a 'a 'a 'a 'a 'a 'a 'a )a )a )a !a ~a {a ]a ^a /a  a  a  a  a  a  a  a  a  a  a  a  a  a  a  a  a  a  a  a  a  a  a  a (a _a :a -a <a [a }a }a }a }a }a }a }a }a }a }a }a }a }a }a }a }a }a }a }a |a R0 1a 2a 3a  a  a  a  a  a  a  a  a  a  a  a  a 2a 4a 5a 6a 7a 8a 9a 0a aa  a ba ca da ea fa >a ga ha ia ,a 'a 'a ,a ,a ,a ,a ,a ia ia ia ha !a ja !a ka la ma 2a 2a na P0 W0 oa pa qa ba ra sa ta ua va wa xa ya za za %a Aa Aa Ba Ca Da Ea Fa Ga Ha Ha Ia Ia Ia ja Ja Ka La Ma #+ Na C3 C3 o+ E@ +~  _ b/ ({ ({ ({ ({ ({ ({ ({ ({ ({ ({ ({ ({ ({ 6( _% Oa L8 /7 E~ E~ E~ E~ E~ E~ q2 Pa O% u= Qa Qa Qa R& 5& #* <$ <$ <$ <$ <$ <$ <$ <$ <$ <$ <$ <$ <$ <$ <$ <$ <$ S# (# E@ E@ !@ r+ ~+ -+ #+ 9. D  `. z  L< w_ 0: *< 9[ 0[ m[ m[ m0 n0 n0 n0 n0 n0 n0 n0 n0 n0 Ra h7 n7 '7 '7 '7 '7 O7 N5 N5 N5 N5 [7 {5 {5 Sa [4 [4 [4 [4 Ta k3 k3 Ua =} =} =} =} =} =} =} Va !4 !4 !4 !4 !4 >' 02 02 02 02 02 02 02 02 ",
"83 83 83 83 83 83 83 83 83 83 83 83 83 83 83 83 83 83 83 02 02 02 02 T7 w. w. w. V# 47 47 47 47 47 47 47 47 47 47 47 47 47 47 47 g9 g9 g9 g9 Wa j5 j5 j5 j5 j5 s6 m[ &< 8: *< 0: a: E~ z  A  `. F  9. n+ %+ U+ U+ D@ /# ~@ E@ (# S# <$ <$ <$ <$ <$ <$ <$ <$ <$ <$ <$ <$ <$ G$ ]* S- b; C; C; !; m- U* 2% 9% &+ E~ E~ E~ E~ E~ E~ E~ ]! F~ Xa +% ({ ({ ({ ({ ({ ({ ({ ({ ({ ({ ({ ({ b/ ({ =% /# n+ c/ Q8 Ya Za `a  b .b +b @b #b $b %b &b *b =b -b ;b >b ,b 'b )b !b ~b {b ]b ^b /b (b _b :b :b :b :b :b :b :b :b :b :b :b :b :b :b :b <b <b [b }b |b 1b 2b 3b 4b 5b 5b 5b 5b 5b 5b 5b 5b 5b 5b 6b 7b 8b 9b -b 0b ab ab bb cb cb cb ab db eb fb gb hb ib ib ib ib ib ib ib ib ib ib jb jb kb lb mb nb ob pb qb rb sb tb ub vb ~b 5b 5b 5b 5b 5b 5b 5b 5b 5b 5b 5b 5b 5b 5b 5b 5b 5b 5b 5b 5b 5b ~b ~b wb xb yb zb Ab Bb Bb Cb Cb Cb Cb Cb Cb Cb Cb Cb Cb Cb Cb Cb Cb Cb <b <b Db Eb Fb Gb Hb 3b 5b 5b 5b 5b 5b 5b 5b 5b 5b 5b 5b 5b Ib Jb Kb Lb Mb Nb Ob Pb Qb Rb Sb Tb Ub rb Vb Wb Xb Yb Zb `b `b  c  c  c  c .c +c @c Yb Yb #c #c #c $c %c &c *c wb wb =c -c -c ;c >c 2b 2b ,c 'c )c !c ~c {c ]c ^c [a /c (c _c Ia :c <c [c }c hb |c 1c jb jb ib ib ib kb lb 2c 3c C3 C3 C3 C3 o+ E@ +~  _ b/ ({ ({ ({ ({ ({ ({ ({ ({ ({ ({ ({ ({ ({ 6( s7 4c L8 /7 E~ E~ E~ E~ E~ E~ A7 5c 6c -, ~, 7c 7c L= 8c L% <$ <$ <$ <$ <$ <$ <$ <$ <$ <$ <$ <$ <$ <$ <$ <$ <$ S# (# E@ E@ !@ r+ ~+ -+ #+ 9. D  `. z  L< w_ 0: *< 9[ 0[ m[ m[ m0 n0 n0 n0 n0 n0 n0 n0 n0 n0 n0 a9 h7 '7 '7 '7 '7 $7 N5 N5 N5 N5 w5 {5 {5 {5 [4 [4 [4 [4 k3 k3 k3 9c =} =} =} =} =} =} ,% !4 !4 !4 !4 !4 !4 ~4 02 02 02 02 02 02 02 02 ",
"83 83 83 83 83 83 83 83 83 83 83 83 83 83 83 83 83 83 0c 02 02 02 02 -. w. w. w. w. 47 47 47 47 47 47 47 47 47 47 47 47 47 47 47 g9 g9 g9 g9 ac j5 j5 j5 j5 j5 bc m[ &< 8: *< 0: a: E~ z  A  `. F  9. n+ %+ U+ U+ D@ /# ~@ E@ (# S# <$ <$ <$ <$ <$ <$ <$ <$ <$ <$ <$ <$ <$ ;% s* X- '; ;; -; cc }- S* 2% &% u# E~ E~ E~ E~ E~ E~ E~ ]! F~ Xa *% ({ ({ ({ ({ ({ ({ ({ ({ ({ ({ ({ ({ b/ ({ =% /# n+ dc ec fc gc hc ic jc kc )a lc mc nc oc pc pc qc rc pc sc Ib tc uc 2b vc |b wc xc yc zc }c }c }c }c }c }c }c }c }c }c }c }c }c }c }c }c Ac Bc Cc  b Dc Ec jc tc tc tc tc tc tc tc tc tc tc tc tc jc tc Hb Fc Gc Hc Ic Ic Ic Ic Jc ab Kc Lc Mc Nc #c Oc Oc Oc Oc Oc Oc Oc Oc Oc Oc Pc Oc Qc Rc Sc Tc Uc Vc Wc Xc Yc ~c uc jc tc tc tc tc tc tc tc tc tc tc tc tc tc tc tc tc tc tc tc tc tc tc tc Zc `c  d .d +d @d }c }c }c }c }c }c }c }c }c }c }c }c }c }c }c }c }c }c #d $d %d ]c &d *d uc tc tc tc tc tc tc tc tc tc tc tc tc tc =d -d ;d >d ,d 'd )d !d Sb ~d {d ]d ^d /d /d zc zc zc (d _d yc :d yc <d }c zc zc /d /d zc [d }d |d 1d ;c 2d 3d jc tc tc 2d 2d 3d 3d 3d 3d 3d 3d 4d &d &d 5d 3d =d 6d 7d 8d Fc 9d 0d ad Vb Oc bd Oc Oc Oc Oc Oc Oc Oc Oc cd dd s1 C3 C3 C3 o+ `@ +~  _ b/ ({ ({ ({ ({ ({ ({ ({ ({ ({ ({ ({ ({ ({ ({ #* ed L8 /7 E~ E~ E~ E~ E~ _) i9 7: fd gd y; *; *; .; hd id y# <$ <$ <$ <$ <$ <$ <$ <$ <$ <$ <$ <$ <$ <$ <$ <$ S# (# E@ E@ !@ r+ ~+ -+ #+ 9. D  `. z  L< w_ 0: *< 9[ 0[ m[ m[ m0 n0 n0 n0 n0 n0 n0 n0 n0 n0 n0 n0 h7 ~> '7 '7 O7 N5 N5 N5 N5 N5 i6 {5 {5 {5 [4 [4 [4 jd k3 k3 k3 q. =} =} =} =} =} s; !4 !4 !4 !4 !4 !4 !4 =# 02 02 02 02 02 02 02 02 ",
"83 83 83 83 83 83 83 83 83 83 83 83 83 83 83 83 83 0c 02 02 02 02 02 =# w. w. w. w. c5 47 47 47 47 47 47 47 47 47 47 47 47 47 kd g9 g9 g9 g9 ac j5 j5 j5 j5 j5 j5 m[ &< 8: *< 0: a: E~ z  A  `. F  9. n+ %+ U+ U+ D@ /# ~@ E@ (# S# <$ <$ <$ <$ <$ <$ <$ <$ <$ <$ <$ <$ <$ Y$ ld md '; -; -; -; nd S* 2% $) M8 E~ E~ E~ E~ E~ E~ E~ ]! F~ od $% m{ m{ m{ m{ m{ m{ m{ m{ m{ m{ m{ m{ z_ m{ -( !@ n+ dc ec fc pd qd rd 4d sd td td ud vd wd xd yd yd zd Ad Bd 4d Cd ~c Dd Ed }b +d Fd zc zc zc zc zc zc zc zc zc zc zc zc zc zc zc zc zc Gd Hd Id  b 6d Bd Jd jc jc jc jc jc jc jc jc jc jc jc jc jc jc jc jc Kd Ld Md Nd Od Od Pd Qd Rd Sd Ab Td #c Oc Oc Oc Oc Oc Oc Oc Oc Oc Ud Vd Wd <b Uc @d ]d Xd Yd Zd `d  e .e Jd jc jc jc jc jc jc jc jc jc jc jc jc jc jc jc jc jc jc jc jc jc jc 3d +e Hb @e #e $e %e <d zc zc zc zc zc zc zc zc zc zc zc zc zc zc zc zc zc zc &e *e =e -e 4d Bd ;e jc jc jc jc jc jc jc jc jc jc jc jc jc jc jc 6d >e ,e 'e )e !e fa ~e {e ]e zc zc zc zc zc zc zc zc zc zc zc zc zc zc zc zc zc ]e zc Bc ^e /e (e 4d 3d jc jc jc jc jc jc jc jc jc jc jc jc jc jc jc jc jc jc 3d 3d _e :e <e [e }e |e 1e Uc Sc 2e Rc Ud Oc Oc Oc Oc 3e dd s1 C3 C3 C3 o+ F@ h] m{ z_ m{ m{ m{ m{ m{ m{ m{ m{ m{ m{ m{ m{ m{ m{ }% 4e 5e /7 E~ E~ E~ E~ E~ _) Xa }) 6e 7e e; ;; ;; S- K= _' &$ <$ <$ <$ <$ <$ <$ <$ <$ <$ <$ <$ <$ <$ <$ <$ <$ S# (# E@ E@ !@ r+ ~+ -+ #+ 9. D  `. z  L< w_ 0: *< 9[ 0[ m[ m[ m0 n0 n0 n0 n0 n0 n0 n0 n0 n0 n0 n0 Ra h7 '7 '7 :7 N5 N5 N5 N5 N5 N5 M6 {5 {5 G1 [4 [4 F4 k3 k3 8e =} =} =} =} =} i$ !4 !4 !4 !4 !4 !4 !4 !4 !4 02 02 02 02 02 02 02 02 ",
"83 83 83 83 83 83 83 83 83 83 83 83 83 83 83 83 0c 02 02 02 02 02 02 ~4 w. w. w. w. w. c5 47 47 47 47 47 47 47 47 47 47 47 47 e/ g9 g9 g9 g9 ac j5 j5 j5 j5 j5 j5 m[ &< 8: *< 0: a: E~ z  A  `. F  9. n+ %+ U+ U+ D@ /# ~@ E@ (# S# <$ <$ <$ <$ <$ <$ <$ <$ <$ <$ <$ <$ D$ Z$ ld md ,; -; -; -; nd o= 3% <% 9e E~ E~ E~ E~ E~ E~ E~ ]! F~ od $% m{ m{ m{ m{ m{ m{ m{ m{ m{ m{ m{ m{ z_ m{ -( !@ n+ dc ec fc pd qd jc 3d +e jc jc jc jc +e 3d 3d 3d 3d 3d 4d 0e T0 ae %c [d +d }c zc zc zc zc zc zc zc zc zc zc zc zc zc zc zc zc zc Mc be ce de 4d Bd Jd jc jc jc jc jc jc jc jc jc jc jc jc jc jc jc jc jc jc R0 Ld ee Od Pd fe ge he ie Nc Oc Oc Oc Oc Oc Oc Oc Oc Oc Qc je Sc ke Db }c le le zc }c ad me ne oe 3d jc jc jc jc jc jc jc jc jc jc jc jc jc jc jc jc jc jc jc jc jc jc 3d 3d (e pe qe re se te zc zc zc zc zc zc zc zc zc zc zc zc zc zc zc zc zc zc ue ve we >c ud &d jc jc jc jc jc jc jc jc jc jc jc jc jc jc jc jc uc 8d ]c [a xe ye ze Ae Mc }c zc zc zc zc zc zc zc zc zc zc zc zc zc zc zc zc zc ]e ]e Be Ce Gb De &d 3d jc jc jc jc jc jc jc jc jc jc jc jc jc jc jc jc jc jc jc jc >c Ee Fe Ge He He Ie zc zc }c +d Je Ke Qc Oc Oc Oc 3e dd s1 C3 C3 C3 o+ F@ h] Le z_ m{ m{ m{ m{ m{ m{ m{ m{ m{ m{ m{ m{ m{ m{ L5 Me Ne /7 E~ E~ E~ E~ E~ E~ od Oe 6e Pe e; -; -; S- Qe |& y# <$ <$ <$ <$ <$ <$ <$ <$ <$ <$ <$ <$ <$ <$ <$ <$ S# (# E@ E@ !@ r+ ~+ -+ #+ 9. D  `. z  L< w_ 0: *< 9[ 0[ m[ m[ m0 n0 n0 n0 n0 n0 n0 n0 n0 n0 n0 n0 Re h7 n7 '7 Se N5 N5 N5 N5 N5 N5 [7 {5 {5 m3 [4 }4 k3 k3 k3 Z: =} =} =} =} i$ !4 !4 !4 !4 !4 !4 !4 !4 !4 !4 Te 02 02 02 02 02 02 02 ",
"83 83 83 83 83 83 83 83 83 83 83 83 83 83 83 0c 02 02 02 02 02 02 02 02 e9 w. w. w. w. w. V# 47 47 47 47 47 47 47 47 47 47 47 c, g9 g9 g9 g9 ac j5 j5 j5 j5 j5 j5 m[ &< 8: *< 0: a: E~ z  A  `. F  9. n+ %+ U+ U+ D@ /# ~@ E@ (# S# <$ <$ <$ <$ <$ <$ <$ <$ <$ <$ <$ <$ F$ +% ]*  ; ,; -; -; -; nd o= 7% &) h% E~ E~ E~ E~ E~ E~ E~ ]! F~ t4 $% m{ m{ m{ m{ m{ m{ m{ m{ m{ m{ m{ m{ z_ m{ -( !@ n+ dc ec fc pd qd jc 3d jc jc jc jc jc jc jc jc jc jc jc 6d sc Ue .d %e +d }c zc zc zc zc zc zc zc zc zc zc zc zc zc zc zc zc zc Gd Ve We Xe 4d &d 3d jc jc jc jc jc jc jc jc jc jc jc jc jc jc jc jc jc jc jc rd Ye Ze Pd `e  f .f :b Oc Oc Oc Oc Oc Qc Qc +f Vd rb _b <b @f }c zc zc zc zc zc Ac #f `d $f oe 3d jc jc jc jc jc jc jc jc jc jc jc jc jc jc jc jc jc jc jc jc jc jc jc 3d Hb %f Ce &f +d Ab zc zc zc zc zc zc zc zc zc zc zc zc zc zc zc zc zc *f =f *e -f ;f td 4d jc jc jc jc jc jc jc jc jc jc jc jc jc jc jc jc jc >f ,f Fc 'f )f !f ~f {f }c zc zc zc zc zc zc zc zc zc zc zc zc zc zc zc zc zc zc Ac ]f ^f /f Hb 3d jc jc jc jc jc jc jc jc jc jc jc jc jc jc jc jc jc jc jc jc Cd Rb (f _f :f Db }c zc zc zc zc zc zc (d <f (b [f Oc Pc 3e dd s1 C3 C3 C3 o+ F@ h] Le z_ m{ m{ m{ m{ m{ m{ m{ m{ m{ m{ m{ m{ m{ m{ C/ H) Ne /7 E~ E~ E~ E~ E~ E~ t4 }f 6e 7e e; -; -; S- Qe |f %$ <$ <$ <$ <$ <$ <$ <$ <$ <$ <$ <$ <$ <$ <$ <$ <$ S# (# E@ E@ !@ r+ ~+ -+ #+ 9. D  `. z  L< w_ 0: *< 9[ 0[ m[ m[ m0 n0 n0 n0 n0 n0 n0 n0 n0 n0 n0 n0 n0 h7 G+ '7 1f N5 N5 N5 N5 N5 N5 O5 {5 {5 K@ [4 e4 k3 k3 k3 t$ =} =} =} q. !4 !4 !4 !4 !4 !4 !4 !4 !4 !4 !4 !4 02 02 02 02 02 02 02 ",
"H3 83 83 83 83 83 83 83 83 83 83 83 83 H3 02 02 02 02 02 02 02 02 02 02 02 =# w. w. w. w. w. r3 47 47 47 47 47 47 47 47 47 47 2f g9 g9 g9 g9 3f j5 j5 j5 j5 j5 j5 m[ &< 8: *< 0: a: E~ z  A  `. F  9. n+ %+ U+ U+ D@ /# ~@ E@ (# S# <$ <$ <$ <$ <$ <$ <$ <$ <$ <$ <$ <$ f, %% ]*  ; ,; -; ;> ;> <- o= 7% j% 4f E~ E~ E~ E~ E~ E~ E~ ]! F~ 5f $% m{ m{ m{ m{ m{ m{ m{ m{ m{ m{ m{ m{ z_ m{ -( !@ n+ dc ec fc pd qd jc 3d jc jc jc jc jc jc jc jc jc 3d (e 6f 7f Eb zc <d ]e zc zc zc zc zc zc zc zc zc zc zc zc zc zc zc zc zc 8f 9f =e 0f af &d 3d jc jc jc jc jc jc jc jc jc jc jc jc jc jc jc jc jc jc jc jc jc Cd )f db bf cf df Ud Vd rb rb rb Ke Sc Tc ke @d +d ef Fd zc zc zc zc zc ]e Ac ]f ff gf _e 4d jc jc jc jc jc jc jc jc jc jc jc jc jc jc jc jc jc jc jc jc jc jc +e uc Rb hf ^f if +d <d zc zc zc zc zc zc zc zc zc zc zc zc zc zc Ab Ab ]e *f jf kf lf ,c &d 4d jc jc jc jc jc jc jc jc jc jc jc jc jc jc jc jc jc rd 6d 8d )c mf We nf Mc ]e zc zc zc zc zc zc zc zc zc zc zc zc zc zc zc zc zc ^d of pf tb qf 6d 3d jc jc jc jc jc jc jc jc jc jc jc jc jc jc jc jc jc jc 3d +e 5b rf sf tf uf +d }c zc zc zc zc zc zc zc zc }c vf _b Ud Pc wf dd s1 C3 C3 C3 o+ F@ h] Le z_ m{ m{ m{ m{ m{ m{ m{ m{ m{ m{ m{ m{ m{ m{  _  ) c) /7 E~ E~ E~ E~ E~ E~ 5f t  8= xf -; -; -; S- U= w& m; <$ <$ <$ <$ <$ <$ <$ <$ <$ <$ <$ <$ <$ <$ <$ <$ S# (# E@ E@ !@ r+ ~+ -+ #+ 9. D  `. z  L< w_ 0: *< 9[ 0[ m[ m[ m0 n0 n0 n0 n0 n0 n0 n0 n0 n0 n0 n0 n0 a9 h7 '7 O7 N5 N5 N5 N5 N5 N5 i6 {5 {5 [4 [4 F4 k3 k3 k3 yf =} =} =} i$ !4 !4 !4 !4 !4 !4 !4 !4 !4 !4 !4 !4 ;4 02 02 02 02 02 02 ",
"02 02 r} &7 83 83 83 83 83 83 83 83 &7 02 02 02 02 02 02 02 02 02 02 02 02 >' w. w. w. w. w. w. r3 47 47 47 47 47 47 47 47 47 P8 g9 g9 g9 g9 zf j5 j5 j5 j5 j5 s6 m[ &< 8: *< 0: a: E~ z  A  `. F  9. n+ %+ U+ U+ D@ /# ~@ E@ (# S# <$ <$ <$ <$ <$ <$ <$ <$ <$ <$ <$ <$ <$ <% ]* `- >; ;> ;> ;> Af o= n% |% Bf <{ E~ E~ E~ E~ E~ E~ ]! F~ 5f $% m{ m{ m{ m{ m{ m{ m{ m{ m{ m{ m{ m{ z_ m{ -( !@ n+ dc ec fc pd qd jc 3d jc jc jc jc jc jc jc jc 4d 6d Cf Df }d ]e }c zc zc zc zc zc zc zc zc zc zc zc zc zc zc zc zc zc ]e Gd 9f Ef Rb 3d 4d jc jc jc jc jc jc jc jc jc jc jc jc jc jc jc jc jc jc jc jc jc jc jc Ib Ff Gf Hf :b Sc Uc If $c gb yc }c }c }c }c ]e zc zc zc zc zc zc zc }c zc Jf Kf Lf 6b 4d jc jc jc jc jc jc jc jc jc jc jc jc jc jc jc jc jc jc jc jc jc jc 3d 2d Mf Nf kf &e Ab }c zc zc zc zc zc zc zc zc zc zc zc zc zc zc <d 1e Je }c Of ^b qc vb Pf 4d jc jc jc jc jc jc jc jc jc jc jc jc jc jc jc jc jc jc jc Cd Qf Rf ff Sf Ac ]e zc zc zc zc zc zc zc zc zc zc zc zc zc zc zc zc zc ^d Mc $d Tf Uf Cd jc jc jc jc jc jc jc jc jc jc jc jc jc jc jc jc jc jc jc +e 4d Cd Vf Wf Xf le <d ^d zc zc zc zc zc zc zc zc zc zc (d $c Yf Pc Zf dd s1 C3 C3 C3 o+ F@ h] Le z_ m{ m{ m{ m{ m{ m{ m{ m{ m{ m{ m{ m{ m{ m{  _  ) c) /7 E~ E~ E~ E~ E~ <{ ;8 }f 6e `f -; -; -; S- U= w& H$ <$ <$ <$ <$ <$ <$ <$ <$ <$ <$ <$ <$ <$ <$ <$ <$ S# (# E@ E@ !@ r+ ~+ -+ #+ 9. D  `. z  L< w_ 0: *< 9[ 0[ m[ m[ m0 n0 n0 n0 n0 n0 n0 n0 n0 n0 n0 n0 n0 Re h7 n7 )7 N5 N5 N5 N5 N5 N5 N5 {5 {5 [4 [4 k3 k3 k3 k3 ;' =} =} =} c5 !4 !4 !4 !4 !4 !4 !4 !4 !4 !4 !4 !4  g 02 02 02 02 02 02 ",
"02 02 02 02 02 r} &7 H3 83 83 83 r} 02 02 02 02 02 02 02 02 02 02 02 02 02 02 e9 w. w. w. w. w. w. .g 47 47 47 47 47 47 47 ~' g9 g9 g9 g9 g9 zf j5 j5 j5 j5 j5 +g R! &< 8: *< 0: a: E~ z  A  `. F  9. n+ %+ U+ U+ D@ /# ~@ E@ (# S# <$ <$ <$ <$ <$ <$ <$ <$ <$ <$ <$ <$ F$ }% @g `- >; ;> ;> ;> #g o= n%  & $g k+ E~ E~ E~ E~ E~ E~ ]! F~ ;8 ': m{ m{ m{ m{ m{ m{ m{ m{ m{ m{ m{ m{ z_ m{ -( !@ n+ dc ec fc pd qd jc 3d jc jc jc jc jc jc jc jc vb Ff %g &f <d }c zc zc zc zc zc zc zc zc zc zc zc zc zc zc zc zc zc zc Ub &g *g =g &d 4d jc jc jc jc jc jc jc jc jc jc jc jc jc jc jc jc jc jc jc jc jc jc -g _e mf ;g Be <d yc }c }c }c }c Fd zc zc zc zc zc zc zc zc zc zc zc zc ]e ]e [e >g ub 6d 3d jc jc jc jc jc jc jc uc -g jc jc jc jc jc jc jc jc jc jc jc jc jc ,g uc 'g )g Xc Ac Db ]e zc zc zc zc zc zc zc zc zc zc zc zc zc ]e !g ~g Wd 1e Ge {g pc 6d &d 4d jc jc jc jc jc jc jc jc jc jc jc jc jc jc jc jc jc jc jc Cd da ]g ^g Hf }c ]e zc zc zc zc zc zc zc zc zc zc zc zc zc zc zc zc zc ]e Mc /g Yc )f -g jc jc jc jc jc jc jc jc jc jc jc jc jc jc jc jc jc jc jc jc 4d 6d (g _g pf yc Db zc zc zc zc zc zc zc zc zc zc zc zc zc }c Uc Qc :g <g s1 C3 C3 C3 o+ F@ h] Le z_ m{ m{ m{ m{ m{ m{ m{ m{ m{ m{ m{ m{ m{ m{ m{ @% c) /7 E~ E~ E~ E~ E~ Z. 0) }f 6e [g -; ;> ;> T- U= w& Y$ F$ <$ <$ <$ <$ <$ <$ <$ <$ <$ <$ <$ <$ <$ <$ <$ S# (# E@ E@ !@ r+ ~+ -+ #+ 9. D  `. z  L< w_ 0: *< 9[ 0[ m[ m[ m0 n0 n0 n0 n0 n0 n0 n0 n0 n0 n0 n0 n0 n0 h7 o0 '7 $7 N5 N5 N5 N5 N5 N5 {5 }g [4 E4 k3 k3 k3 k3 d> =} =} $# 37 =# !4 !4 !4 !4 !4 !4 !4 !4 !4 !4 !4 ~4 02 02 02 02 02 02 ",
"02 02 02 02 02 02 02 02 02 r} 02 02 02 02 02 02 02 02 02 02 02 02 02 02 02 02 :1 w. w. w. w. w. w. V# 47 47 47 47 47 47 47 |g g9 g9 g9 g9 g9 zf j5 j5 j5 j5 j5 +g R! &< 8: *< 0: a: E~ z  A  `. F  9. n+ %+ U+ U+ D@ /# ~@ E@ (# S# <$ <$ <$ <$ <$ <$ <$ <$ <$ <$ <$ <$ I$ |% @g `- e; P- P- P- Af o= o%  & 1g X@ E~ E~ E~ E~ E~ E~ ]! F~ 2g #5 m{ m{ m{ m{ m{ m{ m{ m{ m{ m{ m{ m{ z_ m{ -( !@ n+ dc ec fc pd qd jc 3d jc jc jc jc jc 3d rd Rb 3g |b {e }c ]e zc zc zc zc zc zc zc zc zc zc zc zc zc zc zc zc zc Fd }b 4g ;d =g af 4d jc jc jc jc jc jc jc jc jc jc jc jc jc jc jc jc jc jc jc jc jc jc uc 2b Ff 5g Bc <d zc zc zc zc zc zc zc zc zc zc zc zc zc zc zc zc zc zc zc 6g 7g 8g ~a Hb jc jc jc jc jc jc jc uc 6d ;f oe 9g Cd uc jc jc jc jc jc jc jc jc jc 4d 0g sc Tf ag Ac Db ]e zc zc zc zc zc zc zc zc zc zc zc zc ]e <d 1e Wd Qc ie if bg pe 6d &d 3d jc jc jc jc jc jc jc jc jc jc jc jc jc jc jc jc jc jc jc 6d 'g cg {g dg <d zc zc zc zc zc zc zc zc zc zc zc zc zc zc zc zc zc zc zc Gd eg fg gg jc 4d jc jc jc jc jc jc jc jc jc jc jc jc jc jc jc jc jc jc +e jc _e %f hg pf ]e <d zc zc zc zc zc zc zc zc zc zc zc zc zc zc zc Db Sc ig <g s1 C3 C3 C3 o+ F@ h] Le z_ m{ m{ m{ m{ m{ m{ m{ m{ m{ m{ m{ m{ m{ m{ m{ 9% c) /7 E~ E~ E~ E~ E~ k+ c$ X( 6e [g -; P- P- V- K= w& @% F$ <$ <$ <$ <$ <$ <$ <$ <$ <$ <$ <$ <$ <$ <$ <$ S# (# E@ E@ !@ r+ ~+ -+ #+ 9. D  `. z  L< w_ 0: *< 9[ 0[ m[ m[ m0 n0 n0 n0 n0 n0 n0 n0 n0 n0 n0 n0 n0 n0 09 h7 l} u7 N5 N5 N5 N5 N5 i6 {5 jg [4 [4 k3 k3 k3 k3 =} =} =} kg e[ e[ T7 !4 !4 !4 !4 !4 !4 !4 !4 !4 =# 02 02 02 02 02 02 02 ",
"02 02 02 02 02 02 02 02 02 02 02 02 02 02 02 02 02 02 02 02 02 02 02 02 02 02 w. w. w. w. w. w. w. c5 47 47 47 47 47 47 47 2f g9 g9 g9 g9 g9 lg j5 j5 j5 j5 j5 %& R! &< 8: *< 0: a: E~ z  A  `. F  9. n+ %+ U+ U+ D@ /# ~@ E@ (# S# <$ <$ <$ <$ <$ <$ <$ <$ <$ <$ <$ <$ ;% |% ]* mg e; P- P- y; <- o= p%  & ng t4 E~ E~ E~ E~ E~ E~ ]! F~ 5f $% m{ m{ m{ m{ m{ m{ m{ m{ m{ m{ m{ m{ z_ m{ -( !@ n+ dc ec fc og qd jc 3d jc jc jc jc 4d jc )f pg qg Ub yc }c zc zc zc zc zc zc zc zc zc zc zc zc zc zc zc zc zc }c =f rg 3g ;c &d 4d jc jc jc jc jc jc jc jc jc jc jc jc jc jc jc jc jc jc jc jc jc jc uc ~c sg |b if ]e }c zc zc zc zc zc zc zc zc zc zc zc zc zc zc zc zc zc ]e Mc tg ug (g vg jc jc jc jc jc jc jc 3d Hb wg :e xg yg Kd Cd uc jc jc jc jc jc jc 3d 3d >f zg >g .f }c }e ]e zc zc zc zc zc zc zc zc zc zc zc ^d <d @d :b Vd Nc rb Ag Bg qf =d &d 3d jc jc jc jc jc jc jc jc jc jc jc jc jc jc jc jc jc jc jc 6d de Cg Dg Wc }c zc zc zc zc zc zc zc zc zc zc zc zc zc zc zc zc zc zc }c =f Eg pg Fg uc 3d jc jc jc jc jc jc jc jc jc jc jc jc jc jc jc jc jc jc 4d &d Ib hf Df ]f }c <d zc zc zc zc zc zc zc zc zc zc zc zc zc zc zc zc }c !g Gg dd 9. C3 C3 C3 o+ F@ h] Le z_ m{ m{ m{ m{ m{ m{ m{ m{ m{ m{ m{ m{ m{ m{ m{ 9% c) /7 E~ E~ E~ E~ E~ l+ p$ Hg 6e xf ;> P- P- V- K= 1& &% F$ <$ <$ <$ <$ <$ <$ <$ <$ <$ <$ <$ <$ <$ <$ <$ S# (# E@ E@ !@ r+ ~+ -+ #+ 9. D  `. z  L< w_ 0: *< 9[ 0[ m[ m[ m0 n0 n0 n0 n0 n0 n0 n0 n0 n0 n0 n0 n0 n0 n0 h7 G+ O7 N5 N5 N5 N5 N5 *6 {5 Ig [4 [4 Jg k3 k3 8e =} =} S< e[ e[ e[ e[ ;4 !4 !4 !4 !4 !4 !4 !4 !4 >' 02 02 02 02 02 02 02 ",
"02 02 02 02 02 02 02 02 02 02 02 02 02 02 02 02 02 02 02 02 02 02 02 02 02 02 w. w. w. w. w. w. w. -6 47 47 47 47 47 47 e/ Kg g9 g9 g9 g9 g9 Lg j5 j5 j5 j5 j5 Mg m[ &< 8: *< 0: a: E~ z  A  `. F  9. n+ %+ U+ U+ D@ /# ~@ E@ (# S# <$ <$ <$ <$ <$ <$ <$ <$ <$ <$ <$ D$ Y$ |% W& mg e; y; y; y; <- n= p%  & Ng ;8 E~ E~ E~ E~ E~ E~ ]! F~ 5f $% m{ m{ m{ m{ m{ m{ m{ m{ m{ m{ m{ m{ z_ m{ -( !@ n+ dc ec Og og Pg +e 5d 3d jc 3d &d jc gg Yc 9f Qg <d ]e zc zc zc zc zc zc zc zc zc zc zc zc zc zc zc zc zc ^d =f `d 3g vb Rg &d jc 3d 3d 3d 3d 3d 3d 3d 3d 3d 3d 3d 3d 3d 3d 3d 3d 3d 3d 3d 3d 3d uc )c Dd qg Qg <d ]e zc zc zc zc zc zc zc zc zc zc zc zc zc zc zc zc zc ]e zc Sg Tg Ug Dc 3d 3d 3d 3d 3d 3d 3d 3d 5d Uf Vg %f Wg Xg Jd uc jc 3d 3d 3d 3d +e 3d 5d Hb pe Yg Zg }c <d zc zc zc zc zc zc zc zc zc zc zc zc }c Db Uc je Oc #c Vd `g  h ub 3d ud 3d jc 3d 3d 3d 3d 3d 3d 3d 3d 3d 3d 3d 3d 3d 3d 3d 3d 3d ,g ~b Uf ug .h +h Ab zc zc zc zc zc zc zc zc zc zc zc zc zc zc zc zc zc zc <d #d @h #h $h 3d %h 3d 3d 3d 3d 3d 3d 3d 3d 3d 3d 3d 3d 3d 3d 3d 3d 3d jc 3d 3d &h qc *h #f yc }c zc zc zc zc zc zc zc zc zc zc zc zc zc zc zc zc zc zc +h =h -h s1 ;h C3 C3 o+ F@ h] Le z_ m{ m{ m{ m{ m{ m{ m{ m{ m{ m{ m{ m{ m{ m{ m{ 9% c) /7 E~ E~ E~ E~ E~ 5c p$ Hg 8= xf ;> y; P- V- K= Z& <% G$ <$ <$ <$ <$ <$ <$ <$ <$ <$ <$ <$ <$ <$ <$ <$ S# (# E@ E@ !@ r+ ~+ -+ #+ 9. D  `. z  L< w_ 0: *< 9[ 0[ m[ m[ m0 n0 n0 n0 n0 n0 n0 n0 n0 n0 n0 n0 n0 n0 n0 09 h7 l} N5 N5 N5 N5 w5 {5 {5 m3 [4 [4 <4 17 k3 Z: =} =} ;4 e[ e[ e[ e[ e[ !4 !4 !4 !4 !4 !4 !4 !4 02 02 02 02 02 02 02 02 ",
"02 02 02 02 02 02 02 02 02 02 02 02 02 02 02 02 02 02 02 02 02 02 02 02 02 02 e9 w. w. w. w. w. V# 47 47 47 47 47 47 e/ >h ,h g9 g9 g9 g9 g9 'h j5 j5 j5 j5 j5 )h m[ &< 8: *< 0: a: E~ z  A  `. F  9. n+ %+ U+ U+ D@ /# ~@ E@ (# S# <$ <$ <$ <$ <$ <$ <$ <$ <$ <$ <$ F$ +% |% @g mg e; y; y; y; o- U* q% 2% Ng Pa E~ E~ E~ E~ E~ E~ ]! F~ 5f $% m{ m{ m{ m{ m{ m{ m{ m{ m{ m{ m{ m{ z_ m{ -( !@ n+ dc ec Og og !h 3d 5d 3d 3d ~h jc Ug =e $d %e <d ^d zc zc zc zc zc zc zc zc zc zc zc zc zc zc zc zc zc ]e {h {g ]b ]h ^h &d 3d 3d 3d 3d 3d 3d 3d 3d 3d 3d 3d 3d 3d 3d 3d 3d 3d 3d 3d 3d 3d 3d uc Fg Dd /h Gd <d zc zc zc zc zc zc zc zc zc zc zc zc zc zc zc zc zc zc Ie Ac .f (h `c uc 3d 3d 3d 3d 3d 3d 3d 3d _h ~b :h <h [h }h |h ud jc 3d 3d 3d 3d 3d &d &d vg Ff ^f 1h Ab Ab zc zc zc zc zc zc zc zc zc zc zc }c +d xc Ke 2h Oc #c +f 3h 4h ub jc ud 3d 3d 3d 3d 3d 3d 3d 3d 3d 3d 3d 3d 3d 3d 3d 3d 3d 3d 3d 3d 0g de fg Ve ^d ]e zc zc zc zc zc zc zc zc zc zc zc zc zc zc zc zc zc zc <d 5h 6h 7h $h %h %h 3d 3d 3d 3d 3d 3d 3d 3d 3d 3d 3d 3d 3d 3d 3d 3d 3d 3d 5d 3d 8h 1b 9h jf }c }c zc zc zc zc zc zc zc zc zc zc zc zc zc zc zc zc zc zc ad 0h ah bh M7 ch C3 C3 o+ F@ h] Le z_ m{ m{ m{ m{ m{ m{ m{ m{ m{ m{ m{ m{ m{ m{ m{ $% c) /7 E~ E~ E~ E~ E~ 5c k' dh 8= eh P- y; y; i; K= 3& |% ;% <$ <$ <$ <$ <$ <$ <$ <$ <$ <$ <$ <$ <$ <$ <$ S# (# E@ E@ !@ r+ ~+ -+ #+ 9. D  `. z  L< w_ 0: *< 9[ 0[ m[ m[ m0 n0 n0 n0 n0 n0 n0 n0 fh n0 n0 n0 n0 n0 n0 n0 b9 o0 N5 N5 N5 N5 *6 {5 gh [4 [4 [4 [4 l@ k3 hh =} =} 33 e[ e[ e[ e[ e[ -. !4 !4 !4 !4 !4 !4  g 02 02 02 02 02 02 02 02 ",
"02 02 02 02 02 02 02 02 02 02 02 02 02 02 02 02 02 02 02 02 02 02 02 02 02 02 :1 w. w. w. w. w. -6 47 47 47 47 47 e/ >h ih >h g9 g9 g9 g9 g9 g9 j5 j5 j5 j5 j5 jh m[ &< 8: *< 0: a: E~ z  A  `. F  9. n+ %+ U+ U+ D@ /# ~@ E@ (# S# <$ <$ <$ <$ <$ <$ <$ <$ <$ <$ <$ F$ $% k% kh lh ;; =; =; =; o- mh r% 2% Ng nh R{ E~ E~ E~ E~ E~ ]! F~ 5f $% m{ m{ m{ m{ m{ m{ m{ m{ m{ m{ m{ m{ z_ m{ -( !@ n+ dc ec Og og !h 3d 5d 5d &d +e Ug Tf oh zc Ab zc zc zc zc zc zc zc zc zc zc zc zc zc zc zc zc zc zc }c ph /h qh vg Ad &d 3d 3d 3d 3d 3d 3d 3d 3d 3d 3d 3d 3d 3d 3d 3d 3d 3d 3d 3d 3d 3d 3d Cd S0 rh Xc Gd }c zc zc zc zc zc zc zc zc zc zc zc zc zc zc zc zc zc zc }c sh th fg wg uh 3d 3d 3d 3d 3d 3d 3d 3d 5d ^h 2b vh wh xh yh yd 3d 3d 3d 3d 3d 3d 3d &d >f )a Cc &f <d }c zc zc zc zc zc zc zc zc zc zc zc }c vf _b Ud Oc Pc zh Oc Ah ~d Bh ~h ud 3d 3d 3d 3d 3d 3d 3d 3d 3d 3d 3d 3d 3d 3d 3d 3d 3d 3d 3d 3d 6b @e Ch be Ac ]e zc zc zc zc zc zc zc zc zc zc zc zc zc zc zc zc zc zc }c Gd Ae lf 8b Dh 3d 3d 3d 3d 3d 3d 3d 3d 3d 3d 3d 3d 3d 3d 3d 3d 3d 3d 3d 5d 5d ;c Eh 4g {f yc ]e zc zc zc zc zc zc zc zc zc zc zc zc zc zc zc zc zc }c of eg Fh Gh Hh t4 Ih C3 C3 o+ F@ h] Le z_ m{ m{ m{ m{ m{ m{ m{ m{ m{ m{ m{ m{ m{ m{ m{ $% c) /7 E~ E~ E~ E~ _) X@ Jh dh 8= eh P- y; y; V- K= 3& l% ;% <$ <$ <$ <$ <$ <$ <$ <$ <$ <$ <$ <$ <$ <$ <$ S# (# E@ E@ !@ r+ ~+ -+ #+ 9. D  `. z  L< w_ 0: *< 9[ 0[ m[ m[ m0 n0 n0 n0 n0 n0 n0 fh s$ s$ n0 n0 n0 n0 n0 n0 Re h7 #2 N5 N5 i6 {5 {5 Kh F3 [4 [4 [4 [4 Ta yf =} =} e[ e[ e[ e[ e[ e[ kg !4 !4 !4 !4 !4 !4 -. 02 02 02 02 02 02 02 02 ",
"02 02 02 02 02 02 02 02 02 02 02 02 02 02 02 02 02 02 02 02 02 02 02 02 02 02 :1 w. w. w. w. .g 47 47 47 47 Lh Mh >h ih ih ih Kg g9 g9 g9 g9 g9 y7 j5 j5 j5 j5 Nh m[ &< 8: *< 0: a: E~ z  A  `. F  9. n+ %+ U+ U+ D@ /# ~@ E@ (# S# <$ <$ <$ <$ <$ <$ <$ <$ <$ <$ <$ D$ %% 1% kh Oh ;; =; *; *; o- mh s% 4% Ph nh <{ E~ E~ E~ E~ E~ ]! F~ 5f $% m{ m{ m{ m{ m{ m{ m{ m{ m{ m{ m{ m{ z_ m{ -( !@ n+ dc ec Og og !h 3d ~h 5d De wg Qh .d Ac }c ]e zc zc zc zc zc zc zc zc zc zc zc zc zc zc zc zc ]e zc Hf `d Rh ]h Sh &d 3d 3d 3d 3d 3d 3d 3d 3d 3d 3d 3d 3d 3d 3d 3d 3d 3d 3d 3d 3d 3d 3d ~b ]c Cg zb ]e <d zc zc zc zc zc zc zc zc zc zc zc zc zc zc zc zc zc zc ]e Mc .d Th gg uc 3d 3d 3d 3d 3d 3d 3d 3d 3d &d &d wg Uh Vh Wh Xh Ad 3d 3d 3d 3d 3d 3d ,g Ib Yh Df if ]e ]e zc zc zc zc zc zc zc zc zc zc zc Ab @d Wd Zh Oc Oc zh Qc `h *h  i +e Ad 3d 3d 3d 3d 3d 3d 3d 3d 3d 3d 3d 3d 3d 3d 3d 3d 3d 3d 3d jc &h .i +i @i <d zc zc zc zc zc zc zc zc zc zc zc zc zc zc zc zc zc zc zc }c =f `d 7h 'c #i 3d 3d 3d 3d 3d 3d 3d 3d 3d 3d 3d 3d =d 0g uc &d &d 3d 3d 5d tc 8h $i `d %i <d zc zc zc zc zc zc zc zc zc zc zc zc zc zc zc zc zc zc }c Mc Xf %d wg &i *i T+ Ih C3 C3 o+ F@ h] Le z_ m{ m{ m{ m{ m{ m{ m{ m{ m{ m{ m{ m{ m{ m{ m{ $% c) /7 E~ E~ E~ E~ _) i9 z7 W. =i eh y; =; y; V- -i 3& 2% Y$ <$ <$ <$ <$ <$ <$ <$ <$ <$ <$ <$ <$ <$ <$ <$ S# (# E@ E@ !@ r+ ~+ -+ #+ 9. D  `. z  L< w_ 0: *< 9[ 0[ m[ m[ m0 n0 n0 n0 n0 fh s$ s$ s$ s$ s$ a% n0 n0 n0 n0 n0 Ra h7 ;i N5 i6 {5 {5 >i M| [4 [4 [4 [4 <4 w. =} =} >' e[ e[ e[ e[ e[ e[ !4 !4 !4 !4 !4 !4 -. 02 02 02 02 02 02 02 02 ",
"02 02 02 02 02 02 02 02 02 02 02 02 02 02 02 02 02 02 02 02 02 02 02 02 02 02 =# w. w. w. V# 47 47 47 ,i 'i )i !i ih ih ih ih ') g9 g9 g9 g9 g9 ~i j5 j5 j5 j5 {i m[ &< 8: *< 0: a: E~ z  A  `. F  9. n+ %+ U+ U+ D@ /# ~@ E@ (# S# <$ <$ <$ <$ <$ <$ <$ <$ <$ <$ <$ G$ $) 2% B& Oh -; *; *; *; o- mh s% 4% ]i k' Z. E~ E~ E~ E~ E~ ]! F~ 5f $% m{ m{ m{ m{ m{ m{ m{ m{ m{ m{ m{ m{ z_ m{ -( !@ n+ dc ec Og og !h Pf ~h 6b ^i /i (i le }c zc zc zc zc zc zc zc zc zc zc zc zc zc zc zc zc zc }c Ie if _i ]b ;c 5d 5d 3d 3d 3d 3d 3d 3d 3d 3d 3d 3d 3d 3d 3d 3d 3d 3d 3d 3d 3d 3d 3d jc Hb :i <i zb Qg }c zc zc zc zc zc zc zc zc zc zc zc zc zc zc zc zc zc zc zc [i zb fg }i De 3d 3d 3d 3d 3d 3d 3d 3d 3d 3d &d >f 1d |i Ld 1i 2i ^h 3d 3d 3d 3d &d 3d 3i .b 4i Hf }c ]e zc zc zc zc zc zc zc zc zc zc zc <d 1e Wd Zh Oc Oc #c Vd 5i 6i 6f ~b &d 3d 3d 3d 3d 3d 3d 3d 3d 3d 3d 3d 3d 3d 3d 3d 3d 3d 3d 3d tc >c  b 7i [e ]e ]e zc zc zc zc zc zc zc zc zc zc zc zc zc zc zc zc zc zc }c }b 4i 3g Qf jc 3d 3d 3d 3d 3d 3d 3d 3d 3d 3d 3d 3d 3d 8i wg ;f Qb 9i ud &d tc gg 0i ai ph }c zc zc zc zc zc zc zc zc zc zc zc zc zc zc zc zc zc zc ]e uf bi ci -e tc di ei T+ Ih C3 C3 o+ F@ h] Le z_ m{ m{ m{ m{ m{ m{ m{ m{ m{ m{ m{ m{ m{ m{ m{ $% c) /7 E~ E~ E~ E~ _) i9 z7 W. 8= eh y; =; y; W- -i 5& 2% Z$ E$ <$ <$ <$ <$ <$ <$ <$ <$ <$ <$ <$ <$ <$ <$ S# (# E@ E@ !@ r+ ~+ -+ #+ 9. D  `. z  L< w_ 0: *< 9[ 0[ m[ m[ m0 n0 n0 a% s$ s$ s$ s$ s$ s$ s$ s$ s$ fh n0 n0 n0 n0 b9 h7 fi i6 {5 {5 gi hi [4 [4 [4 [4 [4 l# =} =} -. e[ e[ e[ e[ e[ e[ -. !4 !4 T4 !4 !4 ii 02 02 02 02 02 02 02 02 ",
"02 02 02 02 02 02 02 02 02 02 02 02 02 02 02 02 02 02 02 02 02 02 02 02 02 ~4 w. w. w. r3 47 47  @ ji )i )i )i ki ih ih ih li mi mi mi mi ni g9 oi pi j5 j5 j5 ,i m[ &< 8: *< 0: a: E~ z  A  `. F  9. n+ %+ U+ U+ D@ /# ~@ E@ (# S# <$ <$ <$ <$ <$ <$ <$ <$ <$ <$ <$ H$ <% 2% B& Oh -; *; *; *; :- mh t% 5% ]i Jh q2 E~ E~ E~ E~ E~ ]! F~ 5f $% m{ m{ m{ m{ m{ m{ m{ m{ m{ m{ m{ m{ z_ m{ -( !@ n+ dc ec Og og qi &d Dc  b Df Be zc zc zc zc zc zc zc zc zc zc zc zc zc zc zc zc zc zc zc }c }c Bc Ce ^i ~b &d 5d 3d 3d 3d 3d 3d 3d 3d 3d 3d 3d 3d 3d 3d 3d 3d 3d 3d 3d 3d 3d 3d 3d ri ^i si ti le ]e zc zc zc zc zc zc zc zc zc zc zc zc zc zc zc zc zc zc zc ph ui Ef 0f uc 3d 3d 3d 3d 3d 3d 3d 3d 3d 3d &d td )f ug vi wi xi yi *d 3d 3d 3d 5d *d 3i zi Ai {f ^d zc zc zc zc zc zc zc zc zc zc zc zc }c 1e Rc Oc Oc Oc #c Qc Bi Ci xb &d &d jc 3d 3d 3d 3d 3d 3d 3d 3d 3d 3d 3d 3d 3d 3d 3d 3d 3d 3d Di 2b vc 0d Ge zc zc zc zc zc zc zc zc zc zc zc zc zc zc zc zc zc zc zc zc Yd {h |b Ei >c jc 3d 3d 3d 3d 3d 3d 3d 3d 3d 3d 3d 5d 2d Hb Yh Fi Gi Hi Ii Ji =d Uf Ch Ki Li He zc zc zc zc zc zc zc zc zc zc zc zc zc zc zc zc zc zc }c %i Mi 0i 'c Ni 5d Oi ei M7 Ih C3 C3 o+ F@ h] Le z_ m{ m{ m{ m{ m{ m{ m{ m{ m{ m{ m{ m{ m{ m{ m{ #5 c) /7 E~ E~ E~ E~ _) b) Pi h+ 6e eh y; *; *; .; K= 5& 2% *% F$ <$ <$ <$ <$ <$ <$ <$ <$ <$ <$ <$ <$ <$ <$ S# (# E@ E@ !@ r+ ~+ -+ #+ 9. D  `. z  L< w_ 0: *< 9[ 0[ m[ m[ m0 n0 n0 s$ s$ s$ s$ s$ s$ s$ s$ s$ s$ s$ s$ n0 n0 n0 S{ h7 h7 fi {5 d9 Qi Ri [4 [4 [4 [4 [4  . =} =} S< e[ e[ e[ e[ e[ e[ 33 !4 !4 27 Si 46 37 02 02 02 02 02 02 02 02 ",
"02 02 02 02 02 02 02 02 02 02 02 02 02 02 02 02 02 02 02 02 02 02 02 02 :1 w. w. w. a7 %* B+ ji )i )i )i s. Ti >h ih Ui Vi mi mi mi mi Wi Xi g9 oi oi Yi j5 j5 Zi m[ &< 8: *< 0: a: E~ z  A  `. F  9. n+ %+ U+ U+ D@ /# ~@ E@ (# S# <$ <$ <$ <$ <$ <$ <$ <$ <$ <$ <$ ;% &) 2% B& `i -; *; *; *; :- mh u% 7% ]i Jh A7 E~ E~ E~ E~ E~ ]! F~ 5f $% m{ m{ m{ m{ m{ m{ m{ m{ m{ m{ m{ m{ z_ m{ -( !@ n+ dc ec Og gc  j Hb  b .j +j zc zc zc zc zc zc zc zc zc zc zc zc zc zc zc zc zc zc zc }c Ie [e 6i @j uc ^h 5d 3d 3d 3d 3d 3d 3d 3d 3d 3d 3d 3d 3d 3d 3d 3d 3d 3d 3d 3d 3d 3d 3d Hb ^i ^f #j Fd zc zc zc zc zc zc zc zc zc zc zc zc zc zc zc zc zc zc zc zc =f $j %j ;c tc 3d 3d 3d 3d 3d 3d 3d 3d 3d 3d 3d 2d Dc Gb 8g ab &j @a *j tc 3d 3d 5d Dh 'c ;d 9f :f }c zc zc zc zc zc zc zc zc zc zc ]e Ab yc 1e Wd Oc =j Oc #c Vd jf -j (g 5d ^h 3d 3d 3d 3d 3d 3d 3d ,g 3d 3d 3d 3d 3d 3d 3d 3d 3d 3d 3d tc 2b 3g /h #d }c zc zc zc zc zc zc zc zc zc zc zc zc zc zc zc zc zc zc zc zc jf ;j >j vb tc 3d 3d 3d 3d 3d 3d 3d ,g ,g 3d 3d tc =d ;c ,j +i 'j )j !j ~j 5d wg {j pf le <d zc zc zc zc zc zc zc zc zc zc zc zc zc zc zc zc zc zc Ie Wc Ae lf 2b &d ]j 3d Oi ei M7 Ih C3 C3 o+ F@ h] Le z_ m{ m{ m{ m{ m{ m{ m{ m{ m{ m{ m{ m{ m{ m{ m{ #5 c) /7 E~ E~ E~ E~ E~ t4 ^j i+ /j (j y; *; *; .; K= 5& 2% 9% F$ <$ <$ <$ <$ <$ <$ <$ <$ <$ <$ <$ <$ <$ <$ S# (# E@ E@ !@ r+ ~+ -+ #+ 9. D  `. z  L< w_ 0: *< 9[ 0[ m[ m[ m0 n0 n0 fh s$ s$ s$ s$ s$ s$ s$ s$ s$ s$ s$ fh n0 n0 n0 09 h7 h7 {5 gh Qi _j [4 [4 [4 [4 [4 =} =} =} =} e[ e[ e[ e[ e[ e[ e[ ;4 !4 !4 Si ji p} 02 02 02 02 02 02 02 02 ",
"02 02 02 02 02 02 02 02 02 02 02 02 02 02 02 02 02 02 02 02 02 02 >' =# w. w. w. V# :j s. )i )i )i )i <j *# w. [j }j |j mi mi mi 1j 2j 3j 4j g9 oi oi 5j j5 j5 Zi R! &< 8: *< 0: a: E~ z  A  `. F  9. n+ %+ U+ U+ D@ /# ~@ E@ (# S# <$ <$ <$ <$ <$ <$ <$ <$ <$ <$ <$ I$ <% 2% B& 6j -; *; &; &; :- mh u% 7% ]i z7 A7 E~ E~ E~ E~ E~ ]! F~ 5f $% m{ m{ m{ m{ m{ m{ m{ m{ m{ m{ m{ m{ z_ m{ -( !@ n+ dc ec fc 7j 8j  e 9j {h zc ]e zc zc zc zc zc zc zc zc zc zc zc zc zc zc zc zc zc }c zc Jf <e ub =d &d 3d 3d 3d 3d 2d 2d 3d 3d 3d 3d 3d 3d 3d 3d 3d 3d 3d 3d 3d 3d 3d 3d tc ;c  i 0j ]f Fd }c zc zc zc zc zc zc zc zc zc zc zc zc zc zc zc zc zc ]e Ac {d rg %j ,c tc 3d 3d 3d 3d 3d De ri ;c da 8b aj 0f bj cj *g dj ej fj gj hj tc 3d 5d ij jj kj Ve Mc }c zc zc zc zc zc zc zc zc zc }c yc gb Uc Sc Ud Nc Oc =j #c _b re lj mj #i ^h 3d tc uc nj Cd 6d 6d 6b vg 6b ~b Cd uc tc 3d %h 3d 3d 3d De Mf $f 4i =f }c zc zc zc zc zc zc zc zc zc zc zc zc zc zc zc zc zc zc zc Qg Sf oj pj vb jc 3d 3d 3d 3d 3d jc ~b Hb Ib 8i 3i qj gg rj sj tj uj vj wj 4d ~h Gb <e (i le }c zc zc zc zc zc zc zc zc zc zc zc zc zc zc zc zc zc ]e zc xj yj $i -c zj 5d ]j 3d Oi ei M7 Ih C3 C3 o+ F@ h] Le z_ m{ m{ m{ m{ m{ m{ m{ m{ m{ m{ m{ m{ m{ m{ m{ #5 c) /7 E~ E~ E~ E~ <{ t4 ^j i+ 6e Aj *; *; *; .; K= 6& 3% $% F$ <$ <$ <$ <$ <$ <$ <$ <$ <$ <$ <$ <$ <$ <$ S# (# E@ E@ !@ r+ ~+ $+ a@ ++ D  `. z  L< w_ 0: *< 9[ 0[ m[ m[ m0 n0 a% s$ s$ s$ s$ s$ s$ s$ s$ s$ s$ s$ s$ s$ n0 n0 n0 n0 b9 h7 {5 gh Qi Qi [4 [4 [4 [4 [4 =} =} =} =} l# e[ e[ e[ e[ e[ e[ e[ 37 !4 q. ji ji d> 02 02 02 02 02 02 02 ",
"02 02 02 02 02 02 02 02 02 02 02 02 02 02 02 02 02 02 02 02 02 -. w. w. w. w. Bj s. )i )i )i )i Cj =! w. w. w. Va mi mi |j 2j Dj -3 -3 Ej 4j g9 oi oi oi j5 j5 Zi R! &< 8: *< 0: a: E~ z  A  `. F  9. n+ %+ U+ U+ D@ /# ~@ E@ (# S# <$ <$ <$ <$ <$ <$ <$ <$ <$ <$ <$ X$ <% 2% B& 6j ;> &; z; z; :- mh u% Fj Me z7 Xa E~ E~ E~ E~ E~ ]! F~ Gj $% m{ m{ m{ m{ m{ m{ m{ m{ m{ m{ m{ m{ z_ m{ )* !@ n+ ~8 Na Hj Ij Jj Kj =f zc }c }c }c }c }c }c }c }c }c }c }c }c }c }c }c }c }c }c Ab le Lj Mj Nj tc zj Dh ~b ri ;c 'c 0f aj 3i ;c oe _e 6d uc 3d Pf Pf Pf Pf Pf Pf Pf Pf jc )f Nf qg &e zc }c }c }c }c }c }c }c }c }c }c }c }c }c }c }c }c }c }c }c ]e Be Oj ha Pj #i %h %h -g 6d vb 'c Qj Rj Sj ae Ch Tj <e si Yg Uj Vj Wj Xj Yj ]j 3d ^h Dc Zj hg `j le }c }c }c }c }c }c }c }c }c }c Db Je Sc Vd Oc Oc Nc Td #c  k _b oh ae Ug Cd uc ~b Hb vb >c Rb .k kc +k @k #k @k kc )c .e 7b 6b 4b rd +e 4b wg Qh /g uf ]e }c }c }c }c }c }c }c }c }c }c }c }c }c }c }c }c }c }c }c *f pf Fh Nj 6d 3d 4d 3d uc 6d Ib 2b $k %k &k sj *k =k -k ;k >k bg Gf ,k 'k )k !k qh |b {d zc }c }c }c }c }c }c }c }c }c }c }c }c }c }c }c }c }c }c }c <d #f 0d ~k R0 ^h &d ~h zd Pf {k ei T+ Ih C3 C3 o+ (# h] Le z_ m{ m{ m{ m{ m{ m{ m{ m{ m{ m{ m{ m{ m{ m{ m{ #5 c) /7 E~ E~ E~ E~ <{ t4 ]k k+ 6e (j *; &; &; .; K= 6& m% :% G$ <$ <$ <$ <$ <$ <$ <$ <$ <$ <$ <$ <$ <$ <$ S# (# E@ E@ !@ r+ =+ ^k L. e+ `. `. z  L< w_ 0: *< 9[ 0[ m[ m[ /k s$ s$ s$ s$ s$ s$ s$ s$ s$ s$ s$ s$ s$ s$ s$ fh n0 n0 n0 n0 (k {5 d9 _k :k [4 [4 [4 [4 [4 27 =} =} =} q. 33 e[ e[ e[ e[ e[ e[ 33 !4 !4 <k ji ]^ 02 02 02 02 02 02 02 ",
"02 02 02 02 02 02 02 02 02 02 02 02 02 02 02 02 02 02 02 T7 w. w. w. w. ;' &* )i )i )i [k _+ ;' w. w. w. w. w. w. mi }k |k -3 -3 -3 -3 1k 4j 2k oi oi oi 3k j5 ,i [) &< 8: *< 0: a: E~ z  A  `. F  9. n+ %+ U+ U+ D@ /# ~@ E@ (# S# <$ <$ <$ <$ <$ <$ <$ <$ <$ <$ D$ Y$ <% 7% r* 6j ;> z; z; z; :- U* v% `% Me z7 Xa E~ E~ E~ E~ E~ ]! F~ Gj $% m{ m{ m{ m{ m{ m{ m{ m{ m{ m{ m{ m{ z_ b/ )* !@ n+ 4k 59 5k 6k 7k {h 8k ph 8f 8f 8f 8f 8f 8f 8f 8f 8f 8f 8f 8f 8f 8f 8f 8f 8f #d wc Ki 9k 0k 8d _e -c 'c (g :h vh ak tb >g bk ck Dd Sb .i Fg >c 7b dk dk dk dk dk dk dk ek Dd 4g &e uf ph =f 8f 8f 8f 8f 8f 8f 8f 8f 8f 8f 8f 8f 8f 8f 8f 8f 8f 8f {h /h ne fk gk 7b 7b hk 8b ~a  e Ue ik jk kk 'j 'k lk mk uj Yg mc ye nk jc ok 7b ok vb mf Kf pf ph uf =f 8f 8f 8f 8f 8f 8f =f #d [d yc 1e pk ke ke ke ke Uc :b Uc Eb fg @e Fc qk rk sk tk uk vk vk wk wk wk wk xk wk wk uk Hc tk sk /c T0 yk zk Qh $d Hf uf ph 8f 8f 8f 8f 8f 8f 8f 8f 8f 8f 8f 8f 8f 8f 8f 8f 8f 8f Ub Bc Oj Ak Rb oe 7b oe 3i Bk Ck Dk Ek >g ;k Fk Gk Hk 'j vj mk mk mk 0d Ik 'j Jk Kk kf Be uf ph =f 8f 8f 8f 8f 8f 8f 8f 8f 8f 8f 8f 8f 8f 8f 8f 8f 8f Gd ue Mi Dd )c Lk 7b 7b 7b Mk 7b Nk Ok Xa Ih C3 C3 Pk (# h] Le z_ m{ m{ m{ m{ m{ m{ m{ m{ m{ m{ m{ m{ m{ m{ m{ ': c) /7 E~ E~ E~ E~ Z. ;8 ]k Qk 6e Aj *; &; z; .; K= 6& 7% <% T! <$ <$ <$ <$ <$ <$ <$ <$ <$ <$ <$ <$ <$ <$ S# (# E@ E@ !@ r+ *+ Rk M. N. U. `. z  L< w_ 0: *< 9[ 0[ m[ m[ Sk s$ s$ s$ s$ s$ s$ s$ s$ s$ s$ s$ s$ s$ s$ s$ s$ n0 n0 n0 n0 :7 {5 {5 {5 {5 [4 [4 [4 [4 [4 S| h$ Tk =} =} g$ e[ e[ e[ e[ e[ e[ e[ ;4 !4 p} ji ji d> 02 02 02 02 02 02 ",
"~4 02 02 02 02 02 02 02 02 02 02 02 02 02 02 02 02 02 02 w. w. w. w. w. w. ;' =! ;' w. w. w. w. w. w. w. w. w. w. 1j -3 -3 -3 -3 -3 -3 -3 Uk Vk Wk oi oi Xk j5 Yk [) &< 8: *< 0: a: E~ z  A  `. F  9. n+ %+ U+ U+ D@ /# ~@ E@ (# S# <$ <$ <$ <$ <$ <$ <$ <$ <$ <$ E$ Z$ j% 7% r* Zk P- z; %; %; :- U* w% p% `k z7 t4 E~ E~ E~ E~ E~ ]! F~ Gj (% b/ b/ b/ b/ b/ b/ b/ b/ b/ b/ b/ b/ }_ b/ )* !@ n+ ;h 59  l .l +l @l @l @l @l @l @l @l @l @l @l @l @l @l @l @l @l @l @l @l @l Dg Dg Ed #l $l ae fg %l _g &l jk Lb *l 0d lk =l -l Bg hg ce {j ;l <i <i <i <i <i <i >l ,l 'l qe 4i tf @l @l @l @l @l @l @l @l @l @l @l @l @l @l @l @l @l @l @l @l @l )l *l Fb <i ,l ,l <i <i Ue !l #l ~l 0d 0d 0d 0d 0d 0d 0d lk 0j Ch vh vh ae fg <i ae {l 9k 0d kf 4g @l @l @l @l @l @l @l @l @l Dg Mi *e ]l *e *e *e *e *e *e *e ui Ed <e +b ^l /l Rd (l (l !l !l (l (l (l (l (l (l (l (l (l (l (l *b ak Ue ^l _l :l <l Dg @l @l @l @l @l @l @l @l @l @l @l @l @l @l @l @l @l @l @l @l @l [l ^e {j fg fg <i %l {j >g 8g @b ~l 0d 0d 0d 0d 0d 0d 0d lk 'k 'k 'k vj =l ^f Gf 9j 4g @l @l @l @l @l @l @l @l @l @l @l @l @l @l @l @l @l @l @l @l @l )l ;j +i {l }l <i <i |l 1l {l 2l bh J  4k C3 C3 Pk (# X! z_ z_ b/ b/ b/ b/ b/ b/ b/ b/ b/ b/ b/ b/ b/ b/ b/ (% c) /7 E~ E~ E~ E~ Z. ;8 ]k Qk 6e Aj *; z; z; j; K= 6& 7% |% I$ <$ <$ <$ <$ <$ <$ <$ <$ <$ <$ <$ <$ <$ <$ S# (# E@ E@ !@ r+ *+ Rk M. 0+ }. Y. z  L< w_ 0: *< 9[ 0[ m[ m[ Sk s$ s$ s$ s$ s$ s$ s$ s$ s$ s$ s$ s$ s$ s$ s$ s$ a% n0 n0 3l {5 {5 {5 {5 {5 [4 [4 [4 [4 [4 d4 4l 4l h$ r3 =} -. e[ e[ e[ e[ e[ e[ e[ -. T4 <k ji ]^ 02 02 02 02 02 02 ",
"w. w. ;4 02 02 02 02 02 02 02 02 02 02 02 02 02 02 02 T7 w. w. w. w. w. w. w. w. w. w. w. w. w. w. w. w. w. w. w. mi 5l 6l 6l 7l -3 -3 -3 8l Vk J+ oi oi 9l j5 0l [) &< 8: *< 0: a: E~ z  A  `. F  9. n+ %+ U+ U+ D@ /# ~@ E@ (# S# <$ <$ <$ <$ <$ <$ <$ <$ <$ <$ F$  % j% 7% r* 6j y; %; %; %; :- V* z% p% `k ]k ;8 E~ E~ E~ E~ E~ ]! F~ Gj (% b/ b/ b/ b/ b/ b/ b/ b/ b/ b/ b/ b/ }_ b/ )* !@ n+ ;h 59 al bl cl $b 0d 0d 0d 0d 0d 0d 0d 0d 0d 0d 0d 0d 0d 0d 0d 0d 0d 0d 0d 0d 0d #b %b %b dl 0d mk $b $b $b $b $b $b #b 0d el el el el 0d 0d 0d dl dl dl dl dl dl dl 0d mk mk 0d 0d 0d 0d 0d 0d 0d 0d 0d 0d 0d 0d 0d 0d 0d 0d 0d 0d 0d 0d 0d 0d 0d 0d el 0d dl dl dl 0d mk dl 0d #b #b $b $b $b $b $b $b 0d 'k =l 'k dl dl dl dl dl dl 0d #b 0d 0d 0d 0d 0d 0d 0d dl dl 0d 0d 0d $b uj uj uj uj uj uj uj uj uj ~e 0d 'k fl 'k 'k 'k 'k 'k 'k 'k 'k 'k 'k 'k 'k 'k 'k 'k 'k 'k 'k 'k 'k 'k 'k lk 0d 0d 0d 0d 0d 0d 0d 0d 0d 0d 0d 0d 0d 0d 0d 0d 0d 0d 0d 0d 0d 0d 0d 0d 0d *l *l vj vj lk gl mk mk mk mk mk mk mk mk mk mk mk mk 0d 0d 0d 0d 0d 0d 0d 0d 0d 0d 0d 0d 0d 0d 0d 0d 0d 0d 0d 0d 0d 0d 0d 0d 0d 0d 0d 0d 0d 0d 0d 0d 0d vj vj vj vj vj 'k fl vj hl il G  C3 C3 C3 Pk (# X! z_ }_ b/ b/ b/ b/ b/ b/ b/ b/ b/ b/ b/ b/ b/ b/ b/ (% jl /7 E~ E~ E~ kl q2 0) ll 5c 6e ml &; %; %; j; K= 7& 7% |% G$ <$ <$ <$ <$ <$ <$ <$ <$ <$ <$ <$ <$ <$ <$ S# (# E@ E@ !@ r+ R  3) 9+ 0+ j  U. z  L< w_ 0: *< 9[ 0[ m[ m[ Sk s$ s$ s$ s$ s$ s$ s$ s$ s$ s$ s$ s$ s$ s$ s$ s$ fh n0 n0 nl {5 {5 {5 {5 u7 [4 [4 [4 [4 [4 [4 ol 4l 4l 4l pl e[ e[ e[ e[ e[ e[ e[ e[ e[ 37 p} ji ji y* 02 02 02 02 02 ",
"w. w. w. =# 02 02 02 02 02 02 02 02 02 02 02 02 02 02 02 =# w. =# -. ~4 T7 ~4 =# w. w. w. w. w. w. w. w. w. w. w. mi mi mi mi |j ql -3 -3 8l Vk oi oi oi 9l j5 rl [) &< 8: *< 0: a: E~ z  A  `. F  9. n+ %+ U+ U+ D@ /# ~@ E@ (# S# <$ <$ <$ <$ <$ <$ <$ <$ <$ <$ F$ +% |% n% r* Zk y; %; %; %; :- m= z% p% `k ]k 0) E~ E~ E~ E~ E~ ]! F~ Gj (% b/ b/ b/ b/ b/ b/ b/ b/ b/ b/ b/ b/ }_ b/ )* !@ n+ ;h 59 sl tl ul vl wl wl wl wl wl wl wl wl wl wl wl wl wl wl wl wl wl wl wl wl wl xl xl xl xl vl vl vl vl xl xl xl xl xl xl xl xl xl xl xl xl xl xl xl xl wl wl wl yl zl Al Al Al Al Al Al Al yl wl Bl wl wl wl wl wl wl wl wl wl wl wl wl wl wl wl wl xl xl xl xl xl vl vl xl xl xl xl xl xl xl xl xl xl xl wl wl xl xl xl xl xl xl xl xl wl Bl yl Cl Cl Dl El El Al Al Al Al Al Al Al Al Al Al Al Al Al Al Al Al Al Al El El El El El El El El El El El El El El El El El El El El El El El El Al Al Al El El El El El El El El El El El El El El El El El El El El El Al Al Al El El Al Al Al Al Al Al Al Al Al Al Al Al Al Al Al El El El El Al Al Al El El El El El El El El El El El El El El El El El El El El El El El El El El El El El El Al Cl Al Fl Gl s4 C3 C3 C3 Pk (# X! z_ }_ b/ b/ b/ b/ b/ b/ b/ b/ b/ b/ b/ b/ b/ b/ b/ 8% c) /7 E~ E~ E~ E~ A7 p$ ll Hl 6e Il z; %; %; j; K= 7& 7% k% G$ &$ <$ <$ <$ <$ <$ <$ <$ <$ <$ <$ <$ <$ <$ S# (# E@ E@ !@ r+ R  Hl h  0+ j  5. x  L< w_ 0: *< 9[ 0[ m[ m[ Sk s$ s$ s$ s$ s$ s$ s$ s$ s$ s$ s$ s$ s$ s$ s$ s$ s$ n0 Re [7 {5 {5 {5 {5 Ig [4 [4 [4 [4 [4 d4 Jl 4l 4l 4l 4l Kl Ll e[ e[ e[ e[ e[ e[ e[ 33 T4 Ml ji Ml ~4 02 02 02 02 ",
"w. w. w. w. =# 02 02 02 02 02 02 02 02 02 02 02 02 02 02 02 02 02 02 02 02 02 ~4 w. w. w. w. w. w. w. w. w. w. w. Nl mi mi mi mi Ol -3 -3 Pl Vk oi oi oi 9l j5 Ql [) &< 8: *< 0: a: E~ z  A  `. F  9. n+ %+ U+ U+ D@ /# ~@ E@ (# S# <$ <$ <$ <$ <$ <$ <$ <$ <$ <$ F$ 9% |% n% r* Rl y; %; %; %; :- W* *' Sl R6 $g 0) E~ E~ E~ E~ E~ ]! F~ Gj (% b/ b/ b/ b/ b/ b/ b/ b/ b/ b/ b/ b/ }_ b/ )* !@ n+ C3 ;h e7 Tl Ul Vl Wl Xl Xl Xl Xl Xl Xl Xl Xl Xl Yl Yl Yl Yl Yl Yl Yl Xl Xl Xl Xl Xl Xl Xl Xl Xl Wl Wl Wl Zl Zl Zl Zl Zl Zl Zl `l `l  m  m  m .m .m +m +m +m .m .m +m @m @m @m @m @m #m $m $m +m  m %m %m Zl Wl Xl Xl Xl Xl Xl Xl Xl Xl Xl Xl Xl Xl Xl Xl Xl Xl Xl Xl Xl Xl Xl Xl Xl Xl Xl Xl Xl Xl Xl Xl Xl Xl Xl Xl Xl Xl Xl Xl Xl Wl Zl %m %m &m .m *m =m -m -m ;m ;m ;m ;m >m >m >m >m ,m 'm 'm 'm ,m ,m ,m ,m ,m ,m ,m ,m ,m ,m ,m ,m ,m ,m ,m ,m ,m ,m ,m ,m ,m ,m ,m ,m ,m ,m ,m ,m ,m ,m ,m ,m ,m ,m ,m ,m ,m ,m ,m ,m ,m ,m ,m ,m ,m ,m ,m ,m ,m ,m ,m ,m ,m ,m ,m ,m ,m ,m ,m ,m ,m ,m ,m ,m ,m ,m ,m ,m ,m ,m ,m ,m ,m ,m ,m ,m ,m ,m ,m ,m ,m ,m ,m ,m ,m ,m ,m ,m ,m ,m ,m ,m ,m ,m ,m ,m ,m ,m ,m ,m ,m ,m ,m ,m ,m ,m ,m ,m ,m ,m ,m ,m )m !m ~m {m ]m C3 C3 C3 Pk (# X! z_ }_ b/ b/ b/ b/ b/ b/ b/ b/ b/ b/ b/ b/ b/ b/ b/ 9% c) /7 E~ E~ E~ E~ X@ p$ ll Hl 8= Il z; %; %; j; <, x& o% 2% H$ &$ <$ <$ <$ <$ <$ <$ <$ <$ <$ <$ <$ <$ <$ S# (# E@ E@ !@ r+ ~+ a@ h  0+ j  j  t  L< w_ 0: *< 9[ 0[ m[ m[ Sk s$ s$ s$ s$ s$ s$ s$ s$ s$ s$ s$ s$ s$ s$ s$ s$ fh n0 nl {5 {5 {5 {5 {5 G1 [4 [4 [4 [4 ^m 4l 4l 4l 4l 4l 4l 4l 4l /m e[ e[ e[ e[ e[ e[ e[ =# q. ji ji y* 02 02 02 02 ",
"w. w. w. w. w. =# e9 =# w. =# 02 02 02 02 02 02 02 02 02 02 02 02 02 02 02 >' w. w. w. w. w. w. w. w. w. w. w. w. w. w. ,' (m mi mi _m -3 :m Vk oi oi oi <m j5 [m m[ &< 8: *< 0: a: E~ z  A  `. F  9. n+ %+ U+ U+ D@ /# ~@ E@ (# S# <$ <$ <$ <$ <$ <$ <$ <$ <$ <$ F$ 9% |% o% U& }m y; %; %; %; :- W* *' Sl R6 $g p$ <{ E~ E~ E~ E~ ]! F~ Gj (% b/ b/ b/ b/ b/ b/ b/ b/ b/ b/ b/ b/ }_ b/ )* !@ n+ C3 c/ U+ G$ j} }% }% }% |m |m }% |m |m <% ,) ,) ,) 1m 1m 1m `7 `7 `7 `7 `7 `7 @) %8 %8 @) @) %8 o' o' o' o' o'  8 g6 g6 g6 .8 2m .8 .8 3m +8 +8 +8 +8 +8 3m .8 g6 4m v4 =' O4 +) #) $) $) i% <% |% 1% 5m >| >| >| >| >| >| >| >| >| >| >| >| >| >| >| >| >| >| >| >| >| >| >| >| >| >| >| >| >| >| >| >| >| >| >| >| >| >| >| >| >| >| 6m 5m 1% k% j% <% ,) ,) `7 `7 @) O4 =' R6 n5 Z  Z  N4 /6 E5 E5 E5 E5 E5 E5 E5 E5 E5 E5 E5 E5 E5 E5 E5 E5 E5 E5 E5 E5 E5 E5 E5 E5 E5 E5 E5 E5 E5 E5 E5 E5 E5 E5 E5 E5 E5 E5 E5 E5 E5 E5 E5 E5 E5 E5 E5 E5 E5 E5 E5 E5 E5 E5 E5 E5 E5 E5 E5 E5 E5 E5 E5 E5 E5 E5 E5 E5 E5 E5 E5 E5 E5 E5 E5 E5 E5 E5 E5 E5 E5 E5 E5 E5 E5 E5 E5 E5 E5 E5 E5 E5 E5 E5 E5 E5 E5 E5 E5 E5 E5 E5 E5 E5 E5 E5 E5 E5 E5 E5 E5 E5 E5 E5 E5 E5 7m e7 s1 C3 C3 C3 Pk (# X! z_ }_ b/ b/ b/ b/ b/ b/ b/ b/ b/ b/ b/ b/ b/ b/ b/ 8% c) /7 E~ E~ E~ _) X@ nh 8m 9m 8= Il z; %; %; X- <, Y& p% m% X$ <$ <$ <$ <$ <$ <$ <$ <$ y# =$ y# <$ <$ <$ S# (# E@ E@ !@ r+ U+ Hl h  0+ j  m  n  |) w_ 0: *< 9[ 0[ m[ m[ Sk s$ s$ s$ s$ s$ s$ s$ s$ s$ s$ s$ s$ s$ s$ s$ s$ n0 Re [7 {5 {5 {5 {5 0m [4 [4 [4 [4 am bm cm 4l 4l 4l 4l 4l 4l 4l 4l dm e[ e[ e[ e[ e[ e[ ;4 !4 Cj ji em c5 a7 Te 02 ",
"w. w. w. w. w. w. w. w. w. w. T7 02 02 02 02 02 02 02 02 02 02 02 02 02 :1 w. w. w. w. w. w. w. w. w. w. w. w. w. w. w. w. w. =} mi mi fm gm Vk oi oi oi hm j5 *2 v| &< 8: *< 0: a: E~ z  A  `. F  9. n+ %+ U+ U+ D@ /# ~@ E@ (# S# <$ <$ <$ <$ <$ <$ <$ <$ <$ <$ F$ %% |% p% C& }m =; %; %; %; :- W* A% s% v4 8m k' Z. E~ E~ E~ E~ ]! F~ Gj (% b/ b/ b/ b/ b/ b/ b/ b/ b/ b/ b/ b/ }_ b/ )* !@ n+ C3 C3 U+ Y' Me $* ,7 ,7 R6 R6 R6 ,7 ,7 n5 n5 n5 @5 Z  Z  v6 N4 N4 +7 /6 /6 /6 /6 E5 E5 E5 /6 J6 /6 N4 `5 n5 R6 R6 v4 )> )> $* $* R6 ,7 ,7 ,7 n5 R6 R6 R6 =' O4 %% %% %% &% :%  : 5( J~ ({ ({  _  _ b/ b/ b/ b/ b/ b/ b/ b/ b/ b/ b/ b/ b/ b/ b/ b/ b/ b/ b/ b/ b/ b/ b/ b/ b/ b/ b/ b/ b/ b/ b/ b/ b/ b/ b/ b/ b/ b/ b/ b/ b/ b/ b/ b/ b/ b/ b/ m{  _  _ ({ ({ ({ ({ ({ 5(  : :% %% +) +) .) =' R6 ,7 @5 im jm km lm lm mm mm mm mm mm mm mm mm mm mm mm mm mm mm mm mm mm mm mm mm mm mm mm mm mm mm mm mm mm mm mm mm mm mm mm km lm lm lm lm lm lm lm lm lm lm lm lm km mm mm mm mm mm mm mm mm mm mm mm mm mm mm mm mm mm mm mm mm mm mm mm mm mm mm mm mm mm mm mm mm mm mm mm mm mm mm mm mm mm mm mm lm lm lm mm mm mm mm mm mm mm mm mm mm 25 25 25 15 h6 s1 C3 C3 C3 Pk (# X! z_ }_ b/ b/ b/ b/ b/ b/ b/ b/ b/ b/ b/ b/ b/ b/ b/ 9% c) /7 E~ E~ E~ _) Xa k' 8m X@ =i nm %; %; %; X- K= Y& p% 7% =% <$ <$ <$ <$ <$ <$ <$ y# 3! w; 3!  # <$ <$ S# +# v# E@ !@ ,@ T+ Rk M. 0+ j  m  om |) w_ 0: *< 9[ 0[ m[ m[ Sk s$ s$ s$ s$ s$ s$ s$ s$ s$ s$ s$ s$ s$ s$ s$ fh n0 nl {5 {5 {5 {5 {5 pm [4 [4 [4 qm rm sm w. tm um vm 4l 4l 4l 4l 4l 4l dm e[ e[ e[ e[ e[ wm !4 q. Ml Si ,% ,% ,% ,% ",
"w. w. w. w. w. w. w. w. w. w. -. 02 02 02 02 02 02 02 02 02 02 ~4 e9 w. w. w. w. w. w. w. w. w. w. w. w. w. w. w. w. w. w. w. w. xm mi mi gm Vk oi oi oi ym j5 k@ v| &< 8: *< 0: a: E~ z  A  `. F  9. n+ %+ U+ U+ D@ /# ~@ E@ (# S# <$ <$ <$ <$ <$ <$ <$ <$ <$ <$ F$ &% |% p% U& }m =; %; %; %; :- W* A% s% =' 8m k' Z. E~ E~ E~ E~ ]! F~ Gj (% b/ b/ b/ b/ b/ b/ b/ b/ b/ b/ b/ b/ }_ b/ )* !@ n+ C3 C3 R  zm jm J6 25 u6 E5 E5 E5 E5 E5 E5 E5 E5 E5 J6 J6 J6 25 25 25 25 25 25 25 25 25 E5 N4 Z  R6 .) &% #* `! O, O, L5 L5 L5 L5 L5 `! `! `! `! L5 L5 O, O,  _ i}  _  _  _  _ b/ b/ b/ b/ b/ b/ b/ b/ b/ b/ b/ b/ b/ b/ b/ b/ b/ b/ b/ b/ b/ b/ b/ b/ b/ b/ b/ b/ b/ b/ b/ b/ b/ b/ b/ b/ b/ b/ b/ b/ b/ b/ b/ b/ b/ b/ b/ b/ b/ b/ b/ b/ b/ b/ b/ b/ b/ b/ b/ b/ b/ b/ b/ b/  _  _  _ b/ i}  _ O, O, |m _% =' n5 35 N4 35 N4 /6 E5 E5 E5 J6 J6 25 25 25 25 25 J6 J6 J6 E5 E5 E5 E5 E5 /6 /6 ~: N4 N4 N4 35 35 35 35 35 N4 35 35 Am N4 N4 N4 35 Z  Z  Z  Z  35 35 N4 N4 Am 35 35 35 N4 ~: /6 E5 J6 25 25 25 25 25 25 E5 E5 /6 /6 +7 /6 E5 25 25 25 25 25 25 25 25 25 25 25 25 25 25 25 25 '5 25 E5 N4 35 35 Z  Z  35 N4 +7 E5 25 25 25 25 25 25 25 25 U6 25 15 h6 s1 C3 C3 C3 Pk (# X! z_ }_ b/ b/ b/ b/ b/ b/ b/ b/ b/ b/ b/ b/ b/ b/ b/ 9% c) /7 E~ E~ E~ E~ b) Jh 8m C@ =i nm %; %; %; X- K= Y& p% 7% Y$ <$ <$ <$ <$ <$ <$  # p$ [  [  [  w; K% /% c@ Y@ n. )+ u# b) Bm M. M. 0+ j  m  k  %! w_ 0: *< 9[ 0[ m[ m[ Sk s$ s$ s$ s$ s$ s$ s$ s$ s$ s$ s$ s$ s$ s$ s$ n0 Cm [7 {5 {5 {5 {5 {5 Dm [4 [4 Em rm rm rm sm w. !4 !4 Fm Gm 4l 4l 4l 4l 4l e[ e[ e[ e[ e[ -. !4 T4 Hm ji ,% ,% ,% ,% ",
"w. w. w. w. w. w. w. w. w. w. w. 02 02 02 02 02 02 02 02 ~4 w. w. w. w. w. w. w. w. w. w. w. w. w. w. w. w. w. w. w. w. w. w. w. Im mi mi gm Vk oi oi oi oi Jm k@ v| &< 8: *< 0: a: E~ z  A  `. F  9. n+ %+ U+ U+ D@ /# ~@ E@ (# S# <$ <$ <$ <$ <$ <$ <$ <$ <$ <$ G$ &% k% p% U& Km *; %; %; %; :- W* Y, Z% t7 Lm k' q2 E~ E~ E~ E~ ]! F~ Gj 8% b/ b/ b/ b/ b/ b/ b/ b/ b/ b/ b/ b/ }_ b/ )* /# n+ C3 C3 R  zm Mm 25 25 25 25 25 25 25 25 25 25 25 25 25 25 25 25 25 25 25 25 25 t6 25 +7 R6 &%  : O,  _  _ i} b/ b/ b/ b/ b/ b/ b/ b/ b/ b/ b/ b/ b/ b/ b/ b/ b/ b/ b/ b/ b/ b/ b/ b/ b/ b/ b/ b/ b/ b/ b/ b/ b/ b/ b/ b/ b/ b/ b/ b/ b/ b/ b/ b/ b/ b/ b/ b/ b/ b/ b/ b/ b/ b/ b/ b/ b/ b/ b/ b/ b/ b/ b/ b/ b/ b/ b/ b/ b/ b/ b/ b/ b/ b/ b/ b/ b/ b/ b/ b/ b/ b/ b/ b/ b/ b/ b/ b/ b/ b/ b/ b/ b/ b/ b/  _  _ O, |m $) +) .)  7 v4 R6 R6 $* $* n5 n5 n5 n5 $* $* $* R6 v4 v4 v4 v4 v4 v4  7 .) .) .) O4 O4 +) +) +) +) +) _% _% s7 s7 #* #* #*  :  :  :  : #* #* #* s7 _% +) +) +) .) .) v4 R6 $* $* n5 `5 `5 n5 n5 R6 v4 =' .) .) .) $* +7 25 25 25 25 25 25 25 25 25 25 25 25 t6 25 E5 35 n5 v4 .) +) &% #*  : #* &% O4 n5 E5 '5 '5 25 25 25 25 25 U6 25 15 h6 s1 C3 C3 C3 Pk (# X! z_ }_ b/ b/ b/ b/ b/ b/ b/ b/ b/ b/ b/ b/ b/ b/ b/ 9% c) /7 E~ E~ E~ E~ 7) Jh M5 b) =i nm %; %; %; X- K= X& p% 7% )* <$ <$ <$ <$ <$  # r& [  [  [  [  /$ [  B$ e$ e$ Nm Om H. 8  g  -@ M. 0+ j  m  n  %! w_ 0: *< 9[ 0[ m[ m[ Sk s$ s$ s$ s$ s$ s$ s$ s$ s$ s$ s$ s$ s$ s$ fh n0 Pm {5 {5 {5 {5 {5 {5 K@ [4 [4 Qm rm rm rm rm sm w. !4 !4 !4 Rm Sm 4l 4l 4l Tm e[ e[ e[ 33 !4 !4 T4 ,% Ml $# ,% ,% ,% ",
"w. w. w. w. w. w. w. w. w. w. w. -. 02 02 02 02 02 02 ~4 w. w. w. w. w. w. w. w. w. w. w. w. w. w. w. w. w. w. w. w. w. w. w. w. Um mi mi Vm Wm oi oi oi oi b4 k@ v| &< 8: *< 0: a: E~ z  A  `. F  9. n+ %+ U+ U+ D@ /# ~@ E@ (# S# <$ <$ <$ <$ <$ <$ <$ <$ <$ <$ ;% :% k% p% U& Xm *; %; A; A; :- W* M% Ym  8 Lm k' A7 E~ E~ E~ E~ ]! F~ 7) 9% b/ b/ b/ b/ b/ b/ b/ b/ b/ b/ b/ b/ >|  _ =% /# n+ C3 C3 R  zm Mm 25 25 25 25 25 25 25 25 25 25 t6 '5 '5 '5 '5 '5 '5 '5 '5 '5 '5 25 $8 %8 Zm  _ b/ b/ b/ b/ b/ b/ b/ b/ b/ b/ b/ b/ b/ b/ b/ b/ b/ b/ b/ b/ b/ b/ b/ b/ b/ b/ b/ b/ b/ b/ b/ b/ b/ b/ b/ b/ b/ b/ b/ b/ b/ b/ b/ b/ b/ b/ b/ b/ b/ b/ b/ b/ b/ b/ b/ b/ b/ b/ b/ b/ b/ b/ b/ b/ b/ b/ b/ b/ b/ b/ b/ b/ b/ b/ b/ b/ b/ b/ b/ b/ b/ b/ b/ b/ b/ b/ b/ b/ b/ b/ b/ b/ b/ b/ b/ b/ b/ b/ b/ b/ b/ b/ b/ b/ b/  _  _  _  _  _  _  _  _  _  _  _  _  _  _  _  _  _  _  _  _  _  _  _  _  _  _  _  _  _  _  _  _  _  _  _  _ i} i} i} b/ b/ b/ b/ b/ b/ b/ i} i}  _  _  _  _  _  _  _  _  _  _  _ L5 L5 L5 O,  _  _  _  _  _  _ `m v4 /6 25 25 25 25 25 25 25 25 t6 t6 E5 +7 Z  o' <% L5 O,  _  _  _ b/ b/ i}  _  _ <%  n &8 '5 '5 25 25 25 25 U6 25 15 h6 s1 C3 C3 C3 Pk (# X! z_ }_ b/ b/ b/ b/ b/ b/ b/ b/ b/ b/ b/ b/ b/ b/ i}  ) c) /7 E~ E~ E~ z} Gj Jh M5 b) 8= nm %; %; %; X- T= Y& q% n% +% F$ <$ <$ <$ y# p$ [  [  [  [  [  [  [  [  3  3  _. _. a  8  g  -@ M. 0+ j  m  q  w_ w_ 0: *< 9[ 0[ m[ m[ Sk s$ s$ s$ s$ s$ s$ s$ s$ s$ s$ s$ s$ s$ s$ a% .n +n {5 {5 {5 {5 {5 {5 [4 [4 [4 rm rm rm rm rm rm >( !4 !4 !4 !4 tm @n 4l 4l #n e[ e[ e[ kg !4 !4 !4 ,% $# <@ ,% ,% ,% ",
"l# w. w. w. w. w. w. w. w. w. w. w. =# T7 02 02 02 02 w. w. w. w. w. w. w. w. w. w. w. w. w. w. w. w. w. w. w. w. w. w. w. w. w. $n %n mi Vm &n oi oi oi oi *n k@ v| &< 8: *< 0: a: E~ z  A  `. F  9. n+ %+ U+ U+ D@ /# ~@ E@ (# S# <$ <$ <$ <$ <$ <$ <$ <$ <$ <$ ;% i% 2% p% U& Xm *; A; A; A; :- X* M% v% o' =n Jh Xa E~ E~ E~ E~ ]! F~ 7) 9% b/ b/ b/ b/ b/ b/ b/ b/ b/ b/ b/ b/ i} <% D- ,@ n+ C3 C3 R  zm Mm 25 25 25 25 25 E5 N4 v6 Z  Z  35 N4 ~: /6 /6 /6 /6 /6 /6 ~: N4 +8 `7 O, b/ b/ b/ b/ b/ b/ b/ b/ b/ b/ b/ b/ b/ b/ b/ b/ b/ b/ b/ b/ b/ b/ b/ b/ b/ b/ b/ b/ b/ b/ b/ b/ b/ b/ b/ b/ b/ b/ b/ b/ b/ b/ b/ b/ b/ b/ b/ b/ b/ b/ b/ b/ b/ b/ b/ b/ b/ b/ b/ b/ b/ b/ b/ b/ b/ b/ b/ b/ b/ b/ b/ b/ b/ b/ b/ b/ b/ b/ b/ b/ b/ b/ b/ b/ b/ b/ b/ b/ b/ b/ b/ b/ b/ b/ b/ b/ b/ b/ b/ b/ b/ b/ b/ b/ b/ b/ b/ b/ b/ b/ b/ b/ b/ b/ b/ b/ b/ b/ b/ b/ b/ b/ b/ b/ b/ b/ b/ b/ b/ b/ b/ b/ b/ b/ b/ b/ b/ b/ b/ b/ b/ b/ b/ b/ b/ b/ b/ b/ b/ b/ b/ b/ b/ b/ b/ b/ b/ b/ b/ b/ b/ b/ b/ b/ b/ b/ b/ b/ b/ b/ b/ b/ b/ b/ b/ b/ b/ s5 n5 J6 '5 25 25 25 25 25 25 E5 +7 2m @) [%  _ b/ b/ b/ b/ b/ b/ b/ b/ b/ b/ b/ m{ [%  8 Z7 25 '5 '5 '5 25 U6 25 15 h6 s1 C3 C3 C3 Pk (# X! z_ }_ b/ b/ b/ b/ b/ b/ b/ b/ b/ b/ b/ b/ b/ b/  _  ) c) /7 E~ E~ E~ L2 5f Jh Lm b) 8= Il %; %; A; X- T= Y& r% o% *% F$ <$ <$ %$ K% :  [  [  [  [  [  [  [  [  3  3  _. _. a  8  g  -@ M. 0+ j  m  t  L< w_ 0: *< 9[ 0[ m[ m[ Sk s$ s$ s$ s$ s$ s$ s$ s$ s$ s$ s$ s$ s$ s$ n0 -n +n {5 {5 {5 {5 {5 {5 [4 [4 :4 rm rm rm rm rm rm rm ;4 !4 !4 !4 !4 !4 ;n e[ e[ e[ e[ e[ 33 !4 !4 !4 ,% ,% ,% ,% ,% ,% ",
"=! ,' *# w. w. w. w. w. g$ S< w. w. w. w. =# :1 T7 ;4 w. w. w. w. w. w. w. w. w. w. w. w. w. w. w. w. w. w. w. w. w. w. w. w. w. >n z* mi Vm %5 oi oi oi oi k@ k@ v| &< 8: *< 0: a: E~ z  A  `. F  9. n+ %+ U+ U+ D@ /# ~@ E@ (# S# <$ <$ <$ <$ <$ <$ <$ <$ <$ <$ ;% i% 2% r% ^* Xm o> A; $; $; ,n 'n g, v% %8 =n z7 t4 E~ E~ E~ E~ ]! F~ 7) 9% b/ b/ b/ b/ b/ b/ b/ b/ b/ b/ b/ B( O, O4 L$ ,@ n+ C3 C3 R  zm Mm 25 25 '5 25 35 g6 i% [% [% [% [% [% i% i% :% :% :% :% i% [% [% }%  _ b/ b/ b/ b/ b/ b/ b/ b/ b/ b/ b/ b/ b/ b/ b/ b/ b/ b/ b/ b/ b/ b/ b/ b/ b/ b/ b/ b/ b/ b/ b/ b/ b/ b/ b/ b/ b/ b/ b/ b/ b/ b/ b/ b/ b/ b/ b/ b/ b/ b/ b/ b/ b/ b/ b/ b/ b/ b/ b/ b/ b/ b/ b/ b/ b/ b/ b/ b/ b/ b/ b/ b/ b/ b/ b/ b/ b/ b/ b/ b/ b/ b/ b/ b/ b/ b/ b/ b/ b/ b/ b/ b/ b/ b/ b/ b/ b/ b/ b/ b/ b/ b/ b/ b/ b/ b/ b/ b/ b/ b/ b/ b/ b/ b/ b/ b/ b/ b/ b/ b/ b/ b/ b/ b/ b/ b/ b/ b/ b/ b/ b/ b/ b/ b/ b/ b/ b/ b/ b/ b/ b/ b/ b/ b/ b/ b/ b/ b/ b/ b/ b/ b/ b/ b/ b/ b/ b/ b/ b/ b/ b/ b/ b/ b/ b/ b/ b/ b/ b/ b/ b/ b/ b/ b/ b/ b/ b/ B( b/ %% N4 25 '5 '5 '5 25 E5 35  8 i% L5  _ b/ b/ b/ b/ b/ b/ b/ b/ b/ b/ b/ b/ b/ b/ i} }% @) +8 /6 J6 25 25 Y7 25 15 h6 s1 C3 C3 C3 Pk (# X! z_ }_ b/ b/ b/ b/ b/ b/ b/ b/ b/ b/ b/ b/ b/ b/  _ J' Ne /7 E~ E~ E~ <{ 5f Jh =n Gj 8= nm %; A; A; X- T= y& s% p% $% F$ <$ <$ /% B$ /$ [  [  [  [  [  [  [  [  3  3  _. a  a  8  g  -@ M. 0+ j  1. w  L< w_ 0: *< 9[ 0[ m[ m[ Sk s$ s$ s$ s$ s$ s$ s$ s$ s$ s$ s$ s$ s$ s$ ^1 +n +n {5 {5 {5 {5 d9 )n [4 [4 Em rm rm rm rm rm rm rm rm =# !4 !4 !4 !4 !4 ;4 e[ e[ e[ e[ e[ !4 !4 !4 .g ,% ,% ,% ,% ,% ",
"=! =! =! =! !n S< !n =! =! =! w. w. w. w. w. w. w. w. w. w. w. w. w. w. w. w. w. w. w. w. w. w. w. w. w. w. w. w. w. w. w. w. w. ~n {n &n Vm ]n ^n oi oi oi k@ k@ v| &< 8: *< 0: a: E~ z  A  `. F  9. n+ %+ U+ U+ D@ /# ~@ E@ (# S# <$ <$ <$ <$ <$ <$ <$ <$ <$ x= /n <% 2% s% ^* (n *; $; $; $; ,n 'n h, w% %8 =n Pi 5f E~ E~ E~ E~ ]! F~ 7) 9% b/ b/ b/ b/ b/ b/ b/ b/ b/ b/ b/ b/ }% R6 _n ,@ n+ C3 C3 R  zm Mm 25 '5 +5 C6 `7 O, i} b/ b/ b/ b/ b/ b/ b/ b/ b/ b/ b/ b/ b/ b/ b/ b/ b/ b/ b/ b/ b/ b/ b/ b/ b/ b/ b/ b/ b/ b/ b/ b/ b/ b/ b/ b/ b/ b/ b/ b/ b/ b/ b/ b/ b/ b/ b/ b/ b/ b/ b/ b/ b/ b/ b/ b/ b/ b/ b/ b/ b/ b/ b/ b/ b/ b/ b/ b/ b/ b/ b/ b/ b/ b/ b/ b/ b/ b/ b/ b/ b/ b/ b/ b/ b/ b/ b/ b/ b/ b/ b/ b/ b/ b/ b/ b/ b/ b/ b/ b/ b/ b/ b/ b/ b/ b/ b/ b/ b/ b/ b/ b/ b/ b/ b/ b/ b/ b/ b/ b/ b/ b/ b/ b/ b/ b/ b/ b/ b/ b/ b/ b/ b/ b/ b/ b/ b/ b/ b/ b/ b/ b/ b/ b/ b/ b/ b/ b/ b/ b/ b/ b/ b/ b/ b/ b/ b/ b/ b/ b/ b/ b/ b/ b/ b/ b/ b/ b/ b/ b/ b/ b/ b/ b/ b/ b/ b/ b/ b/ b/ b/ b/ b/ b/ b/ b/ b/ b/ b/ b/ b/ b/ b/ b/ 6^ L5 .) ~: 25 25 u6 #8 %8 <% L5 b/ b/ b/ b/ b/ b/ b/ b/ b/ b/ b/ b/ b/ b/ b/ b/ b/ b/ b/  _ }% $) #) 4m C6 U6 '5 15 h6 s1 C3 C3 C3 Pk (# X! z_ }_ b/ b/ b/ b/ b/ b/ b/ b/ b/ b/ b/ b/ b/ b/  _ H) Ne /7 E~ E~ E~ X. 5f {m =n 5f 8= nm %; $; $; Y- K= y& s% p% (% F$ <$ C# e$ 3  1  [  [  [  [  :  :  :  5+ [  [  [  3  _. 7  a  a  8  g  M. N. x  L< w_ 0: *< 9[ 0[ m[ m[ Sk s$ s$ s$ s$ s$ s$ s$ s$ s$ s$ s$ s$ s$ :n #& +n +n {5 {5 {5 <n [n h1 [4 [4 Em rm rm rm rm rm rm rm rm sm !4 !4 !4 !4 !4 !4 G4 K1 e[ e[ e[ !4 !4 !4 Va ,% ,% ,% ,% ,% ",
"=! =! =! =! =! =! =! =! =! =! V# w. w. w. w. w. w. w. w. w. w. w. w. w. w. w. w. w. w. w. w. w. w. w. w. w. w. w. w. w. w. w. w. ~n }n &n Vm ]n |n oi oi 1n k@ k@ v| &< 8: *< 0: a: E~ z  A  `. F  9. n+ %+ U+ U+ D@ /# ~@ E@ (# S# <$ <$ <$ <$ <$ <$ <$ <$ <$ F$ Z$ <% 2% s% E& Xm o> $; $; $; _- X* N% x% %8 =n ^j ;8 E~ E~ E~ E~ ]! F~ 7) 9% b/ b/ b/ b/ b/ b/ b/ b/ b/ b/ B( ({ @) Z  ll ,@ n+ C3 C3 R  zm Mm t6 +5 2n %8 O, b/ b/ b/ b/ b/ b/ b/ b/ b/ b/ b/ b/ b/ b/ b/ b/ b/ b/ b/ b/ b/ b/ b/ b/ b/ b/ b/ b/ b/ b/ b/ b/ b/ b/ b/ b/ b/ b/ b/ b/ b/ b/ b/ b/ b/ b/ b/ b/ b/ b/ b/ b/ b/ b/ b/ b/ b/ b/ b/ b/ b/ b/ b/ b/ b/ b/ b/ b/ b/ b/ b/ b/ b/ b/ b/ b/ b/ b/ b/ b/ b/ b/ b/ b/ b/ b/ b/ b/ b/ b/ b/ b/ b/ b/ b/ b/ b/ b/ b/ b/ b/ b/ b/ b/ b/ b/ b/ b/ b/ b/ b/ b/ b/ b/ b/ b/ b/ b/ b/ b/ b/ b/ b/ b/ b/ b/ b/ b/ b/ b/ b/ b/ b/ b/ b/ b/ b/ b/ b/ b/ b/ b/ b/ b/ b/ b/ b/ b/ b/ b/ b/ b/ b/ b/ b/ b/ b/ b/ b/ b/ b/ b/ b/ b/ b/ b/ b/ b/ b/ b/ b/ b/ b/ b/ b/ b/ b/ b/ b/ b/ b/ b/ b/ b/ b/ b/ b/ b/ b/ b/ b/ b/ b/ b/ b/ b/ b/ m{  : _7 v4  8 @) <% O, b/ b/ b/ b/ b/ b/ b/ b/ b/ b/ b/ b/ b/ b/ b/ b/ b/ b/ b/ b/ b/ b/ b/ b/ b/  _ $) 3n 25 M4 h6 s1 C3 C3 C3 Pk (# X! z_ }_ b/ b/ b/ b/ b/ b/ b/ b/ b/ b/ b/ b/ b/ b/  _ `k Ne /7 E~ E~ E~ Z. 5f {m =n 5f 8= 4n A; $; $; `- K= y& t% p% &% F$  % 5n 6n 6n 7n 8n 9n 0n 0n an bn cn dn en en en en fn gn hn hn in in fn jn C@ L< w_ 0: *< 9[ 0[ m[ m[ Sk s$ s$ s$ s$ s$ s$ s$ s$ s$ s$ s$ s$ s$ :n #& +n +n kn ln mn nn nn h1 [4 [4 Em rm rm rm rm rm rm rm rm rm ;4 !4 !4 !4 !4 !4 !4 w. ;4 e[ T7 !4 !4 !4 T4 ,% ,% ,% ,% ,% ",
"=! =! =! =! =! =! =! =! =! =! g$ w. w. w. w. w. w. w. w. w. w. w. w. w. w. w. w. w. w. w. w. w. w. w. w. w. w. w. w. w. w. w. w. ~n on &n Vm pn |n oi oi <m k@ k@ v| &< 8: *< 0: a: E~ z  A  `. F  9. n+ %+ U+ U+ D@ /# ~@ E@ (# S# <$ <$ <$ <$ <$ <$ <$ <$ <$ F$ +% <% 2% s% E& Xm o> $; $; $; _- D] N% y% qn =n ^j 0) E~ E~ E~ E~ ]! F~ 7) $% 6^ b/ b/ b/ b/ b/ b/ b/ b/ b/ b/  : +8 /6 ll ,@ n+ C3 C3 R  zm mm '5 E5 .8 [% b/ b/ b/ b/ b/ b/ b/ b/ b/ b/ b/ b/ b/ b/ b/ b/ b/ b/ b/ b/ b/ b/ b/ b/ b/ b/ b/ b/ b/ b/ b/ b/ b/ b/ b/ b/ b/ b/ b/ b/ b/ b/ b/ b/ b/ b/ b/ b/ b/ b/ b/ b/ b/ b/ b/ b/ b/ b/ b/ b/ b/ b/ b/ b/ b/ b/ b/ b/ b/ b/ b/ b/ b/ b/ b/ b/ b/ b/ b/ b/ b/ b/ b/ b/ b/ b/ b/ b/ b/ b/ b/ b/ b/ b/ b/ b/ b/ b/ b/ b/ b/ b/ b/ b/ b/ b/ b/ b/ b/ b/ b/ b/ b/ b/ b/ b/ b/ b/ b/ b/ b/ b/ b/ b/ b/ b/ b/ b/ b/ b/ b/ b/ b/ b/ b/ b/ b/ b/ b/ b/ b/ b/ b/ b/ b/ b/ b/ b/ b/ b/ b/ b/ b/ b/ b/ b/ b/ b/ b/ b/ b/ b/ b/ b/ b/ b/ b/ b/ b/ b/ b/ b/ b/ b/ b/ b/ b/ b/ b/ b/ b/ b/ b/ b/ b/ b/ b/ b/ b/ b/ b/ b/ b/ b/ b/ b/ b/ b/ b/  _ L5 L5  _  _ b/ b/ b/ b/ b/ b/ b/ b/ b/ b/ b/ b/ b/ b/ b/ b/ b/ b/ b/ b/ b/ b/ b/ b/ b/ b/ b/ b/ O, %8 +7 15 h6 s1 C3 C3 C3 Pk (# X! z_ }_ b/ b/ b/ b/ b/ b/ b/ b/ b/ b/ b/ b/ b/ b/  _ Me Ne /7 E~ E~ E~ Z. 5f {m =n 5f 9= rn $; $; $; Y- K= y& u% p% :% (# sn tn un vn vn wn xn xn xn xn yn zn zn An Bn Cn Dn Dn En En Fn Gn Hn In Jn Kn Ln w_ 0: *< 9[ 0[ m[ m[ Sk s$ s$ s$ s$ s$ s$ s$ s$ s$ s$ s$ s$ s$ ]+ #& Mn -n nn nn nn nn nn h1 [4 [4 [4 rm rm rm rm rm rm rm rm rm rm w. !4 !4 !4 !4 !4 !4 !4 !4 !4 !4 !4 !4 !4 %* ,% ,% ,% ,% ",
"=! =! =! =! =! =! =! =! =! =! d> w. w. w. w. w. w. w. w. w. w. w. w. w. w. w. w. w. w. w. w. w. w. w. w. w. w. w. w. w. w. w. w. ~n on Nn On Pn Qn oi oi <m k@ k@ v| &< 8: *< 0: a: E~ z  A  `. F  9. n+ %+ U+ U+ D@ /# ~@ E@ (# S# <$ <$ <$ <$ <$ <$ <$ <$ <$ G$ 9% <% 2% t% E& Xm o> $; h; h; _- D] +* y% qn Rn ^j p$ <{ E~ E~ E~ ]! F~ 7) $% B( b/ b/ b/ b/ b/ b/ b/ b/ B( ({ _7 2n E5 ll ,@ n+ C3 C3 R  ]k mm X7 +8 <%  _ b/ b/ b/ b/ b/ b/ b/ b/ b/ b/ b/ b/ b/ b/ b/ b/ b/ b/ b/ b/ b/ b/ b/ b/ b/ b/ b/ b/ b/ b/ b/ b/ b/ b/ b/ b/ b/ b/ b/ b/ b/ b/ b/ b/ b/ b/ b/ b/ b/ b/ b/ b/ b/ b/ b/ b/ b/ b/ b/ b/ b/ b/ b/ b/ b/ b/ b/ b/ b/ b/ b/ b/ b/ b/ b/ b/ b/ b/ b/ b/ b/ b/ b/ b/ b/ b/ b/ b/ b/ b/ b/ b/ b/ b/ b/ b/ b/ b/ b/ b/ b/ b/ b/ b/ b/ b/ b/ b/ b/ b/ b/ b/ b/ b/ b/ b/ b/ b/ b/ b/ b/ b/ b/ b/ b/ b/ b/ b/ b/ b/ b/ b/ b/ b/ b/ b/ b/ b/ b/ b/ b/ b/ b/ b/ b/ b/ b/ b/ b/ b/ b/ b/ b/ b/ b/ b/ b/ b/ b/ b/ b/ b/ b/ b/ b/ b/ b/ b/ b/ b/ b/ b/ b/ b/ b/ b/ b/ b/ b/ b/ b/ b/ b/ b/ b/ b/ b/ b/ b/ b/ b/ b/ b/ b/ b/ b/ b/ b/ b/ b/ b/ b/ b/ b/ b/ b/ b/ b/ b/ b/ b/ b/ b/ b/ b/ b/ b/ b/ b/ b/ b/ b/ b/ b/ b/ b/ b/ b/ b/ b/ b/ b/  _ ,) Z  15 t4 n+ C3 C3 C3 Pk (# X! z_ }_ b/ b/ b/ b/ b/ b/ b/ b/ b/ b/ b/ b/ b/ b/ O, J7 5e /7 E~ E~ E~ Z. ;8 z7 Sn Tn 6e rn $; $; $; Z- T= ]* u% q% <% #* Un Vn Wn Xn Xn Yn Yn Yn Zn Yn `n `n Yn Yn  o  o  o .o .o Wn Wn +o @o #o $o %o &o w_ 0: *< 9[ 0[ m[ m[ Sk s$ s$ s$ s$ s$ s$ s$ s$ s$ s$ s$ s$ s$ *o #& =o -o nn nn nn nn nn h1 [4 [4 [4 ;o rm rm rm rm rm rm rm rm rm Tk !4 !4 !4 !4 !4 !4 !4 !4 !4 !4 !4 !4 >o ,o ,% ,% ,% ,% ",
"=! =! =! =! =! =! =! =! =! =! d> w. w. w. w. w. w. w. w. w. w. w. w. w. w. w. w. w. w. w. w. w. w. w. w. w. w. w. w. w. w. w. 'o ~n on mi mi )o !o oi oi ~o k@ k@ v| &< 8: *< 0: a: E~ z  A  `. F  9. n+ %+ U+ U+ D@ /# ~@ E@ (# S# <$ <$ <$ <$ <$ <$ <$ <$ <$ F$ 9% <% m% t% E& Xm o> h; h; h; _- Y* P% y% qn {o ]k p$ ;7 E~ E~ E~ ]! F~ 7) $% B( b/ b/ b/ b/ b/ b/ b/ b/ B( `! $* ]o E5 ll ,@ n+ C3 C3 R  ^o km Z7 %8 O, b/ b/ b/ b/ b/ b/ b/ b/ b/ b/ b/ b/ b/ b/ b/ b/ b/ b/ b/ b/ b/ b/ b/ b/ b/ b/ b/ b/ b/ b/ b/ b/ b/ b/ b/ b/ b/ b/ b/ b/ b/ b/ b/ b/ b/ b/ b/ b/ b/ b/ b/ b/ b/ b/ b/ b/ b/ b/ b/ b/ b/ b/ b/ b/ b/ b/ b/ b/ b/ b/ b/ b/ b/ b/ b/ b/ b/ b/ b/ b/ b/ b/ b/ b/ b/ b/ b/ b/ b/ b/ b/ b/ b/ b/ b/ b/ b/ b/ b/ b/ b/ b/ b/ b/ b/ b/ b/ b/ b/ b/ b/ b/ b/ b/ b/ b/ b/ b/ b/ b/ b/ b/ b/ b/ b/ b/ b/ b/ b/ b/ b/ b/ b/ b/ b/ b/ b/ b/ b/ b/ b/ b/ b/ b/ b/ b/ b/ b/ b/ b/ b/ b/ b/ b/ b/ b/ b/ b/ b/ b/ b/ b/ b/ b/ b/ b/ b/ b/ b/ b/ b/ b/ b/ b/ b/ b/ b/ b/ b/ b/ b/ b/ b/ b/ b/ b/ b/ b/ b/ b/ b/ b/ b/ b/ b/ b/ b/ b/ b/ b/ b/ b/ b/ b/ b/ b/ b/ b/ b/ b/ b/ b/ b/ b/ b/ b/ b/ b/ b/ b/ b/ b/ b/ b/ b/ b/ b/ b/ b/ b/ b/ b/ b/ i} }% R6 15 t4 n+ C3 C3 C3 Pk (# X! z_ }_ b/ b/ b/ b/ b/ b/ b/ b/ b/ b/ b/ b/ b/ b/ Zm 4e 5e /7 E~ E~ E~ Z. ;8 z7 Ng 0) 6e rn $; h; h; `- K= ]* u% r% &% /o (o _o :o <o <o [o }o }o |o |o |o |o |o |o }o }o 1o 1o 1o <o <o [o <o 2o 3o 4o [# w_ 0: *< 9[ 0[ m[ m[ Sk s$ s$ s$ s$ s$ s$ s$ s$ s$ s$ s$ s$ s$ *o #& 5o 6o 7o nn nn nn nn h1 [4 [4 [4 Qm rm rm rm rm rm rm rm rm rm rm !4 !4 !4 !4 !4 !4 !4 !4 !4 !4 !4 !4 8o 9o ,% ,% ,% ,% ",
"=! =! =! =! =! =! =! =! =! =! d> w. w. w. w. w. w. w. w. w. w. w. w. w. w. w. w. w. w. w. w. w. w. w. w. w. w. w. w. w. w. w. 'o ~n 0o mi ao bo co oi oi do k@ eo [) &< 8: *< 0: a: E~ z  A  `. F  9. n+ %+ U+ U+ D@ /# ~@ E@ (# S# <$ <$ <$ <$ <$ <$ <$ <$ &$ F$ 9% [% 7% u% E& Xm o> h; h; h; _- Y* P% A% qn {o ]k Pa <{ E~ E~ E~ ]! F~ 7) $% 6^ b/ b/ b/ b/ b/ b/ b/ b/ b/ &% Z  U6 E5 ll ,@ n+ C3 C3 R  ^o jm .8 [% b/ b/ b/ b/ b/ b/ b/ b/ b/ b/ b/ b/ b/ b/ b/ b/ b/ b/ b/ b/ b/ b/ b/ b/ b/ b/ b/ b/ b/ b/ b/ b/ b/ b/ b/ b/ b/ b/ b/ b/ b/ b/ b/ b/ b/ b/ b/ b/ b/ b/ b/ b/ b/ b/ b/ b/ b/ b/ b/ b/ b/ b/ b/ b/ b/ b/ b/ b/ b/ b/ b/ b/ b/ b/ b/ b/ b/ b/ b/ b/ b/ b/ b/ b/ b/ b/ b/ b/ b/ b/ b/ b/ b/ b/ b/ b/ b/ b/ b/ b/ b/ b/ b/ b/ b/ b/ b/ b/ b/ b/ b/ b/ b/ b/ b/ b/ b/ b/ b/ b/ b/ b/ b/ b/ b/ b/ b/ b/ b/ b/ b/ b/ b/ b/ b/ b/ b/ b/ b/ b/ b/ b/ b/ b/ b/ b/ b/ b/ b/ b/ b/ b/ b/ b/ b/ b/ b/ b/ b/ b/ b/ b/ b/ b/ b/ b/ b/ b/ b/ b/ b/ b/ b/ b/ b/ b/ b/ b/ b/ b/ b/ b/ b/ b/ b/ b/ b/ b/ b/ b/ b/ b/ b/ b/ b/ b/ b/ b/ b/ b/ b/ b/ b/ b/ b/ b/ b/ b/ b/ b/ b/ b/ b/ b/ b/ b/ b/ b/ b/ b/ b/ b/ b/ b/ b/ b/ b/ b/ b/ b/ b/ b/ b/ b/ fo O, =' u4 t4 n+ C3 C3 C3 Pk (# X! z_ }_ b/ b/ b/ b/ b/ b/ b/ b/ b/ b/ b/ b/ b/ b/ }% go 5e /7 E~ E~ E~ k+ 0) z7 {o c$ 6e rn $; h; h; `- K= ]* f& s% ho io jo ko lo lo lo lo mo mo mo no no oo oo oo oo oo oo oo oo oo oo oo oo po qo ro Kn 9[ 0: *< 9[ 0[ m[ m[ Sk s$ s$ s$ s$ s$ s$ s$ s$ s$ s$ s$ s$ s$ so #& to +n -n 7o nn nn nn h1 [4 [4 [4 uo rm rm rm rm rm rm rm rm vo G4 !4 !4 !4 !4 !4 !4 !4 !4 !4 !4 !4 wo xo yo ,% ,% ,% ,% ",
"=! =! =! =! =! =! =! =! =! =! ,' w. w. w. w. w. w. w. w. w. w. w. w. w. w. w. w. w. w. w. w. w. w. w. w. w. w. w. w. w. w. w. 'o ~n ~n mi ao zo Ao oi oi *n k@ Bo [) &< 8: *< 0: a: E~ z  A  `. F  9. n+ %+ U+ U+ D@ /# ~@ E@ (# S# <$ <$ <$ <$ <$ <$ <$ <$ &$ F$ %% |% 7% v% Co Do %; h; h; Q- _- Y* P% A% qn {o ]k Pa Z. E~ E~ E~ ]! F~ Eo $% 6^ 6^ 6^ 6^ 6^ 6^ 6^ 6^ 6^  _ +) 35 U6 E5 ll ,@ n+ C3 C3 R  ^o Fo #)  _ 6^ 6^ 6^ 6^ 6^ 6^ 6^ 6^ 6^ 6^ 6^ 6^ 6^ 6^ 6^ 6^ 6^ 6^ 6^ 6^ 6^ 6^ 6^ 6^ 6^ 6^ 6^ 6^ 6^ 6^ 6^ 6^ 6^ 6^ 6^ 6^ 6^ 6^ 6^ 6^ 6^ 6^ 6^ 6^ 6^ 6^ 6^ 6^ 6^ 6^ 6^ 6^ 6^ 6^ 6^ 6^ 6^ 6^ 6^ 6^ 6^ 6^ 6^ 6^ 6^ 6^ 6^ 6^ 6^ 6^ 6^ 6^ 6^ 6^ 6^ 6^ 6^ 6^ 6^ 6^ 6^ 6^ 6^ 6^ 6^ 6^ 6^ 6^ 6^ 6^ 6^ 6^ 6^ 6^ 6^ 6^ 6^ 6^ 6^ 6^ 6^ 6^ 6^ 6^ 6^ 6^ 6^ 6^ 6^ 6^ 6^ 6^ 6^ 6^ 6^ 6^ 6^ 6^ 6^ 6^ 6^ 6^ 6^ 6^ 6^ 6^ 6^ 6^ 6^ 6^ 6^ 6^ 6^ 6^ 6^ 6^ 6^ 6^ 6^ 6^ 6^ 6^ 6^ 6^ 6^ 6^ 6^ 6^ 6^ 6^ 6^ 6^ 6^ 6^ 6^ 6^ 6^ 6^ 6^ 6^ 6^ 6^ 6^ 6^ 6^ 6^ 6^ 6^ 6^ 6^ 6^ 6^ 6^ 6^ 6^ 6^ 6^ 6^ 6^ 6^ 6^ 6^ 6^ 6^ 6^ 6^ 6^ 6^ 6^ 6^ 6^ 6^ 6^ 6^ 6^ 6^ 6^ 6^ 6^ 6^ 6^ 6^ 6^ 6^ 6^ 6^ 6^ 6^ 6^ 6^ 6^ 6^ 6^ 6^ 6^ 6^ 6^ 6^ 6^ 6^ 6^ 6^ 6^ 6^ 6^ 6^ 6^ 6^ 6^ 6^ 6^ 6^ 6^ 6^ 6^ b/ _% Go t4 s1 C3 C3 C3 Pk (# X! z_ }_ 6^ 6^ 6^ 6^ 6^ 6^ 6^ 6^ 6^ 6^ 6^ 6^ 6^ b/ }% Rn L8 /7 E~ E~ E~ )1 0) Pi {o c$ 6e rn h; h; h; `- <, ]* z% q% Ho jo 2o Io ko Jo Ko Lo Lo ko ko ko Mo No No No No No No ko ko ko ko ko ko No Oo Po Qo Ro a: *< 9[ 0[ m[ m[ Sk s$ s$ s$ s$ s$ s$ s$ s$ s$ s$ s$ s$ s$ :n #& So +n +n 6o To 7o nn h1 [4 [4 [4 :4 rm rm rm rm rm rm kg 37 !4 !4 !4 !4 !4 !4 !4 !4 !4 !4 !4 !4 Uo To xo Vo ,% ,% ,% ,% ",
"=! =! =! =! =! =! =! =! =! =! S< w. w. w. w. w. w. w. w. w. w. w. w. w. w. w. w. w. w. w. w. w. w. w. w. w. w. w. w. w. w. w. 'o ~n i1 mi ao zo Wo oi oi Xo k@ Zi [) &< 8: *< 0: a: E~ z  A  `. F  9. n+ %+ U+ U+ D@ /# ~@ E@ (# S# <$ <$ <$ <$ <$ <$ <$ <$ <$ I$ %% j% 7% f& G& Xm %; h; Q- Q- (- Y* P% >& Yo {o ll p$ Z. E~ E~ E~ ]! F~ Eo 9% 6^ 6^ 6^ 6^ 6^ 6^ 6^ 6^ 6^ m{ %% 35 U6 E5 ll ,@ n+ C3 ;h -+ |$ Zo `m 6^ 6^ 6^ 6^ 6^ 6^ 6^ 6^ 6^ 6^ 6^ 6^ 6^ 6^ 6^ 6^ 6^ 6^ 6^ 6^ 6^ 6^ 6^ 6^ 6^ 6^ 6^ 6^ 6^ 6^ 6^ 6^ 6^ 6^ 6^ 6^ 6^ 6^ 6^ 6^ 6^ 6^ 6^ 6^ 6^ 6^ 6^ 6^ 6^ 6^ 6^ 6^ 6^ 6^ 6^ 6^ 6^ 6^ 6^ 6^ 6^ 6^ 6^ 6^ 6^ 6^ 6^ 6^ 6^ 6^ 6^ 6^ 6^ 6^ 6^ 6^ 6^ 6^ 6^ 6^ 6^ 6^ 6^ 6^ 6^ 6^ 6^ 6^ 6^ 6^ 6^ 6^ 6^ 6^ 6^ 6^ 6^ 6^ 6^ 6^ 6^ 6^ 6^ 6^ 6^ 6^ 6^ 6^ 6^ 6^ 6^ 6^ 6^ 6^ 6^ 6^ 6^ 6^ 6^ 6^ 6^ 6^ 6^ 6^ 6^ 6^ 6^ 6^ 6^ 6^ 6^ 6^ 6^ 6^ 6^ 6^ 6^ 6^ 6^ 6^ 6^ 6^ 6^ 6^ 6^ 6^ 6^ 6^ 6^ 6^ 6^ 6^ 6^ 6^ 6^ 6^ 6^ 6^ 6^ 6^ 6^ 6^ 6^ 6^ 6^ 6^ 6^ 6^ 6^ 6^ 6^ 6^ 6^ 6^ 6^ 6^ 6^ 6^ 6^ 6^ 6^ 6^ 6^ 6^ 6^ 6^ 6^ 6^ 6^ 6^ 6^ 6^ 6^ 6^ 6^ 6^ 6^ 6^ 6^ 6^ 6^ 6^ 6^ 6^ 6^ 6^ 6^ 6^ 6^ 6^ 6^ 6^ 6^ 6^ 6^ 6^ 6^ 6^ 6^ 6^ 6^ 6^ 6^ 6^ 6^ 6^ 6^ 6^ 6^ 6^ 6^ 6^ 6^ 6^ 6^ `o  p :% M5 h6 9. C3 C3 C3 Pk (# l{ A3 g] 6^ 6^ 6^ 6^ 6^ 6^ 6^ 6^ 6^ 6^ 6^ 6^ 6^ b/ [% ed L8 /7 E~ E~ E~ q2 .p Pi {o c$ 6e +p h; h; h; lh S= @p z% A% #p $p %p &p *p =p =p =p =p =p =p =p =p =p -p ;p >p >p >p >p ,p ,p 'p 'p )p !p ~p {p ]p z7 *< *< 9[ 0[ m[ m[ Sk s$ s$ s$ s$ s$ s$ s$ s$ s$ s$ s$ s$ s$ :n #& #& Mn +n +n +n +n -o ^p [4 [4 [4 [4 ;o rm rm rm kg 37 !4 !4 !4 !4 !4 !4 !4 T4 ,% %* b% -6 .g /p To xo (p ,% ,% ,% ,% ,% ",
"=! =! =! =! =! =! =! =! =! =! S< w. w. w. w. w. w. w. w. w. w. w. w. w. w. w. w. w. w. w. w. w. w. w. w. w. w. w. w. w. w. w. 'o ~n on mi ao zo ^5 oi _p k@ k@ Zi [) &< 8: *< 0: a: E~ z  A  `. F  9. n+ %+ U+ U+ D@ /# ~@ E@ (# S# <$ <$ <$ <$ <$ <$ <$ <$ <$ ;% &% |% 7% f& G& Xm %; Q- Q- Q- :p Z* .* ~* <p 4e ll nh q2 E~ E~ E~ ]! F~ Eo 9% 6^ 6^ 6^ 6^ 6^ 6^ 6^ 6^ 6^ 6^ i% n5 ]o E5 ll ,@ n+ C3 ;h o) D$ B/ m{ 6^ 6^ 6^ 6^ 6^ 6^ 6^ 6^ 6^ 6^ 6^ 6^ 6^ 6^ 6^ 6^ 6^ 6^ 6^ 6^ 6^ 6^ 6^ 6^ 6^ 6^ 6^ 6^ 6^ 6^ 6^ 6^ 6^ 6^ 6^ 6^ 6^ 6^ 6^ 6^ 6^ 6^ 6^ 6^ 6^ 6^ 6^ 6^ 6^ 6^ 6^ 6^ 6^ 6^ 6^ 6^ 6^ 6^ 6^ 6^ 6^ 6^ 6^ 6^ 6^ 6^ 6^ 6^ 6^ 6^ 6^ 6^ 6^ 6^ 6^ 6^ 6^ 6^ 6^ 6^ 6^ 6^ 6^ 6^ 6^ 6^ 6^ 6^ 6^ 6^ 6^ 6^ 6^ 6^ 6^ 6^ 6^ 6^ 6^ 6^ 6^ 6^ 6^ 6^ 6^ 6^ 6^ 6^ 6^ 6^ 6^ 6^ 6^ 6^ 6^ 6^ 6^ 6^ 6^ 6^ 6^ 6^ 6^ 6^ 6^ 6^ 6^ 6^ 6^ 6^ 6^ 6^ 6^ 6^ 6^ 6^ 6^ 6^ 6^ 6^ 6^ 6^ 6^ 6^ 6^ 6^ 6^ 6^ 6^ 6^ 6^ 6^ 6^ 6^ 6^ 6^ 6^ 6^ 6^ 6^ 6^ 6^ 6^ 6^ 6^ 6^ 6^ 6^ 6^ 6^ 6^ 6^ 6^ 6^ 6^ 6^ 6^ 6^ 6^ 6^ 6^ 6^ 6^ 6^ 6^ 6^ 6^ 6^ 6^ 6^ 6^ 6^ 6^ 6^ 6^ 6^ 6^ 6^ 6^ 6^ 6^ 6^ 6^ 6^ 6^ 6^ 6^ 6^ 6^ 6^ 6^ 6^ 6^ 6^ 6^ 6^ 6^ 6^ 6^ 6^ 6^ 6^ 6^ 6^ 6^ 6^ 6^ 6^ 6^ 6^ 6^ 6^ 6^ 6^ 6^ 6^ 6^  : Ng h6 9. C3 C3 C3 Pk (# l{ A3 g] 6^ 6^ 6^ 6^ 6^ 6^ 6^ 6^ 6^ 6^ 6^ 6^ 6^ b/ <% 4c L8 /7 E~ E~ E~ Hl .p ^j ]i p$ 6e +p h; Q- Q- lh K= @p A% [p }p |p oo *p 1p 2p 2p 2p 3p 4p 5p 6p 7p 8p 9p 0p 0p 0p ap bp cp dp ep fp gp hp ip $p |p jp kp *< 9[ 0[ m[ m[ Sk s$ s$ s$ s$ s$ s$ s$ s$ s$ s$ s$ s$ s$ c9 #& #& lp mp +n +n +n +n x* [4 [4 [4 [4 Qm rm rm G4 !4 !4 !4 !4 !4 !4 !4 c5 b% ,i ,i ,i ,i ,i np _m xo (p ,% ,% ,% ,% ,% ,% ",
"=! =! =! =! =! =! =! =! =! =! S< w. w. w. w. w. w. w. w. w. w. w. w. w. w. w. w. w. w. w. w. w. w. w. w. w. w. w. w. w. w. w. 'o ~n on mi ao zo ao oi op k@ pp Zi [) &< 8: *< 0: a: E~ z  A  `. F  9. n+ %+ U+ U+ D@ /# ~@ E@ (# S# <$ <$ <$ <$ <$ <$ <$ <$ <$ ;% &% |% n% z% G& Xm %; Q- Q- Q- :p Z* R% M% <p qp $g nh rp d_ E~ E~ ]! F~ sp 9% 6^ 6^ 6^ 6^ 6^ 6^ 6^ 6^ 6^ 6^ C/ v4 &8 E5 ll ,@ n+ C3 dc o) tp )~ 6^ 6^ 6^ 6^ 6^ 6^ 6^ 6^ 6^ 6^ 6^ 6^ 6^ 6^ 6^ 6^ 6^ 6^ 6^ 6^ 6^ 6^ 6^ 6^ 6^ 6^ 6^ 6^ 6^ 6^ 6^ 6^ 6^ 6^ 6^ 6^ 6^ 6^ 6^ 6^ 6^ 6^ 6^ 6^ 6^ 6^ 6^ 6^ 6^ 6^ 6^ 6^ 6^ 6^ 6^ 6^ 6^ 6^ 6^ 6^ 6^ 6^ 6^ 6^ 6^ 6^ 6^ 6^ 6^ 6^ 6^ 6^ 6^ 6^ 6^ 6^ 6^ 6^ 6^ 6^ 6^ 6^ 6^ 6^ 6^ 6^ 6^ 6^ 6^ 6^ 6^ 6^ 6^ 6^ 6^ 6^ 6^ 6^ 6^ 6^ 6^ 6^ 6^ 6^ 6^ 6^ 6^ 6^ 6^ 6^ 6^ 6^ 6^ 6^ 6^ 6^ 6^ 6^ 6^ 6^ 6^ 6^ 6^ 6^ 6^ 6^ 6^ 6^ 6^ 6^ 6^ 6^ 6^ 6^ 6^ 6^ 6^ 6^ 6^ 6^ 6^ 6^ 6^ 6^ 6^ 6^ 6^ 6^ 6^ 6^ 6^ 6^ 6^ 6^ 6^ 6^ 6^ 6^ 6^ 6^ 6^ 6^ 6^ 6^ 6^ 6^ 6^ 6^ 6^ 6^ 6^ 6^ 6^ 6^ 6^ 6^ 6^ 6^ 6^ 6^ 6^ 6^ 6^ 6^ 6^ 6^ 6^ 6^ 6^ 6^ 6^ 6^ 6^ 6^ 6^ 6^ 6^ 6^ 6^ 6^ 6^ 6^ 6^ 6^ 6^ 6^ 6^ 6^ 6^ 6^ 6^ 6^ 6^ 6^ 6^ 6^ 6^ 6^ 6^ 6^ 6^ 6^ 6^ 6^ 6^ 6^ 6^ 6^ 6^ 6^ 6^ 6^ 6^ 6^ 6^ 6^ 6^ 6^ L5 n; M8 9. C3 C3 C3 Pk (# l{ A3 g] 6^ 6^ 6^ 6^ 6^ 6^ 6^ 6^ 6^ 6^ 6^ 6^ 6^ b/ <% Oa L8 /7 E~ E~ E~ A7 Pa ]k J7 k' 6e +p h; Q- Q- `- K= A& >& up (o vp wp xp 2p 2p 2p 3p yp zp Ap Bp Cp Dp Dp Cp Bp zp Ep 4p 2p 2p 2p 2p 3p [. Fp Oo Gp Hp `. *< 9[ 0[ m[ m[ Sk s$ s$ s$ s$ s$ s$ s$ s$ a% a9 Ip Jp 82 i1 Kp #& #& #& Lp mp +n +n +n &4 [4 [4 [4 Mp sm w. !4 !4 !4 !4 !4 !4 c5 b% ,i ,i ,i ,i ,i Np Op xo xo Pp ,% ,% ,% ,% ,% ,% ,% ",
"=! =! =! =! =! =! =! =! =! =! S< w. w. w. w. w. w. w. w. w. w. w. w. w. w. w. w. w. w. w. w. w. w. w. w. w. w. w. w. w. w. w. 'o ~n on mi ao zo ao Qp Xo k@ pp Zi [) &< 8: *< 0: a: E~ z  A  `. F  9. n+ %+ U+ U+ D@ /# ~@ E@ (# S# <$ <$ <$ <$ <$ <$ <$ <$ <$ L6 &% k% o% z% G& Xm %; Q- Q- Q- (- Z* c& d& <p J7 8m k' A7 d_ E~ E~ ]! F~ Rp @% 6^ 6^ 6^ 6^ 6^ 6^ 6^ 6^ 6^ Sp B] _7 2n E5 ll ,@ n+ C3 dc o) 89 )~ 6^ 6^ 6^ 6^ 6^ 6^ 6^ 6^ 6^ 6^ 6^ 6^ 6^ 6^ 6^ 6^ 6^ 6^ 6^ 6^ 6^ 6^ 6^ 6^ 6^ 6^ 6^ 6^ 6^ 6^ 6^ 6^ 6^ 6^ 6^ 6^ 6^ 6^ 6^ 6^ 6^ 6^ 6^ 6^ 6^ 6^ 6^ 6^ 6^ 6^ 6^ 6^ 6^ 6^ 6^ 6^ 6^ 6^ 6^ 6^ 6^ 6^ 6^ 6^ 6^ 6^ 6^ 6^ 6^ 6^ 6^ 6^ 6^ 6^ 6^ 6^ 6^ 6^ 6^ 6^ 6^ 6^ 6^ 6^ 6^ 6^ 6^ 6^ 6^ 6^ 6^ 6^ 6^ 6^ 6^ 6^ 6^ 6^ 6^ 6^ 6^ 6^ 6^ 6^ 6^ 6^ 6^ 6^ 6^ 6^ 6^ 6^ 6^ 6^ 6^ 6^ 6^ 6^ 6^ 6^ 6^ 6^ 6^ 6^ 6^ 6^ 6^ 6^ 6^ 6^ 6^ 6^ 6^ 6^ 6^ 6^ 6^ 6^ 6^ 6^ 6^ 6^ 6^ 6^ 6^ 6^ 6^ 6^ 6^ 6^ 6^ 6^ 6^ 6^ 6^ 6^ 6^ 6^ 6^ 6^ 6^ 6^ 6^ 6^ 6^ 6^ 6^ 6^ 6^ 6^ 6^ 6^ 6^ 6^ 6^ 6^ 6^ 6^ 6^ 6^ 6^ 6^ 6^ 6^ 6^ 6^ 6^ 6^ 6^ 6^ 6^ 6^ 6^ 6^ 6^ 6^ 6^ 6^ 6^ 6^ 6^ 6^ 6^ 6^ 6^ 6^ 6^ 6^ 6^ 6^ 6^ 6^ 6^ 6^ `o `o 6^ 6^ 6^ 6^ 6^ 6^ 6^ 6^ 6^ 6^ 6^ 6^ 6^ 6^ 6^ 6^ 6^ 6^ 6^ 6^ 6^ z_ m{ .% Tp 9. C3 C3 C3 Pk (# l{ A3 g] 6^ 6^ 6^ 6^ 6^ 6^ 6^ 6^ 6^ 6^ 6^ 6^ 6^ m{ $) k0 L8 /7 E~ E~ E~ X@ Pa ]k J7 Jh Up +p h; Q- Q- lh K= B& Vp Wp Xp No Yp Zp 2p yp Bp `p  q .q +q @q @q @q @q @q +q #q $q %q &q Ap yp 3p 2p *q =q -q ;q >q ,q Ro *< 0[ m[ m[ Sk s$ s$ s$ s$ s$ n0 Ip 'q )q )q )q )q )q )q )q )q #& #& #& #& Lp mp +n n7 [4 [4 [4 E% w. !4 !4 !4 !4 !4 T4 %* ,i ,i ,i ,i ,i !q Ol xo xo ~q V{ ,% ,% ,% ,% ,% ,% ,% ,% ",
"=! =! =! =! =! =! =! =! =! =! g$ w. w. w. w. w. w. w. w. w. w. w. w. w. w. w. w. w. w. w. w. w. w. w. w. w. w. w. w. w. w. w. 'o ~n }n mi ao zo mi {q k@ k@ pp Zi [) &< 8: *< 0: a: E~ z  A  `. F  9. n+ %+ U+ U+ D@ /# ~@ E@ (# S# <$ <$ <$ <$ <$ <$ <$ <$ <$ X$ &% 1% p% z% $' Xm %; Q- Q- Q- (- Z* c& d& <p J7 8m k' A7 <{ E~ E~ ]! F~ Rp @% 6^ 6^ 6^ 6^ 6^ 6^ 6^ 6^ 6^ B( 5( R6 K6 J6 ll ,@ n+ C3 dc o) 89 )~ 6^ 6^ 6^ 6^ 6^ 6^ 6^ 6^ 6^ 6^ 6^ 6^ 6^ 6^ 6^ 6^ 6^ 6^ 6^ 6^ 6^ 6^ 6^ 6^ 6^ 6^ 6^ 6^ 6^ 6^ 6^ 6^ 6^ 6^ 6^ 6^ 6^ 6^ 6^ 6^ 6^ 6^ 6^ 6^ 6^ 6^ 6^ 6^ 6^ 6^ 6^ 6^ 6^ 6^ 6^ 6^ 6^ 6^ 6^ 6^ 6^ 6^ 6^ 6^ 6^ 6^ 6^ 6^ 6^ 6^ 6^ 6^ 6^ 6^ 6^ 6^ 6^ 6^ 6^ 6^ 6^ 6^ 6^ 6^ 6^ 6^ 6^ 6^ 6^ 6^ 6^ 6^ 6^ 6^ 6^ 6^ 6^ 6^ 6^ 6^ 6^ 6^ 6^ 6^ 6^ 6^ 6^ 6^ 6^ 6^ 6^ 6^ 6^ 6^ 6^ 6^ 6^ 6^ 6^ 6^ 6^ 6^ 6^ 6^ 6^ 6^ 6^ 6^ 6^ 6^ 6^ 6^ 6^ 6^ 6^ 6^ 6^ 6^ 6^ 6^ 6^ 6^ 6^ 6^ 6^ 6^ 6^ 6^ 6^ 6^ 6^ 6^ 6^ 6^ 6^ 6^ 6^ 6^ 6^ 6^ 6^ 6^ 6^ 6^ 6^ 6^ 6^ 6^ 6^ 6^ 6^ 6^ 6^ 6^ 6^ 6^ 6^ 6^ 6^ 6^ 6^ 6^ 6^ 6^ 6^ 6^ 6^ 6^ 6^ 6^ 6^ 6^ 6^ 6^ 6^ 6^ 6^ 6^ 6^ 6^ 6^ m{ m{ 6^ 6^ 6^ 6^ 6^ 6^ 6^ 6^ `o B( m{ m{ C/ C/ m{ 6^ 6^ 6^ 6^ 6^ 6^ 6^ 6^ 6^ 6^ 6^ 6^ 6^ 6^ 6^ 6^ 6^ 6^ 6^ g]  p }3 n. 9. C3 C3 C3 Pk (# l{ A3 g] 6^ 6^ 6^ 6^ 6^ 6^ 6^ 6^ 6^ 6^ 6^ 6^ 6^ m{ $) k0 L8 /7 E~ E~ E~ X@ Pa ]k J7 Jh Up +p Q- Q- Q- lh K= $' ]q ^q /q po (q _q :q  q <q [q }q |q 1q 2q 3q 3q 3q 2q 4q 1q }q 5q @q +q 6q &q yp 7q fn 8q 9q #p 0q aq *< 0[ m[ m[ Sk s$ s$ s$ 09 'q )q )q )q )q )q )q )q )q )q )q )q #& #& #& #& #& #& Lp (| [4 [4 [4 [4 bq !4 !4 !4 27 %* ,i ,i ,i ,i ,i t~ nn xo xo cq dq ,% ,% ,% ,% ,% ,% ,% ,% ,% ,% ",
"=! =! =! =! =! =! =! =! =! =! =! w. w. w. w. w. w. w. w. w. w. w. w. w. w. w. w. w. w. w. w. w. w. w. w. w. w. w. w. w. w. w. eq ~n {n mi ao zo mi f> k@ k@ pp Zi [) &< 8: *< 0: a: E~ z  A  `. F  9. n+ %+ U+ U+ D@ /# ~@ E@ (# S# <$ <$ <$ <$ <$ <$ <$ <$ <$ X$ &% 2% p% y% $' fq k; Q- Q- Q- :p k= T% d& gq J7 8m Jh A7 <{ E~ E~ ]! F~ Rp @% 6^ 6^ 6^ 6^ 6^ 6^ 6^ 6^ Sp (6 %% N4 U6 E5 ll ,@ n+ C3 dc o) 89 )~ 6^ 6^ 6^ 6^ 6^ 6^ 6^ 6^ 6^ 6^ 6^ 6^ 6^ 6^ 6^ 6^ 6^ 6^ 6^ 6^ 6^ 6^ 6^ 6^ 6^ 6^ 6^ 6^ 6^ 6^ 6^ 6^ 6^ 6^ 6^ 6^ 6^ 6^ 6^ 6^ 6^ 6^ 6^ 6^ 6^ 6^ 6^ 6^ 6^ 6^ 6^ 6^ 6^ 6^ 6^ 6^ 6^ 6^ 6^ 6^ 6^ 6^ 6^ 6^ 6^ 6^ 6^ 6^ 6^ 6^ 6^ 6^ 6^ 6^ 6^ 6^ 6^ 6^ 6^ 6^ 6^ 6^ 6^ 6^ 6^ 6^ 6^ 6^ 6^ 6^ 6^ 6^ 6^ 6^ 6^ 6^ 6^ 6^ 6^ 6^ 6^ 6^ 6^ 6^ 6^ 6^ 6^ 6^ 6^ 6^ 6^ 6^ 6^ 6^ 6^ 6^ 6^ 6^ 6^ 6^ 6^ 6^ 6^ 6^ 6^ 6^ 6^ 6^ 6^ 6^ 6^ 6^ 6^ 6^ 6^ 6^ 6^ 6^ 6^ 6^ 6^ 6^ 6^ 6^ 6^ 6^ 6^ 6^ 6^ 6^ 6^ 6^ 6^ 6^ 6^ 6^ 6^ 6^ 6^ 6^ 6^ 6^ 6^ 6^ 6^ 6^ 6^ 6^ 6^ 6^ 6^ 6^ 6^ 6^ 6^ 6^ 6^ 6^ 6^ 6^ 6^ 6^ 6^ 6^ 6^ 6^ 6^ 6^ 6^ 6^ 6^ 6^ 6^ 6^ 6^ 6^ 6^ 6^ Sp hq s5 iq :% J~ m{ b/ 6^ `o `o 6^  p (6 6( &% v4 `5 $* +) C/ `o Sp 6^ 6^ 6^ 6^ 6^ 6^ 6^ 6^ 6^ 6^ 6^ 6^ 6^ 6^ 6^ 6^ g] 6^ :{ n. 9. C3 C3 C3 Pk (# l{ A3 g] 6^ 6^ 6^ 6^ 6^ 6^ 6^ 6^ 6^ 6^ 6^ 6^ 6^ m{ $) k0 L8 /7 E~ E~ E~ Xa Pa ]k J7 Jh 6e +p Q- Q- Q- Oh U= jq kq lq Jo ip mq nq oq pq qq rq sq lb nb nb ob tq tq hb lb 1c sq uq vq |q [q @q wq 8p y@ Fp po xq yq zq M< 0[ m[ m[ Sk s$ n0 'q )q )q )q )q )q )q )q )q )q )q )q )q Aq #& #& Bq >n R7 $n Cq Dq [4 [4 [4 [4 Eq !4 b% ,i ,i ,i ,i ,i ,i a' Fq xo xo (p d> T7 T7 ii 27 ,% ,% ,% ,% ,% ,% ,% ,% ",
"=! =! =! =! =! =! =! =! =! =! =! *# w. w. w. w. w. w. w. w. w. w. w. w. w. w. w. w. w. w. w. w. w. w. w. w. w. w. w. w. w. w. w. ~n Gq mi )o zo Hq k@ k@ k@ pp Zi [) &< 8: *< 0: a: E~ z  A  `. F  9. n+ %+ U+ U+ D@ /# ~@ E@ (# S# <$ <$ <$ <$ <$ <$ <$ <$ E$ -% &% 2% p% B% I& Pe $; Q- R- R- (- `* T% s& gq J7 8m Jh X@ <{ E~ E~ ]! F~ Rp  )  p 6^ 6^ 6^ 6^ 6^ 6^ 6^ hq  : $* E5 U6 E5 ll ,@ n+ C3 dc o) 89 )~ 6^ 6^ 6^ 6^ 6^ 6^ 6^ 6^ 6^ 6^ 6^ 6^ 6^ 6^ 6^ 6^ 6^ 6^ 6^ 6^ 6^ 6^ 6^ 6^ 6^ 6^ 6^ 6^ 6^ 6^ 6^ 6^ 6^ 6^ 6^ 6^ 6^ 6^ 6^ 6^ 6^ 6^ 6^ 6^ 6^ 6^ 6^ 6^ 6^ 6^ 6^ 6^ 6^ 6^ 6^ 6^ 6^ 6^ 6^ 6^ 6^ 6^ 6^ 6^ 6^ 6^ 6^ 6^ 6^ 6^ 6^ 6^ 6^ 6^ 6^ 6^ 6^ 6^ 6^ 6^ 6^ 6^ 6^ 6^ 6^ 6^ 6^ 6^ 6^ 6^ 6^ 6^ 6^ 6^ 6^ 6^ 6^ 6^ 6^ 6^ 6^ 6^ 6^ 6^ 6^ 6^ 6^ 6^ 6^ 6^ 6^ 6^ 6^ 6^ 6^ 6^ 6^ 6^ 6^ 6^ 6^ 6^ 6^ 6^ 6^ 6^ 6^ 6^ 6^ 6^ 6^ 6^ 6^ 6^ 6^ 6^ 6^ 6^ 6^ 6^ 6^ 6^ 6^ 6^ 6^ 6^ 6^ 6^ 6^ 6^ 6^ 6^ 6^ 6^ 6^ 6^ 6^ 6^ 6^ 6^ 6^ 6^ 6^ 6^ 6^ 6^ 6^ 6^ 6^ 6^ 6^ 6^ 6^ 6^ 6^ 6^ 6^ 6^ 6^ 6^ 6^ 6^ 6^ 6^ 6^ 6^ 6^ 6^ 6^ 6^ 6^ 6^ 6^ 6^ 6^ 6^ 6^ 6^ Sp J~ v4 ~: N4 )> +)  : C/ m{ J~  : %% =' n5 N4 E5 25 25 N4 Iq m{ `o `o 6^ 6^ 6^ 6^ 6^ 6^ 6^ 6^ 6^ 6^ 6^ 6^ 6^ 6^ 6^ g] 6^ |~ ~@ 9. C3 C3 C3 Pk (# l{ A3 g] 6^ 6^ 6^ 6^ 6^ 6^ 6^ 6^ 6^ 6^ 6^ 6^ 6^ m{ $) k0 L8 /7 E~ E~ _) Xa p$ ]k Jq {m Up +p Q- Q- R- Oh W= Kq Lq Mq po Nq Oq Pq Qq nb Rq Sq Tq Uq Vq Wq Xq Yq Zq Uq `q bd Rq  r .r +r @r #r oq .q $r %r ~p &r yq t4 M< 0[ m[ m[ Sk a9 )q )q )q )q )q )q )q )q )q )q )q )q )q )q *r #& .n 09 09 09 09 09 s$ [4 [4 [4 [4 d4 R2 ,i ,i ,i ,i ,i a' =r _m xo -r co 33 33 33 33 33 33 !4 ,% ,% ,% ,% ,% ,% ,% ",
"=! =! =! =! =! =! =! wo  . =! =! d> w. w. w. w. w. w. w. w. w. w. w. w. w. w. w. w. w. w. w. w. w. w. w. w. w. w. w. w. w. w. w. ~n %n mi mi zo ;r k@ k@ k@ eo .. [) &< 8: *< 0: a: E~ z  A  `. F  9. n+ %+ U+ U+ D@ /# ~@ E@ (# S# <$ <$ <$ <$ <$ <$ <$ <$ F$ Y$ &% 2% p% A% I& `f $; R- R- R- _- j= U% s& gq n5 M5 Jh Xa <{ E~ E~ ]! F~ >r Zo m{ 6^ 6^ 6^ 6^ 6^ 6^ 6^ [_ v4 /6 25 U6 E5 ll ,@ n+ C3 dc o) 89 )~ 6^ 6^ 6^ 6^ 6^ 6^ 6^ 6^ 6^ 6^ 6^ 6^ 6^ 6^ 6^ 6^ 6^ 6^ 6^ 6^ 6^ 6^ 6^ 6^ 6^ 6^ 6^ 6^ 6^ 6^ 6^ 6^ 6^ 6^ 6^ 6^ 6^ 6^ 6^ 6^ 6^ 6^ 6^ 6^ 6^ 6^ 6^ 6^ 6^ 6^ 6^ 6^ 6^ 6^ 6^ 6^ 6^ 6^ 6^ 6^ 6^ 6^ 6^ 6^ 6^ 6^ 6^ 6^ 6^ 6^ 6^ 6^ 6^ 6^ 6^ 6^ 6^ 6^ 6^ 6^ 6^ 6^ 6^ 6^ 6^ 6^ 6^ 6^ 6^ 6^ 6^ 6^ 6^ 6^ 6^ 6^ 6^ 6^ 6^ 6^ 6^ 6^ 6^ 6^ 6^ 6^ 6^ 6^ 6^ 6^ 6^ 6^ 6^ 6^ 6^ 6^ 6^ 6^ 6^ 6^ 6^ 6^ 6^ 6^ 6^ 6^ 6^ 6^ 6^ 6^ 6^ 6^ 6^ 6^ 6^ 6^ 6^ 6^ 6^ 6^ 6^ 6^ 6^ 6^ 6^ 6^ 6^ 6^ 6^ 6^ 6^ 6^ 6^ 6^ 6^ 6^ 6^ 6^ 6^ 6^ 6^ 6^ 6^ 6^ 6^ 6^ 6^ 6^ 6^ 6^ 6^ 6^ 6^ 6^ 6^ 6^ 6^ 6^ 6^ 6^ 6^ 6^ 6^ 6^ 6^ 6^ 6^ 6^ 6^ 6^ 6^ 6^ 6^ 6^ 6^ 6^ 6^ `o `o [_ n5 25 25 E5 +7 Z  $* R6 $* Z  +7 E5 25 25 25 t6 t6 25 Z  $) m{ `o `o 6^ 6^ 6^ 6^ 6^ 6^ 6^ 6^ 6^ 6^ 6^ 6^ 6^ 6^ g] 6^ h] E@ s1 C3 C3 C3 Pk (# l{ A3 g] 6^ 6^ 6^ 6^ 6^ 6^ 6^ 6^ 6^ 6^ 6^ 6^ 6^ m{ $) k0 L8 /7 E~ E~ _) Xa p$ $g `k z7 6e +p Q- R- R- `i K= ,r <o Lo 'r )r !r 2q hb Je #j ~r {r ]r ^r fl /r @b /r fl ^g (r _r :r <r [r }r |r 1r [q 2r *p 3r 4r 5r $$ M< 0[ m[ m[ 6r )q )q )q )q )q )q )q )q )q )q )q )q )q )q )q 7r S7 09 09 09 09 09 09 09 [4 [4 [4 [4 [4 8r ,i ,i ,i Zi 9r 0r xo xo r. 33 33 33 33 33 33 33 33 33 .g ,% ,% ,% ,% ,% ,% ",
"=! =! =!  . ar br cr dr  . =!  . =! V# w. w. w. w. w. w. w. w. w. w. w. w. w. w. w. w. w. w. w. w. w. w. w. w. w. w. w. w. w. w. Um mi mi mi zo er k@ k@ k@ fr gr R! &< 8: *< 0: a: E~ z  A  `. F  9. n+ %+ U+ U+ D@ /# ~@ E@ (# S# <$ <$ <$ <$ <$ <$ <$ <$ F$ Y$ i% 2% q% A% I& `f $; R- R- R- _- j= U% l' gq ,7 Lm z7 b) <{ E~ E~ ]! F~ >r H)  _ 6^ 6^ 6^ 6^ 6^ Sp ({ .) +7 25 25 U6 E5 ll ,@ n+ C3 dc o) I= hr ir jr jr jr jr kr kr )~ 7( ir ({ B] B] B] B] b/ 6^ 6^ 6^ B( 6^ 6^ `o `o `o 6^ z_ z_ z_ 6^ 6^ `o Sp 6^ 6^ 6^ 6^ 6^ 6^ 6^ 6^ 6^ 6^ 6^ 6^ 6^ 6^ 6^ 6^ 6^ 6^ 6^ 6^ 6^ 6^ 6^ 6^ 6^ 6^ 6^ 6^ 6^ 6^ 6^ 6^ 6^ 6^ 6^ 6^ 6^ 6^ 6^ 6^ 6^ 6^ 6^ 6^ 6^ 6^ 6^ 6^ 6^ 6^ 6^ 6^ 6^ 6^ 6^ 6^ 6^ 6^ 6^ 6^ 6^ 6^ 6^ 6^ 6^ 6^ 6^ 6^ 6^ 6^ 6^ 6^ 6^ 6^ 6^ 6^ 6^ 6^ 6^ 6^ 6^ 6^ 6^ 6^ 6^ 6^ 6^ 6^ 6^ 6^ 6^ 6^ 6^ 6^ 6^ 6^ 6^ 6^ 6^ 6^ 6^ 6^ 6^ 6^ 6^ 6^ 6^ 6^ 6^ 6^ 6^ 6^ 6^ 6^ 6^ 6^ 6^ 6^ 6^ 6^ 6^ 6^ 6^ 6^ 6^ 6^ 6^ 6^ 6^ 6^ 6^ 6^ 6^ 6^ 6^ 6^ 6^ 6^ 6^ 6^ 6^ 6^ 6^ 6^ 6^ 6^ 6^ 6^ 6^ 6^ 6^ 6^ 6^ 6^ 6^ 6^ 6^ 6^ 6^ 6^ 6^ 6^ 6^ 6^ Sp 6^ :% v6 25 25 25 t6 +5 25 u6 25 25 t6 t6 25 25 25 25 Y7 t6 E5 v4 `m `o 6^ 6^ 6^ 6^ 6^ 6^ 6^ 6^ 6^ 6^ 6^ 6^ 6^ 6^ 6^ g] B( l{ E@ s1 C3 C3 C3 Pk (# l{ A3 g] 6^ 6^ 6^ 6^ 6^ 6^ 6^ 6^ 6^ 6^ 6^ 6^ 6^ m{ $) k0 L8 /7 E~ E~ %! Xa k' 8m R6 lr 6e mr Q- R- R- Oh K= nr lo po or pr qr rr sr tr ur vr wr xr yr zr Ar Br Cr Dr Er Fr Gr Hr Ir Jr Kr Lr Mr 1q Nr Or Pr Qr Rr b$ M< 0[ m[ m[ N8 )q )q )q )q )q )q )q )q )q )q )q )q )q )q Sr #& Aq 09 09 09 09 09 09 Tr [4 [4 [4 [4 [4 eo b% ,i ,i Ur Vr Wr Xr w. 33 33 33 33 33 33 33 33 33 33 V# ,% ,% ,% ,% ,% ,% ",
"=! =! Yr Zr cr cr Zr wo =! =! `r  . ,' w. w. w. w. w. w. w. w. w. w. w. w. w. w. w. w. w. w. w. w. w. w. w. w. w. w. w. w. w. w.  s mi mi mi zo Ig k@ k@ k@ .s +s v| &< 8: *< 0: a: E~ z  A  `. F  9. n+ %+ U+ U+ D@ /# ~@ E@ (# S# <$ <$ <$ <$ <$ <$ <$ <$ F$ Y$ i% 2% q% A% I& `f $; R- R- R- _-  = b& l' @s ,7 Lm z7 t4 <{ E~ E~ ]! F~ >r H)  _ 6^ 6^ 6^ 6^ 6^ 6^ :% Z  E5 25 25 U6 E5 ll ,@ n+ C3 ~8 %+ q$ T6 #s $s %s &s &s &s $s *s *s *s =s =s =s -s =s =s ;s >s ,s ,s ,s ,s ,s l~ l~ kr 4( !~ 4( 7( 7( ir 7( B] 6^ 6^ 6^ 6^ 6^ 6^ 6^ 6^ 6^ 6^ 6^ 6^ 6^ 6^ 6^ 6^ 6^ 6^ 6^ 6^ 6^ 6^ 6^ 6^ 6^ 6^ 6^ 6^ 6^ 6^ 6^ 6^ 6^ 6^ 6^ 6^ 6^ 6^ 6^ 6^ 6^ 6^ 6^ 6^ 6^ 6^ 6^ 6^ 6^ 6^ 6^ 6^ 6^ 6^ 6^ 6^ 6^ 6^ 6^ 6^ 6^ 6^ 6^ 6^ 6^ 6^ 6^ 6^ 6^ 6^ 6^ 6^ 6^ 6^ 6^ 6^ 6^ 6^ 6^ 6^ 6^ 6^ 6^ 6^ 6^ 6^ 6^ 6^ 6^ 6^ 6^ 6^ 6^ 6^ 6^ 6^ 6^ 6^ 6^ 6^ 6^ 6^ 6^ 6^ 6^ 6^ 6^ 6^ 6^ 6^ 6^ 6^ 6^ 6^ 6^ 6^ 6^ 6^ 6^ 6^ 6^ 6^ 6^ 6^ 6^ 6^ 6^ 6^ 6^ 6^ 6^ 6^ 6^ 6^ 6^ 6^ 6^ 6^ 6^ 6^ 6^ 6^ 6^ 6^ 6^ 6^ 6^ 6^ 6^ 6^ 6^ 6^ 6^ 6^ 6^ 6^ 6^ 6^ 6^ 6^ 6^ 6^ 6^ Sp b/ +) N4 25 25 's 's 69 k0 k0 )s k0 k0 k0 69 69 69 K8 K8 K8 !s ~s }3 l{ l{ l{ {s {s {s {s {s {s {s {s l{ l{ l{ l{ l{ l{ X! %4 /# ]m C3 C3 C3 Pk (# l{ A3 g] 6^ 6^ 6^ 6^ 6^ 6^ 6^ 6^ 6^ 6^ 6^ 6^ 6^ m{ $) k0 L8 /7 E~ E~ E~ b) k' 8m R6 ]k 6e mr R- R- R- ]s K= ^s /s po (s _s :s kb Rc <s [s }s |s 1s 2s 3s 4s 5s 6s 7s 8s 9s 0s as bs cs ds es fs gs hs is js ks Rr b$ M< 0[ m[ m[ g7 )q )q )q )q )q )q )q )q )q )q )q )q )q )q 7r j6 09 09 09 09 09 09 09 ls [4 [4 [4 [4 [4 [4 j3 S@ ms Vr Vr Vr ns 33 33 33 33 33 33 33 33 33 33 33 27 ,% ,% ,% ,% ,% ,% ",
"=! wo cr cr cr os  . =! =! =! [k ps  . w. w. w. w. w. w. w. w. w. w. w. w. w. w. w. w. w. w. w. w. w. w. w. w. w. w. w. w. w. w. z+ mi mi mi zo Ig k@ k@ k@ qs +s v| &< 8: *< 0: a: E~ z  A  `. F  9. n+ %+ U+ U+ D@ /# ~@ E@ (# S# <$ <$ <$ <$ <$ <$ <$ <$ F$ Z$ <% 2% r% A% I& `f $; R- R- R- _-  = !& O% -) R6 =n z7 rs E~ E~ E~ ]! F~ >r H)  _ 6^ 6^ 6^ 6^ 6^ L5 $* E5 25 25 25 U6 E5 ll ,@ s4 4k C3 b@ &$ ss ts ts ts ts ts ts ts ts ts ts ts %s ts ts ts us %s %s &s &s &s &s &s &s $s $s #s #s #s *s vs ws T! Y! 6^ g] 6^ 6^ 6^ 6^ 6^ 6^ 6^ 6^ 6^ 6^ 6^ 6^ 6^ 6^ 6^ 6^ 6^ 6^ 6^ 6^ 6^ 6^ 6^ 6^ 6^ 6^ 6^ 6^ 6^ 6^ 6^ 6^ 6^ 6^ 6^ 6^ 6^ 6^ 6^ 6^ 6^ 6^ 6^ 6^ 6^ 6^ 6^ 6^ 6^ 6^ 6^ 6^ 6^ 6^ 6^ 6^ 6^ 6^ 6^ 6^ 6^ 6^ 6^ 6^ 6^ 6^ 6^ 6^ 6^ 6^ 6^ 6^ 6^ 6^ 6^ 6^ 6^ 6^ 6^ 6^ 6^ 6^ 6^ 6^ 6^ 6^ 6^ 6^ 6^ 6^ 6^ 6^ 6^ 6^ 6^ 6^ 6^ 6^ 6^ 6^ 6^ 6^ 6^ 6^ 6^ 6^ 6^ 6^ 6^ 6^ 6^ 6^ 6^ 6^ 6^ 6^ 6^ 6^ 6^ 6^ 6^ 6^ 6^ 6^ 6^ 6^ 6^ 6^ 6^ 6^ 6^ 6^ 6^ 6^ 6^ 6^ 6^ 6^ 6^ 6^ 6^ 6^ 6^ 6^ 6^ 6^ 6^ 6^ 6^ 6^ 6^ 6^ 6^ 6^ 6^ 6^ 6^ 6^ 6^ 6^ 6^ Sp b/ .) N4 J6 25 's xs 4f q$ C- C- ys ys ys ,> ,> ,> ,> ,> ,> ng v* ;% f< K4 K4 K4 K4 K4 K4 K4 K4 L6 L6 K4 ss zs ws ws 89 f, w# %+ c/ C3 C3 C3 Pk (# l{ A3 g] 6^ 6^ 6^ 6^ 6^ 6^ 6^ 6^ 6^ 6^ 6^ 6^ 6^ m{ $) k0 L8 /7 E~ E~ E~ b) k' 8m .7 ]k 6e As R- R- R- ]s K= Bs /s po Cs Ds :s Es Fs Gs Hs Is Js Ks Ls Ms Ns Os Ps Qs Rs Ss Ts Us Vs Ws Xs Ys Zs 1q `s y@  t /s Rr b$ M< 0[ m[ m[ .t )q )q )q )q )q )q )q )q )q )q )q )q )q +t #& R7 09 09 09 09 09 09 09 L( [4 [4 [4 [4 [4 [4 [4 [4 @t Vr Vr Vr p} 33 33 33 33 33 33 33 33 33 33 kg ,% ,% ,% ,% ,% ,% ,% ",
"=! =! =! =! =! =! =! =! =! =! #t $t to w. w. w. w. w. w. w. w. w. w. w. w. w. w. w. w. w. w. w. w. w. w. w. w. w. w. w. w. w. w. ;' mi mi %t zo &t k@ k@ k@ qs +s v| &< 8: *< 0: a: E~ z  A  `. F  9. n+ %+ U+ U+ D@ /# ~@ E@ (# S# <$ <$ <$ <$ <$ <$ <$ <$ F$  % <% 2% s% ~* I& eh h; R- R- R- ,n i= !& O% *t R6 =n z7 ;8 E~ E~ E~ ]! F~ >r Me  _ 6^ 6^ 6^ 6^ 6^ $) N4 25 25 25 25 U6 E5 ll V  C3 ;h =t -t ;t ss ts ts ts ts ts ts ts ts ts ts ts ts ts ts ts ts ts ts ts ts ts ts ts ts ts ts ts >t ,t 't )t !t /# B| 6^ g] 6^ 6^ 6^ 6^ 6^ 6^ 6^ 6^ 6^ 6^ 6^ 6^ 6^ 6^ 6^ 6^ 6^ 6^ 6^ 6^ 6^ 6^ 6^ 6^ 6^ 6^ 6^ 6^ 6^ 6^ 6^ 6^ 6^ 6^ 6^ 6^ 6^ 6^ 6^ 6^ 6^ 6^ 6^ 6^ 6^ 6^ 6^ 6^ 6^ 6^ 6^ 6^ 6^ 6^ 6^ 6^ 6^ 6^ 6^ 6^ 6^ 6^ 6^ 6^ 6^ 6^ 6^ 6^ 6^ 6^ 6^ 6^ 6^ 6^ 6^ 6^ 6^ 6^ 6^ 6^ 6^ 6^ 6^ 6^ 6^ 6^ 6^ 6^ 6^ 6^ 6^ 6^ 6^ 6^ 6^ 6^ 6^ 6^ 6^ 6^ 6^ 6^ 6^ 6^ 6^ 6^ 6^ 6^ 6^ 6^ 6^ 6^ 6^ 6^ 6^ 6^ 6^ 6^ 6^ 6^ 6^ 6^ 6^ 6^ 6^ 6^ 6^ 6^ 6^ 6^ 6^ 6^ 6^ 6^ 6^ 6^ 6^ 6^ 6^ 6^ 6^ 6^ 6^ 6^ 6^ 6^ 6^ 6^ 6^ 6^ 6^ 6^ 6^ 6^ 6^ 6^ 6^ 6^ 6^ 6^ 6^ Sp b/ .) N4 J6 25 ~t p$ D@ {t ]t ts ts ^t ^t ^t ^t ^t ^t ^t ^t ^t ^t ^t ^t ^t ^t ^t ^t ^t ^t ^t ^t ^t ^t ^t /t /t /t /t (t ]t _t :t C3 D  C3 C3 Pk (# l{ A3 g] 6^ 6^ 6^ 6^ 6^ 6^ 6^ 6^ 6^ 6^ 6^ 6^ 6^ m{ $) k0 L8 /7 E~ E~ L< t4 Jh 8m =' $g =i As R- R- R- `i y- Bs /s <t [t }t |t 1t 2t 3t 4t 5t 6t 7t 8t 9t 0t at bt ct dt et ft gt ht it jt kt lt #r mt nt ot /s Rr b$ M< 0[ R! R! pt )q )q )q )q )q )q )q )q )q )q )q )q Ip qt Bq 09 09 09 09 09 09 09 09 rt [4 [4 [4 [4 [4 [4 [4 [4 dm Vr Vr Vr p} 33 33 33 33 33 33 33 33 33 33 !4 ,% ,% ,% ,% ,% ,% ,% ",
"=! =! =! =! =! =! =! =! =! =! Hm $t $t st w. w. w. w. w. w. w. w. w. w. w. w. w. w. w. w. w. w. w. w. w. w. w. w. w. w. w. w. w. w. tt mi ao zo ut k@ k@ k@ +s +s v| &< 8: *< 0: a: E~ z  A  `. F  9. n+ %+ U+ U+ D@ /# ~@ E@ (# S# <$ <$ <$ <$ <$ <$ <$ <$ F$  % <% 4% s% ~* J& xf $; R- R- R- ,n .= vt n' *t R6 =n z7 ;8 E~ E~ E~ ]! F~ wt J7 L5 6^ 6^ 6^ 6^ m{ @) +7 25 25 25 25 U6 E5 ll R  C3 Pk xt yt zt (t /t /t /t /t /t /t /t /t /t /t /t /t /t /t /t /t /t /t /t /t /t /t /t /t ts ts ts At zt Bt :t C3 U+ =% 6^ g] 6^ 6^ 6^ 6^ 6^ 6^ 6^ 6^ 6^ 6^ 6^ 6^ 6^ 6^ 6^ 6^ 6^ 6^ 6^ 6^ 6^ 6^ 6^ 6^ 6^ 6^ 6^ 6^ 6^ 6^ 6^ 6^ 6^ 6^ 6^ 6^ 6^ 6^ 6^ 6^ 6^ 6^ 6^ 6^ 6^ 6^ 6^ 6^ 6^ 6^ 6^ 6^ 6^ 6^ 6^ 6^ 6^ 6^ 6^ 6^ 6^ 6^ 6^ 6^ 6^ 6^ 6^ 6^ 6^ 6^ 6^ 6^ 6^ 6^ 6^ 6^ 6^ 6^ 6^ 6^ 6^ 6^ 6^ 6^ 6^ 6^ 6^ 6^ 6^ 6^ 6^ 6^ 6^ 6^ 6^ 6^ 6^ 6^ 6^ 6^ 6^ 6^ 6^ 6^ 6^ 6^ 6^ 6^ 6^ 6^ 6^ 6^ 6^ 6^ 6^ 6^ 6^ 6^ 6^ 6^ 6^ 6^ 6^ 6^ 6^ 6^ 6^ 6^ 6^ 6^ 6^ 6^ 6^ 6^ 6^ 6^ 6^ 6^ 6^ 6^ 6^ 6^ 6^ 6^ 6^ 6^ 6^ 6^ 6^ 6^ 6^ 6^ 6^ 6^ 6^ 6^ 6^ 6^ 6^ 6^ 6^ Sp b/ .) N4 J6 25 ~t c$ n+ Ct Dt Et Ft ts Gt ts ts ts ts ts ts >t >t ts ts ts ts ts ts ts ts ts ts ts ts ts ts ts ts ts ts /t zt Bt Ht n+ C3 c/ n+ (# l{ A3 g] 6^ 6^ 6^ 6^ 6^ 6^ 6^ 6^ 6^ 6^ 6^ 6^ 6^ m{ $) k0 L8 /7 E~ E~ d_ rs It 1g =' Jt 8= As R- R- R- ]s y- Bs /s <t =q Kt Lt Mt Nt Ot @h Pt Qt Rt St Tt Ut Vt Wt Wt Xt Yt Zt `t  u .u +u @u #u oq $u nt ot /s Rr b$ M< 0[ R! R! pt )q )q )q )q )q )q )q )q )q )q )q %u 09 #& &u 09 09 09 09 09 09 09 *u [4 [4 [4 [4 [4 [4 [4 [4 [4 =u Vr Vr Vr X# 33 33 33 33 33 33 33 33 33 33 ,% ,% ,% ,% ,% ,% ,% ,% ",
"=! =! =! =! =! =! =! =! =! =! =! $t $t -u w. w. w. w. w. w. w. w. w. w. w. w. w. w. w. w. w. w. w. w. w. w. w. w. w. w. w. w. w. w. Hq mi ao zo ut k@ k@ k@ +s +s v| &< 8: *< 0: a: E~ z  A  `. F  9. n+ %+ U+ U+ D@ /# ~@ E@ (# S# <$ <$ <$ <$ <$ <$ <$ <$ F$ +% <% 4% s% M% I& eh ;u R- R- R- ,n .= {& n' *t R6 =n Pi 0) <{ E~ E~ ]! F~ >u 4e L5 6^ 6^ 6^ 6^ m{ @) +7 25 25 25 25 U6 25 ,u ~@ w# 'u ,t *s #s #s #s #s #s #s #s #s #s #s #s #s #s *s *s *s *s *s *s *s *s *s *s )u )u >t !u ts /t ~u {u =t C3 ~8 U+ 65 6^ g] 6^ 6^ 6^ 6^ 6^ 6^ 6^ 6^ 6^ 6^ 6^ 6^ 6^ 6^ 6^ 6^ 6^ 6^ 6^ 6^ 6^ 6^ 6^ 6^ 6^ 6^ 6^ 6^ 6^ 6^ 6^ 6^ 6^ 6^ 6^ 6^ 6^ 6^ 6^ 6^ 6^ 6^ 6^ 6^ 6^ 6^ 6^ 6^ 6^ 6^ 6^ 6^ 6^ 6^ 6^ 6^ 6^ 6^ 6^ 6^ 6^ 6^ 6^ 6^ 6^ 6^ 6^ 6^ 6^ 6^ 6^ 6^ 6^ 6^ 6^ 6^ 6^ 6^ 6^ 6^ 6^ 6^ 6^ 6^ 6^ 6^ 6^ 6^ 6^ 6^ 6^ 6^ 6^ 6^ 6^ 6^ 6^ 6^ 6^ 6^ 6^ 6^ 6^ 6^ 6^ 6^ 6^ 6^ 6^ 6^ 6^ 6^ 6^ 6^ 6^ 6^ 6^ 6^ 6^ 6^ 6^ 6^ 6^ 6^ 6^ 6^ 6^ 6^ 6^ 6^ 6^ 6^ 6^ 6^ 6^ 6^ 6^ 6^ 6^ 6^ 6^ 6^ 6^ 6^ 6^ 6^ 6^ 6^ 6^ 6^ 6^ 6^ 6^ 6^ 6^ 6^ 6^ 6^ 6^ 6^ 6^ Sp b/ .) N4 J6 25 ~t Pa s1 dc L4 ]u ^u zt ss ss /t /t /t /t At At At At /t /t /t /t /t /t /t /t /t /t /t /t /t /t /t /t /t /u /u zt (u ^# Pk C3 G  `@ _u A3 g] 6^ 6^ 6^ 6^ 6^ 6^ 6^ 6^ 6^ 6^ 6^ 6^ 6^ m{ $) k0 L8 /7 E~ E~ <{ 5f Jh =n =' Jt 8= As R- R- R- `i :u Bs /s <t <u [u }u 1r |u ~g 1u 2u 3u 4u 5u 6u 7u 8u 9u 0u au bu cu du eu fp fu gu hu &q iu <  ot /s Rr b$ M< 0[ R! R! pt )q )q )q )q )q )q )q )q )q )q Ip 09 09 N6 75 09 09 09 09 09 09 09 :+ [4 [4 [4 [4 [4 [4 [4 [4 rt Vr Vr Vr ju =u 33 33 33 33 33 33 33 33 33 ii ,% ,% ,% ,% ,% !4 ,% ,% ",
"=! =! =! =! =! =! =! =! =! =! =! $t $t H- w. w. w. w. w. w. w. w. w. w. w. w. w. w. w. w. w. w. w. w. w. w. w. w. w. w. w. w. w. w. ku mi ao zo lu k@ k@ k@ qs +s v| &< 8: *< 0: a: E~ z  A  `. F  9. n+ %+ U+ U+ D@ /# ~@ E@ (# S# <$ <$ <$ <$ <$ <$ <$ <$ H$ 9% <% 5% t% M% l, eh Q- R- R- R- ,n .= {& Q% *t  n Rn ^j 0) <{ E~ E~ ]! F~ <g 4e L5 6^ 6^ 6^ 6^ 6^ #) +7 25 25 25 25 U6 lm L$ `o mu nu ou pu pu pu pu pu pu pu pu pu pu pu pu pu pu pu qu qu qu qu qu qu pu qu qu ru su tu uu zt Bt ]u L4 C3 D  D  ~+ 65 6^ g] 6^ 6^ 6^ 6^ 6^ 6^ 6^ 6^ 6^ 6^ 6^ 6^ 6^ 6^ 6^ 6^ 6^ 6^ 6^ 6^ 6^ 6^ 6^ 6^ 6^ 6^ 6^ 6^ 6^ 6^ 6^ 6^ 6^ 6^ 6^ 6^ 6^ 6^ 6^ 6^ 6^ 6^ 6^ 6^ 6^ 6^ 6^ 6^ 6^ 6^ 6^ 6^ 6^ 6^ 6^ 6^ 6^ 6^ 6^ 6^ 6^ 6^ 6^ 6^ 6^ 6^ 6^ 6^ 6^ 6^ 6^ 6^ 6^ 6^ 6^ 6^ 6^ 6^ 6^ 6^ 6^ 6^ 6^ 6^ 6^ 6^ 6^ 6^ 6^ 6^ 6^ 6^ 6^ 6^ 6^ 6^ 6^ 6^ 6^ 6^ 6^ 6^ 6^ 6^ 6^ 6^ 6^ 6^ 6^ 6^ 6^ 6^ 6^ 6^ 6^ 6^ 6^ 6^ 6^ 6^ 6^ 6^ 6^ 6^ 6^ 6^ 6^ 6^ 6^ 6^ 6^ 6^ 6^ 6^ 6^ 6^ 6^ 6^ 6^ 6^ 6^ 6^ 6^ 6^ 6^ 6^ 6^ 6^ 6^ 6^ 6^ 6^ 6^ 6^ 6^ 6^ 6^ 6^ 6^ 6^ 6^ Sp m{ .) N4 J6 25 ~t p$ e< C3 4k E  vu -t ]t zt ]t Et wu wu wu wu wu wu wu xu xu yu yu yu yu yu yu yu yu yu Bt Bt Bt Bt yu yu yu yu zu {t D@ n+ L4 `@ _u A3 g] 6^ 6^ 6^ 6^ 6^ 6^ 6^ 6^ 6^ 6^ 6^ 6^ 6^ m{ $) k0 L8 /7 E~ E~ <{ 5f {m =n  8 M5 6e As R- R- R- Oh Qe Bs /s <t <u y@ 2p +q jb Au Zq Zq Bu Cu Cu Du nb Eu Fu Gu Hu Iu Ju Ku Lu Mu Nu  q Ap Ou Pu =& ot /s Rr b$ M< 0[ R! R! pt )q )q )q )q )q )q )q )q )q )q a9 09 09 Ip 09 09 09 09 09 09 09 Dq <4 [4 [4 [4 [4 [4 [4 [4 [4 %} Vr Vr Pp Qu Qu l# 33 33 33 33 33 33 33 33 V# ,% ,% ,% !4 Ru um ,% ,% ",
"=! =! =! =! =! =! =! =! =! =! =! Su $t $t d> d> g$ w. w. w. w. w. w. w. w. w. w. w. w. w. w. w. w. w. w. w. w. w. w. w. w. w. w. w. z+ mi ao zo Tu k@ k@ k@ C7 +s v| &< 8: *< 0: a: E~ z  A  `. F  9. n+ %+ U+ U+ D@ /# ~@ E@ (# S# <$ <$ <$ <$ <$ <$ <$ <$ G$ 9% <% 7% u% d& K& eh Q- R- R- R- ,n .= t& Uu Vu  8 {o ^j p$ <{ E~ E~ ]! F~ <g 4e }% 6^ 6^ 6^ 6^ 6^ i% Z  E5 25 25 25 U6 Wu H) Xu Yu Zu `u `u `u `u `u `u `u `u `u `u `u `u `u  v .v .v .v .v .v .v .v .v .v .v `u +v @v #v $v ): =t C3 ~8 E  c/ c/ D@ 65 6^ g] 6^ 6^ 6^ 6^ 6^ 6^ 6^ 6^ 6^ 6^ 6^ 6^ 6^ 6^ 6^ 6^ 6^ 6^ 6^ 6^ 6^ 6^ 6^ 6^ 6^ 6^ 6^ 6^ 6^ 6^ 6^ 6^ 6^ 6^ 6^ 6^ 6^ 6^ 6^ 6^ 6^ 6^ 6^ 6^ 6^ 6^ 6^ 6^ 6^ 6^ 6^ 6^ 6^ 6^ 6^ 6^ 6^ 6^ 6^ 6^ 6^ 6^ 6^ 6^ 6^ 6^ 6^ 6^ 6^ 6^ 6^ 6^ 6^ 6^ 6^ 6^ 6^ 6^ 6^ 6^ 6^ 6^ 6^ 6^ 6^ 6^ 6^ 6^ 6^ 6^ 6^ 6^ 6^ 6^ 6^ 6^ 6^ 6^ 6^ 6^ 6^ 6^ 6^ 6^ 6^ 6^ 6^ 6^ 6^ 6^ 6^ 6^ 6^ 6^ 6^ 6^ 6^ 6^ 6^ 6^ 6^ 6^ 6^ 6^ 6^ 6^ 6^ 6^ 6^ 6^ 6^ 6^ 6^ 6^ 6^ 6^ 6^ 6^ 6^ 6^ 6^ 6^ 6^ 6^ 6^ 6^ 6^ 6^ 6^ 6^ 6^ 6^ 6^ 6^ 6^ 6^ 6^ 6^ 6^ 6^ 6^ Sp m{ .) N4 J6 25 ~t p$ #+ C3 C3 E  E  n+ 9! &s %v &v *v =v =v =v =v =v =v =v -v -v ;v ;v -v -v -v -v >v ,v ,v ,v ,v ,v 'v 'v 'v 'v 'v )v B| w# -t 89 )~ g] g] 6^ 6^ 6^ 6^ 6^ 6^ 6^ 6^ 6^ 6^ 6^ 6^ 6^ m{ $) k0 L8 /7 E~ E~ <{ rs {m =n !v Lm 6e As R- R- R- Oh Qe Bs /s <t <u y@ 2p ~v nb Wq @f {v ]v ^v /v (v _v Mu :v <v [v }v |v 1v 2v 3v 4v 5v 2p 2p 6v =& ot /s Rr b$ M< 0[ v| v| 7v Ip )q )q Ip 8v 9v a% )q )q )q *u 09 09 09 09 09 09 09 09 *u &2 [4 [4 [4 [4 [4 [4 [4 [4 [4 [4 %7 0v 0v Qu Qu Qu Qu kg 33 33 33 33 33 33 33 .g ,% ,% T7 pl pl 33 ,% ,% ",
"=! =! =! =! =! =! =! =! =! =! =! av $t $t =! =! =! F% t$ bv ls t$ kg w. w. w. w. w. w. w. w. w. w. w. w. w. w. w. w. w. w. w. w. w. ;' mi ao zo cv k@ k@ k@ j@ +s v| &< 8: *< 0: a: E~ z  A  `. F  9. n+ %+ U+ U+ D@ /# ~@ E@ (# S# <$ <$ <$ <$ <$ <$ <$ <$ G$ $% [% 7% u% s& K& Aj Q- R- R- R- ,n += ^& dv ev  8 {o ^j p$ Z. E~ E~ ]! F~ >u 4e }% 6^ 6^ 6^ B( B( L5 R6 +7 25 25 25 t6 Wu #) fv gv hv iv jv jv jv jv jv jv jv jv jv jv jv jv jv jv iv kv lv lv lv lv lv lv iv mv nv ov pv /3 9! ;h ~8 D  C3 c/ ~8 ~+ 65 6^ g] 6^ 6^ 6^ 6^ 6^ 6^ 6^ 6^ 6^ 6^ 6^ 6^ 6^ 6^ 6^ 6^ 6^ 6^ 6^ 6^ 6^ 6^ 6^ 6^ 6^ 6^ 6^ 6^ 6^ 6^ 6^ 6^ 6^ 6^ 6^ 6^ 6^ 6^ 6^ 6^ 6^ 6^ 6^ 6^ 6^ 6^ 6^ 6^ 6^ 6^ 6^ 6^ 6^ 6^ 6^ 6^ 6^ 6^ 6^ 6^ 6^ 6^ 6^ 6^ 6^ 6^ 6^ 6^ 6^ 6^ 6^ 6^ 6^ 6^ 6^ 6^ 6^ 6^ 6^ 6^ 6^ 6^ 6^ 6^ 6^ 6^ 6^ 6^ 6^ 6^ 6^ 6^ 6^ 6^ 6^ 6^ 6^ 6^ 6^ 6^ 6^ 6^ 6^ 6^ 6^ 6^ 6^ 6^ 6^ 6^ 6^ 6^ 6^ 6^ 6^ 6^ 6^ 6^ 6^ 6^ 6^ 6^ 6^ 6^ 6^ 6^ 6^ 6^ 6^ 6^ 6^ 6^ 6^ 6^ 6^ 6^ 6^ 6^ 6^ 6^ 6^ 6^ 6^ 6^ 6^ 6^ 6^ 6^ 6^ 6^ 6^ 6^ 6^ 6^ 6^ 6^ 6^ 6^ 6^ 6^ 6^ Sp m{ +) N4 J6 25 ~t p$ #+ C3 C3 C3 E  8. D@ qv rv sv tv sv sv sv sv sv uv uv uv uv vv vv uv uv uv uv wv wv wv wv wv wv xv xv xv xv yv zv 4^ jr .~ (6 _{ ;< _{ g] 6^ 6^ 6^ 6^ 6^ 6^ 6^ 6^ 6^ 6^ 6^ 6^ m{ $) k0 L8 /7 E~ E~ <{ rs z7 Sn !v =n 6e As R- R- R- Oh Qe Av /s <t <u y@ 2p Bv Cv Dv Ev 2t Fv Gv Hv Iv Jv Kv Lv Mv Nv Ov Pv Qv Kv Rv Sv Tv 3p 2p 6v =& ot /s Rr b$ M< 0[ v| v| Uv Vv Wv Xv Yv Eq Eq Eq '4 [4 [4 [4 <4 fr Zv L( L( L( L( Wv [4 [4 [4 [4 [4 [4 [4 [4 [4 [4 [4 :4 Qu Qu Qu Qu Qu Qu Qu *# 33 33 33 33 33 33 33  g ,% T7 pl pl pl  g ,% ,% ",
"=! =! =! =! =! =! =! =! =! =! =!  . ps $t =! =! =! `v `v `v `v `v `v @|  w w. w. w. w. w. w. w. w. w. w. w. w. w. w. w. w. w. w. w. w. tt .w +w zo k@ k@ k@ k@ C7 v| &< 8: *< 0: a: E~ z  A  `. F  9. n+ %+ U+ U+ D@ /# ~@ E@ (# S# <$ <$ <$ <$ <$ <$ <$ &$ G$ %% [% 7% v% N% K& Aj Q- R- R- R- ,n += ^& dv ev  8 {o ]k p$ Z. E~ E~ ]! F~ <g go }% }_ }_ }_ }_ }_ b/ +) N4 25 25 25 25 lm @w #w $w %w %w %w %w %w %w %w &w &w *w =w %w =w *w -w ;w pv >w ,w ,w ,w ,w ,w ,w ,w 'w )w !w ~w _{ 9! C3 E  C3 C3 D  ~8 ~+ 65 z_ g] 6^ 6^ 6^ 6^ 6^ 6^ 6^ 6^ 6^ 6^ 6^ 6^ 6^ 6^ 6^ 6^ 6^ 6^ 6^ 6^ 6^ 6^ 6^ 6^ 6^ 6^ 6^ 6^ 6^ 6^ 6^ 6^ 6^ 6^ 6^ 6^ 6^ 6^ 6^ 6^ 6^ 6^ 6^ 6^ 6^ 6^ 6^ 6^ 6^ 6^ 6^ 6^ 6^ 6^ 6^ 6^ 6^ 6^ 6^ 6^ 6^ 6^ 6^ 6^ 6^ 6^ 6^ 6^ 6^ 6^ 6^ 6^ 6^ 6^ 6^ 6^ 6^ 6^ 6^ 6^ 6^ 6^ 6^ 6^ 6^ 6^ 6^ 6^ 6^ 6^ 6^ 6^ 6^ 6^ 6^ 6^ 6^ 6^ 6^ 6^ 6^ 6^ 6^ 6^ 6^ 6^ 6^ 6^ 6^ 6^ 6^ 6^ 6^ 6^ 6^ 6^ 6^ 6^ 6^ 6^ 6^ 6^ 6^ 6^ 6^ 6^ 6^ 6^ 6^ 6^ 6^ 6^ 6^ 6^ 6^ 6^ 6^ 6^ 6^ 6^ 6^ 6^ 6^ 6^ 6^ 6^ 6^ 6^ 6^ 6^ 6^ 6^ 6^ 6^ 6^ 6^ 6^ 6^ 6^ 6^ 6^ Sp b/ @) N4 J6 25 ~t p$ #+ C3 C3 C3 C3 {w ]# ]w ^w /w (w _w _w _w _w _w /w /w /w /w /w /w :w :w :w :w :w :w :w :w :w :w :w :w :w :w <w [w Z( ;< }w a{ c_ V~ D5 g] 6^ 6^ 6^ 6^ 6^ 6^ 6^ 6^ 6^ 6^ 6^ 6^ b/ ,) k0 L8 /7 E~ E~ Y. ;8 z7 Ng %8 =n 6e As R- R- R- `i :u Av /s <t <u y@ 2p 2p |w 1w 2w 3w 4w 5w 6w 7w 8w 9w 0w aw bw cw dw ew fw gw hw iw jw 2p 6v =& ot /s Rr b$ M< 0[ v| v| Uv Vv Vv Vv kw lw Eq Eq Em [4 [4 [4 [4 '4 mw mw I- nw nw nw ow [4 [4 [4 [4 [4 [4 [4 [4 [4 [4 pw Qu Qu Qu Qu Qu Qu Qu qw 33 33 33 33 33 33 33 33 J1 pl pl pl pl  g ,% ,% ",
"=! =! =! =! =! =! =! =! =! =! =! =! =!  . N7 /m rw k@ k@ k@ k@ k@ k@ k@ L| sw =# w. w. w. w. w. w. w. w. w. w. w. w. w. w. w. w. w. w. tw k@ k@ S| k@ k@ k@ k@ k@ v| &< 8: *< 0: a: E~ z  A  `. F  9. n+ %+ U+ U+ D@ /# ~@ E@ (# S# <$ <$ <$ <$ <$ <$ <$ <$ H$ %% |% 7% v% N% m, uw Q- R- R- R- ,n vw H, S% ev !v {o ]k p$ Z. E~ E~ ]! F~ <g im }% }_ }_ }_ }_ }_ ww <% Z  E5 25 25 25 25 E5 Z7 C6 C6 C6 C6 C6 C6 C6 $8 $8 $8 $8 xw yw zw Aw 7% Bw Cw v/ v/ v/ v/ v/ v/ v/ v/ v/ Dw Ew l2 4( w# L4 C3 C3 C3 D  ~8 D@ B| }_ 2[ }_ }_ }_ }_ }_ }_ }_ }_ }_ }_ }_ }_ }_ }_ }_ }_ }_ }_ }_ }_ }_ }_ }_ }_ }_ }_ }_ }_ }_ }_ }_ }_ }_ }_ }_ }_ }_ }_ }_ }_ }_ }_ }_ }_ }_ }_ }_ }_ }_ }_ }_ }_ }_ }_ }_ }_ }_ }_ }_ }_ }_ }_ }_ }_ }_ }_ }_ }_ }_ }_ }_ }_ }_ }_ }_ }_ }_ }_ }_ }_ }_ }_ }_ }_ }_ }_ }_ }_ }_ }_ }_ }_ }_ }_ }_ }_ }_ }_ }_ }_ }_ }_ }_ }_ }_ }_ }_ }_ }_ }_ }_ }_ }_ }_ }_ }_ }_ }_ }_ }_ }_ }_ }_ }_ }_ }_ }_ }_ }_ }_ }_ }_ }_ }_ }_ }_ }_ }_ }_ }_ }_ }_ }_ }_ }_ }_ }_ }_ }_ }_ }_ }_ }_ }_ }_ }_ }_ }_ }_ }_ }_ c: >| `7 35 E5 25 ~t p$ #+ C3 C3 C3 D  {w ]u Fw Gw Hw Iw Jw Kw Kw Kw Kw Kw Kw Kw Kw Kw Kw Kw Kw Kw Kw Kw Kw Kw Kw Kw Kw Kw Kw Jw Jw Lw Mw 9{ [< [< a{ c_ [< D: 2[ }_ }_ }_ }_ }_ }_ }_ }_ }_ }_ }_ }_ >| Nw jm L8 /7 E~ E~ ;7 ;8 z7 Ng %8 =n 6e As R- R- R- ]s :u Av /s <t <u y@ 2p 2p Ow Pw Qw /v Rw Sw Tw Uw Vw Ww Xw Yw Zw `w  x .x +x @x #x $x zp 2p 6v =& ot /s Rr b$ M< 0[ v| v| Uv Vv Vv Vv Vv %x Eq Eq Eq &x %x f> lw Eq *x *x =x d9 d9 d9 d9 d9 nl j_ [4 [4 [4 [4 [4 [4 [4 [4 =u Qu Qu Qu Qu Qu Qu Qu -x 33 33 33 33 33 33 ;x pl pl pl pl pl bm ,% ,% ",
"L| k@ k@ v' >x >x >x >x >x >x >x >x k@ k@ k@ k@ k@ k@ k@ k@ k@ k@ k@ k@ k@ k@ L| ,x bq w. w. w. w. w. w. w. w. w. w. w. w. w. w. w. 33 k@ k@ k@ k@ k@ k@ k@ k@ k@ v| &< 8: *< 0: a: E~ z  A  `. F  9. n+ %+ U+ U+ D@ /# ~@ E@ (# S# <$ <$ <$ <$ <$ <$ <$ <$ H$ &% |% `% f& N% m, Aj Q- R- S- S- ,n vw _& ,& 'x %8 )x ]k p$ Z. E~ E~ ]! F~ t# im }% }_ }_ }_ }_ }_ g] k% .8 +7 25 25 25 25 '5 !x is ~x ~x ~x ~x ~x {x ]x !x mm N4 2m o' &) 1% z_ g] _{ D5 D5 D5 D5 D5 D5 D5 D5 _{ D5 V~ D5 .~ v# L4 C3 C3 C3 D  ~8 D@ U! ww 2[ }_ }_ }_ }_ }_ }_ }_ }_ }_ }_ }_ }_ }_ }_ }_ }_ }_ }_ }_ }_ }_ }_ }_ }_ }_ }_ }_ }_ }_ }_ }_ }_ }_ }_ }_ }_ }_ }_ }_ }_ }_ }_ }_ }_ }_ }_ }_ }_ }_ }_ }_ }_ }_ }_ }_ }_ }_ }_ }_ }_ }_ }_ }_ }_ }_ }_ }_ }_ }_ }_ }_ }_ }_ }_ }_ }_ }_ }_ }_ }_ }_ }_ }_ }_ }_ }_ }_ }_ }_ }_ }_ }_ }_ }_ }_ }_ }_ }_ }_ }_ }_ }_ }_ }_ }_ }_ }_ }_ }_ }_ }_ }_ }_ }_ }_ }_ }_ }_ }_ }_ }_ }_ }_ }_ }_ }_ }_ }_ }_ }_ }_ }_ }_ }_ }_ }_ }_ }_ }_ }_ }_ }_ }_ }_ }_ }_ }_ }_ }_ }_ }_ }_ }_ }_ }_ }_ }_ }_ }_ }_ }_ c: >| `7 35 u6 25 ~t p$ #+ C3 C3 C3 c/ 8. Pk 7( u/ ^x /x /x /x /x /x /x /x /x /x /x /x /x /x /x /x /x /x /x /x /x /x /x /x /x /x (x _x 9{ :x ;< ;< c_ c_ [< D: 2[ }_ }_ }_ }_ }_ }_ }_ }_ }_ }_ }_ }_ >| Nw jm L8 /7 E~ E~ )1 0) Pi {o <x Rn 6e As R- R- R- ]s W= Av /s <t <u y@ 2p 2p Ow [x }x |x 1x 2x 3x 4x 5x 6x 7x 8x 9x 0x ax bx cx dx ex fx gx 2p 6v =& ot /s Rr b$ M< 0[ v| v| Uv Vv '4 hx ix Eq Eq Eq Eq Eq Eq jx kx kx kx kx lx d9 d9 d9 d9 d9 d9 d9 O5 mx [4 [4 [4 [4 [4 [4 :4 /| nx kg >( =# -x 33 33 33 #n ox px qx j3 E% :4 G1 rx sx Gm pl tx tx ",
"k@ k@ k@ k@ k@ k@ k@ k@ k@ k@ k@ k@ k@ k@ k@ k@ k@ k@ k@ k@ k@ k@ k@ k@ k@ k@ k@ k@ k@ G1 pl -x w. w. w. w. w. w. w. w. w. w. =# sw L| k@ k@ k@ k@ k@ k@ k@ k@ k@ v| &< 8: *< 0: a: E~ z  A  `. F  9. n+ %+ U+ U+ D@ /# ~@ E@ (# S# <$ <$ <$ <$ <$ <$ <$ <$ H$ &% |% p% z% N% M& Aj Q- S- R- S- ,n ux :& vx wx %8 ]i $g p$ k+ E~ E~ ]! F~ t# xx |m }_ }_ }_ }_ }_ g] L5 =' +7 25 25 25 25 25 25 25 25 25 '5 '5 t6 K6 +8 yx  & >8 zx V~ c_ a{ a{ a{ c_ c_ c_ c_ c_ c_ c_ c_ c_ c_ c_ l2 c_ !~ v# L4 C3 C3 C3 D  ~8 D@ U! ww 2[ }_ }_ }_ }_ }_ }_ }_ }_ }_ }_ }_ }_ }_ }_ }_ }_ }_ }_ }_ }_ }_ }_ }_ }_ }_ }_ }_ }_ }_ }_ }_ }_ }_ }_ }_ }_ }_ }_ }_ }_ }_ }_ }_ }_ }_ }_ }_ }_ }_ }_ }_ }_ }_ }_ }_ }_ }_ }_ }_ }_ }_ }_ }_ }_ }_ }_ }_ }_ }_ }_ }_ }_ }_ }_ }_ }_ }_ }_ }_ }_ }_ }_ }_ }_ }_ }_ }_ }_ }_ }_ }_ }_ }_ }_ }_ }_ }_ }_ }_ }_ }_ }_ }_ }_ }_ }_ }_ }_ }_ }_ }_ }_ }_ }_ }_ }_ }_ }_ }_ }_ }_ }_ }_ }_ }_ }_ }_ }_ }_ }_ }_ }_ }_ }_ }_ }_ }_ }_ }_ }_ }_ }_ }_ }_ }_ }_ }_ }_ }_ }_ }_ }_ }_ }_ }_ }_ }_ }_ }_ }_ }_ c: >| `7 35 25 25 ~t p$ #+ C3 C3 C3 C3 h3 L4 F$ g] Ax c_ $/ $/ $/ $/ $/ $/ $/ $/ $/ $/ $/ $/ $/ $/ $/ $/ $/ $/ $/ $/ $/ $/ $/ $/ c_ c_ c_ Bx c_ c_ c_ c_ [< D: 2[ }_ }_ }_ }_ }_ }_ }_ }_ }_ }_ }_ }_ >| Nw jm L8 /7 E~ E~ q2 0) Pi {o <x {o 6e As R- S- S- ]s W= Av /s <t <u y@ 2p 2p Cx Dx Ex Fx Gx Hx Ix Jx Kx Lx Mx Nx Ox Px Qx Rx Sx Tx Ux Vx Bp 2p 6v =& ot /s Rr b$ M< 0[ v| v| Wx lw Eq Eq Eq Eq Eq Eq Eq Eq Eq Eq Xx kx kx kx Yx Zx Zx Zx |7 ]5 d9 d9 d9 d9 `x  y [4 [4 [4 [4 [4 [4 [4 [4 [4 [4 [4 [4 [4 [4 [4 [4 [4 [4 [4 [4 [4 [4 [4 [4 [4 [4 [4 :4 ",
"k@ k@ k@ k@ k@ k@ k@ k@ k@ k@ k@ k@ k@ k@ k@ k@ k@ k@ k@ k@ k@ k@ k@ k@ k@ k@ k@ k@ k@ k@ k@ k@ L| pw ,x .y ,x pw pw pw pw pw k@ k@ k@ k@ k@ k@ k@ k@ k@ k@ k@ k@ v| &< 8: *< 0: a: E~ z  A  `. F  9. n+ %+ U+ U+ D@ /# ~@ E@ (# S# <$ <$ <$ <$ <$ <$ <$ <$ I$ &% |% p% z% +y M& Aj Q- S- S- S- ,n @= <& vx wx @y J7 $g p$ q2 E~ E~ ]! F~ t# xx ,) #y }_ }_ }_ }_ }_ }% n5 E5 25 25 25 25 25 25 25 t6 25 E5 N4 +8 $y 3% %y Bx c_ E2 a{ a{ c_ c_ c_ c_ c_ c_ c_ c_ c_ c_ c_ c_ c_ c_ l2 c_ !~ v# L4 C3 C3 C3 D  ~8 D@ U! ww 2[ }_ }_ }_ }_ }_ }_ }_ }_ }_ }_ }_ }_ }_ }_ }_ }_ }_ }_ }_ }_ }_ }_ }_ }_ }_ }_ }_ }_ }_ }_ }_ }_ }_ }_ }_ }_ }_ }_ }_ }_ }_ }_ }_ }_ }_ }_ }_ }_ }_ }_ }_ }_ }_ }_ }_ }_ }_ }_ }_ }_ }_ }_ }_ }_ }_ }_ }_ }_ }_ }_ }_ }_ }_ }_ }_ }_ }_ }_ }_ }_ }_ }_ }_ }_ }_ }_ }_ }_ }_ }_ }_ }_ }_ }_ }_ }_ }_ }_ }_ }_ }_ }_ }_ }_ }_ }_ }_ }_ }_ }_ }_ }_ }_ }_ }_ }_ }_ }_ }_ }_ }_ }_ }_ }_ }_ }_ }_ }_ }_ }_ }_ }_ }_ }_ }_ }_ }_ }_ }_ }_ }_ }_ }_ }_ }_ }_ }_ }_ }_ }_ }_ }_ }_ }_ }_ }_ }_ }_ }_ }_ }_ c: z_ $) N4 25 25 ~t p$ #+ C3 C3 C3 C3 h3 ]m <$ ({ g] _{ _{ _{ _{ _{ _{ _{ _{ _{ _{ _{ _{ _{ _{ _{ _{ _{ _{ _{ _{ _{ _{ _{ _{ _{ _{ _{ _{ Bx c_ c_ c_ c_ [< D: 2[ }_ }_ }_ }_ }_ }_ }_ }_ }_ }_ }_ }_ >| Nw jm L8 /7 E~ E~ 5c 0) ^j )x qn {o &y As R- S- S- ]s W= Av /s <t <u y@ 2p 2p *y =y -y ;y >y ,y 'y )y !y ~y {y ]y ^y /y (y _y :y <y [y }y yp 2p 6v =& ot /s Rr b$ M< 0[ v| v| |y Eq Eq Eq Eq Eq Eq Eq Eq Eq Eq Eq 1y kx kx kx ut ut ut ut ut ut 2y 3y d9 d9 d9 4y X: [4 [4 [4 [4 [4 [4 [4 [4 [4 [4 [4 [4 [4 [4 [4 [4 [4 [4 [4 [4 [4 [4 [4 [4 [4 [4 [4 ",
"5y L| k@ k@ k@ k@ k@ k@ k@ eo 6y 7y 7y 6y eo k@ k@ k@ k@ k@ k@ k@ k@ k@ k@ k@ k@ k@ k@ k@ k@ k@ k@ k@ k@ k@ k@ k@ k@ k@ k@ k@ k@ k@ k@ k@ k@ k@ k@ k@ k@ k@ k@ k@ v| &< 8: *< 0: a: E~ z  A  `. F  9. n+ %+ U+ U+ D@ /# ~@ E@ (# S# <$ <$ <$ <$ <$ <$ <$ <$ ;% &% |% o% z% P% M& Aj Q- S- S- S- :- f= [& vx wx @y J7 $g p$ 5c R{ E~ ]! F~ t# xx ,) #y }_ }_ }_ }_ >| `7 N4 25 25 25 25 25 25 25 25 +7 3n %8 |% n% 8y c_ a{ E2 c_ c_ c_ c_ c_ c_ c_ c_ c_ c_ c_ c_ c_ c_ c_ c_ c_ c_ l2 c_ !~ v# L4 C3 C3 C3 D  ~8 D@ U! ww 2[ }_ }_ }_ }_ }_ }_ }_ }_ }_ }_ }_ }_ }_ }_ }_ }_ }_ }_ }_ }_ }_ }_ }_ }_ }_ }_ }_ }_ }_ }_ }_ }_ }_ }_ }_ }_ }_ }_ }_ }_ }_ }_ }_ }_ }_ }_ }_ }_ }_ }_ }_ }_ }_ }_ }_ }_ }_ }_ }_ }_ }_ }_ }_ }_ }_ }_ }_ }_ }_ }_ }_ }_ }_ }_ }_ }_ }_ }_ }_ }_ }_ }_ }_ }_ }_ }_ }_ }_ }_ }_ }_ }_ }_ }_ }_ }_ }_ }_ }_ }_ }_ }_ }_ }_ }_ }_ }_ }_ }_ }_ }_ }_ }_ }_ }_ }_ }_ }_ }_ }_ }_ }_ }_ }_ }_ }_ }_ }_ }_ }_ }_ }_ }_ }_ }_ }_ }_ }_ }_ }_ }_ }_ }_ }_ }_ }_ }_ }_ }_ }_ }_ }_ }_ }_ }_ }_ }_ }_ }_ }_ }_ c: g] [% Z  25 25 ~t p$ #+ C3 C3 C3 C3 h3 s1 E$ }_ c_ c_ c_ c_ c_ c_ c_ c_ c_ c_ c_ c_ c_ c_ c_ c_ c_ c_ c_ c_ c_ c_ c_ c_ c_ c_ c_ c_ c_ c_ c_ c_ c_ c_ [< D: 2[ }_ }_ }_ }_ }_ }_ }_ }_ }_ }_ }_ }_ >| Nw jm L8 /7 E~ E~ 5c 0) ^j )x Yo J7 9y As R- S- S- ]s W= Av /s <t <u y@ 2p 2p 0y ay by cy dy ey fy gy hy iy jy ky ly my ny oy py qy ry sy 3p 2p 6v =& ot /s Rr b$ M< 0[ m[ m[ ty Eq Eq Eq Eq Eq Eq Eq Eq Eq Eq Eq n0 kx kx uy ut ut ut ut ut ut ut ut vy 2y wy ut ut ^+ P2 [4 [4 [4 [4 [4 [4 k@ _4 _4 _4 _4 _4 _4 _4 _4 _4 _4 _4 /: [4 [4 [4 [4 [4 [4 ",
"q; xy xy xy xy xy yy yy yy zy Ay Ay Ay zy &7 By Cy Dy k@ k@ k@ k@ k@ k@ k@ k@ k@ k@ k@ k@ k@ k@ k@ k@ k@ k@ k@ k@ k@ k@ k@ k@ k@ k@ k@ k@ k@ k@ k@ k@ k@ k@ k@ k@ v| &< 8: *< 0: a: E~ z  A  `. F  9. n+ %+ U+ U+ D@ /# ~@ E@ (# S# <$ <$ <$ <$ <$ <$ <$ <$ ;% :% |% o% z% P% M& Aj Q- S- S- S- :- f= |& b& Ey <x J7 8m nh A7 <{ E~ ]! F~ t# Fy ,) #y }_ }_ }_ }_ 1%  n +7 25 25 25 25 25 25 25 N4 @) 3% }~ V~ c_ a{ c_ c_ c_ c_ c_ c_ c_ c_ c_ c_ c_ c_ c_ c_ c_ c_ c_ c_ c_ c_ c_ l2 c_ !~ v# L4 C3 C3 C3 D  ~8 D@ U! ww 2[ }_ }_ }_ }_ }_ }_ }_ }_ }_ }_ }_ }_ }_ }_ }_ }_ }_ }_ }_ }_ }_ }_ }_ }_ }_ }_ }_ }_ }_ }_ }_ }_ }_ }_ }_ }_ }_ }_ }_ }_ }_ }_ }_ }_ }_ }_ }_ }_ }_ }_ }_ }_ }_ }_ }_ }_ }_ }_ }_ }_ }_ }_ }_ }_ }_ }_ }_ }_ }_ }_ }_ }_ }_ }_ }_ }_ }_ }_ }_ }_ }_ }_ }_ }_ }_ }_ }_ }_ }_ }_ }_ }_ }_ }_ }_ }_ }_ }_ }_ }_ }_ }_ }_ }_ }_ }_ }_ }_ }_ }_ }_ }_ }_ }_ }_ }_ }_ }_ }_ }_ }_ }_ }_ }_ }_ }_ }_ }_ }_ }_ }_ }_ }_ }_ }_ }_ }_ }_ }_ }_ }_ }_ }_ }_ }_ }_ }_ }_ }_ }_ }_ }_ }_ }_ }_ }_ }_ }_ }_ }_ }_ }_ ww }% @5 25 25 ~t p$ #+ C3 C3 C3 C3 h3 s1 E$ z_ Ax E2 c_ c_ c_ c_ c_ c_ c_ c_ c_ c_ c_ c_ c_ c_ c_ c_ c_ c_ c_ c_ c_ c_ c_ c_ c_ c_ c_ c_ c_ c_ c_ c_ [< D: 2[ }_ }_ }_ }_ }_ }_ }_ }_ }_ }_ }_ }_ >| Nw jm L8 /7 E~ E~ Hl 0) ^j )x <p n5 9y As S- S- S- ]s W= Av /s <t <u y@ 2p 2p Gy Hy Iy Jy Ky Ly My Ny !y Qv Oy Py Qy Ry Qy Sy Ty Uy Vy Wy Ou 2p 6v =& ot /s Rr b$ M< 0[ m[ m[ Xy Yy sw Eq Eq Eq Eq Eq Eq Eq Eq Eq Eq Zy kx uy ut ut ut ut ut ut ut ut ut ut ut ut ut ut So `y  z .z +z +z +z +z +z +z +z +z +z +z +z +z +z +z +z +z +z +z +z +z +z +z ",
"@z #z Vo Vo Vo Vo Vo Vo $z .| .| .| .| .| .| .| .| .| %z S5 &z *z k@ k@ k@ k@ k@ k@ k@ k@ k@ k@ k@ k@ k@ k@ k@ k@ k@ k@ k@ k@ k@ k@ k@ k@ k@ eo =z =z k@ k@ -z ;z m[ &< 8: *< 0: a: E~ z  A  `. F  9. n+ %+ U+ U+ D@ /# ~@ E@ (# S# <$ <$ <$ <$ <$ <$ <$ <$ X$ :% k% p% z% P% >z Aj Q- S- R- R- :- f= v& a& ,z <x J7 8m k' A7 <{ E~ ]! F~ t# Fy ,) #y }_ }_ }_ }_ k% 3m +7 25 25 25 25 25 '5 /6 @) }~ Bx c_ c_ c_ c_ c_ c_ c_ c_ c_ c_ c_ c_ c_ c_ c_ c_ c_ c_ c_ c_ c_ c_ c_ c_ c_ l2 c_ !~ v# L4 C3 C3 C3 D  ~8 D@ U! ww 2[ }_ }_ }_ }_ }_ }_ }_ }_ }_ }_ }_ }_ }_ }_ }_ }_ }_ }_ }_ }_ }_ }_ }_ }_ }_ }_ }_ }_ }_ }_ }_ }_ }_ }_ }_ }_ }_ }_ }_ }_ }_ }_ }_ }_ }_ }_ }_ }_ }_ }_ }_ }_ }_ }_ }_ }_ }_ }_ }_ }_ }_ }_ }_ }_ }_ }_ }_ }_ }_ }_ }_ }_ }_ }_ }_ }_ }_ }_ }_ }_ }_ }_ }_ }_ }_ }_ }_ }_ }_ }_ }_ }_ }_ }_ }_ }_ }_ }_ }_ }_ }_ }_ }_ }_ }_ }_ }_ }_ }_ }_ }_ }_ }_ }_ }_ }_ }_ }_ }_ }_ }_ }_ }_ }_ }_ }_ }_ }_ }_ }_ }_ }_ }_ }_ }_ }_ }_ }_ }_ }_ }_ }_ }_ }_ }_ }_ }_ }_ }_ }_ }_ }_ }_ }_ }_ }_ }_ }_ }_ }_ }_ }_ ww Zm n5 J6 25 ~t p$ #+ C3 C3 C3 C3 ~8 ]m 'z <% D: a{ E2 c_ c_ c_ c_ c_ c_ c_ c_ c_ c_ c_ c_ c_ c_ c_ c_ c_ c_ c_ c_ c_ c_ c_ c_ c_ c_ c_ c_ c_ c_ c_ [< D: 2[ }_ }_ }_ }_ }_ }_ }_ }_ }_ }_ }_ }_ >| Nw jm L8 /7 E~ E~ X@ 0) ]k ]i <p R6 9y As S- S- S- ]s W= Av /s <t <u y@ 2p 2p )z !z lc ~z {z ]z ^z /z (z _z :z <z [z }z |z 1z 2z 3z 4z 5z 2p 2p 6v =& ot /s Rr b$ M< 0[ m[ m[ Xy 6z 6z 7z Eq Eq Eq Eq Eq Eq Eq Eq Eq 8z kx 9z ut ut ut ut ut ut ut ut ut ut ut Zx #& ut ut ut ut 0z 0z 0z 0z az az az az az az az bz 0z 0z 0z 0z cz dz dz dz dz dz dz ",
"@z @z ez Vo Vo Vo Vo Vo fz .| .| .| .| .| .| .| .| .| .| .| .| gz hz hz iz jz rl kz kz kz lz op op op op op k@ k@ k@ k@ k@ k@ mz nz oz pz ,. ,. ,. ,. ,. ,. qz rz 7: &< 8: *< 0: a: E~ z  A  `. F  9. n+ %+ U+ U+ D@ /# ~@ E@ (# S# <$ <$ <$ <$ <$ <$ <$ <$ m5 i% k% q% B% P% >z Aj R- S- R- R- sz tz w& a& uz qn J7 8m k' A7 <{ E~ ]! F~ t# Fy ,) #y }_ }_ }_ }_ 1%  8 +7 25 25 25 25 '5 /6 4m vz Bx c_ c_ c_ c_ c_ c_ c_ c_ c_ c_ c_ c_ c_ c_ c_ c_ c_ c_ c_ c_ c_ c_ c_ c_ c_ c_ l2 c_ !~ v# L4 C3 C3 C3 D  ~8 D@ U! ww 2[ }_ }_ }_ }_ }_ }_ }_ }_ }_ }_ }_ }_ }_ }_ }_ }_ }_ }_ }_ }_ }_ }_ }_ }_ }_ }_ }_ }_ }_ }_ }_ }_ }_ }_ }_ }_ }_ }_ }_ }_ }_ }_ }_ }_ }_ }_ }_ }_ }_ }_ }_ }_ }_ }_ }_ }_ }_ }_ }_ }_ }_ }_ }_ }_ }_ }_ }_ }_ }_ }_ }_ }_ }_ }_ }_ }_ }_ }_ }_ }_ }_ }_ }_ }_ }_ }_ }_ }_ }_ }_ }_ }_ }_ }_ }_ }_ }_ }_ }_ }_ }_ }_ }_ }_ }_ }_ }_ }_ }_ }_ }_ }_ }_ }_ }_ }_ }_ }_ }_ }_ }_ }_ }_ }_ }_ }_ }_ }_ }_ }_ }_ }_ }_ }_ }_ }_ }_ }_ }_ }_ }_ }_ }_ }_ }_ }_ }_ }_ }_ }_ }_ }_ }_ }_ }_ }_ }_ }_ }_ }_ }_ }_ ww O, n5 J6 25 ~t p$ #+ C3 C3 C3 C3 ;h C3 p$ qp &) wz 8y [< c_ c_ c_ c_ c_ c_ c_ c_ c_ c_ c_ c_ c_ c_ c_ c_ c_ c_ c_ c_ c_ c_ c_ c_ c_ c_ c_ c_ c_ c_ [< D: 2[ }_ }_ }_ }_ }_ }_ }_ }_ }_ }_ }_ }_ >| Nw jm L8 /7 E~ E~ X@ 0) ]k ]i <p R6 4~ As S- S- R- ]s W= xz /s <t <u y@ 2p Bv yz zz Az Bz Cz Dz Ez Fz Gz Hz Iz Jz Kz Lz }z Mz Nz Oz Pz Qz 2p 2p 6v =& ot /s Rr b$ M< 0[ m[ m[ Xy 6z 6z Rz Eq Eq Eq Eq Eq Eq Eq Eq Eq Sr kx Sz ut ut ut ut ut ut ut Zx Tz Uz  s  s  s p@ p@ p@ 1# Vz Vz Vz Vz Vz Vz Vz Vz Vz Vz Vz Vz Vz Vz Vz Vz Vz Vz Vz Wz Xz Yz &} ",
"Zz @z @z `z 5l  A ns .A .| .| .| .| .| .| .| .| .| .| .| .| .| -  hz hz hz hz hz hz hz hz hz hz hz hz hz hz hz hz hz hz hz +A @A #A #A #A $A ,. ,. ,. ,. %A &A *A 7: &< 8: *< 0: a: E~ z  A  `. F  9. n+ %+ U+ U+ D@ /# ~@ E@ (# S# <$ <$ <$ <$ <$ <$ <$ <$ m5 i% 2% r% A% R% O& Aj R- S- S- R- =A w, 1& a& -A Yo Jq 8m k' ;A <{ E~ ]! F~ t# jm $) #y }_ }_ }_ }_ >| @) +7 25 25 25 t6 E5  8 m% V~ c_ c_ c_ c_ c_ c_ c_ c_ c_ c_ c_ c_ c_ c_ c_ c_ c_ c_ c_ c_ c_ c_ c_ c_ c_ c_ c_ l2 c_ !~ v# L4 C3 C3 C3 D  ~8 D@ U! ww 2[ }_ }_ }_ }_ }_ }_ }_ }_ }_ }_ }_ }_ }_ }_ }_ }_ }_ }_ }_ }_ }_ }_ }_ }_ }_ }_ }_ }_ }_ }_ }_ }_ }_ }_ }_ }_ }_ }_ }_ }_ }_ }_ }_ }_ }_ }_ }_ }_ }_ }_ }_ }_ }_ }_ }_ }_ }_ }_ }_ }_ }_ }_ }_ }_ }_ }_ }_ }_ }_ }_ }_ }_ }_ }_ }_ }_ }_ }_ }_ }_ }_ }_ }_ }_ }_ }_ }_ }_ }_ }_ }_ }_ }_ }_ }_ }_ }_ }_ }_ }_ }_ }_ }_ }_ }_ }_ }_ }_ }_ }_ }_ }_ }_ }_ }_ }_ }_ }_ }_ }_ }_ }_ }_ }_ }_ }_ }_ }_ }_ }_ }_ }_ }_ }_ }_ }_ }_ }_ }_ }_ }_ }_ }_ }_ }_ }_ }_ }_ }_ }_ }_ }_ }_ }_ }_ }_ }_ }_ }_ }_ }_ }_ c: b/ R6 E5 25 ~t p$ #+ C3 C3 C3 C3 ;h C3 r& >A N4 .8 &) .: V~ c_ c_ c_ c_ c_ c_ c_ c_ c_ c_ c_ c_ c_ c_ c_ c_ c_ c_ c_ c_ c_ c_ c_ c_ c_ c_ c_ c_ c_ [< D: 2[ }_ }_ }_ }_ }_ }_ }_ }_ }_ }_ }_ }_ >| Nw jm L8 /7 E~ E~ X@ 0) ]k J7 <p v4 ,A 'A S- R- R- 6j X= xz /s <t <u y@ 2p Bv )A !A ~A {A ]A ^A /A (A _A Oz :A <A [A }A |A 1A 2A 3A 4A 5A 6A 2p 6v =& ot /s Rr b$ M< 0[ m[ m[ Xy 6z 6z 6z 7z Eq Eq Eq Eq Eq Eq Eq Eq t$ 7A 8A ut ut ut ut Zx N6 Im  s  s  s  s  s 9A p@ p@ p@ J) Vz Vz Vz Vz Vz Vz Vz Vz Vz Vz Vz Vz Vz Vz Vz Vz Vz Vz Vz Vz Vz Vz Vz ",
"0A p~ )o @z @z @z @z #z Vo 47 .| .| .| .| .| .| .| .| .| .| .| .| .| aA bA cA dA dA dA dA eA bA bA bA bA fA dA gz hz gA -} T{ hA iA jA kA lA lA mA ,8 ,. ,. ,. ,. [) &< 8: *< 0: a: E~ z  A  `. F  9. n+ %+ U+ U+ D@ /# ~@ E@ (# S# <$ <$ <$ <$ <$ <$ <$ D$ /n i% 2% s% A% R% nA ml R- S- S- S- =A oA 2& {& -A Yo `k 1g Jh X@ <{ E~ ]! F~ t# jm $) >| }_ }_ }_ }_ }_ <% v6 25 25 25 25 +8 2% D: c_ c_ c_ c_ c_ c_ c_ c_ c_ c_ c_ c_ c_ c_ c_ c_ c_ c_ c_ c_ c_ c_ c_ c_ c_ c_ c_ c_ l2 c_ !~ v# L4 C3 C3 C3 D  ~8 D@ U! ww 2[ }_ }_ }_ }_ }_ }_ }_ }_ }_ }_ }_ }_ }_ }_ }_ }_ }_ }_ }_ }_ }_ }_ }_ }_ }_ }_ }_ }_ }_ }_ }_ }_ }_ }_ }_ }_ }_ }_ }_ }_ }_ }_ }_ }_ }_ }_ }_ }_ }_ }_ }_ }_ }_ }_ }_ }_ }_ }_ }_ }_ }_ }_ }_ }_ }_ }_ }_ }_ }_ }_ }_ }_ }_ }_ }_ }_ }_ }_ }_ }_ }_ }_ }_ }_ }_ }_ }_ }_ }_ }_ }_ }_ }_ }_ }_ }_ }_ }_ }_ }_ }_ }_ }_ }_ }_ }_ }_ }_ }_ }_ }_ }_ }_ }_ }_ }_ }_ }_ }_ }_ }_ }_ }_ }_ }_ }_ }_ }_ }_ }_ }_ }_ }_ }_ }_ }_ }_ }_ }_ }_ }_ }_ }_ }_ }_ }_ }_ }_ }_ }_ }_ }_ }_ }_ }_ }_ }_ }_ }_ }_ }_ }_ _{ >|  8 E5 25 ~t p$ #+ C3 C3 C3 C3 ;h s4 3! lm '5 25 $8 &) }w a{ c_ c_ c_ c_ c_ c_ c_ c_ c_ c_ c_ c_ c_ c_ c_ c_ c_ c_ c_ c_ c_ c_ c_ c_ c_ c_ c_ c_ [< D: 2[ }_ }_ }_ }_ }_ }_ }_ }_ }_ }_ }_ }_ >| Nw jm L8 /7 E~ %! C@ c$ ]k Jq pA .7 4~ 'A S- S- S- ]s X= qA /s <t <u y@ 2p Bv )A rA sA tA uA vA wA xA Lu Ww yA zA AA BA CA DA EA FA GA HA 3p 2p 6v =& ot /s Rr b$ M< 0[ m[ m[ Xy 6z 6z 6z a2 Eq Eq Eq Eq Eq Eq Eq 9v IA JA KA LA MA LA Im  s  s  s  s  s  s  s  s -* p@ p@ p@ NA Vz Vz Vz Vz Vz Vz Vz Vz Vz Vz Vz Vz Vz Vz Vz Vz Vz Vz Vz Vz Vz Vz Vz ",
"G4 0A 0A ,% OA @z @z @z @z @z PA ez QA a' .| .| .| .| .| .| .| .| .| .| .| .| .| .| .| .| .| .| .| .| .| .| .| 7' RA SA SA SA SA s! TA lA lA lA lA UA G( ,. ,. ,. [) &< 8: *< 0: a: E~ z  A  `. F  9. n+ %+ U+ U+ D@ /# ~@ E@ (# S# <$ <$ <$ <$ <$ <$ <$ D$ Y$ i% 2% r% A% R% VA Aj R- S- S- S- =A oA 4& {* WA <p R6 Lm Jh X@ <{ E~ ]! F~ t# XA @) z_ g] g] g] g] g] L5 $* /6 25 '5 Z7 YA 2[ c_ c_ c_ c_ c_ c_ c_ c_ c_ c_ c_ c_ c_ c_ c_ c_ c_ c_ c_ c_ c_ c_ c_ c_ c_ c_ c_ c_ c_ l2 c_ !~ v# L4 C3 C3 C3 D  ~8 D@ U! c: D5 g] g] g] g] g] g] g] g] g] g] g] g] g] g] g] g] g] g] g] g] g] g] g] g] g] g] g] g] g] g] g] g] g] g] g] g] g] g] g] g] g] g] g] g] g] g] g] g] g] g] g] g] g] g] g] g] g] g] g] g] g] g] g] g] g] g] g] g] g] g] g] g] g] g] g] g] g] g] g] g] g] g] g] g] g] g] g] g] g] g] g] g] g] g] g] g] g] g] g] g] g] g] g] g] g] g] g] g] g] g] g] g] g] g] g] g] g] g] g] g] g] g] g] g] g] g] g] g] g] g] g] g] g] g] g] g] g] g] g] g] g] g] g] g] g] g] g] g] g] g] g] g] g] g] g] g] g] g] g] g] g] g] _{ >|  8 E5 25 ~t p$ #+ C3 C3 C3 C3 ;h G  {8 lm U6 t6 X7 yx }~ a{ a{ c_ c_ c_ c_ c_ c_ c_ c_ c_ c_ c_ c_ c_ c_ c_ c_ c_ c_ c_ c_ c_ c_ c_ c_ c_ c_ c_ [< D: 2[ g] g] g] g] g] g] g] g] g] g] g] g] z_ &) ZA L8 /7 E~ E~ C@ Pa $g Jq pA  8 4~ As S- S- S- ]s X= qA /s <t <u y@ 2p Bv `A  B .B +B @B #B $B %B &B *B =B -B ;B >B ,B 'B dx )B !B ~B 3p 2p 6v =& ot /s Rr b$ M< 0[ m[ m[ Xy 6z 6z 6z 6z P| Eq Eq Eq Eq Eq t$ {B ]B ^B  s  s  s  s  s  s  s  s  s  s  s  s  s *. p@ p@ p@ /B Vz Vz Vz Vz Vz Vz Vz Vz Vz Vz Vz Vz Vz Y3 (B _B :B <B Vz Vz Vz Vz :B ",
"[B }B 0A 0A 0A q. &5 @z @z @z @z @z @z @z @z |B $t 1B o3 .| .| .| .| .| .| .| .| .| +3 !q RA SA RA RA RA RA SA SA SA SA SA SA SA e/ lA lA lA lA lA lA lA <1 +3 ,. [) &< 8: *< 0: a: E~ z  A  `. F  9. n+ %+ U+ U+ D@ /# ~@ E@ (# S# <$ <$ <$ <$ <$ <$ <$ D$ Y$ <% 2% r% A% R% VA Aj R- S- S- S- =A 2B 3B t& 4B <p R6 =n Jh Xa <{ E~ ]! F~ t# jm `7 >| g] g] g] g] g] >| @) N4 25 E5  8 >8 [< c_ c_ c_ c_ c_ c_ c_ c_ c_ c_ c_ c_ c_ c_ c_ c_ c_ c_ c_ c_ c_ c_ c_ c_ c_ c_ c_ c_ c_ l2 c_ !~ v# L4 C3 C3 C3 D  ~8 D@ U! c: D5 g] g] g] g] g] g] g] g] g] g] g] g] g] g] g] g] g] g] g] g] g] g] g] g] g] g] g] g] g] g] g] g] g] g] g] g] g] g] g] g] g] g] g] g] g] g] g] g] g] g] g] g] g] g] g] g] g] g] g] g] g] g] g] g] g] g] g] g] g] g] g] g] g] g] g] g] g] g] g] g] g] g] g] g] g] g] g] g] g] g] g] g] g] g] g] g] g] g] g] g] g] g] g] g] g] g] g] g] g] g] g] g] g] g] g] g] g] g] g] g] g] g] g] g] g] g] g] g] g] g] g] g] g] g] g] g] g] g] g] g] g] g] g] g] g] g] g] g] g] g] g] g] g] g] g] g] g] g] g] g] g] g] 5B 6B  8 E5 25 ~t p$ #+ C3 C3 C3 C3 ;h G  {8 mm U6 25 &8 $y }~ a{ a{ c_ c_ c_ c_ c_ c_ c_ c_ c_ c_ c_ c_ c_ c_ c_ c_ c_ c_ c_ c_ c_ c_ c_ c_ c_ c_ c_ c_ V~ D5 g] g] g] g] g] g] g] g] g] g] g] g] z_ j% ZA L8 /7 E~ E~ b) p$ $g Jq gq  8 4~ As S- S- S- ]s Y= qA /s <t <u y@ 2p 7B 8B 9B 0B aB bB cB dB eB fB *B gB -B hB iB jB kB lB mB Rx ~B 3p 2p 6v =& ot /s Rr b$ M< 0[ m[ m[ Xy 6z 6z 6z 6z 6z Yy nB oB Eq pB qB qB rB  s  s  s  s  s  s  s  s  s  s  s  s  s sB p@ p@ p@ p@ /B Vz Vz Vz Vz Vz Vz Vz Vz Vz Vz Vz Vz Vz tB (B (B (B (B _B Vz Vz (B (B ",
"uB uB vB wB 0A 0A xB yB @z @z @z @z @z zB AB BB BB BB BB CB DB o3 EB .| .| .| Lh FB 9r 9r 9r 9r 9r 9r GB SA SA SA SA SA SA SA SA O' lA lA lA lA lA lA lA lA lA lA R! &< 8: *< 0: a: E~ z  A  `. F  9. n+ %+ U+ U+ D@ /# ~@ E@ (# S# <$ <$ <$ <$ <$ <$ <$ E$ -% <% 2% s% ~* T% Q& HB R- S- S- S- =A 2B 6& ^& IB <p .7 =n Jh b) <{ E~ ]! F~ t# jm `7 >| g] g] g] g] g] g] L5 .8 Z  g6 3% V~ c_ c_ c_ c_ c_ c_ c_ c_ c_ c_ c_ c_ c_ c_ c_ c_ c_ c_ c_ c_ c_ c_ c_ c_ c_ c_ c_ c_ c_ c_ l2 c_ !~ v# L4 C3 C3 C3 D  ~8 D@ U! c: D5 g] g] g] g] g] g] g] g] g] g] g] g] g] g] g] g] g] g] g] g] g] g] g] g] g] g] g] g] g] g] g] g] g] g] g] g] g] g] g] g] g] g] g] g] g] g] g] g] g] g] g] g] g] g] g] g] g] g] g] g] g] g] g] g] g] g] g] g] g] g] g] g] g] g] g] g] g] g] g] g] g] g] g] g] g] g] g] g] g] g] g] g] g] g] g] g] g] g] g] g] g] g] g] g] g] g] g] g] g] g] g] g] g] g] g] g] g] g] g] g] g] g] g] g] g] g] g] g] g] g] g] g] g] g] g] g] g] g] g] g] g] g] g] g] g] g] g] g] g] g] g] g] g] g] g] g] g] g] g] g] g] g] 5B 6B  8 E5 25 ~t p$ #+ C3 C3 C3 C3 ;h G  {8 mm U6 +5 JB j% ;< a{ a{ c_ c_ c_ c_ c_ c_ c_ c_ c_ c_ c_ c_ c_ c_ c_ c_ c_ c_ c_ c_ c_ c_ c_ c_ c_ c_ c_ c_ V~ D5 g] g] g] g] g] g] g] g] g] g] g] g] z_ j% ZA L8 /7 E~ E~ b) p$ 8m `k gq %8 KB As S- S- S- ]s Y= qA /s <t <u y@ 2p 7B 8B 9B 0B aB LB cB dB MB NB OB PB QB RB RB QB yA SB TB UB VB Ou 2p 6v =& ot /s Rr b$ M< 0[ m[ m[ Xy 6z 6z 6z 6z 6z 6z 6z WB XB qB qB YB  s  s  s  s  s  s  s  s  s  s  s  s  s  s ZB p@ p@ p@ p@ NA Vz Vz Vz Vz Vz Vz :B (B (B Y3 Vz Vz <B (B (B (B (B (B (B Y3 (B (B (B ",
"uB uB uB uB tB }B 0A 0A ,% OA @z @z Pn .g `B  C BB BB BB BB BB BB BB BB .C +C @C @C @C @C @C @C @C @C @C @C #C $C SA SA SA SA !' lA lA lA lA lA lA lA lA lA %C G( R! &< 8: *< 0: a: E~ z  A  `. F  9. n+ %+ U+ U+ D@ /# ~@ E@ (# S# <$ <$ <$ <$ <$ <$ <$ F$  % <% 2% s% M% T% Q& Aj R- S- S- S- =A &= 7& /& IB pA .7 =n Jh b) <{ E~ ]! F~ t# jm `7 >| g] g] g] g] g] g] 6^ `m j% wz &C c_ c_ c_ c_ c_ c_ c_ c_ c_ c_ c_ c_ c_ c_ c_ c_ c_ c_ c_ c_ c_ c_ c_ c_ c_ c_ c_ c_ c_ c_ c_ l2 c_ !~ v# L4 C3 C3 C3 D  ~8 D@ U! c: D5 g] g] g] g] g] g] g] g] g] g] g] g] g] g] g] g] g] g] g] g] g] g] g] g] g] g] g] g] g] g] g] g] g] g] g] g] g] g] g] g] g] g] g] g] g] g] g] g] g] g] g] g] g] g] g] g] g] g] g] g] g] g] g] g] g] g] g] g] g] g] g] g] g] g] g] g] g] g] g] g] g] g] g] g] g] g] g] g] g] g] g] g] g] g] g] g] g] g] g] g] g] g] g] g] g] g] g] g] g] g] g] g] g] g] g] g] g] g] g] g] g] g] g] g] g] g] g] g] g] g] g] g] g] g] g] g] g] g] g] g] g] g] g] g] g] g] g] g] g] g] g] g] g] g] g] g] g] g] g] g] g] g] 5B Le o' E5 25 ~t p$ #+ C3 C3 C3 C3 ;h G  {8 mm Y7 25 +8 6m c_ a{ c_ c_ c_ c_ c_ c_ c_ c_ c_ c_ c_ c_ c_ c_ c_ c_ c_ c_ c_ c_ c_ c_ c_ c_ c_ c_ c_ c_ c_ V~ D5 g] g] g] g] g] g] g] g] g] g] g] g] z_ j% ZA L8 /7 E~ E~ b) nh 8m R6 gq %8 4~ As S- S- S- ]s ~, *C =C <t <u y@ 2p 7B `A -C ;C >C LB cB ,C 'C )C !C ~C {C ]C jy ^C iy Nu /C (C yp 2p 2p 6v =& ot /s Rr b$ M< 0[ m[ m[ Xy 6z 6z 6z 6z 6z 6z  w o@ qB qB _C :C 9A <C -* ZB ZB ZB C= p@ p@ p@ p@ p@ p@ p@ p@ p@ p@ p@ p@ [C Vz Vz Vz Vz Vz <B (B (B (B (B _B <B :B (B (B (B (B (B (B (B (B (B (B ",
"uB uB uB uB uB uB }C }B 0A 0A |C |C 0A 0A 0A 0A F# `B 1C 2C BB BB BB BB BB BB 2C +C @C @C @C @C @C @C 3C f! GB T{ e/ L' 4C 5C lA lA lA lA lA lA lA lA lA lA lA %C [) &< 8: *< 0: a: E~ z  A  `. F  9. n+ %+ U+ U+ D@ /# ~@ E@ (# S# <$ <$ <$ <$ <$ <$ <$ F$  % <% 2% s% M% S% R& Aj R- S- S- S- <- e= x& (& IB pA =' =n Jh b) <{ E~ ]! F~ t# jm `7 >| g] g] g] g] g] g] g] Z5 n~ c_ c_ c_ c_ c_ c_ c_ c_ c_ c_ c_ c_ c_ c_ c_ c_ c_ c_ c_ c_ c_ c_ c_ c_ c_ c_ c_ c_ c_ c_ c_ c_ c_ l2 c_ !~ v# L4 C3 C3 C3 D  ~8 D@ U! c: D5 g] g] g] g] g] g] g] g] g] g] g] g] g] g] g] g] g] g] g] g] g] g] g] g] g] g] g] g] g] g] g] g] g] g] g] g] g] g] g] g] g] g] g] g] g] g] g] g] g] g] g] g] g] g] g] g] g] g] g] g] g] g] g] g] g] g] g] g] g] g] g] g] g] g] g] g] g] g] g] g] g] g] g] g] g] g] g] g] g] g] g] g] g] g] g] g] g] g] g] g] g] g] g] g] g] g] g] g] g] g] g] g] g] g] g] g] g] g] g] g] g] g] g] g] g] g] g] g] g] g] g] g] g] g] g] g] g] g] g] g] g] g] g] g] g] g] g] g] g] g] g] g] g] g] g] g] g] g] g] g] g] g] 5B Le 4m E5 25 ~t p$ #+ C3 C3 C3 C3 ;h G  {8 km Y7 U6 o' }_ a{ a{ c_ c_ c_ c_ c_ c_ c_ c_ c_ c_ c_ c_ c_ c_ c_ c_ c_ c_ c_ c_ c_ c_ c_ c_ c_ c_ c_ c_ c_ V~ D5 g] g] g] g] g] g] g] g] g] g] g] g] z_ j% 6C L8 /7 E~ z} od nh 8m R6 @s $y 5| As S- S- S- ]s Y= *C =C <t <u y@ 2p 7B `A 7C 8C 9C 0C aC bC cC dC eC fC gC ^C hC qy iC jC Pz kC 2p 2p 2p 6v =& ot /s Rr b$ M< 0[ R! m[ Xy 6z 6z 6z 6z 6z lC qB {B mC nC p@ p@ p@ p@ p@ p@ p@ p@ p@ p@ p@ p@ p@ p@ p@ p@ p@ p@ p@ p@ p@ J) Vz Vz Vz Vz Vz _B (B (B (B (B (B (B (B (B (B H3 oC (B (B (B (B (B (B ",
"uB uB uB uB uB uB uB uB }C tm 0A 0A 0A 0A 0A 0A 0A 0A 0A 0A 0A 0A 0A 0A 0A 0A 0A 0A 0A 0A 0A 0A 0A 0A 0A 0A 0A pC qC rC lA lA lA lA lA lA lA lA lA lA lA lA lA lA R! &< 8: *< 0: a: E~ z  A  `. F  9. n+ %+ U+ U+ D@ /# ~@ E@ (# S# <$ <$ <$ <$ <$ <$ <$ F$  % <% m% u% M% ,& F* Aj R- S- S- S- <- z, X& _& sC gq =' =n {m od <{ E~ ]! F~ t# jm `7 z_ g] g] g] g] g] g] g] n~ c_ c_ c_ c_ c_ c_ c_ c_ c_ c_ c_ c_ c_ c_ c_ c_ c_ c_ c_ c_ c_ c_ c_ c_ c_ c_ c_ c_ c_ c_ c_ c_ c_ c_ l2 c_ !~ v# L4 C3 C3 C3 D  ~8 D@ U! c: D5 g] g] g] g] g] g] g] g] g] g] g] g] g] g] g] g] g] g] g] g] g] g] g] g] g] g] g] g] g] g] g] g] g] g] g] g] g] g] g] g] g] g] g] g] g] g] g] g] g] g] g] g] g] g] g] g] g] g] g] g] g] g] g] g] g] g] g] g] g] g] g] g] g] g] g] g] g] g] g] g] g] g] g] g] g] g] g] g] g] g] g] g] g] g] g] g] g] g] g] g] g] g] g] g] g] g] g] g] g] g] g] g] g] g] g] g] g] g] g] g] g] g] g] g] g] g] g] g] g] g] g] g] g] g] g] g] g] g] g] g] g] g] g] g] g] g] g] g] g] g] g] g] g] g] g] g] g] g] g] g] g] g] 5B >| g6 E5 25 ~t p$ #+ C3 C3 C3 C3 ;h G  {8 lm U6 2n YA D5 a{ a{ c_ c_ c_ c_ c_ c_ c_ c_ c_ c_ c_ c_ c_ c_ c_ c_ c_ c_ c_ c_ c_ c_ c_ c_ c_ c_ c_ c_ c_ V~ D5 g] g] g] g] g] g] g] g] g] g] g] g] z_ tC 6C L8 /7 E~ <{ b) p$ 8m R6 @s qn 5| As S- S- S- ]s {, *C =C <t <u y@ 2p Bv )A rA uC vC wC xC yC Fz zC AC BC CC DC EC {C FC GC sy zp 2p 2p 2p 6v =& ot /s Rr b$ M< 0[ V( V( HC IC IC IC >3 JC KC KA p@ p@ p@ p@ p@ p@ LC 1# J) [C NA /B /B /B /B /B /B /B [C J) 1# =. p@ p@ 1# Vz Vz Vz Vz Vz tB (B (B (B (B MC H3 83 NC OC OC OC PC (B (B (B (B (B ",
"uB uB uB uB uB uB uB uB uB uB QC 0A 0A 0A 0A 0A 0A 0A 0A 0A 0A 0A 0A 0A 0A 0A 0A 0A 0A 0A 0A 0A 0A 0A 0A 0A 0A 0A 0A 0A lA lA lA lA lA lA lA lA lA lA lA lA lA lA R! &< 8: *< 0: a: E~ z  A  `. F  9. n+ %+ U+ U+ D@ /# ~@ E@ (# S# <$ <$ <$ <$ <$ <$ <$ F$  % <% m% u% @* ,& F* Aj R- S- S- R- RC *= X& 9& SC gq  8 =n {m 5f <{ E~ ]! F~ t# jm `7 z_ g] g] g] g] g] g] g] D5 V~ c_ c_ c_ c_ c_ c_ c_ c_ c_ c_ c_ c_ c_ c_ c_ c_ c_ c_ c_ c_ c_ c_ c_ c_ c_ c_ c_ c_ c_ c_ c_ c_ c_ l2 c_ !~ v# L4 C3 C3 C3 D  ~8 D@ U! c: D5 g] g] g] g] g] g] g] g] g] g] g] g] g] g] g] g] g] g] g] g] g] g] g] g] g] g] g] g] g] g] g] g] g] g] g] g] g] g] g] g] g] g] g] g] g] g] g] g] g] g] g] g] g] g] g] g] g] g] g] g] g] g] g] g] g] g] g] g] g] g] g] g] g] g] g] g] g] g] g] g] g] g] g] g] g] g] g] g] g] g] g] g] g] g] g] g] g] g] g] g] g] g] g] g] g] g] g] g] g] g] g] g] g] g] g] g] g] g] g] g] g] g] g] g] g] g] g] g] g] g] g] g] g] g] g] g] g] g] g] g] g] g] g] g] g] g] g] g] g] g] g] g] g] g] g] g] g] g] g] g] g] g] 5B >| g6 E5 25 ~t p$ #+ C3 C3 C3 C3 ;h G  {8 lm U6 +8 k% Bx a{ c_ c_ c_ c_ c_ c_ c_ c_ c_ c_ c_ c_ c_ c_ c_ c_ c_ c_ c_ c_ c_ c_ c_ c_ c_ c_ c_ c_ c_ c_ V~ D5 g] g] g] g] g] g] g] g] g] g] g] g] A3 tC im L8 /7 E~ <{ b) p$ 8m R6 *t ,q 5| As S- S- S- ]s {, *C =C <t <u y@ 2p 2p )A TC Gc UC VC WC XC YC mt ZC !C `C  D .D Iz 2v eC 5A 2p 2p 2p 2p 6v =& ot /s Rr b$ M< 0[ 7: 7: HC JC JC JC +D Nl p@ p@ p@ 1# @D NA /B Vz Vz Vz Y3 :B (B tB Vz Vz Vz Vz Vz Vz Vz Vz Vz Vz Vz NA [C Vz Vz Vz Vz Vz (B (B (B (B OC OC OC OC OC OC OC OC OC H3 (B (B (B (B ",
"uB uB uB uB uB uB uB uB uB uB }C 0A 0A 0A 0A 0A 0A 0A 0A 0A 0A 0A 0A 0A 0A 0A 0A 0A 0A 0A 0A 0A 0A 0A 0A 0A 0A 0A 0A 0A #D lA lA lA lA lA lA lA lA lA lA lA lA lA R! &< 8: *< 0: a: E~ z  A  `. F  9. n+ %+ U+ U+ D@ /# ~@ E@ (# S# <$ <$ <$ <$ <$ <$ <$ G$  % <% 7% u% h, U% F* Aj R- S- S- S- <- *= Z, 9& SC gq !v Rn {m 5f <{ E~ ]! F~ t# jm `7 }_ g] g] g] g] g] g] g] D5 V~ c_ c_ c_ c_ c_ c_ c_ c_ c_ c_ c_ c_ c_ c_ c_ c_ c_ c_ c_ c_ c_ c_ c_ c_ c_ c_ c_ c_ c_ c_ c_ c_ c_ l2 c_ !~ v# L4 C3 C3 C3 D  ~8 D@ U! c: D5 g] g] g] g] g] g] g] g] g] g] g] g] g] g] g] g] g] g] g] g] g] g] g] g] g] g] g] g] g] g] g] g] g] g] g] g] g] g] g] g] g] g] g] g] g] g] g] g] g] g] g] g] g] g] g] g] g] g] g] g] g] g] g] g] g] g] g] g] g] g] g] g] g] g] g] g] g] g] g] g] g] g] g] g] g] g] g] g] g] g] g] g] g] g] g] g] g] g] g] g] g] g] g] g] g] g] g] g] g] g] g] g] g] g] g] g] g] g] g] g] g] g] g] g] g] g] g] g] g] g] g] g] g] g] g] g] g] g] g] g] g] g] g] g] g] g] g] g] g] g] g] g] g] g] g] g] g] g] g] g] g] g] _{ 6B g6 E5 25 ~t p$ #+ C3 C3 C3 C3 ;h G  $D %D ]o o' z_ c_ a{ c_ c_ c_ c_ c_ c_ c_ c_ c_ c_ c_ c_ c_ c_ c_ c_ c_ c_ c_ c_ c_ c_ c_ c_ c_ c_ c_ c_ c_ c_ V~ D5 g] g] g] g] g] g] g] g] g] g] g] g] g] &D Fo 5e /7 E~ <{ b) p$ 1g .7 *t <p 5| As S- S- S- ]s {, *C =C <t <u y@ 2p 2p )z *D =D -D ;D >D ,D 'D )D !D GC Uy Iz ~D {D iy ]D ^D 4p 2p 2p 2p 6v =& ot /s Rr b$ M< 0[ m[ m[ /D p@ p@ p@ p@ p@ p@ 1# Vz Vz Vz :B _B tB (B (B (B (B (B (B (B :B Vz Vz Vz Vz Vz Vz Vz Vz Vz Vz Vz Vz Vz Vz Vz Vz (B (B (B (B OC OC OC OC OC OC OC OC OC OC (B (B (B (B ",
"uB uB uB uB uB uB uB uB uB uB <B 0A 0A 0A 0A 0A 0A 0A 0A 0A 0A 0A 0A 0A 0A 0A 0A 0A 0A 0A 0A 0A 0A 0A 0A 0A 0A 0A 0A 0A (D lA lA lA lA lA lA lA lA lA lA lA lA lA R! &< 8: *< 0: a: E~ z  A  `. F  9. n+ %+ U+ U+ D@ /# ~@ E@ (# S# <$ <$ <$ <$ <$ <$ <$ G$  % <% 7% v% N% U% F* Aj R- S- S- S- <- -= z& [& SC gq !v {o z7 5f <{ E~ ]! F~ t# jm $) }_ g] g] g] g] g] g] g] D5 V~ c_ c_ c_ c_ c_ c_ c_ c_ c_ c_ c_ c_ c_ c_ c_ c_ c_ c_ c_ c_ c_ c_ c_ c_ c_ c_ c_ c_ c_ c_ c_ c_ c_ l2 c_ !~ v# L4 C3 C3 C3 D  ~8 D@ U! c: D5 g] g] g] g] g] g] g] g] g] g] g] g] g] g] g] g] g] g] g] g] g] g] g] g] g] g] g] g] g] g] g] g] g] g] g] g] g] g] g] g] g] g] g] g] g] g] g] g] g] g] g] g] g] g] g] g] g] g] g] g] g] g] g] g] g] g] g] g] g] g] g] g] g] g] g] g] g] g] g] g] g] g] g] g] g] g] g] g] g] g] g] g] g] g] g] g] g] g] g] g] g] g] g] g] g] g] g] g] g] g] g] g] g] g] g] g] g] g] g] g] g] g] g] g] g] g] g] g] g] g] g] g] g] g] g] g] g] g] g] g] g] g] g] g] g] g] g] g] g] g] g] g] g] g] g] g] g] g] g] g] g] g] _{ 6B .8 E5 25 ~t p$ #+ C3 C3 C3 C3 ;h G  r& %D Z7 &) D5 a{ c_ c_ c_ c_ c_ c_ c_ c_ c_ c_ c_ c_ c_ c_ c_ c_ c_ c_ c_ c_ c_ c_ c_ c_ c_ c_ c_ c_ c_ c_ c_ V~ D5 g] g] g] g] g] g] g] g] g] g] g] g] c: 1% Fo 5e /7 E~ <{ b) p$ =n  8 _D <p 6= As S- S- S- 6j {, :D =C <t <u y@ 2p 2p <D [D }D |D 1D 2D 3D 4D 5D 6D BC 7D 8D 9D 8D 0D aD Vy bD 3p 2p 2p 6v =& ot /s Rr b$ M< 0[ m[ m[ cD dD p@ p@ p@ p@ p@ Tk Vz <B (B (B (B (B (B (B (B (B (B (B (B (B (B :B Y3 Vz Vz Vz Vz Vz Vz Vz Vz Vz Vz Vz Vz Vz (B (B (B (B OC OC OC OC OC OC OC OC OC OC NC (B (B (B ",
"uB uB uB uB uB uB uB uB uB uB wB 0A 0A 0A 0A xB #D rC *3 lA lA lA xB 0A 0A 0A 0A 0A 0A 0A 0A 0A 0A 0A 0A 0A 0A 0A 0A 0A (D lA lA lA lA lA lA lA lA lA lA lA lA lA R! &< 8: *< 0: a: E~ z  A  `. F  9. n+ %+ U+ U+ D@ /# ~@ E@ (# S# <$ <$ <$ <$ <$ <$ <$ G$  % <% 7% v% N% )& H* eD R- S- R- S- nd -= ]* [& fD @s %8 {o z7 rs <{ E~ ]! F~ t# jm $) }_ g] g] g] g] g] g] g] D5 V~ c_ c_ c_ c_ c_ c_ c_ c_ c_ c_ c_ c_ c_ c_ c_ c_ c_ c_ c_ c_ c_ c_ c_ c_ c_ c_ c_ c_ c_ c_ c_ c_ c_ l2 c_ !~ v# L4 C3 C3 C3 D  ~8 D@ U! c: D5 g] g] g] g] g] g] g] g] g] g] g] g] g] g] g] g] g] g] g] g] g] g] g] g] g] g] g] g] g] g] g] g] g] g] g] g] g] g] g] g] g] g] g] g] g] g] g] g] g] g] g] g] g] g] g] g] g] g] g] g] g] g] g] g] g] g] g] g] g] g] g] g] g] g] g] g] g] g] g] g] g] g] g] g] g] g] g] g] g] g] g] g] g] g] g] g] g] g] g] g] g] g] g] g] g] g] g] g] g] g] g] g] g] g] g] g] g] g] g] g] g] g] g] g] g] g] g] g] g] g] g] g] g] g] g] g] g] g] g] g] g] g] g] g] g] g] g] g] g] g] g] g] g] g] g] g] g] g] g] g] g] g] _{  _ R6 E5 25 ~t p$ #+ C3 C3 C3 C3 ;h G  w; lm @w gD c_ E2 c_ c_ c_ c_ c_ c_ c_ c_ c_ c_ c_ c_ c_ c_ c_ c_ c_ c_ c_ c_ c_ c_ c_ c_ c_ c_ c_ c_ c_ c_ c_ V~ D5 g] g] g] g] g] g] g] g] g] g] g] }_ 6m $y ZA L8 /7 E~ <{ b) p$ =n  8 _D hD iD As S- S- S- ]s {, :D =C <t <u y@ 2p 2p jD kD lD mD nD oD pD qD rD sD tD :A uD vD wD xD yD 0D zD AD 2p 2p 6v =& ot /s Rr b$ M< 0[ m[ m[ cD J) p@ p@ p@ p@ <+ Vz Vz (B (B (B (B (B (B (B (B (B (B (B (B (B (B (B (B (B (B tB :B :B :B Y3 Y3 Y3 Y3 Y3 Y3 :B (B (B (B (B NC OC OC OC OC OC OC OC OC OC OC NC BD (B ",
"uB uB uB uB uB uB uB uB uB }C 0A 0A 0A (D rC lA lA lA lA lA lA lA #D 0A 0A 0A 0A 0A 0A 0A 0A 0A 0A 0A 0A 0A (D CD (D 0A (D lA lA lA lA lA lA lA lA lA lA lA lA lA R! &< 8: *< 0: a: E~ z  A  `. F  9. n+ %+ U+ U+ D@ /# ~@ E@ (# S# <$ <$ <$ <$ <$ <$ <$ G$ +% <% 7% z% +y !& H* eD R- S- R- R- nd -= A& v& DD ED %8 {o z7 0) <{ E~ ]! F~ t# jm $) }_ g] g] g] g] g] g] g] D5 V~ c_ c_ c_ c_ c_ c_ c_ c_ c_ c_ c_ c_ c_ c_ c_ c_ c_ c_ c_ c_ c_ c_ c_ c_ c_ c_ c_ c_ c_ c_ c_ c_ c_ l2 c_ !~ v# L4 C3 C3 C3 D  ~8 D@ U! c: D5 g] g] g] g] g] g] g] g] g] g] g] g] g] g] g] g] g] g] g] g] g] g] g] g] g] g] g] g] g] g] g] g] g] g] g] g] g] g] g] g] g] g] g] g] g] g] g] g] g] g] g] g] g] g] g] g] g] g] g] g] g] g] g] g] g] g] g] g] g] g] g] g] g] g] g] g] g] g] g] g] g] g] g] g] g] g] g] g] g] g] g] g] g] g] g] g] g] g] g] g] g] g] g] g] g] g] g] g] g] g] g] g] g] g] g] g] g] g] g] g] g] g] g] g] g] g] g] g] g] g] g] g] g] g] g] g] g] g] g] g] g] g] g] g] g] g] g] g] g] g] g] g] g] g] g] g] g] g] g] g] g] g] _{  _ R6 E5 25 ~t p$ #+ C3 C3 C3 C3 ;h G  w; XA Nw D5 a{ c_ c_ c_ c_ c_ c_ c_ c_ c_ c_ c_ c_ c_ c_ c_ c_ c_ c_ c_ c_ c_ c_ c_ c_ c_ c_ c_ c_ c_ c_ c_ c_ V~ D5 g] g] g] g] g] g] g] g] g] g] }_ 1% %8 $8 ~t FD /7 E~ <{ b) nh =n  8 ev gq _= 'A S- R- R- ]s {, :D =C <t <u y@ 2p 2p 0y GD |l HD ID JD KD qD LD MD ND OD PD QD RD SD TD UD *B VD Ou 2p 6v =& ot /s Rr b$ M< 0[ m[ m[ cD Vz 1# p@ p@ p@ Tk Vz Vz (B (B (B (B (B (B (B (B (B (B (B (B (B (B (B (B (B (B (B (B (B (B (B (B (B (B (B (B (B (B (B (B (B oC OC OC OC OC OC OC OC OC OC OC OC OC OC ",
"uB uB uB uB uB uB uB uB uB <B 0A 0A 0A lA lA lA lA lA lA lA lA lA *3 0A 0A 0A 0A 0A 0A 0A 0A 0A 0A 0A 0A rC lA lA lA lA *3 lA lA lA lA lA lA lA lA lA lA lA lA lA R! &< 8: *< 0: a: E~ z  A  `. F  9. n+ %+ U+ U+ D@ /# ~@ E@ (# S# <$ <$ <$ <$ <$ <$ <$ G$ +% <% 7% z% +y !& H* Aj R- S- R- R- (} WD B& w& XD *t %8 {o z7 0) X. E~ ]! F~ t# jm ,) }_ g] g] g] g] g] g] g] D5 V~ c_ c_ c_ c_ c_ c_ c_ c_ c_ c_ c_ c_ c_ c_ c_ c_ c_ c_ c_ c_ c_ c_ c_ c_ c_ c_ c_ c_ c_ c_ c_ c_ c_ l2 c_ !~ v# L4 C3 C3 C3 D  ~8 D@ U! c: D5 g] g] g] g] g] g] g] g] g] g] g] g] g] g] g] g] g] g] g] g] g] g] g] g] g] g] g] g] g] g] g] g] g] g] g] g] g] g] g] g] g] g] g] g] g] g] g] g] g] g] g] g] g] g] g] g] g] g] g] g] g] g] g] g] g] g] g] g] g] g] g] g] g] g] g] g] g] g] g] g] g] g] g] g] g] g] g] g] g] g] g] g] g] g] g] g] g] g] g] g] g] g] g] g] g] g] g] g] g] g] g] g] g] g] g] g] g] g] g] g] g] g] g] g] g] g] g] g] g] g] g] g] g] g] g] g] g] g] g] g] g] g] g] g] g] g] g] g] g] g] g] g] g] g] g] g] g] g] g] g] g] g] _{ 6B g6 E5 25 ~t p$ #+ C3 C3 C3 C3 ;h s4 3! Fo tC V~ a{ c_ c_ c_ c_ c_ c_ c_ c_ c_ c_ c_ c_ c_ c_ c_ c_ c_ c_ c_ c_ c_ c_ c_ c_ c_ c_ c_ c_ c_ c_ c_ c_ V~ D5 g] g] g] g] g] g] g] g] g] g] 5m o' +7 25 YD FD /7 E~ <{ b) nh =n  8 ev gq K> 'A S- S- R- ]s w- nr =C <t ZD [u 2p 2p *y =y `D  E .E +E @E #E $E %E &E *E =E -E `w ;E ex >E ,E 'E 3p 2p 6v =& ot /s Rr b$ M< 0[ m[ m[ cD Vz Vz 1# =. ;* Vz Vz Vz :B (B (B (B (B (B (B (B (B (B (B tB tB tB (B (B (B (B (B (B (B (B (B (B (B (B (B (B (B (B (B (B (B oC OC OC OC OC OC OC OC OC OC OC OC OC OC ",
"uB uB uB uB uB uB uB uB uB }B 0A 0A 0A lA lA lA lA lA lA lA lA lA lA xB 0A 0A 0A 0A 0A 0A 0A 0A 0A 0A )E lA lA lA lA lA lA lA lA lA lA lA lA lA lA lA lA lA lA lA R! &< 8: *< 0: a: E~ z  A  `. F  9. n+ %+ U+ U+ D@ /# ~@ E@ (# S# <$ <$ <$ <$ <$ <$ <$ G$ @% [% 7% z% i, !& <* eD R- S- S- R- (} d= V& w& !E _D %8 {o Pi 0) X. E~ ]! F~ t# ZA <% }_ g] g] g] g] g] g] g] D5 V~ c_ c_ c_ c_ c_ c_ c_ c_ c_ c_ c_ c_ c_ c_ c_ c_ c_ c_ c_ c_ c_ c_ c_ c_ c_ c_ c_ c_ c_ c_ c_ c_ c_ l2 c_ !~ v# L4 C3 C3 C3 D  ~8 D@ U! c: D5 g] g] g] g] g] g] g] g] g] g] g] g] g] g] g] g] g] g] g] g] g] g] g] g] g] g] g] g] g] g] g] g] g] g] g] g] g] g] g] g] g] g] g] g] g] g] g] g] g] g] g] g] g] g] g] g] g] g] g] g] g] g] g] g] g] g] g] g] g] g] g] g] g] g] g] g] g] g] g] g] g] g] g] g] g] g] g] g] g] g] g] g] g] g] g] g] g] g] g] g] g] g] g] g] g] g] g] g] g] g] g] g] g] g] g] g] g] g] g] g] g] g] g] g] g] g] g] g] g] g] g] g] g] g] g] g] g] g] g] g] g] g] g] g] g] g] g] g] g] g] g] g] g] g] g] g] g] g] g] g] g] g] _{ 6B g6 E5 25 ~t p$ #+ C3 C3 C3 C3 ;h s4 3! Z  l% V~ a{ c_ c_ c_ c_ c_ c_ c_ c_ c_ c_ c_ c_ c_ c_ c_ c_ c_ c_ c_ c_ c_ c_ c_ c_ c_ c_ c_ c_ c_ c_ c_ c_ V~ D5 g] g] g] g] g] g] g] g] g] 6B &! 2n 25 25 YD FD /7 E~ X. od k' =n  8 ev -) K> 'A S- R- S- ]s w- nr =C <t ~E {E 6v 2p Ow [x ]E 2u ^E /E (E )y _E :E CA bx <E hB [E dx }E |E ex 1E 3p 2p 6v =& ot /s Rr b$ M< 0[ m[ m[ cD Vz Vz Vz Vz Vz Vz Vz Vz Vz Y3 tB (B (B (B tB _B Y3 <B Vz Vz Vz Vz Vz _B (B (B (B (B (B (B (B (B (B (B (B (B (B (B (B (B (B NC OC OC OC OC OC OC OC OC OC OC OC OC OC ",
"uB uB uB uB uB uB uB uB uB wB 0A 0A 0A rC lA lA lA lA lA lA lA lA lA *3 rC #D 0A 0A 0A xB rC qC 0A (D lA lA lA lA lA lA lA lA lA lA lA lA lA lA lA lA lA lA lA lA R! &< 8: *< 0: a: E~ z  A  `. F  9. n+ %+ U+ U+ D@ /# ~@ E@ (# S# <$ <$ <$ <$ <$ <$ <$ H$ 9% j% n% z% i, k, <* eD R- S- S- R- (} ;= U& 3& !E _D <x )x Pi 0) k+ E~ ]! F~ t# xx <% }_ g] g] g] g] g] g] g] D5 V~ c_ c_ c_ c_ c_ c_ c_ c_ c_ c_ c_ c_ c_ c_ c_ c_ c_ c_ c_ c_ c_ c_ c_ c_ c_ c_ c_ c_ c_ c_ c_ c_ c_ l2 c_ !~ v# L4 C3 C3 C3 D  ~8 D@ U! c: D5 g] g] g] g] g] g] g] g] g] g] g] g] g] g] g] g] g] g] g] g] g] g] g] g] g] g] g] g] g] g] g] g] g] g] g] g] g] g] g] g] g] g] g] g] g] g] g] g] g] g] g] g] g] g] g] g] g] g] g] g] g] g] g] g] g] g] g] g] g] g] g] g] g] g] g] g] g] g] g] g] g] g] g] g] g] g] g] g] g] g] g] g] g] g] g] g] g] g] g] g] g] g] g] g] g] g] g] g] g] g] g] g] g] g] g] g] g] g] g] g] g] g] g] g] g] g] g] g] g] g] g] g] g] g] g] g] g] g] g] g] g] g] g] g] g] g] g] g] g] g] g] g] g] g] g] g] g] g] g] g] g] g] _{ z_ @) +7 25 ~t p$ #+ C3 C3 C3 C3 ;h s4 3! Z  l% [< a{ c_ c_ c_ c_ c_ c_ c_ c_ c_ c_ c_ c_ c_ c_ c_ c_ c_ c_ c_ c_ c_ c_ c_ c_ c_ c_ c_ c_ c_ c_ c_ c_ V~ D5 g] g] g] g] g] g] g] g] >| YA C6 25 25 25 YD FD /7 E~ ;7 t4 k' =n !v ev *t K> 'A S- S- S- ]s  - nr ip po 2E 3E 4E 2p Ow Pw 5E 6E 7E 8E 9E 0E 3v aE bE Nx cE dE `w Tx eE fE gE 'E 3p 2p Pu =& ot /s Rr b$ M< 0[ m[ m[ cD Vz Vz Vz Vz Vz Vz Vz Vz Vz Vz Vz Vz Vz Vz Vz Vz Vz Vz Vz Vz Vz Vz Vz Vz _B (B (B (B (B (B (B (B (B (B H3 OC OC OC NC oC H3 OC OC OC OC OC OC OC OC OC OC OC OC OC OC ",
"uB uB uB uB uB uB uB uB uB 0A 0A 0A 0A xB lA lA lA lA lA lA lA lA lA lA lA lA lA rC )E lA lA lA 0A *3 lA lA lA lA lA lA lA lA lA lA lA lA lA lA lA lA lA lA lA lA R! &< 8: *< 0: a: E~ z  A  `. F  9. n+ %+ U+ U+ D@ /# ~@ E@ (# S# <$ <$ <$ <$ <$ <$ <$ H$ 9% j% o% z% P% {& [* eD R- S- R- S- (} c= D& 3& hE iE <x )x ^j 0) Z. E~ ]! F~ t# xx <% }_ g] g] g] g] g] g] g] D5 V~ c_ c_ c_ c_ c_ c_ c_ c_ c_ c_ c_ c_ c_ c_ c_ c_ c_ c_ c_ c_ c_ c_ c_ c_ c_ c_ c_ c_ c_ c_ c_ c_ c_ l2 c_ !~ v# L4 C3 C3 C3 D  ~8 D@ U! c: D5 g] g] g] g] g] g] g] g] g] g] g] g] g] g] g] g] g] g] g] g] g] g] g] g] g] g] g] g] g] g] g] g] g] g] g] g] g] g] g] g] g] g] g] g] g] g] g] g] g] g] g] g] g] g] g] g] g] g] g] g] g] g] g] g] g] g] g] g] g] g] g] g] g] g] g] g] g] g] g] g] g] g] g] g] g] g] g] g] g] g] g] g] g] g] g] g] g] g] g] g] g] g] g] g] g] g] g] g] g] g] g] g] g] g] g] g] g] g] g] g] g] g] g] g] g] g] g] g] g] g] g] g] g] g] g] g] g] g] g] g] g] g] g] g] g] g] g] g] g] g] g] g] g] g] g] g] g] g] g] g] g] g] _{ g] i% Z  E5 ~t p$ #+ C3 C3 C3 C3 ;h s4 3! Z   & [< a{ c_ c_ c_ c_ c_ c_ c_ c_ c_ c_ c_ c_ c_ c_ c_ c_ c_ c_ c_ c_ c_ c_ c_ c_ c_ c_ c_ c_ c_ c_ c_ c_ V~ D5 g] g] g] g] g] g] g] z_ &) +8 25 t6 25 25 YD FD /7 E~ Z. t4 k' Sn !v jE *t K> 'A S- R- R- ]s  - nr ip oo  t kE lE 2p |w 1w mE nE oE pE qE rE sE tE uE PD vE wE xE yE zE AE BE CE 3p 2p DE Wu %r /s Rr b$ M< 0[ m[ m[ cD Vz Vz Vz Vz Vz Vz Vz Vz Vz Vz Vz Vz Vz Vz Vz Vz Vz Vz Vz Vz Vz Vz Vz Vz Vz (B (B (B (B (B (B (B (B (B OC OC OC OC OC OC OC OC OC OC OC OC OC OC OC OC OC OC OC OC OC ",
"uB uB uB uB uB uB uB uB uB }B 0A 0A 0A 0A EE lA lA lA lA lA lA lA lA lA lA lA lA lA lA lA lA lA rC lA lA lA lA lA lA lA lA lA lA lA lA lA lA lA lA lA lA lA lA lA R! &< 8: *< 0: a: E~ z  A  `. F  9. n+ %+ U+ U+ D@ /# ~@ E@ (# S# <$ <$ <$ <$ <$ <$ <$ H$ 9% j% p% z% P% {& [* eD R- S- R- R- n- >= ^* 4& FE GE qn J7 ^j 0) k+ E~ ]! F~ t# ZA <% }_ g] g] g] g] g] g] g] D5 V~ c_ c_ c_ c_ c_ c_ c_ c_ c_ c_ c_ c_ c_ c_ c_ c_ c_ c_ c_ c_ c_ c_ c_ c_ c_ c_ c_ c_ c_ c_ c_ c_ c_ l2 c_ !~ v# L4 C3 C3 C3 D  ~8 D@ U! c: D5 g] g] g] g] g] g] g] g] g] g] g] g] g] g] g] g] g] g] g] g] g] g] g] g] g] g] g] g] g] g] g] g] g] g] g] g] g] g] g] g] g] g] g] g] g] g] g] g] g] g] g] g] g] g] g] g] g] g] g] g] g] g] g] g] g] g] g] g] g] g] g] g] g] g] g] g] g] g] g] g] g] g] g] g] g] g] g] g] g] g] g] g] g] g] g] g] g] g] g] g] g] g] g] g] g] g] g] g] g] g] g] g] g] g] g] g] g] g] g] g] g] g] g] g] g] g] g] g] g] g] g] g] g] g] g] g] g] g] g] g] g] g] g] g] g] g] g] g] g] g] g] g] g] g] g] g] g] g] g] g] g] g] g] g] C/ $* E5 ~t p$ #+ C3 C3 C3 C3 ;h s4 r& N4  & V~ a{ c_ c_ c_ c_ c_ c_ c_ c_ c_ c_ c_ c_ c_ c_ c_ c_ c_ c_ c_ c_ c_ c_ c_ c_ c_ c_ c_ c_ c_ c_ c_ c_ V~ D5 g] g] g] g] g] g] g] &D g6 u6 t6 25 25 25 YD FD /7 E~ Z. t4 k' {o @y jE iE K> +p R- R- R- ]s  - nr ip po HE ZD IE JE KE LE ME NE OE PE QE RE SE TE ]D UE VE WE XE YE 4v ZE `E Dp 2p 2p  F .F Fp ks Rr b$ M< 0[ m[ m[ cD Vz Vz Vz Vz Vz Vz Vz Vz Vz Vz Vz Vz Vz Vz Vz Vz Vz Vz Vz Vz Vz Vz Vz Vz Vz <B (B (B (B (B (B (B (B (B &7 NC OC OC OC OC OC OC OC OC OC OC OC OC OC OC OC OC OC OC OC ",
"uB uB uB uB uB uB uB uB uB }C G4 0A 0A 0A 0A )E lA lA lA lA lA lA lA lA lA lA lA lA lA lA lA lA lA lA lA lA lA lA lA lA lA lA lA lA lA lA lA lA lA lA lA lA lA lA R! &< 8: *< 0: a: E~ z  A  `. F  9. n+ %+ U+ U+ D@ /# ~@ E@ (# S# <$ <$ <$ <$ <$ <$ <$ H$ 9% |% p% y% P% {* I* eD R- R- R- R- +F >= F& 3B FE GE Yo J7 ^j 0) q2 E~ ]! F~ t# xx <% }_ g] g] g] g] g] g] g] D5 V~ c_ c_ c_ c_ c_ c_ c_ c_ c_ c_ c_ c_ c_ c_ c_ c_ c_ c_ c_ c_ c_ c_ c_ c_ c_ c_ c_ c_ c_ c_ c_ c_ c_ l2 c_ !~ v# L4 C3 C3 C3 D  ~8 D@ U! c: D5 g] g] g] g] g] g] g] g] g] g] g] g] g] g] g] g] g] g] g] g] g] g] g] g] g] g] g] g] g] g] g] g] g] g] g] g] g] g] g] g] g] g] g] g] g] g] g] g] g] g] g] g] g] g] g] g] g] g] g] g] g] g] g] g] g] g] g] g] g] g] g] g] g] g] g] g] g] g] g] g] g] g] g] g] g] g] g] g] g] g] g] g] g] g] g] g] g] g] g] g] g] g] g] g] g] g] g] g] g] g] g] g] g] g] g] g] g] g] g] g] g] g] g] g] g] g] g] g] g] g] g] g] g] g] g] g] g] g] g] g] g] g] g] g] g] g] g] g] g] g] g] g] g] g] g] g] g] g] g] g] g] g] g] _{ 6^ .) /6 ~t p$ #+ C3 C3 C3 C3 ;h s4 r& /6  & V~ a{ c_ c_ c_ c_ c_ c_ c_ c_ c_ c_ c_ c_ c_ c_ c_ c_ c_ c_ c_ c_ c_ c_ c_ c_ c_ c_ c_ c_ c_ c_ c_ c_ V~ D5 g] g] g] g] g] g] z_ [% Z  25 t6 25 25 25 YD FD /7 E~ Z. 5f Jh {o @y wx ev @F +p R- R- R- ]s .- nr #F po $F %F &F b+ *F =F Uc -F ;F >F ,F 'F )F !F ~F tD ~y {F XE ]F fC !F ^F yp 2p 2p /F (F 4r ks Rr b$ M< 0[ m[ m[ cD Vz Vz Vz Vz Vz Vz Vz Vz Vz Vz Vz Vz Vz Vz Vz Vz Vz Vz Vz Vz Vz Vz Vz Vz Vz Vz <B (B (B (B (B (B (B (B (B (B NC OC OC OC OC OC OC OC OC OC OC OC OC OC OC OC OC OC OC ",
"uB uB uB uB uB uB uB uB uB uB uB tm 0A 0A 0A 0A )E lA lA lA lA lA lA lA lA lA lA lA lA lA lA lA lA lA lA lA lA lA lA lA lA lA lA lA lA lA lA lA lA lA lA lA lA lA R! &< 8: *< 0: a: E~ z  A  `. F  9. n+ %+ U+ U+ D@ /# ~@ E@ (# S# <$ <$ <$ <$ <$ <$ <$ H$ 9% |% p% *' Q% t& }* eD R- S- R- R- n- b= G& 6& FE 'x Yo J7 ]k 0) q2 E~ ]! F~ t# xx |m }_ g] g] g] g] g] g] g] D5 V~ c_ c_ c_ c_ c_ c_ c_ c_ c_ c_ c_ c_ c_ c_ c_ c_ c_ c_ c_ c_ c_ c_ c_ c_ c_ c_ c_ c_ c_ c_ c_ c_ c_ l2 c_ !~ v# L4 C3 C3 C3 D  ~8 D@ U! c: D5 g] g] g] g] g] g] g] g] g] g] g] g] g] g] g] g] g] g] g] g] g] g] g] g] g] g] g] g] g] g] g] g] g] g] g] g] g] g] g] g] g] g] g] g] g] g] g] g] g] g] g] g] g] g] g] g] g] g] g] g] g] g] g] g] g] g] g] g] g] g] g] g] g] g] g] g] g] g] g] g] g] g] g] g] g] g] g] g] g] g] g] g] g] g] g] g] g] g] g] g] g] g] g] g] g] g] g] g] g] g] g] g] g] g] g] g] g] g] g] g] g] g] g] g] g] g] g] g] g] g] g] g] g] g] g] g] g] g] g] g] g] g] g] g] g] g] g] g] g] g] g] g] g] g] g] g] g] g] g] g] g] g] g] _{ g] $) 35 >A r& #+ C3 C3 C3 C3 ;h s4 X, XA Nw V~ a{ c_ c_ c_ c_ c_ c_ c_ c_ c_ c_ c_ c_ c_ c_ c_ c_ c_ c_ c_ c_ c_ c_ c_ c_ c_ c_ c_ c_ c_ c_ c_ c_ V~ D5 g] g] g] g] g] g] z_ i% Z  u6 25 25 25 25 YD FD /7 E~ Z. 5f Jh {o @y wx ev _F :F S- R- R- ]s +- <F Nq lo po [F }F Kt qr pb zh  k Tq Rq |F rq 1F 2F eC Hz CC ]F CC Hz 3F 2F 4F 2p 2p Pu 5F [t 6F Qr Rr b$ M< 0[ m[ m[ cD Vz Vz Vz Vz Vz Vz Vz Vz Vz Vz Vz Vz Vz Vz Vz Vz Vz Vz Vz Vz Vz Vz Vz Vz Vz Vz Vz Vz tB (B (B (B (B (B (B (B (B OC OC OC OC OC OC OC OC OC OC OC OC OC OC OC OC OC OC ",
"uB uB uB uB uB uB uB uB uB uB uB [B 0A 0A 0A 0A 0A )E lA lA lA lA lA lA lA lA lA lA lA lA lA lA lA lA lA lA lA lA lA lA lA lA lA lA lA lA lA lA lA lA lA lA lA lA R! &< 8: *< 0: a: E~ z  A  `. F  9. n+ %+ U+ U+ D@ /# ~@ E@ (# S# <$ <$ <$ <$ <$ <$ <$ H$ 9% |% p% A% n' ^& }* eD R- S- R- R- +F ,= $' 6& Q% 'x <p J7 ]k 0) k+ E~ ]! F~ t# xx |m g] g] g] g] g] g] g] g] D5 V~ c_ c_ c_ c_ c_ c_ c_ c_ c_ c_ c_ c_ c_ c_ c_ c_ c_ c_ c_ c_ c_ c_ c_ c_ c_ c_ c_ c_ c_ c_ c_ c_ c_ l2 c_ !~ v# L4 C3 C3 C3 D  ~8 D@ U! c: D5 g] g] g] g] g] g] g] g] g] g] g] g] g] g] g] g] g] g] g] g] g] g] g] g] g] g] g] g] g] g] g] g] g] g] g] g] g] g] g] g] g] g] g] g] g] g] g] g] g] g] g] g] g] g] g] g] g] g] g] g] g] g] g] g] g] g] g] g] g] g] g] g] g] g] g] g] g] g] g] g] g] g] g] g] g] g] g] g] g] g] g] g] g] g] g] g] g] g] g] g] g] g] g] g] g] g] g] g] g] g] g] g] g] g] g] g] g] g] g] g] g] g] g] g] g] g] g] g] g] g] g] g] g] g] g] g] g] g] g] g] g] g] g] g] g] g] g] g] g] g] g] g] g] g] g] g] g] g] g] g] g] g] g] _{ g] }% 3m K8 r& #+ C3 C3 C3 C3 ;h G  w; km <x B1 a{ c_ c_ c_ c_ c_ c_ c_ c_ c_ c_ c_ c_ c_ c_ c_ c_ c_ c_ c_ c_ c_ c_ c_ c_ c_ c_ c_ c_ c_ c_ c_ c_ V~ D5 g] g] g] g] g] g] z_ tC 2m E5 25 25 25 25 YD FD /7 E~ Z. 5f {m {o @y Ey 'x <= :F S- R- R- ]s .- 7F 8F Fp oo |o ip 9F .r nb .c tq 0F pb tq aF bF cF dF eC eF fF eF eC dF gF 2p 2p 2p 9p hF iF po jF kF d$ M< 0[ m[ m[ cD Vz Vz Vz Vz Vz Vz Vz Vz Vz Vz Vz Vz Vz Vz Vz Vz Vz Vz Vz Vz Vz Vz Vz Vz Vz Vz Vz Vz Vz :B (B (B (B (B (B (B (B MC OC OC OC OC OC OC OC OC OC OC OC OC OC OC OC OC OC ",
"uB uB uB uB uB uB uB uB uB uB uB [B 0A 0A 0A 0A 0A 0A )E lA lA lA lA lA lA lA lA lA lA lA lA lA lA lA lA lA lA lA lA lA lA lA lA lA lA lA lA lA lA lA lA lA lA lA R! &< 8: *< 0: a: E~ z  A  `. F  9. n+ %+ U+ U+ D@ /# ~@ E@ (# S# <$ <$ <$ <$ <$ <$ <$ H$ 9% |% p% A% R% ^& }* eD R- R- R- R- +F ,= I& Y& lF wx <p Jq ]k 0) q2 <{ ]! F~ t# im }% g] g] g] g] g] g] g] g] D5 V~ c_ c_ c_ c_ c_ c_ c_ c_ c_ c_ c_ c_ c_ c_ c_ c_ c_ c_ c_ c_ c_ c_ c_ c_ c_ c_ c_ c_ c_ c_ c_ c_ c_ l2 c_ !~ v# L4 C3 C3 C3 D  ~8 D@ U! c: D5 g] g] g] g] g] g] g] g] g] g] g] g] g] g] g] g] g] g] g] g] g] g] g] g] g] g] g] g] g] g] g] g] g] g] g] g] g] g] g] g] g] g] g] g] g] g] g] g] g] g] g] g] g] g] g] g] g] g] g] g] g] g] g] g] g] g] g] g] g] g] g] g] g] g] g] g] g] g] g] g] g] g] g] g] g] g] g] g] g] g] g] g] g] g] g] g] g] g] g] g] g] g] g] g] g] g] g] g] g] g] g] g] g] g] g] g] g] g] g] g] g] g] g] g] g] g] g] g] g] g] g] g] g] g] g] g] g] g] g] g] g] g] g] g] g] g] g] g] g] g] g] g] g] g] g] g] g] g] g] g] g] g] g] g] _{ b/ %8 Oa p$ #+ C3 C3 C3 C3 ;h G  w; lm mF .: c_ c_ c_ c_ c_ c_ c_ c_ c_ c_ c_ c_ c_ c_ c_ c_ c_ c_ c_ c_ c_ c_ c_ c_ c_ c_ c_ c_ c_ c_ c_ c_ c_ V~ D5 g] g] g] g] g] g] z_ 5m o' E5 '5 25 25 25 YD FD /7 E~ k+ 5f {m {o <x nF wx <= oF S- R- R- ]s pF qF rF }F sF po tF uF vF rr nb 1c mb kb 1c 4q wF 2p xF yF Vy zF AF BF bF 2p 2p 2p 2p *q CF lo No DF EF d$ M< 0[ m[ m[ cD Vz Vz Vz Vz Vz Vz Vz Vz Vz Vz Vz Vz Vz Vz Vz Vz Vz Vz Vz Vz Vz Vz Vz Vz Vz Vz Vz Vz Vz Vz <B (B (B (B (B (B (B (B oC OC OC OC OC OC OC OC OC OC OC OC OC OC OC OC OC ",
"uB uB uB uB uB uB uB uB uB vB G4 0A 0A 0A 0A 0A 0A 0A 0A )E lA lA lA lA lA lA lA lA lA lA lA lA lA lA lA lA lA lA lA lA lA lA lA lA lA lA lA lA lA lA lA lA lA lA R! &< 8: *< 0: a: E~ z  A  `. F  9. n+ %+ U+ U+ D@ /# ~@ E@ (# S# <$ <$ <$ <$ <$ <$ <$ H$ 9% |% p% A% R% FF 1* eD R- R- R- R- GF a= q* Y& lF wx <p Jq ]k 0) A7 <{ ]! F~ t# Fo L5 g] g] g] g] g] g] g] g] D5 V~ c_ c_ c_ c_ c_ c_ c_ c_ c_ c_ c_ c_ c_ c_ c_ c_ c_ c_ c_ c_ c_ c_ c_ c_ c_ c_ c_ c_ c_ c_ c_ c_ c_ l2 c_ !~ v# L4 C3 C3 C3 D  ~8 D@ U! c: D5 g] g] g] g] g] g] g] g] g] g] g] g] g] g] g] g] g] g] g] g] g] g] g] g] g] g] g] g] g] g] g] g] g] g] g] g] g] g] g] g] g] g] g] g] g] g] g] g] g] g] g] g] g] g] g] g] g] g] g] g] g] g] g] g] g] g] g] g] g] g] g] g] g] g] g] g] g] g] g] g] g] g] g] g] g] g] g] g] g] g] g] g] g] g] g] g] g] g] g] g] g] g] g] g] g] g] g] g] g] g] g] g] g] g] g] g] g] g] g] g] g] g] g] g] g] g] g] g] g] g] g] g] g] g] g] g] g] g] g] g] g] g] g] g] g] g] g] g] g] g] g] g] g] g] g] g] g] g] g] g] g] g] g] g] _{ Sp <% {o p$ e< C3 C3 C3 C3 ;h G  X, lm +8 m% c_ a{ c_ c_ c_ c_ c_ c_ c_ c_ c_ c_ c_ c_ c_ c_ c_ c_ c_ c_ c_ c_ c_ c_ c_ c_ c_ c_ c_ c_ c_ c_ c_ V~ D5 g] g] g] g] g] g] g] z_ $) N4 t6 25 25 25 YD FD /7 E~ )1 5f {m )x <x uz ,z <= oF S- R- R- ]s @- HF IF JF KF 6F LF MF NF OF PF QF RF SF TF UF cp VF VF bp WF XF dp ap VF VF VF YF ZF y@ `F lo sF  G 0n Qk 8: 0[ m[ m[ cD Vz Vz Vz Vz Vz Vz Vz Vz Vz Vz Vz Vz Vz Vz Vz Vz Vz Vz Vz Vz Vz Vz Vz Vz Vz Vz Vz Vz Vz Vz Vz Vz :B (B (B (B (B (B (B NC OC OC OC OC OC OC OC OC OC OC OC OC OC OC OC ",
"uB uB uB uB uB uB uB uB uB }B 0A 0A 0A 0A 0A 0A 0A 0A 0A 0A lA lA lA lA lA lA lA lA lA lA lA lA lA lA lA lA lA lA lA lA lA lA lA lA lA lA lA lA lA lA lA lA lA lA R! &< 8: *< 0: a: E~ z  A  `. F  9. n+ %+ U+ U+ D@ /# ~@ E@ (# S# <$ <$ <$ <$ <$ <$ <$ W$ 9% |% p% A% c& _& 1* eD R- R- R- R- GF .G S& X& dv Ey <p R6 ]k Pa A7 <{ ]! F~ <g 4e L5 g] g] g] g] g] g] g] g] D5 V~ c_ c_ c_ c_ c_ c_ c_ c_ c_ c_ c_ c_ c_ c_ c_ c_ c_ c_ c_ c_ c_ c_ c_ c_ c_ c_ c_ c_ c_ c_ c_ c_ c_ l2 c_ !~ v# L4 C3 C3 C3 D  ~8 D@ U! c: D5 g] g] g] g] g] g] g] g] g] g] g] g] g] g] g] g] g] g] g] g] g] g] g] g] g] g] g] g] g] g] g] g] g] g] g] g] g] g] g] g] g] g] g] g] g] g] g] g] g] g] g] g] g] g] g] g] g] g] g] g] g] g] g] g] g] g] g] g] g] g] g] g] g] g] g] g] g] g] g] g] g] g] g] g] g] g] g] g] g] g] g] g] g] g] g] g] g] g] g] g] g] g] g] g] g] g] g] g] g] g] g] g] g] g] g] g] g] g] g] g] g] g] g] g] g] g] g] g] g] g] g] g] g] g] g] g] g] g] g] g] g] g] g] g] g] g] g] g] g] g] g] g] g] g] g] g] g] g] g] g] g] g] g] g] g] _{ >| .% K% e< C3 C3 C3 C3 ;h G  r& lm C6 |% D: a{ c_ c_ c_ c_ c_ c_ c_ c_ c_ c_ c_ c_ c_ c_ c_ c_ c_ c_ c_ c_ c_ c_ c_ c_ c_ c_ c_ c_ c_ c_ c_ V~ D5 g] g] g] g] g] g] g] }_ L5 2m u6 t6 25 25 YD FD /7 E~ q2 5f {m )x <x uz ,z <= oF R- R- R- ]s @- 1* +G =p @G ip #G $G %G &G *G =G =G -G &G z$ ;G >G >G >G >G >G >G >G >G >G >G >G lE ,G 'G No @G CF )G M< *< 0[ m[ m[ cD Vz Vz Vz Vz Vz Vz Vz Vz Vz Vz Vz Vz Vz Vz Vz Vz Vz Vz Vz Vz Vz Vz Vz Vz Vz Vz Vz Vz Vz Vz Vz Vz Vz <B tB (B (B (B (B BD OC OC OC OC OC OC OC OC OC OC OC OC OC OC OC ",
"uB uB uB uB uB uB uB uB uB tm 0A 0A 0A 0A 0A 0A 0A 0A 0A 0A )E lA lA lA lA lA lA lA lA lA lA lA lA lA lA lA lA lA lA lA lA lA lA lA lA lA lA lA lA lA lA lA <1 mA R! &< 8: *< 0: a: E~ z  A  `. F  9. n+ %+ U+ U+ D@ /# ~@ E@ (# S# <$ <$ <$ <$ <$ <$ <$ ;% %% |% r% Y, c& _& 1* eD R- R- Q- Q- (] <~ K& Z, !G Ey pA R6 ll Pa X@ <{ ]! F~ <g 4e L5 g] g] g] g] g] g] g] g] D5 V~ c_ c_ c_ c_ c_ c_ c_ c_ c_ c_ c_ c_ c_ c_ c_ c_ c_ c_ c_ c_ c_ c_ c_ c_ c_ c_ c_ c_ c_ c_ c_ c_ c_ l2 c_ !~ v# L4 C3 C3 C3 D  ~8 D@ U! c: D5 g] g] g] g] g] g] g] g] g] g] g] g] g] g] g] g] g] g] g] g] g] g] g] g] g] g] g] g] g] g] g] g] g] g] g] g] g] g] g] g] g] g] g] g] g] g] g] g] g] g] g] g] g] g] g] g] g] g] g] g] g] g] g] g] g] g] g] g] g] g] g] g] g] g] g] g] g] g] g] g] g] g] g] g] g] g] g] g] g] g] g] g] g] g] g] g] g] g] g] g] g] g] g] g] g] g] g] g] g] g] g] g] g] g] g] g] g] g] g] g] g] g] g] g] g] g] g] g] g] g] g] g] g] g] g] g] g] g] g] g] g] g] g] g] g] g] g] g] g] g] g] g] g] g] g] g] g] g] g] g] g] g] g] g] g] _{ g] B/ =$ #+ c/ C3 C3 C3 ;h G  $D lm Z7 %) 8y a{ a{ c_ c_ c_ c_ c_ c_ c_ c_ c_ c_ c_ c_ c_ c_ c_ c_ c_ c_ c_ c_ c_ c_ c_ c_ c_ c_ c_ c_ c_ c_ V~ D5 g] g] g] g] g] g] g] g] z_ #) +7 t6 25 25 YD FD /7 E~ q2 5f z7 qp ,q -A ~G <= rn R- R- R- {G #- 1* 4& 5r ]G 8q ^G /G (G _G :G <G <G :G [G }G -p -p -p -p -p -p -p -p -p -p -p -p kE |G [F HE 1G in 2G 3G *< 0[ m[ m[ cD Vz Vz Vz Vz Vz Vz Vz Vz Vz Vz Vz Vz Vz Vz Vz Vz Vz Vz Vz Vz Vz Vz Vz Vz Vz Vz Vz Vz Vz Vz Vz Vz Vz Vz Vz :B (B (B (B (B BD OC OC OC OC OC OC OC OC OC OC OC OC OC OC ",
"uB uB uB uB uB uB uB uB uB 0A 0A 0A 0A 0A 0A 0A 0A 0A 0A 0A lA lA lA lA lA lA lA lA lA lA lA lA lA lA lA lA lA lA lA lA lA lA lA lA lA lA lA %C G( 4G ,. ,. ,. ,. [) &< 8: *< 0: a: E~ z  A  `. F  9. n+ %+ U+ U+ D@ /# ~@ E@ (# S# <$ <$ <$ <$ <$ <$ <$ ;% %% |% s% ~* dv 9& n* eD R- R- Q- Q- 5G )= m, z& 6G Ey pA R6 $g Pa Xa <{ ]! F~ <g 4e L5 g] g] g] g] g] g] g] g] D5 V~ c_ c_ c_ c_ c_ c_ c_ c_ c_ c_ c_ c_ c_ c_ c_ c_ c_ c_ c_ c_ c_ c_ c_ c_ c_ c_ c_ c_ c_ c_ c_ c_ c_ l2 c_ !~ v# L4 C3 C3 C3 D  ~8 D@ U! c: D5 g] g] g] g] g] g] g] g] g] g] g] g] g] g] g] g] g] g] g] g] g] g] g] g] g] g] g] g] g] g] g] g] g] g] g] g] g] g] g] g] g] g] g] g] g] g] g] g] g] g] g] g] g] g] g] g] g] g] g] g] g] g] g] g] g] g] g] g] g] g] g] g] g] g] g] g] g] g] g] g] g] g] g] g] g] g] g] g] g] g] g] g] g] g] g] g] g] g] g] g] g] g] g] g] g] g] g] g] g] g] g] g] g] g] g] g] g] g] g] g] g] g] g] g] g] g] g] g] g] g] g] g] g] g] g] g] g] g] g] g] g] g] g] g] g] g] g] g] g] g] g] g] g] g] g] g] g] g] g] g] g] g] g] g] g] D5 _{ !~ y# $+ D  C3 C3 C3 ;h G  $D lm Z7 YA 8y a{ a{ c_ c_ c_ c_ c_ c_ c_ c_ c_ c_ c_ c_ c_ c_ c_ c_ c_ c_ c_ c_ c_ c_ c_ c_ c_ c_ c_ c_ c_ c_ V~ D5 g] g] g] g] g] g] g] g] z_ [% n5 u6 25 25 YD FD /7 E~ q2 5f z7 J7 ,q -A -A <= :F R- R- Q- `i #- J* 4& 7G 8G Nq 9G 0G aG bG cG dG eG cG cG fG gG hG hG hG hG hG hG iG hG hG hG hG jG kG lG mG nG oG l+ *< 9[ 0[ m[ m[ cD Vz Vz Vz Vz Vz Vz Vz Vz Vz Vz Vz Vz Vz Vz Vz Vz Vz Vz Vz Vz Vz Vz Vz Vz Vz Vz Vz Vz Vz Vz Vz Vz Vz Vz Vz Vz Y3 (B (B (B (B BD NC OC OC OC OC OC OC OC OC OC OC OC OC ",
"uB uB uB uB uB uB uB uB [B 0A 0A 0A 0A 0A 0A 0A 0A 0A 0A #D lA lA lA lA lA lA lA pG qG rG rG )E lA lA lA lA lA lA lA lA lA lA lA lA lA lA sG ,. ,. ,. ,. ,. ,. ,. [) &< 8: *< 0: a: E~ z  A  `. F  9. n+ %+ U+ U+ D@ /# ~@ E@ (# S# <$ <$ <$ <$ <$ <$ <$ ;% %% |% s% M% S% 9& tG eD R- R- Q- Q- 5G != M& @p vx uz uG R6 $g Pa Xa <{ ]! F~ <g o; C/ g] g] g] g] g] g] g] g] D5 V~ c_ c_ c_ c_ c_ c_ c_ c_ c_ c_ c_ c_ c_ c_ c_ c_ c_ c_ c_ c_ c_ c_ c_ c_ c_ c_ c_ c_ c_ c_ c_ c_ c_ l2 c_ !~ v# L4 C3 C3 C3 D  ~8 D@ U! c: D5 g] g] g] g] g] g] g] g] g] g] g] g] g] g] g] g] g] g] g] g] g] g] g] g] g] g] g] g] g] g] g] g] g] g] g] g] g] g] g] g] g] g] g] g] g] g] g] g] g] g] g] g] g] g] g] g] g] g] g] g] g] g] g] g] g] g] g] g] g] g] g] g] g] g] g] g] g] g] g] g] g] g] g] g] g] g] g] g] g] g] g] g] g] g] g] g] g] g] g] g] g] g] g] g] g] g] g] g] g] g] g] g] g] g] g] g] g] g] g] g] g] g] g] g] g] g] g] g] g] g] g] g] g] g] g] g] g] g] g] g] g] g] g] g] g] g] g] g] g] g] g] g] g] g] g] g] g] g] g] g] g] g] g] g] g] D5 D5 J~ x= -+ C3 C3 C3 C3 ;h G  r& lm 2n &) 8y a{ c_ c_ c_ c_ c_ c_ c_ c_ c_ c_ c_ c_ c_ c_ c_ c_ c_ c_ c_ c_ c_ c_ c_ c_ c_ c_ c_ c_ c_ c_ c_ V~ D5 g] g] g] g] g] g] g] g] z_ L5  8 E5 t6 25 YD FD /7 E~ q2 5f z7 J7 ,q WA vG N> rn R- R- Q- Oh #- 2* 5& ^& kF wG xG yG zG AG BG CG DG EG FG GG HG HG IG JG KG LG MG NG OG PG }o <o QG RG po  G SG ZA TG *< 9[ 0[ m[ m[ cD Vz Vz Vz Vz Vz Vz Vz Vz Vz Vz Vz Vz Vz Vz Vz Vz Vz Vz Vz Vz Vz Vz Vz Vz Vz Vz Vz Vz Vz Vz Vz Vz Vz Vz Vz Vz <B (B (B (B (B (B (B MC PC OC OC OC OC OC OC OC OC OC OC ",
"uB uB uB uB uB vB :B }C }B 0A 0A 0A 0A 0A 0A 0A 0A 0A 0A lA lA lA lA lA lA UG VG VG VG VG VG VG rC lA lA lA lA lA lA lA lA lA lA lA lA lA 4G ,. ,. 0' WG ,. ,. ,. [) &< 8: *< 0: a: E~ z  A  `. F  9. n+ %+ U+ U+ D@ /# ~@ E@ (# S# <$ <$ <$ <$ <$ <$ D$ XG %% |% s% M% S% 9& 2* eD R- R- Q- Q- 5G != t= @p vx -A gq R6 8m Pa Xa <{ ]! F~ >u o; C/ g] g] g] g] g] g] g] g] D5 V~ c_ c_ c_ c_ c_ c_ c_ c_ c_ c_ c_ c_ c_ c_ c_ c_ c_ c_ c_ c_ c_ c_ c_ c_ c_ c_ c_ c_ c_ c_ c_ c_ c_ l2 c_ !~ v# L4 C3 C3 C3 D  ~8 D@ B| g] D5 g] g] g] g] g] g] g] g] g] g] g] g] g] g] g] g] g] g] g] g] g] g] g] g] g] g] g] g] g] g] g] g] g] g] g] g] g] g] g] g] g] g] g] g] g] g] g] g] g] g] g] g] g] g] g] g] g] g] g] g] g] g] g] g] g] g] g] g] g] g] g] g] g] g] g] g] g] g] g] g] g] g] g] g] g] g] g] g] g] g] g] g] g] g] g] g] g] g] g] g] g] g] g] g] g] g] g] g] g] g] g] g] g] g] g] g] g] g] g] g] g] g] g] g] g] g] g] g] g] g] g] g] g] g] g] g] g] g] g] g] g] g] g] g] g] g] g] g] g] g] g] g] g] g] g] g] g] g] g] g] g] g] g] g] g] D5 D5 J~ x= -+ C3 C3 C3 C3 ;h G  r& lm 2m 3% [< a{ c_ c_ c_ c_ c_ c_ c_ c_ c_ c_ c_ c_ c_ c_ c_ c_ c_ c_ c_ c_ c_ c_ c_ c_ c_ c_ c_ c_ c_ c_ c_ V~ D5 g] g] g] g] g] g] g] g] g] z_ #) +7 '5 25 YD FD /7 E~ q2 5f z7 J7 YG 4B 4B }= rn R- Q- Q- lh ZG 2* x& /& `G  H .H lo +H @H @H #H #H $H %H +H Mq Mq &H /q Oo *H =H =H %p lG lG lG Lo <t -H ]G 8n Hl 0: *< 9[ 0[ m[ m[ cD Vz Vz Vz Vz Vz Vz Vz Vz Vz Vz Vz Vz Vz Vz Vz Vz Vz Vz Vz Vz Vz Vz Vz Vz Vz Vz Vz Vz Vz Vz Vz Vz Vz Vz Vz Vz _B (B (B (B (B (B (B (B (B (B ;H OC OC OC OC OC OC OC OC ",
"uB uB uB <B 0A 0A 0A 0A 0A 0A 0A 0A 0A 0A 0A 0A 0A 0A pG lA lA lA lA rC rG VG VG VG VG VG VG VG (D lA lA lA lA lA lA lA lA lA lA lA lA 5C ,. e/ >H >H >H e/ ,. ,. [) &< 8: *< 0: a: E~ z  A  `. F  9. n+ %+ U+ U+ D@ /# ~@ E@ (# S# <$ <$ <$ <$ <$ <$ D$ XG %% |% s% M% S% _' ,H eD R- R- Q- Q- 'H ~= O& @p vx -A gq .7 8m Pa Xa <{ ]! F~ >u J7  _ g] g] g] g] g] g] g] g] D5 V~ c_ c_ c_ c_ c_ c_ c_ c_ c_ c_ c_ c_ c_ c_ c_ c_ c_ c_ c_ c_ c_ c_ c_ c_ c_ c_ c_ c_ c_ c_ c_ c_ c_ l2 c_ !~ v# L4 C3 C3 C3 D  ~8 D@ B| g] D5 g] g] g] g] g] g] g] g] g] g] g] g] g] g] g] g] g] g] g] g] g] g] g] g] g] g] g] g] g] g] g] g] g] g] g] g] g] g] g] g] g] g] g] g] g] g] g] g] g] g] g] g] g] g] g] g] g] g] g] g] g] g] g] g] g] g] g] g] g] g] g] g] g] g] g] g] g] g] g] g] g] g] g] g] g] g] g] g] g] g] g] g] g] g] g] g] g] g] g] g] g] g] g] g] g] g] g] g] g] g] g] g] g] g] g] g] g] g] g] g] g] g] g] g] g] g] g] g] g] g] g] g] g] g] g] g] g] g] g] g] g] g] g] g] g] g] g] g] g] g] g] g] g] g] g] g] g] g] g] g] g] g] g] g] g] D5 D5 J~ x= -+ C3 C3 C3 C3 ;h G  w; mm yx .: c_ c_ c_ c_ c_ c_ c_ c_ c_ c_ c_ c_ c_ c_ c_ c_ c_ c_ c_ c_ c_ c_ c_ c_ c_ c_ c_ c_ c_ c_ c_ c_ c_ V~ D5 g] g] g] g] g] g] g] g] g] z_ j% JB +5 25 YD FD /7 E~ q2 5f z7 J7 YG 4B IB N> rn R- Q- Q- lh )H K* 6& /& lF !H JF  t No HE ~H {H {H ~H ~H <t No ]H po po po po {H {H No No No No No HE Nq ^H 69 a: 0: *< 9[ 0[ m[ m[ cD Vz Vz Vz Vz Vz Vz Vz Vz Vz Vz Vz Vz Vz Vz Vz Vz Vz Vz Vz Vz Vz Vz Vz Vz Vz Vz Vz Vz Vz Vz Vz Vz Vz Vz <B (B (B (B (B (B (B (B (B (B (B (B (B (B BD 83 NC OC OC OC OC ",
"uB uB QC 0A 0A 0A 0A 0A 0A 0A 0A 0A 0A 0A 0A 0A 0A xB lA lA lA lA rC VG VG VG VG VG VG VG VG VG rG lA lA lA lA lA lA lA lA lA lA lA lA +3 WG >H >H >H >H >H WG ,. [) &< 8: *< 0: a: E~ z  A  `. F  9. n+ %+ U+ U+ D@ /# ~@ E@ (# S# <$ <$ <$ <$ <$ <$ D$ XG %% l% s% M% U% }& ,H Aj R- R- Q- Q- /H {= O& B& (H WA gq =' 8m p$ b) <{ ]! F~ >u J7 6m c: c: c: c: c: c: c: c: D5 [< c_ c_ c_ c_ c_ c_ c_ c_ c_ c_ c_ c_ c_ c_ c_ c_ c_ c_ c_ c_ c_ c_ c_ c_ c_ c_ c_ c_ c_ c_ c_ c_ c_ l2 c_ !~ v# L4 C3 C3 C3 D  ~8 D@ U! c: }w c: c: c: c: c: c: c: c: c: c: c: c: c: c: c: c: c: c: c: c: c: c: c: c: c: c: c: c: c: c: c: c: c: c: c: c: c: c: c: c: c: c: c: c: c: c: c: c: c: c: c: c: c: c: c: c: c: c: c: c: c: c: c: c: c: c: c: c: c: c: c: c: c: c: c: c: c: c: c: c: c: c: c: c: c: c: c: c: c: c: c: c: c: c: c: c: c: c: c: c: c: c: c: c: c: c: c: c: c: c: c: c: c: c: c: c: c: c: c: c: c: c: c: c: c: c: c: c: c: c: c: c: c: c: c: c: c: c: c: c: c: c: c: c: c: c: c: c: c: c: c: c: c: c: c: c: c: c: c: c: c: c: c: c: c: D5 }w ({ F$ -+ C3 C3 C3 C3 ;h s4 w; mm YA D5 E2 c_ c_ c_ c_ c_ c_ c_ c_ c_ c_ c_ c_ c_ c_ c_ c_ c_ c_ c_ c_ c_ c_ c_ c_ c_ c_ c_ c_ c_ c_ c_ c_ V~ D5 c: c: c: c: c: c: c: c: c: g] k% .8 E5 25 YD FD /7 E~ 5c rs ^j J7 <p IB _H O> :H R- Q- Q- mg %- K* Y& /& +y <H [H ]G =q }H }H }H }H |H }H }H }H }H }H }H }H }H }H }H }H }H }H }H }H |H JF hn r& a: 0: *< 9[ 0[ m[ m[ cD Vz Vz Vz Vz Vz Vz Vz Vz Vz Vz Vz Vz Vz Vz Vz Vz Vz Vz Vz Vz Vz Vz Vz Vz Vz Vz Vz Vz Vz Vz Vz Vz Vz :B (B (B (B (B (B (B (B (B (B (B (B (B (B (B (B (B (B (B BD MC MC ",
"uB <B 0A 0A 0A 0A 0A 0A 0A xB CD )E #D 0A 0A 0A 0A )E lA lA lA pG VG VG VG VG VG VG VG VG VG VG VG lA lA lA lA lA lA lA lA lA lA lA lA ,8 1H >H >H >H >H >H e/ ,. [) &< 8: *< 0: a: E~ z  A  `. F  9. n+ %+ U+ U+ D@ /# ~@ E@ (# S# <$ <$ <$ <$ <$ <$ D$ ;% %% l% s% M% U% }& 2H Aj R- R- Q- Q- 'H 3H (* B& 4H vG @s =' 8m p$ b) <{ 5H F~ 6H R6 >| c: c: c: c: c: c: c: c: }w [< c_ c_ c_ c_ c_ c_ c_ c_ c_ c_ c_ c_ c_ c_ c_ c_ c_ c_ c_ c_ c_ c_ c_ c_ c_ c_ c_ c_ c_ c_ c_ c_ c_ l2 c_ !~ v# L4 C3 C3 C3 D  ~8 D@ U! c: }w c: c: c: c: c: c: c: c: c: c: c: c: c: c: c: c: c: c: c: c: c: c: c: c: c: c: c: c: c: c: c: c: c: c: c: c: c: c: c: c: c: c: c: c: c: c: c: c: c: c: c: c: c: c: c: c: c: c: c: c: c: c: c: c: c: c: c: c: c: c: c: c: c: c: c: c: c: c: c: c: c: c: c: c: c: c: c: c: c: c: c: c: c: c: c: c: c: c: c: c: c: c: c: c: c: c: c: c: c: c: c: c: c: c: c: c: c: c: c: c: c: c: c: c: c: c: c: c: c: c: c: c: c: c: c: c: c: c: c: c: c: c: c: c: c: c: c: c: c: c: c: c: c: c: c: c: c: c: c: c: c: c: c: c: c: }w }w ({ F$ o) C3 C3 C3 C3 ;h C3 r& /6 7H V~ a{ c_ c_ c_ c_ c_ c_ c_ c_ c_ c_ c_ c_ c_ c_ c_ c_ c_ c_ c_ c_ c_ c_ c_ c_ c_ c_ c_ c_ c_ c_ c_ c_ [< }w c: c: c: c: c: c: c: c: c: c: >| `7 +7 25 YD FD /7 E~ 5c ;8 ^j Jq <p IB 8H N> rn R- Q- Q- 9H %- K* X& H, i, SC 0H aH bH cH cH dH dH cH cH dH dH dH dH dH dH cH cH cH cH cH cH cH cH eH fH gH q2 w_ 0: *< 9[ 0[ m[ m[ cD Vz Vz Vz Vz Vz Vz Vz Vz Vz Vz Vz Vz Vz Vz Vz Vz Vz Vz Vz Vz Vz Vz Vz Vz Vz Vz Vz Vz Vz Vz Vz <B (B (B (B (B (B (B (B (B (B (B (B (B (B (B (B (B (B (B (B (B (B (B (B ",
"}C 0A 0A 0A 0A hH @@ U7 .| .| .| .| .| %z 0A 0A 0A lA lA lA UG VG VG VG VG VG VG VG VG VG VG VG VG rC lA lA lA lA lA lA lA lA lA lA lA ,. SA >H >H >H >H >H iH ,. [) &< 8: *< 0: a: E~ z  A  `. F  9. n+ %+ U+ U+ D@ /# ~@ E@ (# S# <$ <$ <$ <$ <$ <$ F$ Y$ %% l% s% g, U% }& K* eD Q- Q- h; Q- jH ]= Q& V& 4H 4B @s =' 8m p$ t4 <{ 5H F~ Rp v4 >| c: c: c: c: c: c: c: c: }w [< c_ c_ c_ c_ c_ c_ c_ c_ c_ c_ c_ c_ c_ c_ c_ c_ c_ c_ c_ c_ c_ c_ c_ c_ c_ c_ c_ c_ c_ c_ c_ c_ c_ l2 c_ !~ v# L4 C3 C3 C3 D  ~8 D@ U! c: }w c: c: c: c: c: c: c: c: c: c: c: c: c: c: c: c: c: c: c: c: c: c: c: c: c: c: c: c: c: c: c: c: c: c: c: c: c: c: c: c: c: c: c: c: c: c: c: c: c: c: c: c: c: c: c: c: c: c: c: c: c: c: c: c: c: c: c: c: c: c: c: c: c: c: c: c: c: c: c: c: c: c: c: c: c: c: c: c: c: c: c: c: c: c: c: c: c: c: c: c: c: c: c: c: c: c: c: c: c: c: c: c: c: c: c: c: c: c: c: c: c: c: c: c: c: c: c: c: c: c: c: c: c: c: c: c: c: c: c: c: c: c: c: c: c: c: c: c: c: c: c: c: c: c: c: c: c: c: c: c: c: c: c: c: c: }w }w ({ F$ o) C3 C3 C3 C3 ;h C3 3! `5 kH Bx E2 c_ c_ c_ c_ c_ c_ c_ c_ c_ c_ c_ c_ c_ c_ c_ c_ c_ c_ c_ c_ c_ c_ c_ c_ c_ c_ c_ c_ c_ c_ c_ c_ [< }w c: c: c: c: c: c: c: c: c: c: }_ &) $8 t6 YD FD /7 E~ A7 ;8 ^j Jq <p IB lH N> rn R- Q- Q- `- %- 5* X& H, P% s% mH nH oH 9n 9n 9n 9n 9n 9n 9n 9n 9n 9n 9n oH oH oH 8n pH pH pH qH qH qH an 3! L< w_ 0: *< 9[ 0[ m[ m[ cD Vz Vz Vz Vz Vz Vz Vz Vz Vz Vz Vz Vz Vz Vz Vz Vz Vz Vz Vz Vz Vz Vz Vz Vz Vz Vz Vz Vz Vz Vz Y3 (B (B (B (B (B (B (B (B (B (B (B (B (B (B (B (B (B (B (B (B (B (B (B (B ",
"G4 0A 0A 0A rG .| .| .| .| .| .| .| a' dq 0A 0A CD lA pG rG VG rH _B (B sH rH VG VG VG VG VG VG VG )E lA lA lA lA lA lA lA lA lA lA <1 ,. >H >H >H >H >H >H e/ ,. [) &< 8: *< 0: a: E~ z  A  `. F  9. n+ %+ U+ U+ D@ /# ~@ E@ (# S# <$ <$ <$ <$ <$ <$ G$ Y$ %% l% u% h, '& |f L* eD Q- Q- h; h; m- 8= _* U& tH 4B ED  8 8m p$ @/ <{ /4 F~ Rp =' >| c: c: c: c: c: c: c: c: }w [< c_ c_ c_ c_ c_ c_ c_ c_ c_ c_ c_ c_ c_ c_ c_ c_ c_ c_ c_ c_ c_ c_ c_ c_ c_ c_ c_ c_ c_ c_ c_ c_ c_ l2 c_ !~ v# L4 C3 C3 C3 D  ~8 D@ U! c: }w c: c: c: c: c: c: c: c: c: c: c: c: c: c: c: c: c: c: c: c: c: c: c: c: c: c: c: c: c: c: c: c: c: c: c: c: c: c: c: c: c: c: c: c: c: c: c: c: c: c: c: c: c: c: c: c: c: c: c: c: c: c: c: c: c: c: c: c: c: c: c: c: c: c: c: c: c: c: c: c: c: c: c: c: c: c: c: c: c: c: c: c: c: c: c: c: c: c: c: c: c: c: c: c: c: c: c: c: c: c: c: c: c: c: c: c: c: c: c: c: c: c: c: c: c: c: c: c: c: c: c: c: c: c: c: c: c: c: c: c: c: c: c: c: c: c: c: c: c: c: c: c: c: c: c: c: c: c: c: c: c: c: c: c: c: }w }w ({ F$ o) C3 C3 C3 C3 ;h C3 p$ v4 uH Bx E2 c_ c_ c_ c_ c_ c_ c_ c_ c_ c_ c_ c_ c_ c_ c_ c_ c_ c_ c_ c_ c_ c_ c_ c_ c_ c_ c_ c_ c_ c_ c_ c_ [< }w c: c: c: c: c: c: c: c: c: c: c: 1% .8 E5 YD FD /7 E~ A7 0) ]k ,7 uG sC lH O> rn R- Q- h; `- u- 5* y& _& n' v% 7% vH o' H) H) H) H) H) H) H) H) H) H) H) '> Ph Ph wH =n L$ 8m ll Pi xH p$ `. L< w_ 0: *< 9[ 0[ m[ m[ cD Vz Vz Vz Vz Vz Vz Vz Vz Vz Vz Vz Vz Vz Vz Vz Vz Vz Vz Vz Vz Vz Vz Vz Vz Vz Vz Vz Vz Vz :B (B (B (B (B (B (B (B (B (B (B (B (B (B (B (B (B (B (B (B (B (B (B (B (B (B ",
"0A 0A 0A 0A yH .| .| .| .| .| .| a' dq $z zH (B (B AH BH BH _B BD BD BD BD BD (B BH VG VG VG VG VG UG lA lA lA lA lA lA lA lA lA lA CH WG >H >H >H >H >H >H ~' ,. [) &< 8: *< 0: a: E~ z  A  `. F  9. n+ %+ U+ U+ D@ /# ~@ E@ (# S# <$ <$ <$ <$ <$ <$ G$ Y$ &% 2% u% N% )& w& 5* (j Q- Q- h; h; DH 8= _* EH FH IB ED  8 8m p$ 7) <{ /4 F~ Rp =' #y c: c: c: c: c: c: c: c: }w [< c_ c_ c_ c_ c_ c_ c_ c_ c_ c_ c_ c_ c_ c_ c_ c_ c_ c_ c_ c_ c_ c_ c_ c_ c_ c_ c_ c_ c_ c_ c_ c_ c_ l2 c_ !~ v# L4 C3 C3 C3 D  ~8 ]u U! c: }w c: c: c: c: c: c: c: c: c: c: c: c: c: c: c: c: c: c: c: c: c: c: c: c: c: c: c: c: c: c: c: c: c: c: c: c: c: c: c: c: c: c: c: c: c: c: c: c: c: c: c: c: c: c: c: c: c: c: c: c: c: c: c: c: c: c: c: c: c: c: c: c: c: c: c: c: c: c: c: c: c: c: c: c: c: c: c: c: c: c: c: c: c: c: c: c: c: c: c: c: c: c: c: c: c: c: c: c: c: c: c: c: c: c: c: c: c: c: c: c: c: c: c: c: c: c: c: c: c: c: c: c: c: c: c: c: c: c: c: c: c: c: c: c: c: c: c: c: c: c: c: c: c: c: c: c: c: c: c: c: c: c: c: c: c: }w }w ({ F$ o) C3 C3 C3 C3 ;h c/ C$ +) GH E2 c_ c_ c_ c_ c_ c_ c_ c_ c_ c_ c_ c_ c_ c_ c_ c_ c_ c_ c_ c_ c_ c_ c_ c_ c_ c_ c_ c_ c_ c_ c_ c_ c_ [< }w c: c: c: c: c: c: c: c: c: c: c: >| $) N4 YD FD /7 E~ X@ 0) ]k R6 uG SC DD O> :H R- h; h; `- t- @' y& 9& Q% w% 2% 9% I= <$ <$ <$ <$ <$ <$ <$ <$ <$ <$ S# (# E@ !@ r+ j. b@ %+ #+ 9. D  `. z  L< w_ 0: *< 9[ 0[ m[ m[ cD Vz Vz Vz Vz Vz Vz Vz Vz Vz Vz Vz Vz Vz Vz Vz Vz Vz Vz Vz Vz Vz Vz Vz Vz Vz Vz Vz Vz _B (B (B (B (B (B (B (B (B (B (B HH IH JH KH KH LH zH (B (B (B (B (B (B (B (B (B ",
"0A 0A 0A 0A U7 .| .| .| .| .| a' dq dq )E MH MH zH BD BD BD BD BD BD BD BD BD BD BD _B VG VG VG VG rG lA lA lA lA lA lA lA lA lA lA %C 0' >H >H >H >H >H NH ,. ,. [) &< 8: *< 0: a: E~ z  A  `. F  9. n+ %+ U+ U+ D@ /# ~@ E@ (# S# <$ <$ <$ <$ <$ <$ G$ Y$ &% 2% u% N% !& 1& 5* (j OH OH h; h; DH ^= k{ E& PH sC *t  8 1g nh Gj <{ /4 F~ Rp =' #y c: c: c: c: c: c: c: c: }w [< c_ c_ c_ c_ c_ c_ c_ c_ c_ c_ c_ c_ c_ c_ c_ c_ c_ c_ c_ c_ c_ c_ c_ c_ c_ c_ c_ c_ c_ c_ c_ c_ c_ l2 c_ !~ v# L4 C3 C3 C3 c/ D  D@ +~ c: }w c: c: c: c: c: c: c: c: c: c: c: c: c: c: c: c: c: c: c: c: c: c: c: c: c: c: c: c: c: c: c: c: c: c: c: c: c: c: c: c: c: c: c: c: c: c: c: c: c: c: c: c: c: c: c: c: c: c: c: c: c: c: c: c: c: c: c: c: c: c: c: c: c: c: c: c: c: c: c: c: c: c: c: c: c: c: c: c: c: c: c: c: c: c: c: c: c: c: c: c: c: c: c: c: c: c: c: c: c: c: c: c: c: c: c: c: c: c: c: c: c: c: c: c: c: c: c: c: c: c: c: c: c: c: c: c: c: c: c: c: c: c: c: c: c: c: c: c: c: c: c: c: c: c: c: c: c: c: c: c: c: c: c: c: c: }w }w ({ F$ o) C3 C3 C3 C3 4k C3 h% i% V~ a{ c_ c_ c_ c_ c_ c_ c_ c_ c_ c_ c_ c_ c_ c_ c_ c_ c_ c_ c_ c_ c_ c_ c_ c_ c_ c_ c_ c_ c_ c_ c_ c_ c_ [< }w c: c: c: c: c: c: c: c: c: c: c: }_ |% @8 Wu FD /7 E~ X@ 0) ]k R6 uG SC XD P> :H R- h; h; `- &- 7* QH <& R% z% 2% 9% I$ <$ <$ <$ <$ <$ <$ <$ <$ <$ <$ S# (# E@ E@ !@ r+ ~+ -+ #+ 9. D  `. z  L< w_ 0: *< 9[ 0[ m[ m[ cD Vz Vz Vz Vz Vz Vz Vz Vz Vz Vz Vz Vz Vz Vz Vz Vz Vz Vz Vz Vz Vz Vz Vz Vz Vz Vz Vz (B (B (B (B (B (B (B (B (B (B (B RH KH KH KH KH KH KH KH KH zH (B (B (B (B (B (B (B ",
"0A 0A 0A 0A .| .| .| .| .| s~ dq dq dq rH MH MH MH SH BD BD BD BD BD BD BD BD BD BD BD AH VG VG VG VG pG lA lA lA lA lA lA lA lA lA G( 0' >H >H >H >H >H 0' ,. ,. [) &< 8: *< 0: a: E~ z  A  `. F  9. n+ %+ U+ U+ D@ /# ~@ E@ (# S# <$ <$ <$ <$ <$ <$ G$ Y$ &% 2% v% N% !& 1& 5* Aj OH Q- $; $; <} 9y F, E& PH sC *t !v =n k' od <{ /4 F~ Rp .) }_ c: c: c: c: c: c: c: c: }w [< c_ c_ c_ c_ c_ c_ c_ c_ c_ c_ c_ c_ c_ c_ c_ c_ c_ c_ c_ c_ c_ c_ c_ c_ c_ c_ c_ c_ c_ c_ c_ c_ c_ l2 c_ !~ v# L4 C3 C3 C3 c/ 9. TH !* c: }w c: c: c: c: c: c: c: c: c: c: c: c: c: c: c: c: c: c: c: c: c: c: c: c: c: c: c: c: c: c: c: c: c: c: c: c: c: c: c: c: c: c: c: c: c: c: c: c: c: c: c: c: c: c: c: c: c: c: c: c: c: c: c: c: c: c: c: c: c: c: c: c: c: c: c: c: c: c: c: c: c: c: c: c: c: c: c: c: c: c: c: c: c: c: c: c: c: c: c: c: c: c: c: c: c: c: c: c: c: c: c: c: c: c: c: c: c: c: c: c: c: c: c: c: c: c: c: c: c: c: c: c: c: c: c: c: c: c: c: c: c: c: c: c: c: c: c: c: c: c: c: c: c: c: c: c: c: c: c: c: c: c: c: c: c: }w }w ({ F$ o) C3 C3 C3 C3 ~8 n+ |$ k% <_ a{ c_ c_ c_ c_ c_ c_ c_ c_ c_ c_ c_ c_ c_ c_ c_ c_ c_ c_ c_ c_ c_ c_ c_ c_ c_ c_ c_ c_ c_ c_ c_ c_ c_ [< }w c: c: c: c: c: c: c: c: c: c: c: c: 1% 3m YD FD /7 E~ X@ 0) ]k R6 uG lH !E P> :H Q- h; $; `- /, 7* ]* <& R% z% 2% $% I$ <$ <$ <$ <$ <$ <$ <$ <$ <$ <$ S# (# E@ E@ !@ r+ ~+ -+ #+ 9. D  `. z  L< w_ 0: *< 9[ 0[ m[ m[ cD Vz Vz Vz Vz Vz Vz Vz Vz Vz Vz Vz Vz Vz Vz Vz Vz Vz Vz Vz Vz Vz Vz Vz Vz Vz Vz (B (B (B (B (B (B (B (B (B (B (B (B IH KH KH KH KH KH KH KH KH KH UH (B (B (B (B (B (B ",
"0A 0A 0A CD .| .| 47 t~ QA dq dq dq dq VH MH MH MH MH WH WH MH MH MH g_ BD BD BD BD BD BD VG VG VG VG VG lA lA lA lA lA lA lA lA lA %C WG >H >H >H >H XH ,. ,. ,. [) &< 8: *< 0: a: E~ z  A  `. F  9. n+ %+ U+ U+ D@ /# ~@ E@ (# S# <$ <$ <$ <$ <$ <$ G$ Y$ &% 2% v% N% !& Z& 6* Aj Q- Q- $; $; 6- 9y o* YH ZH _H *t !v =n k' t4 ;7 ]! F~ Rp .) }_ c: c: c: c: c: c: c: c: }w [< c_ c_ c_ c_ c_ c_ c_ c_ c_ c_ c_ c_ c_ c_ c_ c_ c_ c_ c_ c_ c_ c_ c_ c_ c_ c_ c_ c_ c_ c_ c_ c_ c_ l2 c_ !~ v# L4 C3 C3 C3 C3 e< h% *% }_ }w c: c: c: c: c: c: c: c: c: c: c: c: c: c: c: c: c: c: c: c: c: c: c: c: c: c: c: c: c: c: c: c: c: c: c: c: c: c: c: c: c: c: c: c: c: c: c: c: c: c: c: c: c: c: c: c: c: c: c: c: c: c: c: c: c: c: c: c: c: c: c: c: c: c: c: c: c: c: c: c: c: c: c: c: c: c: c: c: c: c: c: c: c: c: c: c: c: c: c: c: c: c: c: c: c: c: c: c: c: c: c: c: c: c: c: c: c: c: c: c: c: c: c: c: c: c: c: c: c: c: c: c: c: c: c: c: c: c: c: c: c: c: c: c: c: c: c: c: c: c: c: c: c: c: c: c: c: c: c: c: c: c: c: c: c: }w }w ({ F$ o) C3 C3 C3 C3 ~8 n+ q$ >| Ax c_ c_ c_ c_ c_ c_ c_ c_ c_ c_ c_ c_ c_ c_ c_ c_ c_ c_ c_ c_ c_ c_ c_ c_ c_ c_ c_ c_ c_ c_ c_ c_ c_ c_ [< }w c: c: c: c: c: c: c: c: c: c: c: c: `H  I ~t FD /7 E~ X@ 0) ]k R6 gq lH .I P> :H Q- h; $; `- /, 8* W& }& R% z% 3% %% ;% <$ <$ <$ <$ <$ <$ <$ <$ <$ <$ S# (# c@ E@ !@ r+ ~+ -+ #+ 9. D  `. z  L< w_ 0: *< 9[ 0[ m[ m[ cD Vz Vz Vz Vz Vz Vz Vz Vz Vz Vz Vz Vz Vz Vz Vz Vz Vz Vz Vz Vz Vz Vz Vz Vz Vz (B (B (B (B (B (B (B (B (B (B (B (B (B +I KH KH KH KH KH KH KH KH KH KH NC (B (B (B (B (B ",
"0A 0A 0A )E .| Lh QA dq dq dq dq dq dq MH MH MH MH MH MH MH MH MH MH MH WH BD BD BD BD BD VG VG VG VG VG #D lA lA lA lA lA lA lA lA lA lA lA pG sH sH lA lA sG e/ 7: &< 8: *< 0: a: E~ z  A  `. F  9. n+ %+ U+ U+ D@ /# ~@ E@ (# S# <$ <$ <$ <$ <$ <$ H$ Z$ &% 2% v% +y ~& 3& 7* uw Q- +; $; $; 6- @I `, $' ZH lH _D !v =n k' t4 Z. ]! F~ Rp +) c: c: c: c: c: c: c: c: c: }w [< c_ c_ c_ c_ c_ c_ c_ c_ c_ c_ c_ c_ c_ c_ c_ c_ c_ c_ c_ c_ c_ c_ c_ c_ c_ c_ c_ c_ c_ c_ c_ c_ c_ l2 c_ !~ v# L4 C3 C3 C3 ;h #+ k' H) >| _{ ~~ c: c: c: c: c: c: c: c: c: c: c: c: c: c: c: c: c: c: c: c: c: c: c: c: c: c: c: c: c: c: c: c: c: c: c: c: c: c: c: c: c: c: c: c: c: c: c: c: c: c: c: c: c: c: c: c: c: c: c: c: c: c: c: c: c: c: c: c: c: c: c: c: c: c: c: c: c: c: c: c: c: c: c: c: c: c: c: c: c: c: c: c: c: c: c: c: c: c: c: c: c: c: c: c: c: c: c: c: c: c: c: c: c: c: c: c: c: c: c: c: c: c: c: c: c: c: c: c: c: c: c: c: c: c: c: c: c: c: c: c: c: c: c: c: c: c: c: c: c: c: c: c: c: c: c: c: c: c: c: c: c: c: c: c: }w }w ({ F$ o) C3 C3 C3 C3 h3 n+ F$ }_ Ax c_ c_ c_ c_ c_ c_ c_ c_ c_ c_ c_ c_ c_ c_ c_ c_ c_ c_ c_ c_ c_ c_ c_ c_ c_ c_ c_ c_ c_ c_ c_ c_ c_ c_ [< }w c: c: c: c: c: c: c: c: c: c: c: c: #I $I )s L8 /7 E~ X@ .p ]k R6 @s %I FE P> :H Q- $; $; &I *- 8* A& <& P% u% k% @% D$ v# v# v# *I *I *I *I =I =I *I v# K< !@ ]# b@ -+ o+ s4 E  ~8 8. {w L< a: Ln 0: *< *< 0[ m[ m[ cD Vz Vz Vz Vz Vz Vz Vz Vz Vz Vz Vz Vz Vz Vz Vz Vz Vz Vz Vz Vz Vz Vz Vz Vz (B (B (B (B (B (B (B (B (B (B (B (B (B (B +I KH KH KH KH KH KH KH KH KH KH KH 83 (B (B (B (B ",
"0A 0A 0A @@ 47 dq dq dq dq dq dq dq dq MH MH MH MH MH MH MH MH MH MH MH MH -I BD BD BD (B VG VG VG VG VG rG lA lA lA lA lA lA lA lA lA ;I >I ,I ,I ,I 'I ;I sG )I 7: &< 8: *< 0: a: E~ z  A  `. F  9. n+ %+ U+ U+ D@ /# ~@ E@ (# S# <$ <$ <$ <$ <$ <$ H$ Z$ &% 2% v% P% {& 4& !I uw Q- Q- $; $; 7- (= `, $' ~I lH _D %8 =n k' 5f Z. ]! F~ Eo %% _{ _{ _{ _{ _{ _{ _{ _{ _{ ;< c_ c_ c_ c_ c_ c_ c_ c_ c_ c_ c_ c_ c_ c_ c_ c_ c_ c_ c_ c_ c_ c_ c_ c_ c_ c_ c_ c_ c_ c_ c_ c_ c_ c_ l2 c_ !~ v# L4 C3 C3 C3 ;h #+ k' Me k% _{ {I _{ _{ _{ _{ _{ _{ _{ _{ _{ _{ _{ _{ _{ _{ _{ _{ _{ _{ _{ _{ _{ _{ _{ _{ _{ _{ _{ _{ _{ _{ _{ _{ _{ _{ _{ _{ _{ _{ _{ _{ _{ _{ _{ _{ _{ _{ _{ _{ _{ _{ _{ _{ _{ _{ _{ _{ _{ _{ _{ _{ _{ _{ _{ _{ _{ _{ _{ _{ _{ _{ _{ _{ _{ _{ _{ _{ _{ _{ _{ _{ _{ _{ _{ _{ _{ _{ _{ _{ _{ _{ _{ _{ _{ _{ _{ _{ _{ _{ _{ _{ _{ _{ _{ _{ _{ _{ _{ _{ _{ _{ _{ _{ _{ _{ _{ _{ _{ _{ _{ _{ _{ _{ _{ _{ _{ _{ _{ _{ _{ _{ _{ _{ _{ _{ _{ _{ _{ _{ _{ _{ _{ _{ _{ _{ _{ _{ _{ _{ _{ _{ _{ _{ _{ _{ _{ _{ _{ _{ _{ _{ _{ _{ _{ _{ ;< ;< B] F$ o) C3 C3 C3 C3 h3 s1 T! }_ ,: c_ c_ c_ c_ c_ c_ c_ c_ c_ c_ c_ c_ c_ c_ c_ c_ c_ c_ c_ c_ c_ c_ c_ c_ c_ c_ c_ c_ c_ c_ c_ c_ c_ c_ c_ ;< _{ _{ _{ _{ _{ _{ _{ _{ _{ _{ _{ _{ }_ &) jm L8 /7 E~ i9 Pa ]k R6 @s XD FE P> nm Q- $; $; &I -- ]I B& ^I /I (I _I :I <I <I [I [I }I |I |I 1I 1I 1I 2I 2I DD SC 3I 4I uz 5I 6I 7I Kn 8I H! 9I 0I aI 3! *< bI 0[ m[ m[ cD Vz Vz Vz Vz Vz Vz Vz Vz Vz Vz Vz Vz Vz Vz Vz Vz Vz Vz Vz Vz Vz Vz Vz Vz :B :B :B :B Y3 :B (B (B (B (B (B (B (B (B +I KH KH KH KH KH KH KH KH KH KH KH KH HH (B (B (B ",
"0A 0A 0A @@ v2 dq dq dq dq dq dq dq ~7 MH MH MH MH MH MH MH MH MH MH MH MH cI BD BD BD (B VG VG VG VG VG VG lA lA lA lA lA lA lA pG dI ,I ,I ,I ,I ,I ,I ,I s~ eI 7: &< 8: *< 0: a: E~ z  A  `. F  9. n+ %+ U+ U+ D@ /# ~@ E@ (# S# <$ <$ <$ <$ <$ <$ H$  % &% 2% v% P% {& 4& !I uw h; h; $; $; 7- _= }* I& (& fD Vu %8 =n Jh 5f Z. ]! F~ Eo &% _{ _{ _{ _{ _{ _{ _{ _{ _{ ;< c_ c_ c_ c_ c_ c_ c_ c_ c_ c_ c_ c_ c_ c_ c_ c_ c_ c_ c_ c_ c_ c_ c_ c_ c_ c_ c_ c_ c_ c_ c_ c_ c_ c_ l2 c_ !~ v# L4 C3 C3 C3 fI &+ p$ go j% _{ {I _{ _{ _{ _{ _{ _{ _{ _{ _{ _{ _{ _{ _{ _{ _{ _{ _{ _{ _{ _{ _{ _{ _{ _{ _{ _{ _{ _{ _{ _{ _{ _{ _{ _{ _{ _{ _{ _{ _{ _{ _{ _{ _{ _{ _{ _{ _{ _{ _{ _{ _{ _{ _{ _{ _{ _{ _{ _{ _{ _{ _{ _{ _{ _{ _{ _{ _{ _{ _{ _{ _{ _{ _{ _{ _{ _{ _{ _{ _{ _{ _{ _{ _{ _{ _{ _{ _{ _{ _{ _{ _{ _{ _{ _{ _{ _{ _{ _{ _{ _{ _{ _{ _{ _{ _{ _{ _{ _{ _{ _{ _{ _{ _{ _{ _{ _{ _{ _{ _{ _{ _{ _{ _{ _{ _{ _{ _{ _{ _{ _{ _{ _{ _{ _{ _{ _{ _{ _{ _{ _{ _{ _{ _{ _{ _{ _{ _{ _{ _{ _{ _{ _{ _{ _{ _{ _{ _{ _{ _{ _{ _{ _{ _{ _{ ;< ;< B] F$ o) C3 C3 C3 C3 h3 s1 T! }_ ,: c_ c_ c_ c_ c_ c_ c_ c_ c_ c_ c_ c_ c_ c_ c_ c_ c_ c_ c_ c_ c_ c_ c_ c_ c_ c_ c_ c_ c_ c_ c_ c_ c_ c_ c_ ;< _{ _{ _{ _{ _{ _{ _{ _{ _{ _{ _{ _{ g] j% ZA L8 /7 E~ Xa Pa Bf .7 @s XD n' P> nm Q- $; $; Z- -- ]I E& gI hI iI jI kI lI mI nI oI pI qI qI lI rI sI tI uI vI $o wI kI xI hI hI yI zI MG NG AI yG BI CI w_ M< 0[ m[ m[ cD Vz Vz Vz Vz Vz Vz Vz Vz Vz Vz Vz Vz Vz Vz Vz Vz Vz Vz Vz Vz Vz Vz Vz Vz Vz Vz Vz Vz Vz Y3 (B (B (B (B (B (B (B (B IH KH KH KH KH KH KH KH KH KH KH KH KH KH HH (B (B ",
"wB 0A 0A -6 dq dq dq dq dq dq dq dq ~7 MH MH MH MH MH MH MH MH MH MH MH MH MH BD BD BD BD VG VG VG VG VG VG lA lA lA lA lA lA lA DI ,I ,I ,I ,I ,I ,I ,I 'I EI eI 7: &< 8: *< 0: a: E~ z  A  `. F  9. n+ %+ U+ U+ D@ /# ~@ E@ (# S# <$ <$ <$ <$ <$ <$ H$  % &% 2% v% P% {& 5& s= Aj h; h; %; k; FI K> }* q* GI HI Vu %8 =n Jh 5f k+ ]! F~ Eo &% _{ _{ _{ _{ _{ _{ _{ _{ _{ ;< c_ c_ c_ c_ c_ c_ c_ c_ c_ c_ c_ c_ c_ c_ c_ c_ c_ c_ c_ c_ c_ c_ c_ c_ c_ c_ c_ c_ c_ c_ c_ c_ c_ c_ l2 c_ !~ v# L4 C3 C3 C3 ]m M7 II ZA $) 6^ _{ _{ _{ _{ _{ _{ _{ _{ _{ _{ _{ _{ _{ _{ _{ _{ _{ _{ _{ _{ _{ _{ _{ _{ _{ _{ _{ _{ _{ _{ _{ _{ _{ _{ _{ _{ _{ _{ _{ _{ _{ _{ _{ _{ _{ _{ _{ _{ _{ _{ _{ _{ _{ _{ _{ _{ _{ _{ _{ _{ _{ _{ _{ _{ _{ _{ _{ _{ _{ _{ _{ _{ _{ _{ _{ _{ _{ _{ _{ _{ _{ _{ _{ _{ _{ _{ _{ _{ _{ _{ _{ _{ _{ _{ _{ _{ _{ _{ _{ _{ _{ _{ _{ _{ _{ _{ _{ _{ _{ _{ _{ _{ _{ _{ _{ _{ _{ _{ _{ _{ _{ _{ _{ _{ _{ _{ _{ _{ _{ _{ _{ _{ _{ _{ _{ _{ _{ _{ _{ _{ _{ _{ _{ _{ _{ _{ _{ _{ _{ _{ _{ _{ _{ _{ _{ _{ _{ _{ _{ _{ _{ _{ _{ _{ _{ ;< ;< B] F$ o) C3 C3 C3 C3 h3 s1 T! }_ ,: c_ c_ c_ c_ c_ c_ c_ c_ c_ c_ c_ c_ c_ c_ c_ c_ c_ c_ c_ c_ c_ c_ c_ c_ c_ c_ c_ c_ c_ c_ c_ c_ c_ c_ c_ ;< _{ _{ _{ _{ _{ _{ _{ _{ _{ _{ _{ _{ g] j% ZA L8 /7 E~ Xa p$ Bf .7 *t XD JI R> Il Q- $; $;  ; -- 0* E& 8q /q [F KI LI MI |o |o NI NI NI NI NI NI NI PG OI PI PI PI PI OI OI QI QI BI BI OG BI BI RI SI _) M< 0[ m[ m[ cD Vz Vz Vz Vz Vz Vz Vz Vz Vz Vz Vz Vz Vz Vz Vz Vz Vz Vz Vz Vz Vz Vz Vz Vz Vz Vz Vz Vz Vz <B (B (B (B (B (B (B (B (B JH KH KH KH KH KH KH KH KH KH KH KH KH KH KH UH (B ",
"LH 0A 0A ~7 dq dq dq dq dq dq dq dq ~7 MH MH MH MH MH MH MH MH MH MH MH MH MH BD BD BD BD rH VG VG VG VG VG )E lA lA lA lA lA ~7 TI UI VI WI WI XI YI ZI ms eI eI 7: &< 8: *< 0: a: E~ z  A  `. F  9. n+ %+ U+ U+ D@ /# ~@ E@ (# S# <$ <$ <$ <$ <$ <$ H$  % &% 2% f& P%  * 7& `I Aj Q- Q- %; %; k- L> 1* q* GI XD ev @y =n Jh rs k+ ]! F~ Eo &% _{ _{ _{ _{ _{ _{ _{ _{ _{ ;< c_ c_ c_ c_ c_ c_ c_ c_ c_ c_ c_ c_ c_ c_ c_ c_ c_ c_ c_ c_ c_ c_ c_ c_ c_ c_ c_ c_ c_ c_ c_ c_ c_ c_ l2 c_ !~ v# L4 C3 C3 C3 C3 T+ II XA o' m{ _{ {I _{ _{ _{ _{ _{ _{ _{ _{ _{ _{ _{ _{ _{ _{ _{ _{ _{ _{ _{ _{ _{ _{ _{ _{ _{ _{ _{ _{ _{ _{ _{ _{ _{ _{ _{ _{ _{ _{ _{ _{ _{ _{ _{ _{ _{ _{ _{ _{ _{ _{ _{ _{ _{ _{ _{ _{ _{ _{ _{ _{ _{ _{ _{ _{ _{ _{ _{ _{ _{ _{ _{ _{ _{ _{ _{ _{ _{ _{ _{ _{ _{ _{ _{ _{ _{ _{ _{ _{ _{ _{ _{ _{ _{ _{ _{ _{ _{ _{ _{ _{ _{ _{ _{ _{ _{ _{ _{ _{ _{ _{ _{ _{ _{ _{ _{ _{ _{ _{ _{ _{ _{ _{ _{ _{ _{ _{ _{ _{ _{ _{ _{ _{ _{ _{ _{ _{ _{ _{ _{ _{ _{ _{ _{ _{ _{ _{ _{ _{ _{ _{ _{ _{ _{ _{ _{ _{ _{ _{ _{ _{ _{ _{ _{ ;< ;< B] F$ o) C3 C3 C3 C3 h3 s1 T! }_ ,: c_ c_ c_ c_ c_ c_ c_ c_ c_ c_ c_ c_ c_ c_ c_ c_ c_ c_ c_ c_ c_ c_ c_ c_ c_ c_ c_ c_ c_ c_ c_ c_ c_ c_ c_ ;< _{ _{ _{ _{ _{ _{ _{ _{ _{ _{ _{ _{ g] j% ZA L8 /7 E~ b) p$ 8m =' *t .I  J S> Il h; $; %; X- .J 0* E& js +J oo sF =C @J lG #J #J #J lG lG lG lG lG lG lG lG lG lG lG lG lG $J $J vp lG lG lG lG %J &J _) M< 0[ m[ m[ cD Vz Vz Vz Vz Vz Vz Vz Vz Vz Vz Vz Vz Vz Vz Vz Vz Vz Vz Vz Vz Vz Vz Vz Vz Vz Vz Vz Vz Vz Vz _B (B (B (B (B (B (B (B KH KH KH KH KH KH KH KH KH KH KH KH KH KH KH KH KH ",
"*J &7 0A %* dq dq dq dq =J dq dq dq ~7 MH MH MH MH MH MH MH MH MH MH MH MH -J BD BD BD BD g4 VG VG VG VG VG )E lA lA lA lA ;J TI TI >J ,J ,J ,J ,J ,J 'J eI eI eI 7: &< 8: *< 0: a: E~ z  A  `. F  9. n+ %+ U+ U+ D@ /# ~@ E@ (# S# <$ <$ <$ <$ <$ <$ H$  % &% 3% f& P% t& x& 6c Aj )J )J %; %; !J <= n* K& `& !E ev @y =n Jh rs Z. ]! F~ Eo &% _{ _{ _{ _{ _{ _{ _{ _{ _{ ;< c_ c_ c_ c_ c_ c_ c_ c_ c_ c_ c_ c_ c_ c_ c_ c_ c_ c_ c_ c_ c_ c_ c_ c_ c_ c_ c_ c_ c_ c_ c_ c_ c_ c_ l2 c_ !~ v# L4 C3 C3 C3 ~J T+ {8 mm +8 `m _{ {I _{ _{ _{ _{ _{ _{ _{ _{ _{ _{ _{ _{ _{ _{ _{ _{ _{ _{ _{ _{ _{ _{ _{ _{ _{ _{ _{ _{ _{ _{ _{ _{ _{ _{ _{ _{ _{ _{ _{ _{ _{ _{ _{ _{ _{ _{ _{ _{ _{ _{ _{ _{ _{ _{ _{ _{ _{ _{ _{ _{ _{ _{ _{ _{ _{ _{ _{ _{ _{ _{ _{ _{ _{ _{ _{ _{ _{ _{ _{ _{ _{ _{ _{ _{ _{ _{ _{ _{ _{ _{ _{ _{ _{ _{ _{ _{ _{ _{ _{ _{ _{ _{ _{ _{ _{ _{ _{ _{ _{ _{ _{ _{ _{ _{ _{ _{ _{ _{ _{ _{ _{ _{ _{ _{ _{ _{ _{ _{ _{ _{ _{ _{ _{ _{ _{ _{ _{ _{ _{ _{ _{ _{ _{ _{ _{ _{ _{ _{ _{ _{ _{ _{ _{ _{ _{ _{ _{ _{ _{ _{ _{ _{ _{ ;< ;< B] F$ o) C3 C3 C3 C3 h3 s1 T! }_ ,: c_ c_ c_ c_ c_ c_ c_ c_ c_ c_ c_ c_ c_ c_ c_ c_ c_ c_ c_ c_ c_ c_ c_ c_ c_ c_ c_ c_ c_ c_ c_ c_ c_ c_ c_ ;< _{ _{ _{ _{ _{ _{ _{ _{ _{ _{ _{ _{ g] j% ZA L8 /7 E~ b) p$ 8m =' *t .I !G S> Il h; $; %; X- .J a* F& mG mo lo 8q {J ]J qH ^J ^J ^J ^J ^J ^J ^J ^J ^J ^J ^J ^J ^J ^J ^J ^J ^J ^J /J SI -q po po %J (J _) M< 0[ m[ m[ _J (B (B tB _B :B <B Vz Vz Vz Vz Vz Vz Vz Vz Vz Vz Vz Vz Vz Vz Vz Vz Vz Vz Vz Vz Vz Vz Vz Vz Vz Y3 tB (B (B (B (B BD KH KH KH KH KH KH KH KH KH KH KH KH KH KH KH KH KH ",
"*J *J _B xB dq dq =J :J <J fz dq dq O' MH MH MH MH MH MH MH MH MH MH MH MH SH BD BD BD BD BD VG VG VG VG VG UG lA lA lA lA fz TI TI [J }J |J 1J 1J 2J 3J 4J 5J 6J [) &< 8: *< 0: a: E~ z  A  `. F  9. n+ %+ U+ U+ D@ /# ~@ E@ (# S# <$ <$ <$ <$ <$ <$ H$  % &% 3% z% P% t& x& 0* Aj )J )J %; %; 8- }= J* m, 7J !E GE <x Sn {m 5f Z. ]! F~ Eo &% _{ _{ _{ _{ _{ _{ _{ _{ _{ ;< c_ c_ c_ c_ c_ c_ c_ c_ c_ c_ c_ c_ c_ c_ c_ c_ c_ c_ c_ c_ c_ c_ c_ c_ c_ c_ c_ c_ c_ c_ c_ c_ c_ c_ l2 c_ !~ v# L4 C3 C3 C3 ~J *+ 8J mm 2n $) g] {I _{ _{ _{ _{ _{ _{ _{ _{ _{ _{ _{ _{ _{ _{ _{ _{ _{ _{ _{ _{ _{ _{ _{ _{ _{ _{ _{ _{ _{ _{ _{ _{ _{ _{ _{ _{ _{ _{ _{ _{ _{ _{ _{ _{ _{ _{ _{ _{ _{ _{ _{ _{ _{ _{ _{ _{ _{ _{ _{ _{ _{ _{ _{ _{ _{ _{ _{ _{ _{ _{ _{ _{ _{ _{ _{ _{ _{ _{ _{ _{ _{ _{ _{ _{ _{ _{ _{ _{ _{ _{ _{ _{ _{ _{ _{ _{ _{ _{ _{ _{ _{ _{ _{ _{ _{ _{ _{ _{ _{ _{ _{ _{ _{ _{ _{ _{ _{ _{ _{ _{ _{ _{ _{ _{ _{ _{ _{ _{ _{ _{ _{ _{ _{ _{ _{ _{ _{ _{ _{ _{ _{ _{ _{ _{ _{ _{ _{ _{ _{ _{ _{ _{ _{ _{ _{ _{ _{ _{ _{ _{ _{ _{ _{ ;< ;< B] F$ o) C3 C3 C3 C3 h3 s1 T! }_ ,: c_ c_ c_ c_ c_ c_ c_ c_ c_ c_ c_ c_ c_ c_ c_ c_ c_ c_ c_ c_ c_ c_ c_ c_ c_ c_ c_ c_ c_ c_ c_ c_ c_ c_ c_ ;< _{ _{ _{ _{ _{ _{ _{ _{ _{ _{ _{ _{ g] j% ZA L8 /7 E~ Xa p$ 8m  8 *t .I 6G S> Il $; %; %; X- {] a* F& js mo lo 9J 0J aJ 2p 2p 2p 2p 2p 2p 2p 2p 2p 2p 2p 2p 2p 2p 2p 2p 2p 2p 2p bJ cJ =C po po %J dJ _) M< 0[ m[ m[ _J (B (B (B (B (B (B (B _B Y3 Vz Vz Vz Vz <B :B _B tB tB tB :B Y3 Vz Vz Vz Vz Vz Vz Vz Vz Vz Vz Vz tB (B (B (B (B HH KH KH KH KH KH KH KH KH KH KH KH KH KH KH KH KH KH ",
"*J *J *J _B s~ $z <J <J <J <J eJ dq dq MH MH MH MH MH MH MH MH MH MH MH g_ BD BD BD BD BD BD AH VG VG VG VG qG lA lA lA lA fJ TI TI TI TI 8' NH NH NH NH NH NH NH [) &< 8: *< 0: a: E~ z  A  `. F  9. n+ %+ U+ U+ D@ /# ~@ E@ (# S# <$ <$ <$ <$ <$ <$ H$  % &% m% z% P% t& t* 0* Aj $; $; %; gJ 3} }= 4* hJ iJ jJ GE <x {o z7 2g Z. ]! F~ Eo :% _{ _{ _{ _{ _{ _{ _{ _{ _{ ;< c_ c_ c_ c_ c_ c_ c_ c_ c_ c_ c_ c_ c_ c_ c_ c_ c_ c_ c_ c_ c_ c_ c_ c_ c_ c_ c_ c_ c_ c_ c_ c_ c_ c_ l2 c_ !~ v# L4 C3 C3 C3 s4 *+ kJ 25 K6 v4  _ _{ ~~ _{ _{ _{ _{ _{ _{ _{ _{ _{ _{ _{ _{ _{ _{ _{ _{ _{ _{ _{ _{ _{ _{ _{ _{ _{ _{ _{ _{ _{ _{ _{ _{ _{ _{ _{ _{ _{ _{ _{ _{ _{ _{ _{ _{ _{ _{ _{ _{ _{ _{ _{ _{ _{ _{ _{ _{ _{ _{ _{ _{ _{ _{ _{ _{ _{ _{ _{ _{ _{ _{ _{ _{ _{ _{ _{ _{ _{ _{ _{ _{ _{ _{ _{ _{ _{ _{ _{ _{ _{ _{ _{ _{ _{ _{ _{ _{ _{ _{ _{ _{ _{ _{ _{ _{ _{ _{ _{ _{ _{ _{ _{ _{ _{ _{ _{ _{ _{ _{ _{ _{ _{ _{ _{ _{ _{ _{ _{ _{ _{ _{ _{ _{ _{ _{ _{ _{ _{ _{ _{ _{ _{ _{ _{ _{ _{ _{ _{ _{ _{ _{ _{ _{ _{ _{ _{ _{ _{ _{ _{ _{ _{ _{ ;< ;< B] F$ o) C3 C3 C3 C3 h3 s1 T! }_ ,: c_ c_ c_ c_ c_ c_ c_ c_ c_ c_ c_ c_ c_ c_ c_ c_ c_ c_ c_ c_ c_ c_ c_ c_ c_ c_ c_ c_ c_ c_ c_ c_ c_ c_ c_ ;< _{ _{ _{ _{ _{ _{ _{ _{ _{ _{ _{ _{ g] &) ZA L8 /7 E~ Xa p$ 8m  8 _D .I !G lJ eD $; %; %; W- {] j* $' mJ +J lo 9J 0J nJ 2p 2p 2p 2p 2p 2p 2p 2p 2p 2p 2p 2p 2p 2p 2p 2p 2p 2p 2p oJ cJ =C po po %J dJ _) M< 0[ m[ m[ _J (B (B (B (B (B (B (B (B (B (B (B _B tB (B (B (B (B (B (B (B (B (B :B Vz Vz Vz Vz Vz Vz Vz Vz <B (B (B (B (B (B UH KH KH KH KH KH KH KH KH KH KH KH KH KH KH KH KH KH ",
"*J *J *J *J }B sG <J <J <J <J <J pJ dq qJ MH MH MH MH MH MH MH MH MH WH BD BD BD BD BD BD BD BD rH VG VG VG VG lA lA lA lA rJ TI TI TI TI TI sJ NH NH NH NH NH NH [) &< 8: *< 0: a: E~ z  A  `. F  9. n+ %+ U+ U+ D@ /# ~@ E@ (# S# <$ <$ <$ <$ <$ <$ H$  % &% 7% z% P% ^& t* 0* Aj $; $; &; &; 3} 2= K* M& iJ .I 'x qn {o z7 2g Z. ]! F~ 7) :% 5B _{ _{ _{ _{ _{ _{ _{ _{ ;< c_ c_ c_ c_ c_ c_ c_ c_ c_ c_ c_ c_ c_ c_ c_ c_ c_ c_ c_ c_ c_ c_ c_ c_ c_ c_ c_ c_ c_ c_ c_ c_ c_ c_ l2 c_ !~ v# L4 C3 C3 C3 s4 *+ tJ 25 U6 N4 @) z_ 5B _{ _{ _{ _{ _{ _{ _{ _{ _{ _{ _{ _{ _{ _{ _{ _{ _{ _{ _{ _{ _{ _{ _{ _{ _{ _{ _{ _{ _{ _{ _{ _{ _{ _{ _{ _{ _{ _{ _{ _{ _{ _{ _{ _{ _{ _{ _{ _{ _{ _{ _{ _{ _{ _{ _{ _{ _{ _{ _{ _{ _{ _{ _{ _{ _{ _{ _{ _{ _{ _{ _{ _{ _{ _{ _{ _{ _{ _{ _{ _{ _{ _{ _{ _{ _{ _{ _{ _{ _{ _{ _{ _{ _{ _{ _{ _{ _{ _{ _{ _{ _{ _{ _{ _{ _{ _{ _{ _{ _{ _{ _{ _{ _{ _{ _{ _{ _{ _{ _{ _{ _{ _{ _{ _{ _{ _{ _{ _{ _{ _{ _{ _{ _{ _{ _{ _{ _{ _{ _{ _{ _{ _{ _{ _{ _{ _{ _{ _{ _{ _{ _{ _{ _{ _{ _{ _{ _{ _{ _{ _{ _{ _{ ;< ;< B] F$ o) C3 C3 C3 C3 h3 s1 T! }_ ,: c_ c_ c_ c_ c_ c_ c_ c_ c_ c_ c_ c_ c_ c_ c_ c_ c_ c_ c_ c_ c_ c_ c_ c_ c_ c_ c_ c_ c_ c_ c_ c_ c_ c_ c_ ;< _{ _{ _{ _{ _{ _{ _{ _{ _{ _{ _{ _{ }_ Nw jm L8 /7 E~ Xa p$ 8m  8 _D FE vx lJ eD $; %; &; W- >- b* $' js +J +J 9J 0J nJ 2p 2p 2p 2p 2p 2p 2p 2p 2p 2p 2p 2p 2p 2p 2p 2p 2p 2p 2p oJ cJ =C po po %J dJ _) M< 0[ m[ m[ _J (B (B (B (B (B (B (B (B (B (B (B (B (B (B (B (B (B (B (B (B (B (B (B (B Vz Vz Vz Vz Vz Vz Vz :B (B (B (B (B (B JH KH KH KH KH KH KH KH KH KH KH KH KH KH KH KH KH KH ",
"*J *J *J *J *J <J <J <J <J <J <J <J QA )E MH MH MH MH MH MH MH MH MH zH BD BD BD BD BD BD BD BD AH VG VG VG VG )E lA lA lA ;J TI TI TI TI TI TI q~ NH NH NH NH NH [) &< 8: *< 0: a: E~ z  A  `. F  9. n+ %+ U+ U+ D@ /# ~@ E@ (# S# <$ <$ <$ <$ <$ <$ H$  % :% 7% y% X% ^& uJ 0* Aj $; $; &; &; }[ 3= 5* M& iJ .I wx qn {o z7 2g k+ ]! F~ 7) :% ;< _{ _{ _{ _{ _{ _{ _{ D5 ;< c_ c_ c_ c_ c_ c_ c_ c_ c_ c_ c_ c_ c_ c_ c_ c_ c_ c_ c_ c_ c_ c_ c_ c_ c_ c_ c_ c_ c_ c_ c_ c_ c_ c_ l2 c_ !~ v# L4 C3 C3 C3 C3 *+ tJ 25 U6 E5 +8 tC GH _{ _{ _{ _{ _{ _{ _{ _{ _{ _{ _{ _{ _{ _{ _{ _{ _{ _{ _{ _{ _{ _{ _{ _{ _{ _{ _{ _{ _{ _{ _{ _{ _{ _{ _{ _{ _{ _{ _{ _{ _{ _{ _{ _{ _{ _{ _{ _{ _{ _{ _{ _{ _{ _{ _{ _{ _{ _{ _{ _{ _{ _{ _{ _{ _{ _{ _{ _{ _{ _{ _{ _{ _{ _{ _{ _{ _{ _{ _{ _{ _{ _{ _{ _{ _{ _{ _{ _{ _{ _{ _{ _{ _{ _{ _{ _{ _{ _{ _{ _{ _{ _{ _{ _{ _{ _{ _{ _{ _{ _{ _{ _{ _{ _{ _{ _{ _{ _{ _{ _{ _{ _{ _{ _{ _{ _{ _{ _{ _{ _{ _{ _{ _{ _{ _{ _{ _{ _{ _{ _{ _{ _{ _{ _{ _{ _{ _{ _{ _{ _{ _{ _{ _{ _{ _{ _{ _{ _{ _{ _{ _{ _{ ;< V~ m{ F$ o) C3 C3 C3 C3 h3 s1 T! }_ ,: c_ c_ c_ c_ c_ c_ c_ c_ c_ c_ c_ c_ c_ c_ c_ c_ c_ c_ c_ [< [< c_ c_ c_ c_ c_ c_ c_ c_ c_ c_ c_ c_ c_ c_ ;< _{ _{ _{ _{ _{ _{ _{ _{ _{ _{ _{ D5 }_ qn jm L8 /7 %! b) p$ 8m  8 _D JI vJ T> eD $; %; &; .; >- wJ H& ot +J +J 9J !H $r 2p 2p 2p 2p 2p 2p 2p 2p 2p 2p 2p 2p 2p 2p 2p 2p 2p 2p 2p oJ cJ =C po po %J dJ _) M< 0[ m[ m[ _J (B (B (B (B (B (B (B (B (B (B (B (B (B (B (B (B (B (B (B (B (B (B (B (B (B <B tB tB Y3 Vz <B (B (B (B (B (B (B KH KH KH KH KH KH KH KH KH KH KH KH KH KH KH KH KH KH ",
"*J *J *J *J *J 0A <J <J <J <J <J <J xJ s~ MH MH MH MH MH MH MH MH cI BD BD BD BD BD BD BD BD BD AH VG VG VG VG VG lA lA lA lA O' TI TI TI TI TI yJ NH NH NH NH NH [) &< 8: *< 0: a: E~ z  A  `. F  9. n+ %+ U+ U+ D@ /# ~@ E@ (# S# <$ <$ <$ <$ <$ <$ H$  % i% 7% y% R% (& y& N* eh $; $; *; *; }[ R> +' O& &' .I Ey qn {o Pi 2g k+ ]! F~ 7) <% ;< D5 D5 D5 D5 D5 D5 D5 D5 V~ c_ c_ c_ c_ c_ c_ c_ c_ c_ c_ c_ c_ c_ c_ c_ c_ c_ c_ c_ c_ c_ c_ c_ c_ c_ c_ c_ c_ c_ c_ c_ c_ c_ c_ l2 c_ !~ v# L4 C3 C3 C3 C3 T+ tJ 25 X7 25 Z7 yx zJ n~ D5 D5 D5 D5 D5 D5 D5 D5 D5 D5 D5 D5 D5 D5 D5 D5 D5 D5 D5 D5 D5 D5 D5 D5 D5 D5 D5 D5 D5 D5 D5 D5 D5 D5 D5 D5 D5 D5 D5 D5 D5 D5 D5 D5 D5 D5 D5 D5 D5 D5 D5 D5 D5 D5 D5 D5 D5 D5 D5 D5 D5 D5 D5 D5 D5 D5 D5 D5 D5 D5 D5 D5 D5 D5 D5 D5 D5 D5 D5 D5 D5 D5 D5 D5 D5 D5 D5 D5 D5 D5 D5 D5 D5 D5 D5 D5 D5 D5 D5 D5 D5 D5 D5 D5 D5 D5 D5 D5 D5 D5 D5 D5 D5 D5 D5 D5 D5 D5 D5 D5 D5 D5 D5 D5 D5 D5 D5 D5 D5 D5 D5 D5 D5 D5 D5 D5 D5 D5 D5 D5 D5 D5 D5 D5 D5 D5 D5 D5 D5 D5 D5 D5 D5 D5 D5 D5 D5 D5 D5 D5 D5 V~ V~ m{ G$ o) C3 C3 C3 C3 h3 s1 T! }_ ,: c_ c_ c_ c_ c_ c_ c_ c_ c_ c_ c_ c_ c_ c_ c_ c_ c_ V~ D5 .: >8 .: }w ;< c_ c_ c_ c_ c_ c_ c_ c_ c_ c_ c_ D5 D5 }~ D5 D5 D5 D5 D5 D5 D5 D5 D5 D5 gD qn jm L8 /7 %! b) p$ 8m  8 ev AJ vJ T> eD %; *; *; W- '- d* q* %r oo oo 9J !H $r 2p 2p 2p 2p 2p 2p 2p 2p 2p 2p 2p 2p 2p 2p 2p 2p 2p 2p 2p oJ cJ =C po po %J dJ _) M< 0[ m[ m[ _J (B (B (B (B (B (B (B (B (B (B (B (B (B (B (B (B (B (B (B (B (B (B (B (B (B (B (B (B (B _B (B (B (B (B (B (B (B KH KH KH KH KH KH KH KH KH KH KH KH KH KH KH KH KH KH ",
"*J *J *J *J *J 83 BJ <J <J <J <J <J <J eJ bA MH MH MH MH WH g_ zH BD BD BD BD BD BD BD BD BD BD AH VG VG VG VG VG rG lA lA lA CH TI TI TI TI TI TI NH NH NH NH NH [) &< 8: *< 0: a: E~ z  A  `. F  9. n+ %+ U+ U+ D@ /# ~@ E@ (# S# <$ <$ <$ <$ <$ <$ H$  % i% 7% y% R% _& s* N* eh $; A; *; *; CJ S> 7* O& DJ JI Ey qn {o Pi 2g k+ ]! F~ 7) [% ;< D5 D5 D5 D5 D5 D5 D5 D5 V~ c_ c_ c_ c_ c_ c_ c_ c_ c_ c_ c_ c_ c_ c_ c_ c_ c_ c_ c_ c_ c_ c_ c_ c_ c_ c_ c_ c_ c_ c_ c_ c_ c_ c_ l2 c_ !~ v# L4 C3 C3 C3 C3 @/ tJ 25 X7 25 u6 @8 j% D5 n~ D5 D5 D5 D5 D5 D5 D5 D5 D5 D5 D5 D5 D5 D5 D5 D5 D5 D5 D5 D5 D5 D5 D5 D5 D5 D5 D5 D5 D5 D5 D5 D5 D5 D5 D5 D5 D5 D5 D5 D5 D5 D5 D5 D5 D5 D5 D5 D5 D5 D5 D5 D5 D5 D5 D5 D5 D5 D5 D5 D5 D5 D5 D5 D5 D5 D5 D5 D5 D5 D5 D5 D5 D5 D5 D5 D5 D5 D5 D5 D5 D5 D5 D5 D5 D5 D5 D5 D5 D5 D5 D5 D5 D5 D5 D5 D5 D5 D5 D5 D5 D5 D5 D5 D5 D5 D5 D5 D5 D5 D5 D5 D5 D5 D5 D5 D5 D5 D5 D5 D5 D5 D5 D5 D5 D5 D5 D5 D5 D5 D5 D5 D5 D5 D5 D5 D5 D5 D5 D5 D5 D5 D5 D5 D5 D5 D5 D5 D5 D5 D5 D5 D5 D5 D5 D5 D5 D5 D5 D5 D5 V~ V~ m{ G$ o) C3 C3 C3 C3 h3 s1 T! }_ ,: c_ c_ c_ c_ c_ c_ c_ c_ c_ c_ c_ c_ c_ c_ c_ ;< .: k% YA  8 g6 o' <%  _ }_ ;< c_ c_ c_ c_ c_ c_ c_ [< D5 wz 5m k% z_ D5 D5 D5 D5 D5 D5 D5 D5 D5 gD qn jm L8 /7 %! b) p$ 8m  8 ev lF EJ FJ gd %; *; *; i; '- GJ S& %r oo oo 9J !H HJ 2p 2p 2p 2p 2p 2p 2p 2p 2p 2p 2p 2p 2p 2p 2p 2p 2p 2p 2p oJ cJ =C po po %J dJ _) M< 0[ m[ m[ _J (B (B (B (B (B (B (B (B (B (B (B (B (B (B (B (B (B (B (B (B (B (B (B (B (B (B (B (B (B (B (B (B (B (B (B (B (B KH KH KH KH KH KH KH KH KH KH KH KH KH KH KH KH KH KH ",
"*J *J *J *J *J IH BD AH <J <J <J <J <J <J :J EE sH SH BD BD BD BD BD BD BD BD BD BD BD BD BD BD AH VG VG VG VG VG rG lA lA lA lA O' TI TI TI TI TI NH NH NH NH NH [) &< 8: *< 0: a: E~ z  A  `. F  9. n+ %+ U+ U+ D@ /# ~@ E@ (# S# <$ <$ <$ <$ <$ <$ H$  % i% n% B% R% _& ld a* eh A; A; *; =; b- T> 7* IJ JJ lF Ey qn {o z7 2g k+ ]! F~ Gj [% ;< D5 D5 D5 D5 D5 D5 D5 D5 V~ c_ c_ c_ c_ c_ c_ c_ c_ c_ c_ c_ c_ c_ c_ c_ c_ c_ c_ c_ c_ c_ c_ c_ c_ c_ c_ c_ c_ c_ c_ c_ c_ c_ c_ l2 c_ !~ v# L4 C3 C3 C3 s4 KJ ,5 J6 K6 25 25 )5 %8 .: ;< D5 D5 D5 D5 D5 D5 D5 D5 D5 D5 D5 D5 D5 D5 D5 D5 D5 D5 D5 D5 D5 D5 D5 D5 D5 D5 D5 D5 D5 D5 D5 D5 D5 D5 D5 D5 D5 D5 D5 D5 D5 D5 D5 D5 D5 D5 D5 D5 D5 D5 D5 D5 D5 D5 D5 D5 D5 D5 D5 D5 D5 D5 D5 D5 D5 D5 D5 D5 D5 D5 D5 D5 D5 D5 D5 D5 D5 D5 D5 D5 D5 D5 D5 D5 D5 D5 D5 D5 D5 D5 D5 D5 D5 D5 D5 D5 D5 D5 D5 D5 D5 D5 D5 D5 D5 D5 D5 D5 D5 D5 D5 D5 D5 D5 D5 D5 D5 D5 D5 D5 D5 D5 D5 D5 D5 D5 D5 D5 D5 D5 D5 D5 D5 D5 D5 D5 D5 D5 D5 D5 D5 D5 D5 D5 D5 D5 D5 D5 D5 D5 D5 D5 D5 D5 D5 D5 D5 D5 D5 D5 V~ V~ m{ G$ o) C3 C3 C3 C3 h3 s1 T! }_ ,: c_ c_ c_ c_ c_ c_ c_ c_ c_ c_ c_ c_ c_ V~ }~ k%  8 +7 25 25 25 J6 /6 Z  %8 L5 }~ Bx E2 c_ c_ [< zx m% j% @) .8  8 O, }w D5 D5 D5 D5 D5 D5 D5 D5 gD qn Mm L8 /7 R{ b) nh 8m  8 ev lF tH LJ MJ %; &; *; i; '- q= l, %r oo oo 9J NJ HJ 2p 2p 2p 2p 2p 2p 2p 2p 2p 2p 2p 2p 2p 2p 2p 2p 2p 2p 2p oJ cJ =C po po %J dJ _) M< 0[ m[ m[ OJ (B (B (B (B (B (B (B (B (B (B (B (B (B (B (B (B (B (B (B (B (B (B (B _B _B AH PJ PJ AH _B (B (B (B (B (B (B (B LH KH KH KH KH KH KH KH KH KH KH KH KH KH KH KH KH KH ",
"*J *J *J *J *J *J IH BD (B xB <J <J <J <J <J <J <J BJ BD BD BD BD BD BD BD BD BD BD BD BD BD BD AH VG VG VG VG VG VG lA lA lA lA rJ TI TI TI TI QJ NH NH NH NH NH [) &< 8: *< 0: a: E~ z  A  `. F  9. n+ %+ U+ U+ D@ /# ~@ E@ (# S# <$ <$ <$ <$ <$ <$ I$ +% i% n% B% R% _& ]* RJ SJ A; %; *; =; TJ U> 8* Q& UJ lF Ey ,q {o z7 0) k+ ]! F~ Gj [% ;< D5 D5 D5 D5 D5 D5 D5 D5 V~ c_ c_ c_ V~ V~ c_ c_ c_ c_ c_ c_ c_ c_ c_ c_ c_ c_ c_ c_ c_ c_ c_ c_ c_ c_ c_ c_ c_ c_ c_ c_ c_ c_ c_ l2 c_ !~ v# L4 C3 C3 C3 s4 u# ,5 K6 K6 25 25 E5 g6 >8 n~ D5 D5 D5 D5 D5 D5 D5 D5 D5 D5 D5 D5 D5 D5 D5 D5 D5 D5 D5 D5 D5 D5 D5 D5 D5 D5 D5 D5 D5 D5 D5 D5 D5 D5 D5 D5 D5 D5 D5 D5 D5 D5 D5 D5 D5 D5 D5 D5 D5 D5 D5 D5 D5 D5 D5 D5 D5 D5 D5 D5 D5 D5 D5 D5 D5 D5 D5 D5 D5 D5 D5 D5 D5 D5 D5 D5 D5 D5 D5 D5 D5 D5 D5 D5 D5 D5 D5 D5 D5 D5 D5 D5 D5 D5 D5 D5 D5 D5 D5 D5 D5 D5 D5 D5 D5 D5 D5 D5 D5 D5 D5 D5 D5 D5 D5 D5 D5 D5 D5 D5 D5 D5 D5 D5 D5 D5 D5 D5 D5 D5 D5 D5 D5 D5 D5 D5 D5 D5 D5 D5 D5 D5 D5 D5 D5 D5 D5 D5 D5 D5 D5 D5 D5 D5 D5 D5 D5 D5 D5 D5 V~ V~ m{ G$ o) C3 C3 C3 C3 h3 s1 T! }_ ,: c_ c_ c_ c_ c_ c_ c_ c_ c_ c_ c_ V~ zx 5m %8 N4 25 25 25 25 25 25 25 25 E5 Z  $) >| g] }_ >| 1% Nw .8 Z7 E5 25 Z  L5 D5 D5 D5 D5 D5 D5 D5 D5 D5 gD <x Mm L8 /7 R{ b) k' Lm !v GE  J FH V> eh %; *; =; V- '- f* S& %r oo oo 9J NJ HJ 2p 2p 2p 2p 2p 2p 2p 2p 2p 2p 2p 2p 2p 2p 2p 2p 2p 2p 2p oJ cJ =C po po %J dJ _) M< 0[ m[ m[ VJ PJ _B (B (B (B (B (B (B (B (B (B (B (B (B (B (B (B (B (B (B (B _B PJ PJ PJ PJ PJ PJ PJ PJ PJ (B (B (B (B (B (B 83 KH KH KH KH KH KH KH KH KH KH KH KH KH KH KH KH KH ",
"*J *J *J *J *J *J *J *J zH BD WJ qC <J <J <J <J <J <J BJ BD BD BD BD BD BD BD BD BD BD BD BD BD AH VG VG VG VG VG VG rC lA lA lA XJ TI TI TI TI YJ NH NH NH NH NH [) &< 8: *< 0: a: E~ z  A  `. F  9. n+ %+ U+ U+ D@ /# ~@ E@ (# S# <$ <$ <$ <$ <$ <$ I$ +% i% o% A% R% 9& W& ZJ SJ `J %; y; y; b- 7, 9*  K .K lF nF YG {o z7 0) q2 _) F~ Gj <% D5 D5 D5 D5 D5 D5 D5 D5 D5 V~ c_ c_ ;< wz >8 .: 2[ 8y D: [< c_ c_ c_ }w 2[ .: .: .: }~ 2[ 8y D: [< c_ c_ c_ c_ c_ c_ c_ c_ c_ c_ c_ l2 c_ !~ v# L4 C3 C3 C3 s4 u# ,5 K6 K6 25 25 J6 2m kH n~ D5 D5 D5 D5 D5 D5 D5 D5 D5 D5 D5 D5 D5 D5 D5 D5 D5 D5 D5 D5 D5 D5 D5 D5 D5 D5 D5 D5 D5 D5 D5 D5 D5 D5 D5 D5 D5 D5 D5 D5 D5 D5 D5 D5 D5 D5 D5 D5 D5 D5 D5 D5 D5 D5 D5 D5 D5 D5 D5 D5 D5 D5 D5 D5 D5 D5 D5 D5 D5 D5 D5 D5 D5 D5 D5 D5 D5 D5 D5 D5 D5 D5 D5 D5 D5 D5 D5 D5 D5 D5 D5 D5 D5 D5 D5 D5 D5 D5 D5 D5 D5 D5 D5 D5 D5 D5 D5 D5 D5 D5 D5 D5 D5 D5 D5 D5 D5 D5 D5 D5 D5 D5 D5 D5 D5 D5 D5 D5 D5 D5 D5 D5 D5 D5 D5 D5 D5 D5 D5 D5 D5 D5 D5 D5 D5 D5 D5 D5 D5 D5 D5 D5 D5 D5 D5 D5 D5 D5 D5 D5 V~ V~ m{ G$ o) C3 C3 C3 C3 h3 s1 T! }_ ,: c_ c_ c_ c_ c_ c_ c_ c_ [< D: .: k% @y Z  E5 25 25 25 25 25 25 25 25 25 25 25 /6 35 n5 +8 Z  +7 E5 25 25 25 E5 ,7 5m ;< D5 D5 D5 D5 D5 D5 D5 D5 gD <x Mm L8 /7 R{ b) k' =n @y GE  J PH V> eh z; *; =; V- ^] C, L& +K oo oo Fp NJ HJ 2p 2p 2p 2p 2p 2p 2p 2p 2p 2p 2p 2p 2p 2p 2p 2p 2p 2p 2p oJ cJ =C po po %J dJ _) M< 0[ m[ m[ VJ PJ PJ _B (B (B (B (B (B (B (B (B (B (B (B (B (B (B (B (B (B (B PJ PJ PJ PJ PJ PJ PJ PJ PJ PJ (B (B (B (B (B (B BD KH KH KH KH KH KH KH KH KH KH KH KH KH KH KH KH KH ",
"*J *J *J *J *J *J *J *J *J zH BD BD EE <J <J <J <J <J <J BJ BD BD BD BD BD BD BD BD BD BD BD BD (B VG VG VG VG VG VG #D lA lA lA lA fJ TI TI TI TI @K NH NH NH NH [) &< 8: *< 0: a: E~ z  A  `. F  9. n+ %+ U+ U+ D@ /# ~@ E@ (# S# <$ <$ <$ <$ <$ <$ I$ +% i% o% A% R% 9& A& c* SJ %; %; P- y; TJ V> N* _* .K lF uz YG )x z7 0) q2 _) F~ Gj <% D5 D5 D5 D5 D5 D5 D5 D5 D5 V~ c_ a{ c: #) Z  n5 %8 &) k% gD .: .: z_ }% O4 n5 Z  3n 2m o' qn |% >8 2[ 8y V~ E2 c_ c_ c_ c_ c_ c_ c_ l2 c_ !~ v# L4 C3 C3 C3 s4 u# 15 K6 K6 25 25 25 3n l% D5 ;< D5 D5 D5 D5 D5 D5 D5 D5 D5 D5 D5 D5 D5 D5 D5 D5 D5 D5 D5 D5 D5 D5 D5 D5 D5 D5 D5 D5 D5 D5 D5 D5 D5 D5 D5 D5 D5 D5 D5 D5 D5 D5 D5 D5 D5 D5 D5 D5 D5 D5 D5 D5 D5 D5 D5 D5 D5 D5 D5 D5 D5 D5 D5 D5 D5 D5 D5 D5 D5 D5 D5 D5 D5 D5 D5 D5 D5 D5 D5 D5 D5 D5 D5 D5 D5 D5 D5 D5 D5 D5 D5 D5 D5 D5 D5 D5 D5 D5 D5 D5 D5 D5 D5 D5 D5 D5 D5 D5 D5 D5 D5 D5 D5 D5 D5 D5 D5 D5 D5 D5 D5 D5 D5 D5 D5 D5 D5 D5 D5 D5 D5 D5 D5 D5 D5 D5 D5 D5 D5 D5 D5 D5 D5 D5 D5 D5 D5 D5 D5 D5 D5 D5 D5 D5 D5 D5 D5 D5 D5 V~ V~ m{ G$ o) C3 C3 C3 C3 h3 s1 T! }_ ,: c_ c_ c_ c_ c_ c_ Bx 8y >8 Nw +8 +7 E5 25 25 25 25 25 25 25 25 25 25 25 25 25 25 25 25 25 25 25 25 25 25 25 +7 @) z_ ;< D5 D5 D5 D5 D5 D5 D5 D5 gD <x Mm L8 /7 R{ b) k' =n @y GE  J FH V> eh z; =; y; U- !- P* m, +K oo oo Fp #K $K 2p 2p 2p 2p 2p 2p 2p 2p 2p 2p 2p 2p 2p 2p 2p 2p 2p 2p 2p oJ cJ =C po po %J dJ _) M< 0[ m[ m[ VJ PJ PJ PJ (B (B (B (B (B (B (B (B (B (B (B (B (B (B _B _B (B (B AH PJ PJ PJ PJ PJ PJ PJ PJ AH (B (B (B (B (B (B (B JH KH KH KH KH KH KH KH KH KH KH KH KH KH KH KH KH ",
"*J *J *J *J *J *J *J *J *J *J zH BD WJ <J <J <J <J <J <J EE BD BD BD BD BD BD BD BD BD BD BD BD BD VG VG VG VG VG VG rG lA lA lA lA %K TI TI TI TI yJ @K NH NH NH [) &< 8: *< 0: a: E~ z  A  `. F  9. n+ %+ U+ U+ D@ /# ~@ E@ (# S# <$ <$ <$ <$ <$ <$ ;% @% <% o% A% R% [& A& c* SJ %; z; P- ;> e- N{ N* _* .K  J uz YG )x Pi 0) q2 _) F~ Gj <% D5 D5 D5 D5 D5 D5 D5 D5 D5 V~ c_ a{ 2[ %8 E5 u6 E5 E5 /6 N4 Z  N4 N4 +7 /6 J6 25 25 E5 /6 /6 /6 v6 2m YA >8 D5 &C V~ V~ c_ c_ c_ c_ l2 c_ !~ v# L4 C3 C3 C3 L4 ;8 15 K6 K6 25 25 25 3n l% D5 ;< D5 D5 D5 D5 D5 D5 D5 D5 D5 D5 D5 D5 D5 D5 D5 D5 D5 D5 D5 D5 D5 D5 D5 D5 D5 D5 D5 D5 D5 D5 D5 D5 D5 D5 D5 D5 D5 D5 D5 D5 D5 D5 D5 D5 D5 D5 D5 D5 D5 D5 D5 D5 D5 D5 D5 D5 D5 D5 D5 D5 D5 D5 D5 D5 D5 D5 D5 D5 D5 D5 D5 D5 D5 D5 D5 D5 D5 D5 D5 D5 D5 D5 D5 D5 D5 D5 D5 D5 D5 D5 D5 D5 D5 D5 D5 D5 D5 D5 D5 D5 D5 D5 D5 D5 D5 D5 D5 D5 D5 D5 D5 D5 D5 D5 D5 D5 D5 D5 D5 D5 D5 D5 D5 D5 D5 D5 D5 D5 D5 D5 D5 D5 D5 D5 D5 D5 D5 D5 D5 D5 D5 D5 D5 D5 D5 D5 D5 D5 D5 D5 D5 D5 D5 D5 D5 D5 D5 D5 D5 V~ V~ m{ G$ o) C3 C3 C3 C3 h3 s1 T! }_ ,: c_ c_ c_ c_ #/ D5 vz &K Z  E5 25 25 25 25 25 25 25 25 25 25 25 25 25 25 25 25 25 25 25 25 25 25 25 25 25 J6 Z  [% D5 D5 D5 D5 D5 D5 D5 D5 D5 D5 gD <x Mm L8 /7 R{ b) k' =n @y GE !G ZH W> eh z; =; P- T- *K P* M& +K =K oo Fp NJ -K 0p ap ap ap ap ap ap ap ap ap ap ap ap ap ap ap ap ap VF $r ;K =C po po %J dJ _) M< 0[ m[ m[ VJ PJ PJ PJ (B (B (B (B (B (B (B (B (B (B (B (B _B PJ PJ PJ PJ _B (B PJ PJ PJ PJ PJ PJ PJ PJ _B (B (B (B (B (B (B (B H3 KH KH KH KH KH KH KH KH KH KH KH KH KH KH KH KH ",
"*J *J *J *J *J *J *J *J *J *J *J BD BD 0A <J <J <J <J <J AH BD BD BD BD BD BD BD BD BD BD BD BD BD rH VG VG VG VG VG VG rC lA lA lA sG TI TI TI TI TI n] >K NH NH [) &< 8: *< 0: a: E~ z  A  `. F  9. n+ %+ U+ U+ D@ /# ~@ E@ (# S# <$ <$ <$ <$ <$ <$ 2' @% <% o% A% S% [& B& c* SJ %; z; ;> -; ,K X> j* p* 'K )K uz <p J7 Pi 0) q2 _) F~ Gj <% D5 D5 D5 D5 D5 D5 D5 D5 D5 V~ c_ a{ D5 @y E5 25 25 25 25 25 25 25 25 25 25 25 25 25 25 25 25 25 25 J6 /6 `5 v4 &K k% .: D5 V~ c_ c_ l2 c_ !~ v# L4 C3 C3 C3 L4 ;8 15 X7 X7 25 25 u6 +8 k% D5 ;< D5 D5 D5 D5 D5 D5 D5 D5 D5 D5 D5 D5 D5 D5 D5 D5 D5 D5 D5 D5 D5 D5 D5 D5 D5 D5 D5 D5 D5 D5 D5 D5 D5 D5 D5 D5 D5 D5 D5 D5 D5 D5 D5 D5 D5 D5 D5 D5 D5 D5 D5 D5 D5 D5 D5 D5 D5 D5 D5 D5 D5 D5 D5 D5 D5 D5 D5 D5 D5 D5 D5 D5 D5 D5 D5 D5 D5 D5 D5 D5 D5 D5 D5 D5 D5 D5 D5 D5 D5 D5 D5 D5 D5 D5 D5 D5 D5 D5 D5 D5 D5 D5 D5 D5 D5 D5 D5 D5 D5 D5 D5 D5 D5 D5 D5 D5 D5 D5 D5 D5 D5 D5 D5 D5 D5 D5 D5 D5 D5 D5 D5 D5 D5 D5 D5 D5 D5 D5 D5 D5 D5 D5 D5 D5 D5 D5 D5 D5 D5 D5 D5 D5 D5 D5 D5 D5 D5 D5 D5 V~ V~ m{ G$ o) C3 C3 C3 C3 h3 s1 T! }_ ,: c_ c_ ;< }~ &D Iq `5 /6 25 25 25 25 25 25 25 25 25 25 25 25 25 25 25 25 25 25 25 25 25 25 25 25 25 25 25 +7 o' >| ;< D5 D5 D5 D5 D5 D5 D5 D5 D5 gD <x Mm L8 /7 R{ b) k' =n @y wx !G ZH W> xf o> y; ;> S- !K p= >z Pr =K oo iF ~K {K ]K ^K ^K ^K ^K ^K ^K ^K ^K ^K ^K ^K ^K ^K ^K ^K ^K ^K ^K /K (K lo po po %J dJ _) M< 0[ m[ m[ VJ PJ PJ PJ (B (B (B (B (B (B (B (B (B (B (B (B AH PJ PJ PJ PJ PJ (B AH PJ PJ PJ PJ PJ PJ AH (B (B (B (B (B (B (B (B (B JH KH KH KH KH KH KH KH KH KH KH KH KH KH KH KH ",
"*J *J *J *J *J *J *J *J *J *J *J _K BD (B <J <J <J <J qC BD BD BD BD BD BD BD BD BD BD BD BD BD BD sH VG VG VG VG VG VG pG lA lA lA sG TI TI TI TI TI TI TI >K NH [) &< 8: *< 0: a: E~ z  A  `. F  9. n+ %+ U+ U+ D@ /# ~@ E@ (# S# <$ <$ <$ <$ <$ <$ ;% @% <% o% A% S% [& V& d* SJ %; &; ;> -; S~ :K b* :* 'K <K uz <p J7 Pi 0) 5c %! F~ 5f [% D5 D5 D5 D5 D5 D5 D5 D5 D5 V~ c_ a{ D5 $y K6 25 25 25 25 25 25 25 25 25 25 25 25 25 25 25 25 25 25 25 25 25 /6 N4 35 @5 %8 k% 2[ V~ Ax [< 4( v# L4 C3 C3 C3 n+ 0) ~t X7 X7 25 25 25 +8 k% D5 ;< D5 D5 D5 D5 D5 D5 D5 D5 D5 D5 D5 D5 D5 D5 D5 D5 D5 D5 D5 D5 D5 D5 D5 D5 D5 D5 D5 D5 D5 D5 D5 D5 D5 D5 D5 D5 D5 D5 D5 D5 D5 D5 D5 D5 D5 D5 D5 D5 D5 D5 D5 D5 D5 D5 D5 D5 D5 D5 D5 D5 D5 D5 D5 D5 D5 D5 D5 D5 D5 D5 D5 D5 D5 D5 D5 D5 D5 D5 D5 D5 D5 D5 D5 D5 D5 D5 D5 D5 D5 D5 D5 D5 D5 D5 D5 D5 D5 D5 D5 D5 D5 D5 D5 D5 D5 D5 D5 D5 D5 D5 D5 D5 D5 D5 D5 D5 D5 D5 D5 D5 D5 D5 D5 D5 D5 D5 D5 D5 D5 D5 D5 D5 D5 D5 D5 D5 D5 D5 D5 D5 D5 D5 D5 D5 D5 D5 D5 D5 D5 D5 D5 D5 D5 D5 D5 D5 D5 D5 D5 V~ V~ m{ G$ o) C3 C3 C3 C3 h3 s1 T! g] Ax [< .: <% R6 Z  +7 E5 25 25 25 25 25 25 25 25 25 25 25 25 25 25 25 25 25 25 25 25 25 25 25 25 25 25 25 E5 n5 L5 D5 D5 D5 D5 D5 D5 D5 D5 D5 D5 D5 gD qn Mm L8 /7 R{ b) k' =n @y wx 6G [K X> xf *; P- -; R- ~- R* >z Pr =K oo =K }K |K 1K 2K 2K 2K 2K 2K 2K 2K 2K 2K 2K 2K 2K 2K 2K 2K 2K 2K 2K 1K 3K {H po po %J dJ _) M< 0[ m[ m[ VJ PJ PJ PJ (B (B (B _B AH PJ PJ PJ PJ _B (B (B AH PJ PJ PJ PJ PJ _B PJ PJ PJ PJ PJ PJ PJ _B (B (B (B (B (B (B (B (B (B H3 KH KH KH KH KH KH KH KH KH KH KH KH KH KH KH ",
"*J *J *J *J *J *J *J *J *J *J *J *J UH BD _B <J <J <J (B BD BD BD BD BD BD BD BD BD BD BD BD BD BD (B VG VG VG VG VG VG qG lA lA lA sG TI TI TI TI TI TI TI TI @K [) &< 8: *< 0: a: E~ z  A  `. F  9. n+ %+ U+ U+ D@ /# ~@ E@ (# S# <$ <$ <$ <$ <$ D$ ;% 9% <% o% A% T% [& C& 4K SJ %; *; -; -; 5K Z> d* <* 'K <K -A <p J7 Pi 0) 5c _) F~ 5f [% D5 D5 D5 D5 D5 D5 D5 D5 D5 D5 V~ E2 D5 $y &8 25 25 25 25 25 +5 +5 +5 +5 25 25 25 25 25 25 25 25 25 25 25 25 25 mm mm lm 25 N4 .8 @) k% 6m W! K< L4 C3 C3 C3 n+ 0) ~t X7 X7 25 25 25 3n l% D5 n~ D5 D5 D5 D5 D5 D5 D5 D5 D5 D5 D5 D5 D5 D5 D5 D5 D5 D5 D5 D5 D5 D5 D5 D5 D5 D5 D5 D5 D5 D5 D5 D5 D5 D5 D5 D5 D5 D5 D5 D5 D5 D5 D5 D5 D5 D5 D5 D5 D5 D5 D5 D5 D5 D5 D5 D5 D5 D5 D5 D5 D5 D5 D5 D5 D5 D5 D5 D5 D5 D5 D5 D5 D5 D5 D5 D5 D5 D5 D5 D5 D5 D5 D5 D5 D5 D5 D5 D5 D5 D5 D5 D5 D5 D5 D5 D5 D5 D5 D5 D5 D5 D5 D5 D5 D5 D5 D5 D5 D5 D5 D5 D5 D5 D5 D5 D5 D5 D5 D5 D5 D5 D5 D5 D5 D5 D5 D5 D5 D5 D5 D5 D5 D5 D5 D5 D5 D5 D5 D5 D5 D5 D5 D5 D5 D5 D5 D5 D5 D5 D5 D5 D5 D5 D5 D5 D5 D5 D5 D5 V~ V~ m{ G$ o) C3 C3 C3 C3 ~8 n+ E$ C/ 3% $) $* ~: 25 25 25 25 25 25 25 25 +5 +5 25 25 25 25 25 25 25 U6 U6 ]o ]o ]o U6 U6 25 25 25 25 25 25 25 N4 Iq z_ ;< D5 D5 D5 D5 D5 D5 D5 D5 D5 D5 gD qn jm L8 /7 R{ b) k' =n @y Ey 6K 7K X> [g =; ;> -; R- ~- 8K N& 9K HE oo sF sF =K Lo lG lG lG lG lG lG lG lG lG lG lG lG lG lG lG lG lG lG lG Lo po po po %J dJ _) M< 0[ m[ m[ VJ PJ PJ PJ _B AH PJ PJ PJ PJ PJ PJ PJ PJ _B (B _B PJ PJ PJ PJ AH PJ PJ PJ PJ PJ PJ PJ PJ PJ _B (B (B (B (B (B (B (B (B (B JH KH KH KH KH KH KH KH KH KH KH KH KH KH KH ",
"*J *J *J *J *J *J *J *J *J *J *J *J *J zH BD BD AH BD BD BD BD BD BD BD BD BD BD BD BD BD BD BD BD sH VG VG VG VG VG VG rG lA lA lA sG TI TI TI TI TI TI TI TI @K [) &< 8: *< 0: a: E~ z  A  `. F  9. n+ %+ U+ U+ D@ /# ~@ E@ (# S# <$ <$ <$ <$ <$ D$ ;% 9% <% o% >& S% 0K U& O* SJ %; *; -; -; 5K s0 d* <* aK 6G -A <p J7 Pi 0) 5c %! F~ 5f [% D5 D5 D5 D5 D5 D5 D5 D5 D5 D5 D5 ;< }~ @) /6 '5 YD bK bK cK dK dK dK dK eK eK fK gK gK hK hK iK iK B$ B$ B$ B$ jK jK kK kK kK sp Gj Pa 79 h6 s1 ~8 C3 C3 C3 n+ 0) ~t X7 X7 25 25 25 2m 2% n~ D5 D5 D5 D5 D5 D5 D5 D5 D5 D5 D5 D5 D5 D5 D5 D5 D5 D5 D5 D5 D5 D5 D5 D5 D5 D5 D5 D5 D5 D5 D5 D5 D5 D5 D5 D5 D5 D5 D5 D5 D5 D5 D5 D5 D5 D5 D5 D5 D5 D5 D5 D5 D5 D5 D5 D5 D5 D5 D5 D5 D5 D5 D5 D5 D5 D5 D5 D5 D5 D5 D5 D5 D5 D5 D5 D5 D5 D5 D5 D5 D5 D5 D5 D5 D5 D5 D5 D5 D5 D5 D5 D5 D5 D5 D5 D5 D5 D5 D5 D5 D5 D5 D5 D5 D5 D5 D5 D5 D5 D5 D5 D5 D5 D5 D5 D5 D5 D5 D5 D5 D5 D5 D5 D5 D5 D5 D5 D5 D5 D5 D5 D5 D5 D5 D5 D5 D5 D5 D5 D5 D5 D5 D5 D5 D5 D5 D5 D5 D5 D5 D5 D5 D5 D5 D5 D5 D5 D5 D5 D5 V~ V~ m{ G$ o) C3 C3 C3 s4 4k `. &+ 9e nh Tn e$ a$ B$ B$ lK hK hK hK eK eK mK mK cK bK bK bK YD YD lm '5 '5 +5 +5 +5 '5 '5 lm lm 25 25 25 25 J6 `5 }% D5 D5 D5 D5 D5 D5 D5 D5 D5 D5 D5 D5 gD qn jm L8 /7 R{ b) k' =n @y Ey 6K GI X> xf =; ;> -> R- ~- o, O& nK HE Io sF wp 4r lo oo oo oo oo oo oo oo oo oo oo oo oo oo oo oo oo oo oo oo oo po po po %J dJ _) M< 0[ m[ m[ VJ PJ PJ PJ PJ PJ PJ PJ PJ PJ PJ PJ PJ PJ PJ AH (B PJ PJ PJ PJ PJ PJ PJ PJ PJ PJ PJ oK PJ PJ PJ _B (B (B (B (B (B (B (B (B BD KH KH KH KH KH KH KH KH KH KH KH KH KH KH ",
"*J *J *J *J *J *J *J *J *J *J *J *J *J KH BD BD BD BD BD BD BD BD BD BD BD BD BD BD BD BD BD BD _B VG VG VG VG VG VG VG VG lA lA lA sG TI TI TI TI TI TI TI 1H NH [) &< 8: *< 0: a: E~ z  A  `. F  9. n+ %+ U+ U+ D@ /# ~@ E@ (# S# <$ <$ <$ <$ <$ D$ ;% 9% <% p% >& S% 0K U& f* SJ %; *; -> ;; pK qK e* <* rK (H -A <p J7 Pi 0) 5c %! F~ rs [% D5 D5 D5 D5 D5 D5 D5 D5 D5 D5 D5 ;< }_ $) N4 sK B$ tK uK uK uK vK vK vK e+ e+ wK wK xK xK xK xK xK s  yK zK zK zK zK zK zK t/ t/ t/ t/ K7 1( #! {w ;h L4 C3 n+ 0) ~t X7 X7 25 25 u6 g6 3% n~ D5 D5 D5 D5 D5 D5 D5 D5 D5 D5 D5 D5 D5 D5 D5 D5 D5 D5 D5 D5 D5 D5 D5 D5 D5 D5 D5 D5 D5 D5 D5 D5 D5 D5 D5 D5 D5 D5 D5 D5 D5 D5 D5 D5 D5 D5 D5 D5 D5 D5 D5 D5 D5 D5 D5 D5 D5 D5 D5 D5 D5 D5 D5 D5 D5 D5 D5 D5 D5 D5 D5 D5 D5 D5 D5 D5 D5 D5 D5 D5 D5 D5 D5 D5 D5 D5 D5 D5 D5 D5 D5 D5 D5 D5 D5 D5 D5 D5 D5 D5 D5 D5 D5 D5 D5 D5 D5 D5 D5 D5 D5 D5 D5 D5 D5 D5 D5 D5 D5 D5 D5 D5 D5 D5 D5 D5 D5 D5 D5 D5 D5 D5 D5 D5 D5 D5 D5 D5 D5 D5 D5 D5 D5 D5 D5 D5 D5 D5 D5 D5 D5 D5 D5 D5 D5 D5 D5 D5 D5 D5 V~ V~ m{ G$ o) C3 C3 s4 C3 {w ]! K7 AK /7 t/ zK zK zK yK xK xK xK wK BK e+ vK vK uK uK Rk Rk Rk CK H. H. H. DK DK t# 4  Om 1  0$ o$ mK lm 25 &8 o' >| D5 D5 D5 D5 D5 D5 D5 D5 D5 D5 D5 D5 .: qn jm L8 /7 R{ b) Jh =n @y Ey vJ 7J :K Pe =; -; -> R- ~- S* nA nK HE oo sF KF EK FK GK HK IK 8q po po po po po po po po -q JK  t jF -H KF lo po po po po %J dJ _) M< 0[ m[ m[ VJ PJ PJ PJ PJ PJ PJ PJ PJ PJ PJ PJ PJ PJ PJ PJ PJ PJ PJ PJ PJ PJ PJ PJ PJ KK LK LK LK wB PJ PJ PJ AH PJ PJ PJ _B (B (B (B (B UH KH KH JH UH IH KH KH KH KH KH KH KH KH ",
"*J *J *J *J *J *J *J *J *J *J *J *J *J *J LH BD BD BD BD BD BD BD BD BD BD BD BD BD BD BD BD sH VG VG VG VG VG VG VG VG VG lA lA lA sG TI TI TI TI TI TI n] @K NH [) &< 8: *< 0: a: E~ z  A  `. F  9. n+ %+ U+ U+ D@ /# ~@ E@ (# S# <$ <$ <$ <$ <$ D$ 2' @% |m p% >& S% v& D& f* [g %; y; ;; ;; MK NK C, }* rK (H 4I uG J7 Pi 0) rp %! F~ rs [% D5 D5 D5 D5 D5 D5 D5 D5 D5 D5 D5 ;< }_ $) N4 ,5 >u t/ 5! 5! 5! 5! 5! 5! 5! 5! 5! 5! 5! 5! 5! 5! 5! 5! 5! 5! 5! 5! 5! 5! ^! ^! 7! 7! R) R) R) 5! O^ OK dc ;h n+ 0) ~t X7 X7 25 25 E5  8 >8 n~ D5 D5 D5 D5 D5 D5 D5 D5 D5 D5 D5 D5 D5 D5 D5 D5 D5 D5 D5 D5 D5 D5 D5 D5 D5 D5 D5 D5 D5 D5 D5 D5 D5 D5 D5 D5 D5 D5 D5 D5 D5 D5 D5 D5 D5 D5 D5 D5 D5 D5 D5 D5 D5 D5 D5 D5 D5 D5 D5 D5 D5 D5 D5 D5 D5 D5 D5 D5 D5 D5 D5 D5 D5 D5 D5 D5 D5 D5 D5 D5 D5 D5 D5 D5 D5 D5 D5 D5 D5 D5 D5 D5 D5 D5 D5 D5 D5 D5 D5 D5 D5 D5 D5 D5 D5 D5 D5 D5 D5 D5 D5 D5 D5 D5 D5 D5 D5 D5 D5 D5 D5 D5 D5 D5 D5 D5 D5 D5 D5 D5 D5 D5 D5 D5 D5 D5 D5 D5 D5 D5 D5 D5 D5 D5 D5 D5 D5 D5 D5 D5 D5 D5 D5 D5 D5 D5 D5 D5 D5 D5 V~ V~ m{ e1 ;( C3 C3 C3 7. L7 e_ R) R) R) 7! 5! 5! 5! 5! 5! 5! 5! 5! 5! 5! 5! 5! 5! 5! ^! 5! R) R) 5! 5! 5! 5! 5! 5! PK QK RK K7 SK Rp M4 J6 C6 i% z_ D5 D5 D5 D5 D5 D5 D5 D5 D5 D5 D5 D5 .: YA jm L8 /7 R{ b) Jh =n @y ,z vJ 7J TK Pe y; f; ;; +; UK o= VK Fp po po Fp WK XK YK #H [o ZK `K  L lo po po po po No wp FK Qr lG =H [o .L +L lo po po po %J dJ _) M< 0[ m[ m[ VJ PJ PJ PJ PJ PJ PJ PJ PJ wB @L #L wB }B PJ PJ PJ PJ PJ PJ PJ PJ PJ 0A LK LK LK LK LK @L PJ PJ PJ PJ PJ PJ PJ PJ (B (B (B (B (B IH BD (B (B (B (B 83 KH KH KH KH KH KH ",
"*J *J *J *J *J *J *J *J *J *J *J *J *J *J *J +I BD BD BD BD BD BD BD BD BD BD BD BD BD BD BH VG VG VG VG VG VG VG VG VG VG lA lA lA sG TI TI TI TI TI TI q~ NH NH [) &< 8: *< 0: a: E~ z  A  `. F  9. n+ %+ U+ U+ D@ /# ~@ E@ (# S# <$ <$ <$ <$ <$ D$ 2' @% <% p% >& ,& w& E& P* [g *; y; e; e; $L 3, C, }* %L (H 4B uG J7 ^j .p A7 8! F~ rs [% D5 D5 D5 D5 D5 D5 D5 D5 D5 D5 D5 ;< }_ $) 35 &L 1^ ]! 7! R) R) R) R) R) R) R) R) R) R) R) R) R) R) R) R) R) R) R) R) R) R) R) R) R) R) R) R) R) 5! 1( kl Q8 9. 0) ~t X7 X7 25 t6 E5 o' uH ;< D5 D5 D5 D5 D5 D5 D5 D5 D5 D5 D5 D5 D5 D5 D5 D5 D5 D5 D5 D5 D5 D5 D5 D5 D5 D5 D5 D5 D5 D5 D5 D5 D5 D5 D5 D5 D5 D5 D5 D5 D5 D5 D5 D5 D5 D5 D5 D5 D5 D5 D5 D5 D5 D5 D5 D5 D5 D5 D5 D5 D5 D5 D5 D5 D5 D5 D5 D5 D5 D5 D5 D5 D5 D5 D5 D5 D5 D5 D5 D5 D5 D5 D5 D5 D5 D5 D5 D5 D5 D5 D5 D5 D5 D5 D5 D5 D5 D5 D5 D5 D5 D5 D5 D5 D5 D5 D5 D5 D5 D5 D5 D5 D5 D5 D5 D5 D5 D5 D5 D5 D5 D5 D5 D5 D5 D5 D5 D5 D5 D5 D5 D5 D5 D5 D5 D5 D5 D5 D5 D5 D5 D5 D5 D5 D5 D5 D5 D5 D5 D5 D5 D5 D5 D5 D5 D5 D5 D5 D5 D5 V~ V~ m{ e1 ;( C3 E  {w /4 ^! R) R) R) R) R) R) R) R) R) R) R) R) R) R) R) R) R) R) R) R) R) R) R) R) R) *L *L *L R) R) R) R) e_ 2| C@ tJ J6 +8 k% }~ D5 D5 D5 D5 D5 D5 D5 D5 D5 D5 D5 D5 .: Nw jm L8 /7 R{ b) Jh ed =L uz 4H iJ TK Pe P- ;; e; Q- q- n= -L ;L <t 3r @G >L <t ,L 'L )L !L ~L {L ]L No po po po wp dJ DF ^L po /L $J LG (L _L po oo po %J dJ _) M< 0[ m[ m[ VJ PJ PJ PJ PJ PJ PJ PJ PJ @L LK LK LK LK LK @L @L 0A wB oK oK KK LK LK LK LK LK LK LK LK PJ PJ PJ PJ PJ PJ PJ PJ _B (B (B (B (B (B (B _B PJ PJ PJ AH _B JH KH KH KH KH ",
"*J *J *J *J *J *J *J *J *J *J *J *J *J *J *J w2 :L BD BD BD BD BD BD BD BD BD BD BD BD _B VG VG VG VG VG VG VG VG VG VG UG lA lA lA sG TI TI TI TI TI QJ NH NH NH [) &< 8: *< 0: a: E~ z  A  `. F  9. n+ %+ U+ U+ D@ /# ~@ E@ (# S# <$ <$ <$ <$ <$ D$ 2' @% <% p% M% U% w& E& P* Pe *; y; e; >; <L ., [L E, %L (H 4I uG Jq ^j =8 A7 8! F~ ;8 [% D5 D5 D5 D5 D5 D5 D5 D5 D5 D5 D5 ;< c: ,) Z  u4 d$ z  <) R) R) R) R) R) R) R) R) R) R) R) R) R) R) R) R) R) R) R) R) R) R) R) R) R) R) R) R) R) R) [{ V) ]! m! 0) ~t X7 X7 25 t6 $8 &K }~ n~ D5 D5 D5 D5 D5 D5 D5 D5 D5 D5 D5 D5 D5 D5 D5 D5 D5 D5 D5 D5 D5 D5 D5 D5 D5 D5 D5 D5 D5 D5 D5 D5 D5 D5 D5 D5 D5 D5 D5 D5 D5 D5 D5 D5 D5 D5 D5 D5 D5 D5 D5 D5 D5 D5 D5 D5 D5 D5 D5 D5 D5 D5 D5 D5 D5 D5 D5 D5 D5 D5 D5 D5 D5 D5 D5 D5 D5 D5 D5 D5 D5 D5 D5 D5 D5 D5 D5 D5 D5 D5 D5 D5 D5 D5 D5 D5 D5 D5 D5 D5 D5 D5 D5 D5 D5 D5 D5 D5 D5 D5 D5 D5 D5 D5 D5 D5 D5 D5 D5 D5 D5 D5 D5 D5 D5 D5 D5 D5 D5 D5 D5 D5 D5 D5 D5 D5 D5 D5 D5 D5 D5 D5 D5 D5 D5 D5 D5 D5 D5 D5 D5 D5 D5 D5 D5 D5 D5 D5 D5 D5 V~ V~ m{ E$ ;( D  L< :) ^! R) R) R) R) R) R) R) R) R) R) R) R) R) R) R) R) R) R) R) R) R) R) R) R) R) R) R) R) R) R) R) R) 7! 3G Q8 *+ 8J 25 .8 5m D5 D5 D5 D5 D5 D5 D5 D5 D5 D5 D5 D5 D5 .: &) jm L8 /7 <{ t4 Jh ed b> uz }L &' Z> Pe P- e; e; h; /- U* -L |L ip xG 1L 2L 3L 4L 5L 6L 7L 8L 9L 0L [o Lo po =C aL (J bL cL dL eL fL gL hL .L ]L $F po %J dJ _) M< 0[ m[ m[ VJ PJ PJ PJ PJ PJ PJ PJ PJ LK LK LK LK LK LK LK LK LK LK LK LK LK LK LK LK LK LK LK LK LK wB PJ PJ PJ PJ PJ PJ PJ PJ (B (B (B (B (B _B PJ PJ PJ PJ PJ PJ PJ JH KH KH KH ",
"*J *J *J *J *J *J *J *J *J *J *J *J *J *J Mp iL iL Mp jL w2 kL f> lL mL &x Xy nL jL KH (B VG VG VG VG VG VG VG VG VG rG lA lA lA lA <1 TI TI TI TI 8' NH NH NH NH [) &< 8: *< 0: a: E~ z  A  `. F  9. n+ %+ U+ U+ D@ /# ~@ E@ (# S# <$ <$ <$ <$ <$ D$ 2' @% <% r% M% U% w& F& P* Pe *; P- B; ,; <L 2, R* 1* %L vJ 4I 5n Jq ^j .p A7 8! F~ ;8 [% D5 D5 D5 D5 D5 D5 D5 D5 D5 D5 D5 ;< g] <% Z  >A d$ 2^ kl e_ @~ R) R) R) R) R) R) R) R) R) @~ A! @~ R) R) R) R) R) R) R) R) R) R) R) R) R) R) R) R) R) R) 5! %! 7) ~t X7 X7 25 u6 +8 j% }~ D5 D5 D5 D5 D5 D5 D5 D5 D5 D5 D5 D5 D5 D5 D5 D5 D5 D5 D5 D5 D5 D5 D5 D5 D5 D5 D5 D5 D5 D5 D5 D5 D5 D5 D5 D5 D5 D5 D5 D5 D5 D5 D5 D5 D5 D5 D5 D5 D5 D5 D5 D5 D5 D5 D5 D5 D5 D5 D5 D5 D5 D5 D5 D5 D5 D5 D5 D5 D5 D5 D5 D5 D5 D5 D5 D5 D5 D5 D5 D5 D5 D5 D5 D5 D5 D5 D5 D5 D5 D5 D5 D5 D5 D5 D5 D5 D5 D5 D5 D5 D5 D5 D5 D5 D5 D5 D5 D5 D5 D5 D5 D5 D5 D5 D5 D5 D5 D5 D5 D5 D5 D5 D5 D5 D5 D5 D5 D5 D5 D5 D5 D5 D5 D5 D5 D5 D5 D5 D5 D5 D5 D5 D5 D5 D5 D5 D5 D5 D5 D5 D5 D5 D5 D5 D5 D5 D5 D5 D5 D5 D5 ;< V~ m{ E$ n+ E~ V) R) @~ @~ @~ @~ @~ @~ @~ @~ @~ @~ @~ @~ @~ @~ @~ @~ @~ @~ @~ @~ @~ @~ @~ @~ @~ @~ @~ @~ @~ @~ R) R) j] f7 oL E  *+ 8J 25 .8 >| ;< D5 D5 D5 D5 D5 D5 D5 D5 D5 D5 D5 D5 .: &) jm L8 /7 <{ t4 {m ed b> -A }L DJ Z> 7e ;> >; B; h; /- pL F* |L ot qL qL rL sL tL uL vL wL xL yL MI zL [F oo EK AL  t BL CL DL EL FL GL HL /L IL ^G oo %J dJ _) M< 0[ m[ m[ VJ PJ PJ PJ PJ PJ PJ PJ PJ LK LK LK LK LK LK LK LK LK LK LK LK LK LK LK LK LK LK LK LK LK xB PJ PJ PJ PJ PJ PJ PJ PJ (B (B (B (B _B PJ PJ *J w2 KH KH UH KH KH KH KH KH ",
"*J *J jL JL KL KL KL LL *J *J *J *J *J Xy iL iL iL iL iL iL iL iL iL iL iL iL iL iL iL iL iL iL iL iL iL iL iL iL iL pw sw H3 _B #D lA TI TI TI 8' NH NH NH NH NH [) &< 8: *< 0: a: E~ z  A  `. F  9. n+ %+ U+ U+ D@ /# ~@ E@ (# S# <$ <$ <$ <$ <$ D$ 2' @% <% r% M% U% 2& G& [L 7e o> ;> ,; ,; ML 2, o, 1* NL vJ OL Aw Jq ^j .p A7 8! F~ ;8 }% D5 D5 D5 D5 D5 D5 D5 D5 D5 D5 D5 ;< c: &) C6 >A d$ s1 Q8 94 R) p) p) p) S) PL PL p) 3^ 3^ S) S) S) S) p) @~ j] ^! ^! ^! ^! ^! ^! ^! ^! ^! ^! 5! 5! 5! ]4 5! zK Rp YD U6 25 25 E5 E- 3% D5 D5 D5 D5 D5 D5 D5 D5 D5 D5 D5 D5 D5 D5 D5 D5 D5 D5 D5 D5 D5 D5 D5 D5 D5 D5 D5 D5 D5 D5 D5 D5 D5 D5 D5 D5 D5 D5 D5 D5 D5 D5 D5 D5 D5 D5 D5 D5 D5 D5 D5 D5 D5 D5 D5 D5 D5 D5 D5 D5 D5 D5 D5 D5 D5 D5 D5 D5 D5 D5 D5 D5 D5 D5 D5 D5 D5 D5 D5 D5 D5 D5 D5 D5 D5 D5 D5 D5 D5 D5 D5 D5 D5 D5 D5 D5 D5 D5 D5 D5 D5 D5 D5 D5 D5 D5 D5 D5 D5 D5 D5 D5 D5 D5 D5 D5 D5 D5 D5 D5 D5 D5 D5 D5 D5 D5 D5 D5 D5 D5 D5 D5 D5 D5 D5 D5 D5 D5 D5 D5 D5 D5 D5 D5 D5 D5 D5 D5 D5 D5 D5 D5 D5 D5 D5 D5 D5 D5 D5 D5 D5 D5 }w V~ m{ <$ m! <) 5! ^! ^! QL QL QL QL QL QL QL QL QL QL QL QL QL QL QL QL QL QL QL QL QL QL QL QL QL QL QL ^! ^! [{ 5! 1( kl ~8 C3 T+ {8 E5  8 }_ ;< D5 D5 D5 D5 D5 D5 D5 D5 D5 D5 D5 D5 }~ &) ZA L8 /7 <{ t4 Jh ed <x -A tH DJ Z> Xm -; >; ,; #; /- RL SL ;L DF 4r TL UL VL WL XL YL ZL `L  M .M +M 2o oo @M 9J #M $M %M &M *M =M -M ;M >M ZK ,M tF %J dJ _) M< 0[ m[ m[ VJ PJ PJ PJ PJ PJ PJ PJ PJ LK LK LK LK LK LK LK LK LK LK LK LK LK LK LK LK LK LK LK LK LK LK PJ PJ PJ PJ PJ PJ PJ PJ AH (B (B AH PJ +I lw 'M 'M 'M 'M 'M )M oB !M KH KH ",
"~M {M ]M ]M ]M ]M ]M ]M {M !M *J *J :L %x iL iL iL iL iL iL iL iL iL iL iL iL iL iL iL iL iL iL iL iL iL iL iL iL iL iL iL iL iL iL iL iL iL iL Jl ^M ~7 NH NH NH [) &< 8: *< 0: a: E~ z  A  `. F  9. n+ %+ U+ U+ D@ /# ~@ E@ (# S# <$ <$ <$ <$ <$ D$ 2' @% <% r% M% U% 2& $' R* Pe *; -; ,; ,; /M 1, o, 2* NL vJ 4B gq Jq ^j .p A7 8! F~ ;8 L5 }w }w }w }w }w }w }w }w }w }w }w w/ c: *) @8 >A Tn e< c/ oL <) F~ F~ z! 8[ R! R! 1( (M /7 /7 /7 #! #! _M -8 vK vK vK uK vK vK vK vK vK vK vK vK vK vK vK vK CK :M YD 25 25 25 E5 o' wz ;< D5 D5 D5 D5 D5 D5 D5 D5 D5 D5 D5 D5 D5 D5 D5 D5 D5 D5 D5 D5 D5 D5 D5 D5 D5 D5 D5 D5 D5 D5 D5 D5 D5 D5 D5 D5 D5 D5 D5 D5 D5 D5 D5 D5 D5 D5 D5 D5 D5 D5 D5 D5 D5 D5 D5 D5 D5 D5 D5 D5 D5 D5 D5 D5 D5 D5 D5 D5 D5 D5 D5 D5 D5 D5 D5 D5 D5 D5 D5 D5 D5 D5 D5 D5 D5 D5 D5 D5 D5 D5 D5 D5 D5 D5 D5 D5 D5 D5 D5 D5 D5 D5 D5 D5 D5 D5 D5 D5 D5 D5 D5 D5 D5 D5 D5 D5 D5 D5 D5 D5 D5 D5 D5 D5 D5 D5 D5 D5 D5 D5 D5 D5 D5 D5 D5 D5 D5 D5 D5 D5 D5 D5 D5 D5 D5 D5 D5 D5 D5 D5 D5 D5 D5 D5 D5 D5 D5 D5 D5 D5 D5 }w ;< 6^ =% 77 Z6 e< e< e< Z6 Z6 Z6 Z6 Z6 Z6 Z6 Z6 Z6 Z6 Z6 Z6 Z6 Z6 Z6 Z6 Z6 Z6 Z6 Z6 Z6 Z6 Z6 Z6 Z6 Z6 Z6 Z6 e< m! E~ E~ h3 C3 C3 #+ {8 E5 @y }_ ;< D5 D5 D5 D5 D5 D5 D5 D5 D5 D5 D5 D5 }~ j% ZA L8 /7 <{ t4 {m ed qn -A tH JJ 4, Xm -; >; ,; $; /- W* <M nK [M }M |M 1M 2M 3M 4M 5M 6M 7M 8M 9M 0M NG aM (K bM cM dM eM fM gM hM iM jM kM lM 0G /q mM dJ _) M< 0[ m[ m[ VJ PJ PJ PJ PJ PJ PJ PJ PJ LK LK LK LK LK LK LK LK LK LK LK LK LK LK LK LK LK LK LK LK LK LK @L LK LK LK }B PJ PJ PJ PJ PJ PJ 0c nM 'M 'M 'M 'M 'M 'M 'M 'M 'M 'M oM nM ",
"]M ]M ]M ]M ]M ]M ]M ]M ]M pM *J *J Mp iL iL iL iL iL iL iL iL iL iL iL iL iL iL iL iL iL iL iL iL iL iL iL iL iL iL iL iL iL iL iL iL iL iL iL iL iL L( qM rM sM v| &< 8: *< 0: a: E~ z  A  `. F  9. n+ %+ U+ U+ D@ /# ~@ E@ (# S# <$ <$ <$ <$ <$ D$ ;% @% <% r% M% b& 2& H& R* tM *; -; ,; '; /M uM o= 2* vM tH 4B uG `k ]k Pa A7 8! F~ ;8 L5 }w }w }w }w }w }w }w }w }w }w }w w/ _{ |% @8 K8 Tn e< C3 c/ s1 v] V  e7 67 wM xM (7 n[ Y( yM E$ E$ e1 zM C- AM BM dK cK CM CM CM CM CM CM CM CM CM CM CM CM CM YD lm 25 25 25 E5 .8 >| w/ ;< }w }w }w }w }w }w }w }w }w }w }w }w }w }w }w }w }w }w }w }w }w }w }w }w }w }w }w }w }w }w }w }w }w }w }w }w }w }w }w }w }w }w }w }w }w }w }w }w }w }w }w }w }w }w }w }w }w }w }w }w }w }w }w }w }w }w }w }w }w }w }w }w }w }w }w }w }w }w }w }w }w }w }w }w }w }w }w }w }w }w }w }w }w }w }w }w }w }w }w }w }w }w }w }w }w }w }w }w }w }w }w }w }w }w }w }w }w }w }w }w }w }w }w }w }w }w }w }w }w }w }w }w }w }w }w }w }w }w }w }w }w }w }w }w }w }w }w }w }w }w }w }w }w }w }w }w }w }w }w }w }w }w 2[ b/ 2( j} #* #* #* #* #* #* #* #* #* #* #* #* #* #* #* #* #* #* #* #* #* #* #* #* #* #* #* #* #*  : `! 2( X$ D@ D  C3 C3 C3 #+ {8 E5 <x }_ w/ }w }w }w }w }w }w }w }w }w }w }w }w 2[ 7H ZA L8 /7 <{ t4 {m Rn ,q WA DM JJ 4, Xm ;; B; '; $; (- X* H* EM ;L FM GM HM IM JM KM LM MM NM OM PM QM HG lG (J RM SM tL TM UM VM WM XM YM ZM `M  N .N mM dJ _) M< 0[ m[ m[ VJ PJ PJ PJ PJ PJ PJ PJ KK LK LK LK LK LK LK LK LK LK LK LK LK LK LK LK LK LK LK LK LK LK LK LK LK LK LK LK PJ PJ PJ PJ PJ H3 lw 'M 'M 'M 'M 'M 'M 'M 'M 'M 'M 'M 'M 'M ",
"]M ]M ]M ]M ]M ]M ]M ]M ]M ]M *J kL iL iL iL iL +N :4 l@  y  y  y  y  y  y  y Wv Wv Wv Wv Wv Wv Wv :4 P2 P2 P2 P2 P2 P2 P2 P2 :4 Wv Wv Wv Wv  y  y d4 d4 d4 d4 d4 v| &< 8: *< 0: a: E~ z  A  `. F  9. n+ %+ U+ U+ D@ /# ~@ E@ (# S# <$ <$ <$ <$ <$ E$ ;% @% <% r% M% b& 3& H& R* tM @N f; '; '; As #, o= 2H vM tH 4B uG R6 ]k Pa A7 8! F~ ;8 L5 }w }w }w }w }w }w }w }w }w }w }w w/ c: |% @8 K8 Tn s1 dc ;( m; X! 2( 6( 6( O,  _  _ i} b/ fo B( }_ ww ww }_ |% 2m #N 25 25 25 25 25 25 25 25 25 25 25 25 25 25 25 25 25 25 25 25 C6 &) 2[ $N }w }w }w }w }w }w }w }w }w }w }w }w }w }w }w }w }w }w }w }w }w }w }w }w }w }w }w }w }w }w }w }w }w }w }w }w }w }w }w }w }w }w }w }w }w }w }w }w }w }w }w }w }w }w }w }w }w }w }w }w }w }w }w }w }w }w }w }w }w }w }w }w }w }w }w }w }w }w }w }w }w }w }w }w }w }w }w }w }w }w }w }w }w }w }w }w }w }w }w }w }w }w }w }w }w }w }w }w }w }w }w }w }w }w }w }w }w }w }w }w }w }w }w }w }w }w }w }w }w }w }w }w }w }w }w }w }w }w }w }w }w }w }w }w }w }w }w }w }w }w }w }w }w }w }w }w }w }w }w }w }w }w }w }w [< A_ A_ A_ A_ A_ A_ A_ A_ A_ A_ A_ A_ A_ A_ A_ A_ A_ A_ A_ A_ A_ A_ A_ A_ A_ A_ A_ A_ A_ A_ [< [< [< 6( (# 9. C3 C3 C3 #+ {8 )5 <x ww w/ }w }w }w }w }w }w }w }w }w }w }w }w 2[  & ZA L8 /7 <{ t4 {m Rn ,q 4I DM UJ NK %N ;; ,; '; A; (- X* o* 9K 9J &N *N =N -N ;N >N >N ,N 'N )N !N ~N IG #J (J {N SM ]N ^N /N (N _N :N <N [N }N |N 1N mM dJ _) M< 0[ m[ m[ VJ PJ PJ PJ PJ PJ }B #L LK LK LK LK LK LK LK LK LK LK LK LK LK LK LK LK LK LK LK LK LK LK LK LK LK LK LK LK #L PJ PJ PJ H3 oM 'M 'M 'M 'M 'M 'M 'M 'M 'M 'M 'M 'M 'M 'M ",
"]M ]M ]M ]M ]M ]M ]M ]M ]M ]M mL iL Em 2N mw 3N d4 d4 d4 d4 d4 d4 d4 d4 d4 d4 d4 d4 d4 d4 d4 d4 d4 d4 d4 d4 d4 d4 d4 d4 d4 d4 d4 d4 d4 d4 d4 d4 d4 d4 d4 d4 d4 d4 v| &< 8: *< 0: a: E~ z  A  `. F  9. n+ %+ U+ U+ D@ /# ~@ E@ (# S# <$ <$ <$ <$ <$ E$ ;% @% <% r% M% b& 3& I& o, Xm y; ;; '; ); 'A $, 4N K* 5N tH IB uG R6 ]k Pa A7 8! F~ ;8 L5 }w }w }w }w }w }w }w }w }w }w }w w/ c: *) @8 K8 Tn s1 dc o) K4 B( }w $N }w }w }w }w }w }w }w }w }w }w }w }w 2[ 2% E- /6 +5 25 25 25 25 25 25 25 25 25 25 25 25 25 25 25 25 25 25 E5 +8 &) 6N }w }w }w }w }w }w }w }w }w }w }w }w }w }w }w }w }w }w }w }w }w }w }w }w }w }w }w }w }w }w }w }w }w }w }w }w }w }w }w }w }w }w }w }w }w }w }w }w }w }w }w }w }w }w }w }w }w }w }w }w }w }w }w }w }w }w }w }w }w }w }w }w }w }w }w }w }w }w }w }w }w }w }w }w }w }w }w }w }w }w }w }w }w }w }w }w }w }w }w }w }w }w }w }w }w }w }w }w }w }w }w }w }w }w }w }w }w }w }w }w }w }w }w }w }w }w }w }w }w }w }w }w }w }w }w }w }w }w }w }w }w }w }w }w }w }w }w }w }w }w }w }w }w }w }w }w }w }w }w }w }w }w }w }w }w }w }w }w }w }w }w }w }w }w }w }w }w }w }w }w }w }w }w }w }w }w }w }w }w }w }w }w }w }w }w }w [< D: 4( (# 9. C3 C3 C3 #+ {8 +7 qn c: w/ }w }w }w }w }w }w }w }w }w }w }w }w 2[ l% im L8 /7 <{ t4 {m Rn ,q 4B 7N 8N 4, Xm ;; '; ); `J (- Y* <* 9N qL 3r 0N aN bN cN dN eN fN gN hN iN jN PI po dJ %r kN lN mN nN oN pN qN rN sN tN LG /q mM dJ _) M< 0[ m[ m[ VJ PJ PJ PJ 0A LK LK LK LK LK LK LK LK LK LK LK LK LK LK LK LK LK LK LK LK LK LK LK LK LK LK LK LK LK LK LK LK }B PJ H3 oM 'M 'M 'M 'M 'M 'M 'M 'M 'M 'M 'M 'M 'M 'M 'M ",
"uN vN vN wN wN *z mw mw k@ d4 d4 d4 d4 d4 d4 d4 d4 d4 d4 d4 d4 d4 d4 d4 d4 d4 d4 d4 d4 d4 d4 d4 d4 d4 d4 d4 d4 d4 d4 d4 d4 d4 d4 d4 d4 d4 d4 d4 d4 d4 d4 d4 d4 d4 v| &< 8: *< 0: a: E~ z  A  `. F  9. n+ %+ U+ U+ D@ /# ~@ E@ (# S# <$ <$ <$ <$ <$ E$ ;% 9% <% r% M% b& 4& I& o, Xm y; e; d; ); oF xN V* K* yN DM zN ED R6 ]k Pa A7 8! F~ ;8 L5 }w }w }w }w }w }w }w }w }w }w }w w/ c: *) @8 K8 Tn s1 dc :t AN B( }w }w }w }w }w }w }w }w }w }w }w }w }w }w }w 2[ 5m o' +7 25 +5 25 25 25 25 25 25 25 25 25 25 25 25 25 25 25 '5 '5 25 +8 |% 2[ ;< }w }w }w }w }w }w }w }w }w }w }w }w }w }w }w }w }w }w }w }w }w }w }w }w }w }w }w }w }w }w }w }w }w }w }w }w }w }w }w }w }w }w }w }w }w }w }w }w }w }w }w }w }w }w }w }w }w }w }w }w }w }w }w }w }w }w }w }w }w }w }w }w }w }w }w }w }w }w }w }w }w }w }w }w }w }w }w }w }w }w }w }w }w }w }w }w }w }w }w }w }w }w }w }w }w }w }w }w }w }w }w }w }w }w }w }w }w }w }w }w }w }w }w }w }w }w }w }w }w }w }w }w }w }w }w }w }w }w }w }w }w }w }w }w }w }w }w }w }w }w }w }w }w }w }w }w }w }w }w }w }w }w }w }w }w }w }w }w }w }w }w }w }w }w }w }w }w }w }w }w }w }w }w }w }w }w }w }w }w }w }w }w }w }w [< }w 4( (# 9. C3 C3 C3 n+ p$ v6 &) c: w/ }w }w }w }w }w }w }w }w }w }w }w }w 2[ 2% im FD t/ <{ t4 {m {o ,q 4B 7N BN 3, %N e; '; ); `J CN Z* <* DN mG wp EN FN GN HN IN JN KN LN MN NN Hn QG oo (K Pr ON PN QN RN SN TN KN UN VN  N MI po %J dJ _) M< 0[ m[ m[ VJ PJ PJ @L LK LK LK LK LK LK LK LK LK LK LK LK LK LK LK LK LK LK LK LK LK LK LK LK LK LK LK LK LK LK LK LK LK @L H3 oM 'M 'M 'M 'M vN WN WN WN WN WN WN WN WN WN WN WN ",
"d4 d4 d4 d4 d4 d4 d4 d4 d4 d4 d4 d4 d4 d4 d4 d4 d4 d4 d4 d4 d4 d4 d4 d4 d4 d4 d4 d4 d4 d4 d4 d4 d4 d4 d4 d4 d4 d4 d4 d4 d4 d4 d4 d4 d4 d4 d4 d4 |# XN XN XN XN XN v| &< 8: *< 0: a: E~ z  A  `. F  9. n+ %+ U+ U+ D@ /# ~@ E@ (# S# <$ <$ <$ <$ <$ F$ X$ 9% <% r% M% !& 3B J& YN Xm y; >; ); :> oF &, q, 6* yN ZN zN ED R6 ]k Pa A7 8! F~ M8 O, }w }w }w }w }w }w }w }w }w }w }w w/ c: &) C6 K8 Tn s1 dc :t AN B( }w }w }w }w }w }w }w }w }w }w }w }w }w }w }w ;< }w #y @) v6 25 25 25 25 25 25 25 25 25 25 '5 '5 '5 25 25 t6 '5 25 /6 .8 `N 2[ }w }w }w }w }w }w }w }w }w }w }w }w }w }w }w }w }w }w }w }w }w }w }w }w }w }w }w }w }w }w }w }w }w }w }w }w }w }w }w }w }w }w }w }w }w }w }w }w }w }w }w }w }w }w }w }w }w }w }w }w }w }w }w }w }w }w }w }w }w }w }w }w }w }w }w }w }w }w }w }w }w }w }w }w }w }w }w }w }w }w }w }w }w }w }w }w }w }w }w }w }w }w }w }w }w }w }w }w }w }w }w }w }w }w }w }w }w }w }w }w }w }w }w }w }w }w }w }w }w }w }w }w }w }w }w }w }w }w }w }w }w }w }w }w }w }w }w }w }w }w }w }w }w }w }w }w }w }w }w }w }w }w }w }w }w }w }w }w }w }w }w }w }w }w }w }w }w }w }w }w }w }w }w }w }w }w }w }w }w }w }w }w }w }w }w [< }w 4( (# 9. C3 C3 C3 n+ C$ `5 l% 2[ }w }w }w }w }w }w }w }w }w }w }w }w }w 2[ 2% im L8 /7 <{ t4 z7 {o YG 4B 7N BN 3, Km q> d; ); z;  O Z* [* .O +O @O Pr #O $O %O &O *O =O -O ;O KG >O Oo po  t aL %r ,O 'O *O )O !O ~O {O 'r ]O [F po %J dJ _) M< 0[ m[ m[ VJ PJ oK LK LK LK LK LK G4 bq #n ^O %} %} %} %} %} %} %} ^O #n #n ^O %} /O cm cm cm %} %} %} ^O #n #n #n #n #n %} lw 'M 'M 'M vN (O (O (O (O (O (O (O (O (O (O (O (O (O ",
"d4 d4 d4 d4 d4 d4 d4 d4 d4 d4 d4 d4 d4 d4 d4 d4 d4 d4 d4 d4 d4 d4 d4 d4 d4 d4 d4 d4 d4 d4 d4 d4 d4 d4 d4 d4 d4 d4 d4 d4 d4 d4 fr M( _O :O <O [O [O [O }O |O |O |O m[ &< 8: *< 0: a: E~ z  A  `. F  9. n+ %+ U+ U+ D@ /# ~@ E@ (# S# <$ <$ <$ <$ <$ F$ X$ 9% <% r% d& !& 3B S& o= Xm y; >; ); :> oF 1O W* 6* 2O 7N zN ED R6 ]k Pa X@ 8! F~ M8 O, }w }w }w }w }w }w }w }w }w }w }w w/ c: Nw 35 K8 0) s1 ;h :t AN B( }w }w }w }w }w }w }w }w }w }w }w }w }w }w }w }w }w }w }_ <% n5 E5 '5 '5 '5 t6 25 25 25 t6 '5 `6 '5 J6 35 3m  8 %8 ,) 1% .: }w }w }w }w }w }w }w }w }w }w }w }w }w }w }w }w }w }w }w }w }w }w }w }w }w }w }w }w }w }w }w }w }w }w }w }w }w }w }w }w }w }w }w }w }w }w }w }w }w }w }w }w }w }w }w }w }w }w }w }w }w }w }w }w }w }w }w }w }w }w }w }w }w }w }w }w }w }w }w }w }w }w }w }w }w }w }w }w }w }w }w }w }w }w }w }w }w }w }w }w }w }w }w }w }w }w }w }w }w }w }w }w }w }w }w }w }w }w }w }w }w }w }w }w }w }w }w }w }w }w }w }w }w }w }w }w }w }w }w }w }w }w }w }w }w }w }w }w }w }w }w }w }w }w }w }w }w }w }w }w }w }w }w }w }w }w }w }w }w }w }w }w }w }w }w }w }w }w }w }w }w }w }w }w }w }w }w }w }w }w }w }w }w }w }w }w [< }w 4( (# 9. C3 C3 C3 n+ C$ $* 3% 2[ }w }w }w }w }w }w }w }w }w }w }w }w }w 2[ 3% Fo 5e /7 <{ t4 z7 {o YG 4B [K 3O 4O Rl B; ); C; z; 5O s, I* DN ~p  t Nq 6O 7O 8O 9O 0O aO bO KG ~L RG po po mo dJ cO dO eO fO gO hO iO }K |N .N No po %J dJ _) M< 0[ m[ m[ VJ PJ oK LK LK @L #L >4 cm cm cm cm cm cm cm cm cm cm cm cm cm cm cm cm cm cm cm cm cm cm cm cm cm cm cm cm cm vm 'M 'M 'M 'M 'M jO (O (O (O (O (O (O (O (O (O (O (O (O ",
"d4 d4 d4 d4 d4 d4 d4 d4 d4 d4 d4 d4 d4 d4 d4 d4 d4 d4 d4 d4 d4 d4 d4 d4 d4 d4 d4 d4 d4 d4 d4 d4 d4 d4 d4 d4 d4 d4 d4 d4 d4 d4 kO lO mO mC nO 8A oO pO pO pO pO pO 7: &< 8: *< 0: a: E~ z  A  `. F  9. n+ %+ U+ U+ D@ /# ~@ E@ (# S# <$ <$ <$ <$ <$ F$ X$ 9% |% s% s& !& 6& K& mh qO P- B; C; !; rO 1O D] @' sO 7N zN ED R6 ]k Pa X@ 8! F~ M8 O, }w }w }w }w }w }w }w }w }w }w }w w/ ww $) 35 15 0) n+ ;h :t AN B( }w }w }w }w }w }w }w }w }w }w }w }w }w }w }w }w }w }w }w 6N `N  8 N4 25 '5 25 E5 &8 2n C6 3m .8  8 @) <% 1% #y ww 2[ 2[ }w }w }w }w }w }w }w }w }w }w }w }w }w }w }w }w }w }w }w }w }w }w }w }w }w }w }w }w }w }w }w }w }w }w }w }w }w }w }w }w }w }w }w }w }w }w }w }w }w }w }w }w }w }w }w }w }w }w }w }w }w }w }w }w }w }w }w }w }w }w }w }w }w }w }w }w }w }w }w }w }w }w }w }w }w }w }w }w }w }w }w }w }w }w }w }w }w }w }w }w }w }w }w }w }w }w }w }w }w }w }w }w }w }w }w }w }w }w }w }w }w }w }w }w }w }w }w }w }w }w }w }w }w }w }w }w }w }w }w }w }w }w }w }w }w }w }w }w }w }w }w }w }w }w }w }w }w }w }w }w }w }w }w }w }w }w }w }w }w }w }w }w }w }w }w }w }w }w }w }w }w }w }w }w }w }w }w }w }w }w }w }w }w }w }w }w }w [< }w 4( (# 9. C3 C3 C3 n+ C$ `k m% }w }w }w }w }w }w }w }w }w }w }w }w }w }w }w m% 4e 5e /7 <{ u# z7 {o YG IB [K 3O tO Rl ,; :> C; z; uO j= }* DN vO lo DF AL -H {H GK wO OG un (L ,M No po po po sF WK xO {H =K yO zO AO DG #H po po po %J dJ _) M< 0[ m[ m[ VJ PJ PJ PJ PJ PJ PJ /O cm cm cm cm :| BO BO -4 cm cm cm CO .y cm cm cm cm CO CO CO CO CO .y cm cm cm .y px lw 'M 'M 'M 'M 'M 'M DO jO (O (O (O (O (O (O (O (O (O (O (O ",
"d4 d4 d4 d4 d4 d4 d4 d4 d4 d4 d4 d4 d4 d4 d4 d4 d4 d4 d4 d4 d4 d4 d4 d4 d4 d4 d4 d4 d4 d4 d4 d4 d4 d4 d4 d4 d4 d4 d4 d4 d4 EO FO FO FO FO FO FO FO GO HO )4 pO pO 7: &< 8: *< 0: a: E~ z  A  `. F  9. n+ %+ U+ U+ D@ /# ~@ E@ (# S# <$ <$ <$ <$ <$ F$ X$ 9% k% Z% s& !& 6& K& U* qO P- ,; !; c; Il *, D] !I IO 7N zN 8I R6 ]k Pa X@ 8! F~ M8 O, }w }w }w }w }w }w }w }w }w }w }w w/ c: $) +7 15 0) n+ ;h :t AN B( }w }w }w }w }w }w }w }w }w }w }w }w }w }w }w }w }w }w }w }w 6N 6m <% %8  8 o' @) &K %) |% 1% #y }_ c: D5 D5 }w }w }w }w }w }w }w }w }w }w }w }w }w }w }w }w }w }w }w }w }w }w }w }w }w }w }w }w }w }w }w }w }w }w }w }w }w }w }w }w }w }w }w }w }w }w }w }w }w }w }w }w }w }w }w }w }w }w }w }w }w }w }w }w }w }w }w }w }w }w }w }w }w }w }w }w }w }w }w }w }w }w }w }w }w }w }w }w }w }w }w }w }w }w }w }w }w }w }w }w }w }w }w }w }w }w }w }w }w }w }w }w }w }w }w }w }w }w }w }w }w }w }w }w }w }w }w }w }w }w }w }w }w }w }w }w }w }w }w }w }w }w }w }w }w }w }w }w }w }w }w }w }w }w }w }w }w }w }w }w }w }w }w }w }w }w }w }w }w }w }w }w }w }w }w }w }w }w }w }w }w }w }w }w }w }w }w }w }w }w }w }w }w }w }w }w }w }w }w }w }w [< }w 4( S! 9. C3 C3 C3 G  k' J' #y }w }w }w }w }w }w }w }w }w }w }w }w }w }w }w >8 4e 5e /7 <{ t4 z7 {o YG IB [K 3O +, Zk ,; :> c; *; <- j= JO 3r vO ]H 4r ot KO LO MO ^G LF BI NO oo po po po po No =C OO jF  L 3K }o PO ,M lo po po po %J dJ _) M< 0[ m[ m[ VJ PJ PJ PJ PJ PJ PJ AH &7 &7 &7 QO QO QO QO RO cm Gm 'M 'M 'M 'M 'M 'M 'M 'M 'M 'M 'M 'M 'M 'M 'M 'M 'M 'M Gm SO TO UO VO WO WO WO XO YO ZO `O  P (O (O (O (O (O (O (O ",
"I1 I1 I1 I1 I1 I1 I1 I1 I1 I1 I1 .P d4 d4 d4 d4 d4 d4 d4 d4 d4 d4 d4 d4 d4 d4 d4 D4 @| @| @| D4 d4 d4 d4 d4 d4 d4 d4 d4 d4 EO FO FO FO FO FO FO FO FO FO mO pO pO 7: &< 8: *< 0: a: E~ z  A  `. F  9. n+ %+ U+ U+ D@ /# ~@ E@ (# S# <$ <$ <$ <$ <$ f, X$ 9% |% Z% s& a& 7& K& U* Xm ;> '; !; => Il +P @P 8* #P 7N zN 8I R6 ]k Pa X@ 8! F~ M8  _ ;< ;< ;< ;< ;< ;< ;< ;< ;< ;< ;< 3| g] @) /6 15 0) n+ ;h :t AN B( }w ;< ;< ;< ;< ;< ;< ;< ;< ;< ;< ;< ;< ;< ;< ;< ;< ;< ;< ;< ;< }w c: }_ }_ }_ }_ }~ 2[ D5 }w ;< w/ w/ ;< ;< ;< ;< ;< ;< ;< ;< ;< ;< ;< ;< ;< ;< ;< ;< ;< ;< ;< ;< ;< ;< ;< ;< ;< ;< ;< ;< ;< ;< ;< ;< ;< ;< ;< ;< ;< ;< ;< ;< ;< ;< ;< ;< ;< ;< ;< ;< ;< ;< ;< ;< ;< ;< ;< ;< ;< ;< ;< ;< ;< ;< ;< ;< ;< ;< ;< ;< ;< ;< ;< ;< ;< ;< ;< ;< ;< ;< ;< ;< ;< ;< ;< ;< ;< ;< ;< ;< ;< ;< ;< ;< ;< ;< ;< ;< ;< ;< ;< ;< ;< ;< ;< ;< ;< ;< ;< ;< ;< ;< ;< ;< ;< ;< ;< ;< ;< ;< ;< ;< ;< ;< ;< ;< ;< ;< ;< ;< ;< ;< ;< ;< ;< ;< ;< ;< ;< ;< ;< ;< ;< ;< ;< ;< ;< ;< ;< ;< ;< ;< ;< ;< ;< ;< ;< ;< ;< ;< ;< ;< ;< ;< ;< ;< ;< ;< ;< ;< ;< ;< ;< ;< ;< ;< ;< ;< ;< ;< ;< ;< ;< ;< ;< ;< ;< ;< ;< ;< ;< ;< ;< ;< ;< ;< ;< ;< ;< ;< ;< ;< ;< ;< ;< c_ ;< )~ S! 9. C3 C3 C3 n+ 9e l0 2[ 3| ;< ;< ;< ;< ;< ;< ;< ;< ;< ;< ;< ;< ;< }w >8 J7 5e /7 <{ t4 z7 {o YG IB $P Y& +, Zk ,; !; c; *; Af i= JO 3r ko po 6F }M JK jF {H #J {H sF po po po po po po po po -q -H =K /q ^G No lo po po po po %J dJ _) M< 0[ m[ m[ VJ PJ PJ PJ PJ %P %P %P %P %P %P QO QO QO QO &P *P vN 'M 'M 'M vN =P =P =P =P -P -P -P *2 (1 (1 (1 (1 ;P >P ,P 'P 'P 'P )P !P ~P {P ]P u2 `O `O ^P (O (O (O (O (O /P lw ",
"(P (P (P (P (P (P (P (P (P (P (P (P (P (P (P _P :P |@ <P [P WN }P }P }P }P }P |P 1P 2P 3P 4P 4P 4P 5P 6P d4 d4 d4 d4 d4 d4 Zv FO FO FO FO FO FO FO FO FO FO pO pO [) &< 8: *< 0: a: E~ z  A  `. F  9. n+ %+ U+ U+ D@ /# ~@ E@ (# S# <$ <$ <$ <$ <$ F$ X$ 9% |% Z% s& a& 7& L& V* (n ;> '; c; ~; gd -, `* 8* [' ZH SC ED R6 ll p$ Xa 8! F~ M8  _ ;< ;< ;< ;< ;< ;< ;< ;< ;< ;< ;< 3| g] Iq /6 15 0) n+ ;h :t AN B( ;< ;< ;< ;< ;< ;< ;< ;< ;< ;< ;< ;< ;< ;< ;< ;< ;< ;< ;< ;< ;< ;< ;< 3| 3| 3| 3| w/ ;< ;< ;< ;< w/ ;< ;< ;< ;< ;< ;< ;< ;< ;< ;< ;< ;< ;< ;< ;< ;< ;< ;< ;< ;< ;< ;< ;< ;< ;< ;< ;< ;< ;< ;< ;< ;< ;< ;< ;< ;< ;< ;< ;< ;< ;< ;< ;< ;< ;< ;< ;< ;< ;< ;< ;< ;< ;< ;< ;< ;< ;< ;< ;< ;< ;< ;< ;< ;< ;< ;< ;< ;< ;< ;< ;< ;< ;< ;< ;< ;< ;< ;< ;< ;< ;< ;< ;< ;< ;< ;< ;< ;< ;< ;< ;< ;< ;< ;< ;< ;< ;< ;< ;< ;< ;< ;< ;< ;< ;< ;< ;< ;< ;< ;< ;< ;< ;< ;< ;< ;< ;< ;< ;< ;< ;< ;< ;< ;< ;< ;< ;< ;< ;< ;< ;< ;< ;< ;< ;< ;< ;< ;< ;< ;< ;< ;< ;< ;< ;< ;< ;< ;< ;< ;< ;< ;< ;< ;< ;< ;< ;< ;< ;< ;< ;< ;< ;< ;< ;< ;< ;< ;< ;< ;< ;< ;< ;< ;< ;< ;< ;< ;< ;< ;< ;< ;< ;< ;< ;< ;< ;< ;< ;< ;< ;< ;< ;< ;< ;< ;< ;< ;< ;< ;< ;< ;< ;< ;< c_ ;< )~ S! 9. C3 C3 C3 n+ wM 8% }w c_ ;< ;< ;< ;< ;< ;< ;< ;< ;< ;< ;< ;< ;< ;< >8 n5 5e /7 <{ rs z7 4e YG sC $P 7P +, Zk '; c; c; =; }- += 1* 3r ko po sF 8P Fp &p 9P DF %r sF po po po po po po po po ]H lo Pr 0P !p wp po po po po po %J dJ _) M< 0[ m[ m[ aP bP *2 `O `O `O `O `O `O `O `O `O `O `O `O `O `O `O `O `O `O `O `O `O `O `O `O `O `O `O `O `O `O `O `O cP 'P 'P 'P ,P dP eP `O `O `O `O `O `O  P lw pl -x fP bz Yr Yr ",
"(P (P (P (P (P (P (P (P (P (P (P (P (P (P (P (P (P (P G% }P }P }P }P }P }P }P }P }P }P }P dm gP hP 4P 4P iP @| d4 d4 d4 d4 XN jP FO FO FO FO FO FO FO FO FO pO pO [) &< 8: *< 0: a: E~ z  A  `. F  9. n+ %+ U+ U+ D@ /# ~@ E@ (# S# <$ <$ <$ <$ <$ F$ -% 9%  & Z% s& a& 7& u= m= Xm -; x> => b; (j kP `* `I lP mP nP *t R6 ll p$ Xa 8! F~ M8  _ ;< ;< ;< ;< ;< ;< ;< ;< ;< ;< ;< 3| g] _7 /6 15 0) n+ ;h :t AN B( ;< ;< ;< ;< ;< ;< ;< ;< ;< ;< ;< ;< ;< ;< ;< ;< ;< ;< ;< ;< ;< ;< ;< 3| 3| 3| 3| w/ ;< ;< ;< ;< ;< ;< ;< ;< ;< ;< ;< ;< ;< ;< ;< ;< ;< ;< ;< ;< ;< ;< ;< ;< ;< ;< ;< ;< ;< ;< ;< ;< ;< ;< ;< ;< ;< ;< ;< ;< ;< ;< ;< ;< ;< ;< ;< ;< ;< ;< ;< ;< ;< ;< ;< ;< ;< ;< ;< ;< ;< ;< ;< ;< ;< ;< ;< ;< ;< ;< ;< ;< ;< ;< ;< ;< ;< ;< ;< ;< ;< ;< ;< ;< ;< ;< ;< ;< ;< ;< ;< ;< ;< ;< ;< ;< ;< ;< ;< ;< ;< ;< ;< ;< ;< ;< ;< ;< ;< ;< ;< ;< ;< ;< ;< ;< ;< ;< ;< ;< ;< ;< ;< ;< ;< ;< ;< ;< ;< ;< ;< ;< ;< ;< ;< ;< ;< ;< ;< ;< ;< ;< ;< ;< ;< ;< ;< ;< ;< ;< ;< ;< ;< ;< ;< ;< ;< ;< ;< ;< ;< ;< ;< ;< ;< ;< ;< ;< ;< ;< ;< ;< ;< ;< ;< ;< ;< ;< ;< ;< ;< ;< ;< ;< ;< ;< ;< ;< ;< ;< ;< ;< ;< ;< ;< ;< ;< ;< ;< ;< ;< ;< ;< ;< ;< ;< ;< ;< ;< c_ ;< )~ S! 9. C3 C3 C3 s1 wM 8% }w c_ ;< ;< ;< ;< ;< ;< ;< ;< ;< ;< ;< ;< ;< ;< .: n5 5e /7 X. rs ^j qp <p sC oP 7P pP `i '; c; ~; =; n- += 1* qP ko ]H 8P %r &p rP -H HE sP tP 'G oo po po po po po -q jF iF wp ks =K NO uP -q oo po po %J dJ _) M< 0[ v| v| vP `O `O `O `O `O `O `O `O `O `O `O `O `O `O `O `O `O `O `O `O `O `O `O `O `O `O `O `O `O `O `O `O `O `O XN wP 'P xP yP `O `O `O `O `O `O `O `O zP Yr Yr Yr Yr -u #t #t ",
"!4 AP '' '' Z) f[ k) BP (P (P (P (P (P (P (P (P (P (P (P ]M }P }P }P }P }P }P }P }P }P }P }P }P }P CP DP 4P 4P EP d4 d4 j@ FP 92 FO FO FO FO FO FO FO FO FO pO GP [) &< 8: *< 0: a: E~ z  A  `. F  9. n+ %+ U+ U+ D@ /# ~@ E@ (# S# <$ <$ <$ <$ <$ F$ -% 9% |% Z% N% a& %' M& pL Xm -; x> b; {; xf [, HP `I IP [K %I *t .7 ll p$ Xa 8! F~ M8  _ ;< ;< ;< ;< ;< ;< ;< ;< ;< ;< ;< #/ }_ .) E5 15 0) n+ ;h :t AN B( ;< ;< ;< ;< ;< ;< ;< ;< ;< ;< ;< ;< ;< ;< ;< ;< ;< ;< ;< ;< ;< ;< ;< ;< ;< ;< ;< ;< ;< ;< ;< ;< ;< ;< ;< ;< ;< ;< ;< ;< ;< ;< ;< ;< ;< ;< ;< ;< ;< ;< ;< ;< ;< ;< ;< ;< ;< ;< ;< ;< ;< ;< ;< ;< ;< ;< ;< ;< ;< ;< ;< ;< ;< ;< ;< ;< ;< ;< ;< ;< ;< ;< ;< ;< ;< ;< ;< ;< ;< ;< ;< ;< ;< ;< ;< ;< ;< ;< ;< ;< ;< ;< ;< ;< ;< ;< ;< ;< ;< ;< ;< ;< ;< ;< ;< ;< ;< ;< ;< ;< ;< ;< ;< ;< ;< ;< ;< ;< ;< ;< ;< ;< ;< ;< ;< ;< ;< ;< ;< ;< ;< ;< ;< ;< ;< ;< ;< ;< ;< ;< ;< ;< ;< ;< ;< ;< ;< ;< ;< ;< ;< ;< ;< ;< ;< ;< ;< ;< ;< ;< ;< ;< ;< ;< ;< ;< ;< ;< ;< ;< ;< ;< ;< ;< ;< ;< ;< ;< ;< ;< ;< ;< ;< ;< ;< ;< ;< ;< ;< ;< ;< ;< ;< ;< ;< ;< ;< ;< ;< ;< ;< ;< ;< ;< ;< ;< ;< ;< ;< ;< ;< ;< ;< ;< ;< ;< ;< ;< ;< ;< ;< ;< ;< ;< ;< ;< ;< c_ ;< )~ S! 9. C3 C3 C3 n+ xM (% ;< c_ ;< ;< ;< ;< ;< ;< ;< ;< ;< ;< ;< ;< ;< ;< .: R6 5e /7 X. rs ^j qp uG zN oP 7P JP `i <> b; b; y; n- += KP qP ko ~p [M Nq xO LP MP NP OP 9L AO ,M No po po po =C xG >L Fp -q PP QP #H [o ]L No po po %J dJ _) M< 0[ v| v| vP `O `O `O `O `O `O `O `O `O `O `O `O `O `O `O `O `O `O `O `O `O `O `O `O `O `O `O `O `O `O `O `O `O `O `O `O `O `O `O `O `O `O `O `O `O `O RP eq Yr Yr SP *# *# *# *# ",
"!4 !4 !4 !4 !4 !4 !4 !4 !4 '' Z) k) TP UP (P (P (P (P (P b' VP }P }P }P }P }P }P }P }P }P }P }P }P }P |P gP 4P 4P WP L| FP FP XP FO FO FO FO FO FO FO FO FO pO YP [) &< 8: *< 0: a: E~ z  A  `. F  9. n+ %+ U+ U+ D@ /# ~@ E@ (# S# <$ <$ <$ <$ <$ F$ -% 9% |% u% N% a& %' M& W* }m ;; ); {; a; xf ;, i= 0* IP [K %I ZP .7 $g p$ b) 8! F~ M8  _ ;< ;< ;< ;< ;< ;< ;< ;< ;< ;< ;< #/ z_ .) E5 15 .p n+ ;h :t AN B( ;< ;< ;< ;< ;< ;< ;< ;< ;< ;< ;< ;< ;< ;< ;< ;< ;< ;< ;< ;< ;< ;< ;< ;< ;< ;< ;< ;< ;< ;< ;< ;< ;< ;< ;< ;< ;< ;< ;< ;< ;< ;< ;< ;< ;< ;< ;< ;< ;< ;< ;< ;< ;< ;< ;< ;< ;< ;< ;< ;< ;< ;< ;< ;< ;< ;< ;< ;< ;< ;< ;< ;< ;< ;< ;< ;< ;< ;< ;< ;< ;< ;< ;< ;< ;< ;< ;< ;< ;< ;< ;< ;< ;< ;< ;< ;< ;< ;< ;< ;< ;< ;< ;< ;< ;< ;< ;< ;< ;< ;< ;< ;< ;< ;< ;< ;< ;< ;< ;< ;< ;< ;< ;< ;< ;< ;< ;< ;< ;< ;< ;< ;< ;< ;< ;< ;< ;< ;< ;< ;< ;< ;< ;< ;< ;< ;< ;< ;< ;< ;< ;< ;< ;< ;< ;< ;< ;< ;< ;< ;< ;< ;< ;< ;< ;< ;< ;< ;< ;< ;< ;< ;< ;< ;< ;< ;< ;< ;< ;< ;< ;< ;< ;< ;< ;< ;< ;< ;< ;< ;< ;< ;< ;< ;< ;< ;< ;< ;< ;< ;< ;< ;< ;< ;< ;< ;< ;< ;< ;< ;< ;< ;< ;< ;< ;< ;< ;< ;< ;< ;< ;< ;< ;< ;< ;< ;< ;< ;< ;< ;< ;< ;< ;< ;< ;< ;< ;< c_ ;< )~ S! 9. C3 C3 C3 n+ Y@ ': ;< c_ ;< ;< ;< ;< ;< ;< ;< ;< ;< ;< ;< ;< ;< ;< .: =' Ne /7 ;7 0) ^j qp uG zN oP QH 1, `i ); b; b; `P  Q .Q 2* qP ko 8q EK xG +Q @Q #Q $Q %Q &Q JG *Q =H po po mo (J =Q -Q ;Q >Q ,Q 'Q )Q !Q ~Q {Q Lo po %J dJ _) M< 0[ R! R! ]Q ^Q /Q (Q `O `O `O `O `O `O `O `O `O `O `O _Q :Q <Q [Q R1 (Q `O `O `O `O `O `O `O `O `O `O `O `O `O `O `O `O `O `O `O `O `O `O `O `O `O H1 ^M }Q Yr Yr z+ *# *# *# *# ",
"!4 !4 !4 !4 !4 !4 !4 !4 !4 !4 !4 !4 |Q 1Q 2Q @K 3Q (P (P (P 4Q pG 5Q }P }P }P }P }P }P }P }P }P }P }P }P }P 6Q 7Q 8Q FP FP FP FP y+ FO FO FO FO FO FO FO 9Q pO 0Q [) &< 8: *< 0: a: E~ z  A  `. F  9. n+ %+ U+ U+ D@ /# ~@ E@ (# S# <$ <$ <$ <$ <$ F$ -% 9% |% u% N% ~& Y& M& W* Rl ;; ); a; 0; aQ bQ cQ r= dQ [K %I ZP =' 8m p$ b) 8! F~ M8  _ ;< ;< ;< ;< ;< ;< ;< ;< ;< ;< ;< #/ z_ .) E5 15 .p n+ ;h :t AN B( ;< ;< ;< ;< ;< ;< ;< ;< ;< ;< ;< ;< ;< ;< ;< ;< ;< ;< ;< ;< ;< ;< ;< ;< ;< ;< ;< ;< ;< ;< ;< ;< ;< ;< ;< ;< ;< ;< ;< ;< ;< ;< ;< ;< ;< ;< ;< ;< ;< ;< ;< ;< ;< ;< ;< ;< ;< ;< ;< ;< ;< ;< ;< ;< ;< ;< ;< ;< ;< ;< ;< ;< ;< ;< ;< ;< ;< ;< ;< ;< ;< ;< ;< ;< ;< ;< ;< ;< ;< ;< ;< ;< ;< ;< ;< ;< ;< ;< ;< ;< ;< ;< ;< ;< ;< ;< ;< ;< ;< ;< ;< ;< ;< ;< ;< ;< ;< ;< ;< ;< ;< ;< ;< ;< ;< ;< ;< ;< ;< ;< ;< ;< ;< ;< ;< ;< ;< ;< ;< ;< ;< ;< ;< ;< ;< ;< ;< ;< ;< ;< ;< ;< ;< ;< ;< ;< ;< ;< ;< ;< ;< ;< ;< ;< ;< ;< ;< ;< ;< ;< ;< ;< ;< ;< ;< ;< ;< ;< ;< ;< ;< ;< ;< ;< ;< ;< ;< ;< ;< ;< ;< ;< ;< ;< ;< ;< ;< ;< ;< ;< ;< ;< ;< ;< ;< ;< ;< ;< ;< ;< ;< ;< ;< ;< ;< ;< ;< ;< ;< ;< ;< ;< ;< ;< ;< ;< ;< ;< ;< ;< ;< ;< ;< ;< ;< ;< ;< c_ ;< )~ S! 9. C3 C3 C3 n+ S! j} }w c_ ;< ;< ;< ;< ;< ;< ;< ;< ;< ;< ;< ;< ;< ;< 2[ .) c) /7 Z. ;8 eQ qp uG SC 7J vM 1, `i ); a; }> ;> |- @= J* fQ ]H WK xG gQ hQ =O iQ jQ kQ lQ mQ ]O PG Lo po Fp .H xG nQ oQ pQ qQ rQ sQ tQ uQ vQ wQ po %J dJ _) M< 0[ 7: 7: xQ yQ zQ AQ BQ CQ DQ EQ FQ GQ `O `O `O `O `O HQ IQ JQ KQ KQ LQ MQ NQ OQ `O `O `O `O `O `O `O `O `O `O `O `O `O `O `O `O `O `O `O `O PQ sx OC OC Ti Yr -u *# *# *# *# *# ",
"!4 !4 !4 !4 !4 !4 !4 !4 !4 !4 !4 !4 |Q 1Q 1Q 1Q 1Q QQ RQ SQ TQ (P (P (P G% UQ VQ VQ WQ XQ #z YQ *# T7 *# ** ZQ VQ `Q FP FP FP FP  R FO FO FO FO FO FO FO .R pO +R [) &< 8: *< 0: a: E~ z  A  `. F  9. n+ %+ U+ U+ D@ /# ~@ E@ (# S# <$ <$ <$ <$ <$ F$ -% 9% |% u% N% {& X& t= W* Rl ;; :> }> 0; 7e >> cQ N* dQ [K @R _D =' 8m p$ b) 8! F~ M8  _ ;< ;< ;< ;< ;< ;< ;< ;< ;< ;< ;< #/ z_ =' E5 15 .p n+ ;h :t AN B( ;< ;< ;< ;< ;< ;< ;< ;< ;< ;< ;< ;< ;< ;< ;< ;< ;< ;< ;< ;< ;< ;< ;< ;< ;< ;< ;< ;< ;< ;< ;< ;< ;< ;< ;< ;< ;< ;< ;< ;< ;< ;< ;< ;< ;< ;< ;< ;< ;< ;< ;< ;< ;< ;< ;< ;< ;< ;< ;< ;< ;< ;< ;< ;< ;< ;< ;< ;< ;< ;< ;< ;< ;< ;< ;< ;< ;< ;< ;< ;< ;< ;< ;< ;< ;< ;< ;< ;< ;< ;< ;< ;< ;< ;< ;< ;< ;< ;< ;< ;< ;< ;< ;< ;< ;< ;< ;< ;< ;< ;< ;< ;< ;< ;< ;< ;< ;< ;< ;< ;< ;< ;< ;< ;< ;< ;< ;< ;< ;< ;< ;< ;< ;< ;< ;< ;< ;< ;< ;< ;< ;< ;< ;< ;< ;< ;< ;< ;< ;< ;< ;< ;< ;< ;< ;< ;< ;< ;< ;< ;< ;< ;< ;< ;< ;< ;< ;< ;< ;< ;< ;< ;< ;< ;< ;< ;< ;< ;< ;< ;< ;< ;< ;< ;< ;< ;< ;< ;< ;< ;< ;< ;< ;< ;< ;< ;< ;< ;< ;< ;< ;< ;< ;< ;< ;< ;< ;< ;< ;< ;< ;< ;< ;< ;< ;< ;< ;< ;< ;< ;< ;< ;< ;< ;< ;< ;< ;< ;< ;< ;< ;< ;< ;< ;< ;< ;< ;< c_ ;< )~ S! 9. C3 C3 C3 Pk f# Z! ;< c_ ;< ;< ;< ;< ;< ;< ;< ;< ;< ;< ;< ;< ;< ;< 2[ O4 c) /7 Z. ;8 eQ qp uG SC 7J @p #, 9H :> a; }> -; |- @= 2* fQ 4r Pr &p #R $R %R &R *R =R -R ;R >R ,R 'R oo aL  t )R !R &O ~R {R ]R ^R GN &  /R }o Lo %J dJ _) M< 0[ 7: 7: xQ yQ (R AQ AQ AQ AQ AQ AQ AQ AQ AQ AQ AQ _R :R :R :R :R :R :R :R :R :R :R <R [R }R `O `O `O `O `O `O `O `O `O `O `O `O `O `O `O |R ^M OC OC ;n Yr Yr 1R *# *# *# *# *# ",
"!4 !4 !4 !4 !4 !4 !4 !4 !4 !4 !4 Va 1Q 1Q 1Q 1Q 1Q 1Q 1Q 1Q 1Q qw @K SQ 2R WQ VQ VQ VQ VQ VQ VQ VQ VQ VQ VQ VQ VQ Y: FP FP FP FP 3R FO FO FO FO FO FO FO 4R G6 9Q [) &< 8: *< 0: a: E~ z  A  `. F  9. n+ %+ U+ U+ D@ /# ~@ E@ (# S# <$ <$ <$ <$ <$ F$ -% 9% |% u% N% {& X& D* X* Rl ;; !; ]; 5R 6R x; u, a* 7R GI XD _D =' 8m p$ b) 8! F~ M8  _ ;< ;< ;< ;< ;< ;< ;< ;< ;< ;< ;< ;< >| v4 E5 15 .p n+ ;h :t AN B( ;< ;< ;< ;< ;< ;< ;< ;< ;< ;< ;< ;< ;< ;< ;< ;< ;< ;< ;< ;< ;< ;< ;< ;< ;< ;< ;< ;< ;< ;< ;< ;< ;< ;< ;< ;< ;< ;< ;< ;< ;< ;< ;< ;< ;< ;< ;< ;< ;< ;< ;< ;< ;< ;< ;< ;< ;< ;< ;< ;< ;< ;< ;< ;< ;< ;< ;< ;< ;< ;< ;< ;< ;< ;< ;< ;< ;< ;< ;< ;< ;< ;< ;< ;< ;< ;< ;< ;< ;< ;< ;< ;< ;< ;< ;< ;< ;< ;< ;< ;< ;< ;< ;< ;< ;< ;< ;< ;< ;< ;< ;< ;< ;< ;< ;< ;< ;< ;< ;< ;< ;< ;< ;< ;< ;< ;< ;< ;< ;< ;< ;< ;< ;< ;< ;< ;< ;< ;< ;< ;< ;< ;< ;< ;< ;< ;< ;< ;< ;< ;< ;< ;< ;< ;< ;< ;< ;< ;< ;< ;< ;< ;< ;< ;< ;< ;< ;< ;< ;< ;< ;< ;< ;< ;< ;< ;< ;< ;< ;< ;< ;< ;< ;< ;< ;< ;< ;< ;< ;< ;< ;< ;< ;< ;< ;< ;< ;< ;< ;< ;< ;< ;< ;< ;< ;< ;< ;< ;< ;< ;< ;< ;< ;< ;< ;< ;< ;< ;< ;< ;< ;< ;< ;< ;< ;< ;< ;< ;< ;< ;< ;< ;< ;< ;< ;< ;< ;< c_ ;< )~ S! 9. C3 C3 C3 Pk [$ 4( ;< c_ ;< ;< ;< ;< ;< ;< ;< ;< ;< ;< ;< ;< ;< ;< 2[ +) c) /7 Z. ;8 eQ qp uG lH iJ yN #, 9H :> }> 0; -; 8R f= K* fQ Fp 9R 0R aR bR cR dR eR fR gR hR iR zL ^G lo cO KF jR kR lR mR nR oR pR qR rR sR HG MI mM dJ _) M< 0[ 7: 7: xQ yQ tR AQ AQ AQ AQ AQ AQ AQ AQ AQ AQ uR vR :R :R :R wR xR :R :R :R :R :R :R :R :R yR zR AR `O `O `O `O `O `O `O `O `O `O PQ sx OC OC OC OC st Yr Yr ;' *# *# *# *# *# ",
"!4 !4 !4 !4 !4 !4 !4 !4 !4 !4 !4 1Q 1Q 1Q 1Q 1Q 1Q 1Q 1Q 1Q 1Q 1Q 1Q 1Q 1Q 9A BR BR BR CR )o DR ER FR GR GR HR VQ Y: FP FP FP FP FP FO FO FO FO FO FO FO IR mC 9Q R! &< 8: *< 0: a: E~ z  A  `. F  9. n+ %+ U+ U+ D@ /# ~@ E@ (# S# <$ <$ <$ <$ <$ F$ -% 9% |% u% N% {& X& O& X* Rl e; c; 0; ^; JR ,, g= b* KR oP XD ev =' 8m p$ b) 8! F~ M8  _ ;< ;< ;< ;< ;< ;< ;< ;< ;< ;< ;< {I  _ g6 E5 15 .p n+ ;h :t AN B( ;< ;< ;< ;< ;< ;< ;< ;< ;< ;< ;< ;< ;< ;< ;< ;< ;< ;< ;< ;< ;< ;< ;< ;< ;< ;< ;< ;< ;< ;< ;< ;< ;< ;< ;< ;< ;< ;< ;< ;< ;< ;< ;< ;< ;< ;< ;< ;< ;< ;< ;< ;< ;< ;< ;< ;< ;< ;< ;< ;< ;< ;< ;< ;< ;< ;< ;< ;< ;< ;< ;< ;< ;< ;< ;< ;< ;< ;< ;< ;< ;< ;< ;< ;< ;< ;< ;< ;< ;< ;< ;< ;< ;< ;< ;< ;< ;< ;< ;< ;< ;< ;< ;< ;< ;< ;< ;< ;< ;< ;< ;< ;< ;< ;< ;< ;< ;< ;< ;< ;< ;< ;< ;< ;< ;< ;< ;< ;< ;< ;< ;< ;< ;< ;< ;< ;< ;< ;< ;< ;< ;< ;< ;< ;< ;< ;< ;< ;< ;< ;< ;< ;< ;< ;< ;< ;< ;< ;< ;< ;< ;< ;< ;< ;< ;< ;< ;< ;< ;< ;< ;< ;< ;< ;< ;< ;< ;< ;< ;< ;< ;< ;< ;< ;< ;< ;< ;< ;< ;< ;< ;< ;< ;< ;< ;< ;< ;< ;< ;< ;< ;< ;< ;< ;< ;< ;< ;< ;< ;< ;< ;< ;< ;< ;< ;< ;< ;< ;< ;< ;< ;< ;< ;< ;< ;< ;< ;< ;< ;< ;< ;< ;< ;< ;< ;< ;< ;< c_ ;< )~ S! 9. C3 C3 C3 Pk [$ 7( 3| c_ ;< ;< ;< ;< ;< ;< ;< ;< ;< ;< ;< ;< ;< ;< 2[ =' Ne /7 Z. ;8 ^j J7 5n lH LR MR #, mg c; 0; *> e; 5G tz K* NR OO mo OR PR QR RR SR TR UR VR )N WR IL XR lo aL Pr cM YR ZR `R  S .S +S uL @S #S ,R :o mM dJ _) M< 0[ 7: 7: xQ yQ yQ $S AQ AQ AQ AQ AQ AQ AQ AQ AQ %S :R :R &S *S =S -S ;S ;S ;S >S :R :R :R :R :R :R ,S `O `O `O `O `O `O `O `O `O 'S ^M OC OC OC OC ;n Yr Yr #t *# *# *# *# *# *# ",
"!4 !4 !4 !4 !4 !4 !4 !4 !4 !4 46 1Q 1Q 1Q 1Q 1Q 1Q 1Q 1Q 1Q 1Q 1Q 1Q 1Q 1Q 1Q 1Q 1Q 1Q 1Q 1Q 1Q 1Q 1Q 1j GR VQ VQ Y: FP FP FP FP FP y+ FO FO FO FO FO )S !S ~S 9Q R! &< 8: *< 0: a: E~ z  A  `. F  9. n+ %+ U+ U+ D@ /# ~@ E@ (# S# <$ <$ <$ <$ <$ F$ -% 9% |% u% N% {& X& O& X* Rl e; c; ^; /; {S ]S v, b* KR oP ^S ev =' 8m p$ b) 8! F~ M8  _ ;< ;< ;< ;< ;< ;< ;< ;< ;< ;< 3| {I  _ .8 J6 15 .p n+ ;h :t AN B( ;< ;< ;< ;< ;< ;< ;< ;< ;< ;< ;< ;< ;< ;< ;< ;< ;< ;< ;< ;< ;< ;< ;< ;< ;< ;< ;< ;< ;< ;< ;< ;< ;< ;< ;< ;< ;< ;< ;< ;< ;< ;< ;< ;< ;< ;< ;< ;< ;< ;< ;< ;< ;< ;< ;< ;< ;< ;< ;< ;< ;< ;< ;< ;< ;< ;< ;< ;< ;< ;< ;< ;< ;< ;< ;< ;< ;< ;< ;< ;< ;< ;< ;< ;< ;< ;< ;< ;< ;< ;< ;< ;< ;< ;< ;< ;< ;< ;< ;< ;< ;< ;< ;< ;< ;< ;< ;< ;< ;< ;< ;< ;< ;< ;< ;< ;< ;< ;< ;< ;< ;< ;< ;< ;< ;< ;< ;< ;< ;< ;< ;< ;< ;< ;< ;< ;< ;< ;< ;< ;< ;< ;< ;< ;< ;< ;< ;< ;< ;< ;< ;< ;< ;< ;< ;< ;< ;< ;< ;< ;< ;< ;< ;< ;< ;< ;< ;< ;< ;< ;< ;< ;< ;< ;< ;< ;< ;< ;< ;< ;< ;< ;< ;< ;< ;< ;< ;< ;< ;< ;< ;< ;< ;< ;< ;< ;< ;< ;< ;< ;< ;< ;< ;< ;< ;< ;< ;< ;< ;< ;< ;< ;< ;< ;< ;< ;< ;< ;< ;< ;< ;< ;< ;< ;< ;< ;< ;< ;< ;< ;< ;< ;< ;< ;< ;< ;< ;< c_ ;< )~ S! 9. C3 C3 C3 Pk [$ 7( 3| c_ ;< ;< ;< ;< ;< ;< ;< ;< ;< ;< ;< ;< ;< D5 5m 4e 5e /7 Z. ;8 ]k J7 Aw %I LR sO |, mg => ^; ^; ;; 2- w, K* NR JK mo OR PR /S RR (N (S _S :S )N <S vQ XR lo dJ %r [S }S |S _S 1S 2S 3S RN 4S 5S ,R tP mM dJ _) M< 0[ 7: 7: xQ yQ yQ 6S 7S 7S 7S 7S 7S 7S 8S 8S 9S 0S *S yQ yQ yQ aS bS cS dS dS dS eS fS :R :R :R vR }R `O `O `O `O `O (1 'S Kl 02 gS bq >4 OC OC OC hS Yr Yr ,$ *# *# *# *# *# *# ",
"!4 !4 !4 !4 !4 !4 !4 !4 !4 T4 1Q 1Q 1Q 1Q 1Q 1Q 1Q 1Q 1Q 1Q 1Q 1Q 1Q 1Q 1Q 1Q 1Q 1Q 1Q 1Q 1Q 1Q 1Q 1Q 1Q KC VQ VQ `: FP FP FP FP FP iS FO FO FO FO jS kS lS 9Q 9Q [) &< 8: *< 0: a: E~ z  A  `. F  9. n+ %+ U+ U+ D@ /# ~@ E@ (# S# <$ <$ <$ <$ <$ F$ -% 9% |% v% l' {& X& O& Y* Rl e; c; |> /; {S z> f= wJ mS oP ^S ev  8 8m p$ b) 8! F~ M8  _ ;< ;< ;< ;< ;< ;< ;< ;< ;< ;< 3| {I C/ 2m E5 ~t $D n+ ;h :t AN B( ;< ;< ;< ;< ;< ;< ;< ;< ;< ;< ;< ;< ;< ;< ;< ;< ;< ;< ;< ;< ;< ;< ;< ;< ;< ;< ;< ;< ;< ;< ;< ;< ;< ;< ;< ;< ;< ;< ;< ;< ;< ;< ;< ;< ;< ;< ;< ;< ;< ;< ;< ;< ;< ;< ;< ;< ;< ;< ;< ;< ;< ;< ;< ;< ;< ;< ;< ;< ;< ;< ;< ;< ;< ;< ;< ;< ;< ;< ;< ;< ;< ;< ;< ;< ;< ;< ;< ;< ;< ;< ;< ;< ;< ;< ;< ;< ;< ;< ;< ;< ;< ;< ;< ;< ;< ;< ;< ;< ;< ;< ;< ;< ;< ;< ;< ;< ;< ;< ;< ;< ;< ;< ;< ;< ;< ;< ;< ;< ;< ;< ;< ;< ;< ;< ;< ;< ;< ;< ;< ;< ;< ;< ;< ;< ;< ;< ;< ;< ;< ;< ;< ;< ;< ;< ;< ;< ;< ;< ;< ;< ;< ;< ;< ;< ;< ;< ;< ;< ;< ;< ;< ;< ;< ;< ;< ;< ;< ;< ;< ;< ;< ;< ;< ;< ;< ;< ;< ;< ;< ;< ;< ;< ;< ;< ;< ;< ;< ;< ;< ;< ;< ;< ;< ;< ;< ;< ;< ;< ;< ;< ;< ;< ;< ;< ;< ;< ;< ;< ;< ;< ;< ;< ;< ;< ;< ;< ;< ;< ;< ;< ;< ;< ;< ;< ;< ;< ;< c_ ;< )~ S! 9. C3 C3 C3 Pk [$ 7( 3| c_ ;< ;< ;< ;< ;< ;< ;< ;< ;< ;< ;< ;< }~ 2% mF K8 FD /7 Z. ;8 ]k J7 gq %I LR sO nS `- => ^; ^; >; 2- %= oS 9R ;L sF 0R pS qS rS /N /N sS lR tS uS vS ^G lo wS KF xS yS zS :N AS BS sS CS DS ES ]O LF mM dJ _) M< 0[ m[ m[ FS GS yQ yQ HS IS JS 7S KS LS MS yQ yQ yQ yQ yQ yQ yQ NS OS OS PS QS dS dS RS :R :R SS TS `O `O `O `O lz >' =! =! =! =! =! =! =! US J1 OC VS Yr -u *# *# *# *# *# *# *# ",
"!4 !4 !4 !4 !4 !4 !4 !4 !4 |Q 1Q 1Q 1Q 1Q 1Q 1Q 1Q 1Q 1Q 1Q 1Q 1Q 1Q 1Q 1Q 1Q 1Q QQ WS XS XS YS YS XS WS ZS VQ VQ ar FP FP FP FP FP `S FO FO FO  T kS !S .T 9Q 9Q [) &< 8: *< 0: a: E~ z  A  `. F  9. n+ %+ U+ U+ D@ /# ~@ E@ (# S# <$ <$ <$ <$ <$ F$ -% 9% |% v% l' {& X& (* @P Zk >; ~; /; (; Zk +T w, wJ mS oP ^S ev  8 8m p$ b) 8! F~ M8  _ ;< ;< ;< ;< ;< ;< ;< ;< ;< ;< 3| ~~ L5 n5 E5 ~t $D n+ ;h :t AN B( ;< ;< ;< ;< ;< ;< ;< ;< ;< ;< ;< ;< ;< ;< ;< ;< ;< ;< ;< ;< ;< ;< ;< ;< ;< ;< ;< ;< ;< ;< ;< ;< ;< ;< ;< ;< ;< ;< ;< ;< ;< ;< ;< ;< ;< ;< ;< ;< ;< ;< ;< ;< ;< ;< ;< ;< ;< ;< ;< ;< ;< ;< ;< ;< ;< ;< ;< ;< ;< ;< ;< ;< ;< ;< ;< ;< ;< ;< ;< ;< ;< ;< ;< ;< ;< ;< ;< ;< ;< ;< ;< ;< ;< ;< ;< ;< ;< ;< ;< ;< ;< ;< ;< ;< ;< ;< ;< ;< ;< ;< ;< ;< ;< ;< ;< ;< ;< ;< ;< ;< ;< ;< ;< ;< ;< ;< ;< ;< ;< ;< ;< ;< ;< ;< ;< ;< ;< ;< ;< ;< ;< ;< ;< ;< ;< ;< ;< ;< ;< ;< ;< ;< ;< ;< ;< ;< ;< ;< ;< ;< ;< ;< ;< ;< ;< ;< ;< ;< ;< ;< ;< ;< ;< ;< ;< ;< ;< ;< ;< ;< ;< ;< ;< ;< ;< ;< ;< ;< ;< ;< ;< ;< ;< ;< ;< ;< ;< ;< ;< ;< ;< ;< ;< ;< ;< ;< ;< ;< ;< ;< ;< ;< ;< ;< ;< ;< ;< ;< ;< ;< ;< ;< ;< ;< ;< ;< ;< ;< ;< ;< ;< ;< ;< ;< ;< ;< ;< c_ ;< )~ S! 9. C3 C3 C3 Pk [$ 7( 3| c_ ;< ;< ;< ;< ;< ;< ;< ;< ;< ;< ;< }~ j% .8 +7 YD FD /7 Z. ;8 ]k J7 gq DD DJ IO nS `- => ^; /; >; 3- %= 6* NR #F iF @T #T $T %T &T *T =T -T ;T >T zL wQ po wS KF ,T 'T )T SN !T !T mN ~T {T ]T #G *H mM dJ _) M< 0[ m[ m[ ^T /T (T _T yQ yQ yQ yQ yQ yQ yQ yQ yQ yQ yQ yQ yQ yQ :T <T [T }T |T QS dS dS :R SS dS 1T `O `O `O ox =! =! =! =! =! =! =! =! =! =! d> OC 2T Yr 1R *# *# *# *# *# *# *# ",
"!4 !4 !4 !4 !4 !4 !4 !4 dD 1Q 1Q 1Q 1Q 1Q 1Q 1Q 1Q 1Q 1Q 1Q 1Q 1Q 1Q QQ %7 3T 9A YS YS YS YS YS YS YS YS 4T VQ VQ 0, FP FP FP FP FP 5T FO FO 6T !S kS IA 9Q 9Q 9Q [) &< 8: *< 0: a: E~ z  A  `. F  9. n+ %+ U+ U+ D@ /# ~@ E@ (# S# <$ <$ <$ <$ <$ F$ -% 9% |% v% O% ]& s* P& @P 6j B; ~; 9; 9; 7T N= 8T d* mS 7J jJ ev  8 8m p$ b) 8! F~ M8  _ ;< ;< ;< ;< ;< ;< ;< ;< ;< ;< 3| ~~ }% @5 u6 ~t $D n+ ;h :t AN B( ;< ;< ;< ;< ;< ;< ;< ;< ;< ;< ;< ;< ;< ;< ;< ;< ;< ;< ;< ;< ;< ;< ;< ;< ;< ;< ;< ;< ;< ;< ;< ;< ;< ;< 3| ;< ;< ;< ;< ;< ;< ;< ;< ;< ;< ;< ;< ;< ;< ;< ;< ;< ;< ;< ;< ;< ;< ;< ;< ;< ;< ;< ;< ;< ;< ;< ;< ;< ;< ;< ;< ;< ;< ;< ;< ;< ;< ;< ;< ;< ;< ;< ;< ;< ;< ;< ;< ;< ;< ;< ;< ;< ;< ;< ;< ;< ;< ;< ;< ;< ;< ;< ;< ;< ;< ;< ;< ;< ;< ;< ;< ;< ;< ;< ;< ;< ;< ;< ;< ;< ;< ;< ;< ;< ;< ;< ;< ;< ;< ;< ;< ;< ;< ;< ;< ;< ;< ;< ;< ;< ;< ;< ;< ;< ;< ;< ;< ;< ;< ;< ;< ;< ;< ;< ;< ;< ;< ;< ;< ;< ;< ;< ;< ;< ;< ;< ;< ;< ;< ;< ;< ;< ;< ;< ;< ;< ;< ;< ;< ;< ;< ;< ;< ;< ;< ;< ;< ;< ;< ;< ;< ;< ;< ;< ;< ;< ;< ;< ;< ;< ;< ;< ;< ;< ;< ;< ;< ;< ;< ;< ;< ;< ;< ;< ;< ;< ;< ;< ;< ;< ;< ;< ;< ;< ;< ;< ;< ;< ;< ;< ;< ;< ;< ;< ;< ;< ;< c_ ;< )~ S! 9. C3 C3 C3 Pk [$ 7( 3| c_ ;< ;< ;< ;< ;< ;< ;< ;< ;< ;< ;< 3% .8 E5 25 YD FD /7 Z. ;8 ]k J7 gq DD DJ [' %, Y- ~; D; (; >; 3- y, 6* 9R ]H xG xG 9T 0T yS aT bT cT dT eT IG ]L $F po `F aL xG fT gT hT iT iT jT kT lT mT wQ po %J dJ _) M< 0[ m[ m[ ]( nT oT pT /T qT rT rT rT rT sT tT i5 uT vT vT vT vT ;~ wT xT }T }T yT dS dS zT dS AT `O `O `O `O BT =! =! =! =! =! =! =! =! =! =! =! CT +w Yr ;' *# *# *# *# *# *# *# ",
"!4 !4 !4 !4 !4 !4 !4 !4 1Q 1Q 1Q 1Q 1Q 1Q 1Q 1Q 1Q 1Q 1Q 1Q 1Q 1Q 9A YS YS YS YS YS YS DT ET YS YS YS YS Mn VQ ZQ FT FP FP FP FP FP m3 FO FO {B GT o@ 9Q 9Q 9Q 9Q [) &< 8: *< 0: a: E~ z  A  `. F  9. n+ %+ U+ U+ D@ /# ~@ E@ (# S# <$ <$ <$ <$ <$ F$ -% 9% k% v% O% ^& z& P& HT 6j B; b; 9; 9; 7T L= y, O* mS 7J jJ ev  8 8m p$ b) 8! F~ M8  _ ;< ;< ;< ;< ;< ;< ;< ;< ;< ;< 3| ~~ }% Z  E5 ~t .p n+ ;h :t AN B( ;< ;< ;< ;< ;< ;< ;< ;< ;< ;< ;< ;< ;< ;< ;< ;< ;< ;< ;< ;< ;< ;< ;< ;< ;< ;< ;< ;< ;< ;< #/ ;< D5 _{ ;< 3| ;< ;< ;< ;< ;< ;< ;< ;< ;< ;< ;< ;< ;< ;< ;< ;< ;< ;< ;< ;< ;< ;< ;< ;< ;< ;< ;< ;< ;< ;< ;< ;< ;< ;< ;< ;< ;< ;< ;< ;< ;< ;< ;< ;< ;< ;< ;< ;< ;< ;< ;< ;< ;< ;< ;< ;< ;< ;< ;< ;< ;< ;< ;< ;< ;< ;< ;< ;< ;< ;< ;< ;< ;< ;< ;< ;< ;< ;< ;< ;< ;< ;< ;< ;< ;< ;< ;< ;< ;< ;< ;< ;< ;< ;< ;< ;< ;< ;< ;< ;< ;< ;< ;< ;< ;< ;< ;< ;< ;< ;< ;< ;< ;< ;< ;< ;< ;< ;< ;< ;< ;< ;< ;< ;< ;< ;< ;< ;< ;< ;< ;< ;< ;< ;< ;< ;< ;< ;< ;< ;< ;< ;< ;< ;< ;< ;< ;< ;< ;< ;< ;< ;< ;< ;< ;< ;< ;< ;< ;< ;< ;< ;< ;< ;< ;< ;< ;< ;< ;< ;< #/ w/ ;< ;< ;< ;< ;< ;< ;< ;< ;< ;< ;< ;< ;< ;< ;< ;< ;< ;< ;< ;< ;< ;< ;< ;< ;< ;< ;< ;< ;< c_ ;< )~ S! 9. C3 C3 C3 Pk [$ 7( 3| c_ ;< ;< ;< ;< ;< ;< ;< ;< ;< ;< ;< l% C6 '5 25 YD FD /7 Z. ;8 ]k J7 gq DD IT [' JT Y- b; 9; 9; '; m- &= 6* 9R Jo 8P 9P EK TL KT LT MT NT OT MG 0L *H po po lo wS wS PT QT sN RT ST TT UT ]O VT jG po %J dJ _) M< 0[ m[ m[ WT XT XT XT XT XT XT XT XT XT XT YT ZT wT wT wT wT wT wT wT xT }T }T }T `T dS dS dS  U `O `O `O `O BT =! =! =! =! =! =! =! =! =! =! =! S4 .U +U *# *# *# *# *# *# *# *# ",
"!4 !4 !4 !4 !4 !4 !4 46 1Q 1Q 1Q 1Q 1Q 1Q 1Q 1Q 1Q 1Q 1Q 1Q 1Q 9A YS YS YS YS @U B= #U Gq mi $U $U $U $U %U VQ &U *U =U FP FP FP FP m3 FO -U ;U >U 9Q 9Q 9Q 9Q 9Q [) &< 8: *< 0: a: E~ z  A  `. F  9. n+ %+ U+ U+ D@ /# ~@ E@ (# S# <$ <$ <$ <$ <$ F$ -% 9% k% v% O% ^& z& R& `* Zk '; {; :; 8; 9H L= e= O* ,U 'U jJ ev  8 8m nh b) 8! F~ M8  _ ;< ;< ;< ;< ;< ;< ;< ;< ;< ;< 3| ~~ }% Z  E5 ~t .p n+ ;h :t AN B( ;< ;< ;< ;< ;< ;< ;< ;< ;< ;< ;< ;< ;< ;< ;< ;< ;< ;< ;< ;< ;< ;< ;< ;< ;< ;< ;< ;< 3| ;< ;< }~ L5 [% 5m D5 3| ;< ;< ;< ;< ;< ;< ;< ;< ;< ;< ;< ;< ;< ;< ;< ;< ;< ;< ;< ;< ;< ;< ;< ;< ;< ;< ;< ;< ;< ;< ;< ;< ;< ;< ;< ;< ;< ;< ;< ;< ;< ;< ;< ;< ;< ;< ;< ;< ;< ;< ;< ;< ;< ;< ;< ;< ;< ;< ;< ;< ;< ;< ;< ;< ;< ;< ;< ;< ;< ;< ;< ;< ;< ;< ;< ;< ;< ;< ;< ;< ;< ;< ;< ;< ;< ;< ;< ;< ;< ;< ;< ;< ;< ;< ;< ;< ;< ;< ;< ;< ;< ;< ;< ;< ;< ;< ;< ;< ;< ;< ;< ;< ;< ;< ;< ;< ;< ;< ;< ;< ;< ;< ;< ;< ;< ;< ;< ;< ;< ;< ;< ;< ;< ;< ;< ;< ;< ;< ;< ;< ;< ;< ;< ;< ;< ;< ;< ;< ;< ;< ;< ;< ;< ;< ;< ;< ;< ;< ;< ;< ;< ;< ;< ;< ;< ;< ;< D5 }_ >| .: .: D5 ;< 3| 3| #/ ;< ;< ;< ;< ;< ;< ;< ;< ;< ;< ;< ;< ;< ;< ;< ;< ;< ;< ;< ;< ;< ;< ;< c_ ;< )~ S! 9. C3 C3 C3 Pk [$ 7( 3| c_ ;< ;< ;< ;< ;< ;< ;< ;< ;< ;< ;< l% C6 +5 25 YD FD /7 Z. ;8 ]k J7 gq DD IT )U JT md {; 9; _; '; 4- e= 6* !U Jo ]H qL WK KF Io po MO ~U {U kG ]U No po po ]H }M (J xG oo lo ^U /U =H AO (U Lo po po %J dJ _) M< 0[ m[ m[ WT XT XT XT XT XT XT XT XT XT XT XT XT _U wT wT wT wT wT wT xT }T }T }T }T QS dS :U `O `O `O `O `O BT =! =! =! =! =! =! =! =! =! =! =! <U .U [U *# *# *# *# *# *# *# *# ",
"!4 !4 !4 !4 !4 !4 Va 1Q 1Q 1Q 1Q =u XS XS XS YS 9A XS =u %7 9A YS YS YS YS }U #U *} |U $U $U $U $U $U $U 1U VQ 2U *U 3U FP FP FP FP m3 FO 4U ;U 5U 9Q 9Q 9Q 9Q 9Q R! &< 8: *< 0: a: E~ z  A  `. F  9. n+ %+ U+ U+ D@ /# ~@ E@ (# S# <$ <$ <$ <$ <$ F$ -% 9% k% v% O% ^& z& R& `* Zk '; 6U 8; <; 9H Q= B, f* 7U 'U jJ ev  8 8m nh b) 8! F~ M8  _ ;< ;< ;< ;< ;< ;< ;< ;< ;< ;< 3| ~~ }% Z  E5 ~t .p n+ ;h :t AN B( ;< ;< ;< ;< ;< ;< ;< ;< ;< ;< ;< ;< ;< ;< ;< ;< ;< ;< ;< ;< ;< ;< ;< ;< ;< ;< w/ w/ w/ 2[ 1% @) n5 35 o' z_ 3| #/ ;< ;< ;< ;< ;< ;< ;< ;< ;< ;< ;< ;< ;< ;< ;< ;< ;< ;< ;< ;< ;< ;< ;< ;< ;< ;< ;< ;< ;< ;< ;< ;< ;< ;< ;< ;< ;< ;< ;< ;< ;< ;< ;< ;< ;< ;< ;< ;< ;< ;< ;< ;< ;< ;< ;< ;< ;< ;< ;< ;< ;< ;< ;< ;< ;< ;< ;< ;< ;< ;< ;< ;< ;< ;< ;< ;< ;< ;< ;< ;< ;< ;< ;< ;< ;< ;< ;< ;< ;< ;< ;< ;< ;< ;< ;< ;< ;< ;< ;< ;< ;< ;< ;< ;< ;< ;< ;< ;< ;< ;< ;< ;< ;< ;< ;< ;< ;< ;< ;< ;< ;< ;< ;< ;< ;< ;< ;< ;< ;< ;< ;< ;< ;< ;< ;< ;< ;< ;< ;< ;< ;< ;< ;< ;< ;< ;< ;< ;< ;< ;< ;< ;< ;< ;< ;< ;< ;< ;< ;< ;< ;< ;< ;< ;< 3| ;< 5m o' .8 o' qn j% 6m }_ 2[ n~ ;< ;< #/ #/ ;< ;< ;< ;< ;< ;< ;< ;< ;< ;< ;< ;< ;< ;< ;< ;< ;< ;< ;< c_ ;< )~ S! 9. C3 C3 C3 Pk [$ 7( 3| c_ ;< ;< ;< ;< ;< ;< ;< ;< ;< ;< ;< 3% +8 25 25 YD FD /7 Z. ;8 ]k J7 gq XD IT )U JT md 6U 8; 8; x> 5- e= 6* !U Jo ]H 8P qL rP 'L +L tP ]L BI 'R =K po po po po po 4r qL ks #J 'R 8U :o tP HE 9U po po %J dJ _) M< 0[ m[ m[ WT XT XT XT XT XT XT XT XT XT XT XT XT XT 0U wT wT wT wT wT xT }T }T }T }T aU QS bU `O `O `O `O `O BT =! =! =! =! =! =! =! =! =! =! =! .U +w st *# *# *# *# *# *# *# *# ",
"!4 !4 !4 !4 !4 !4 |Q 1Q 1Q 1Q 9A YS YS YS YS YS YS YS YS YS YS YS YS YS YS #U #U $U $U $U $U $U $U $U $U cU VQ dU *U w4 FP FP FP FP eU FO {B ;U fU 9Q 9Q 9Q 9Q 9Q R! &< 8: *< 0: a: E~ z  A  `. F  9. n+ %+ U+ U+ D@ /# ~@ E@ (# S# <$ <$ <$ <$ <$ F$ -% 9% k% v% O% ^& z& R& j= 6j '; ]; 8; E; Y- Q= gU C, 7U LR jJ GE  8 8m k' b) 8! F~ M8  _ ;< ;< ;< ;< ;< ;< ;< ;< ;< ;< 3| ~~ }% @5 u6 ~t .p n+ ;h :t AN B( ;< ;< ;< ;< ;< ;< ;< ;< ;< ;< ;< ;< ;< ;< ;< ;< ;< ;< ;< ;< ;< ;< ;< ;< #/ #/ ;< 2[ >8 ,) .8 /6 '5 '5 35 <% D5 3| ;< ;< ;< ;< ;< ;< ;< ;< ;< ;< ;< ;< ;< ;< ;< ;< ;< ;< ;< ;< ;< ;< ;< ;< ;< ;< ;< ;< ;< ;< ;< ;< ;< ;< ;< ;< ;< ;< ;< ;< ;< ;< ;< ;< ;< ;< ;< ;< ;< ;< ;< ;< ;< ;< ;< ;< ;< ;< ;< ;< ;< ;< ;< ;< ;< ;< ;< ;< ;< ;< ;< ;< ;< ;< ;< ;< ;< ;< ;< ;< ;< ;< ;< ;< ;< ;< ;< ;< ;< ;< ;< ;< ;< ;< ;< ;< ;< ;< ;< ;< ;< ;< ;< ;< ;< ;< ;< ;< ;< ;< ;< ;< ;< ;< ;< ;< ;< ;< ;< ;< ;< ;< ;< ;< ;< ;< ;< ;< ;< ;< ;< ;< ;< ;< ;< ;< ;< ;< ;< ;< ;< ;< ;< ;< ;< ;< ;< ;< ;< ;< ;< ;< ;< ;< ;< ;< ;< ;< ;< ;< ;< ;< ;< ;< 3| g] @) E5 +5 E5 +7 JB +8  8 #) k% wz }~ D5 ;< ;< ;< 3| #/ #/ 3| #/ #/ ;< ;< ;< ;< ;< ;< ;< ;< ;< ;< ;< c_ ;< )~ S! 9. C3 C3 C3 Pk [$ 7( 3| c_ ;< ;< ;< ;< ;< ;< ;< ;< ;< ;< ;< 3% @w K6 25 YD FD /7 Z. ;8 ]k J7 gq XD IT E& &, X- ]; 8; <; ); 5- *= !I hU Jo ]H lo =C Pr (J aL iU AL 6O oo po po po po po po ]H mo JK 6O jU  L =K -q po po po po %J dJ _) M< 0[ m[ m[ WT XT XT XT XT XT XT XT XT XT XT XT XT XT XT kU wT wT wT wT xT }T }T }T }T }T }T 1T `O `O `O `O `O co =! =! =! =! =! =! =! =! =! =! +U .U j& *# *# *# *# *# *# *# *# *# ",
"!4 !4 !4 !4 !4 Xz 1Q 1Q 1Q XS YS YS YS YS YS YS YS YS YS YS YS YS YS YS YS #U #U $U $U $U $U $U $U $U $U $U lU *U *U A+ FP FP FP FP FP FO ;U ;U fU .R 9Q 9Q 9Q 9Q [) &< 8: *< 0: a: E~ z  A  `. F  9. n+ %+ U+ U+ D@ /# ~@ E@ (# S# <$ <$ <$ <$ <$ F$ -% %% k% v% P% ^& ]* _*  = ]s '; 0; E; [; Y- z- mU P* m, LR jJ GE  8 8m k' b) 8! F~ M8  _ ;< ;< ;< ;< ;< ;< ;< ;< ;< ;< 3| ~~ }% n5 u6 ~t .p n+ ;h :t AN B( ;< ;< ;< ;< ;< ;< ;< ;< ;< ;< ;< ;< ;< ;< ;< ;< ;< ;< ;< ;< ;< ;< w/ w/ ;< GH vz &)  8 35 25 '5 '5 '5 J6 2m k% }w 3| ;< ;< ;< w/ ;< ;< ;< ;< ;< ;< ;< ;< ;< ;< ;< ;< ;< ;< ;< ;< ;< ;< ;< ;< ;< ;< ;< ;< ;< ;< ;< ;< ;< ;< ;< ;< ;< ;< ;< ;< ;< ;< ;< ;< ;< ;< ;< ;< ;< ;< ;< ;< ;< ;< ;< ;< ;< ;< ;< ;< ;< ;< ;< ;< ;< ;< ;< ;< ;< ;< ;< ;< ;< ;< ;< ;< ;< ;< ;< ;< ;< ;< ;< ;< ;< ;< ;< ;< ;< ;< ;< ;< ;< ;< ;< ;< ;< ;< ;< ;< ;< ;< ;< ;< ;< ;< ;< ;< ;< ;< ;< ;< ;< ;< ;< ;< ;< ;< ;< ;< ;< ;< ;< ;< ;< ;< ;< ;< ;< ;< ;< ;< ;< ;< ;< ;< ;< ;< ;< ;< ;< ;< ;< ;< ;< ;< ;< ;< ;< ;< ;< ;< ;< ;< ;< ;< ;< ;< ;< ;< ;< ;< 3| D5 j% C6 25 '5 25 25 '5 '5 25 /6 3n E- &K nU 1% >8 }~ D5 D5 D5 ;< ;< ;< #/ #/ #/ ;< ;< ;< ;< ;< ;< ;< ;< c_ ;< )~ S! 9. C3 C3 C3 Pk [$ 7( 3| c_ ;< ;< ;< ;< ;< ;< ;< ;< ;< ;< ;< >8 yx &8 25 YD FD /7 Z. ;8 ]k J7 @s XD JJ dQ e6 oU pU 1> E; ); 7- == !I hU qU ]H lo 8q xG 6O -Q LP 'L rU LF =K po po po po ]H sF +O /s hG jG sP ]U lo po po po po %J dJ _) M< 0[ m[ m[ WT XT XT XT XT XT XT XT XT XT XT XT XT XT XT XT t' wT wT wT sU }T }T }T }T }T tU `O `O `O `O `O `O =! =! =! =! =! =! =! =! =!  . %n to .U uU *# *# *# *# *# *# *# *# *# ",
"!4 !4 T4 Va Va 1Q 1Q 1Q QQ YS YS YS YS YS YS YS YS YS YS YS YS YS YS YS YS #U #U Gq $U mi mi mi $U $U $U $U vU wU xU yU FP FP FP FP FP zU ;U ;U AU +R 9Q 9Q 9Q 9Q [) &< 8: *< 0: a: E~ z  A  `. F  9. n+ %+ U+ U+ D@ /# ~@ E@ (# S# <$ <$ <$ <$ <$ F$ Y$ %% 1% v% P% /& ]* _*  = ]s <> *> [; }; BU !, -= P* m, LR .I GE  8 8m k' b) 8! F~ M8  _ ;< ;< ;< ;< ;< ;< ;< ;< ;< ;< 3| ~~ }% @5 u6 ~t .p n+ ;h :t AN B( ;< ;< ;< ;< ;< ;< ;< ;< ;< ;< ;< ;< ;< ;< ;< ;< ;< ;< ;< ;< ;< 3| ;< .: 3% %) g6 2n E5 '5 '5 25 25 25 25 E5 2m |% wz wz >8 }_ 2[ ;< ;< ;< ;< ;< ;< ;< ;< ;< ;< ;< ;< ;< ;< ;< ;< ;< ;< ;< ;< ;< ;< ;< ;< ;< ;< ;< ;< ;< ;< ;< ;< ;< ;< ;< ;< ;< ;< ;< ;< ;< ;< ;< ;< ;< ;< ;< ;< ;< ;< ;< ;< ;< ;< ;< ;< ;< ;< ;< ;< ;< ;< ;< ;< ;< ;< ;< ;< ;< ;< ;< ;< ;< ;< ;< ;< ;< ;< ;< ;< ;< ;< ;< ;< ;< ;< ;< ;< ;< ;< ;< ;< ;< ;< ;< ;< ;< ;< ;< ;< ;< ;< ;< ;< ;< ;< ;< ;< ;< ;< ;< ;< ;< ;< ;< ;< ;< ;< ;< ;< ;< ;< ;< ;< ;< ;< ;< ;< ;< ;< ;< ;< ;< ;< ;< ;< ;< ;< ;< ;< ;< ;< ;< ;< ;< ;< ;< ;< ;< ;< ;< ;< ;< ;< ;< ;< ;< 3| D5 |% +8 E5 25 25 25 25 '5 '5 '5 '5 Y7 U6 K6 2n +8 @w $y YA %) |% 1% 1% >| uH }~ D5 }w ;< w/ ;< #/ ;< ;< #/ c_ Bx )~ S! 9. C3 C3 C3 Pk [$ 7( 3| c_ ;< ;< ;< ;< ;< ;< ;< ;< ;< ;< ;< .: YA Z7 t6 YD FD /7 Z. ;8 ]k J7 @s XD .K 7R e6 oU pU E; E; ); 7- -= !I CU qU vO 3r 9P wS qL !Q DU EU PO _L FU No po po po 4r xG xO LO =H GU HU IU 8U vO po po po %J dJ _) M< 0[ m[ m[ WT XT XT XT XT XT XT XT XT XT XT XT XT XT XT XT @2 wT wT wT JU }T }T }T }T }T KU `O `O `O `O `O `O =! =! =! =! =! =! =! =! =! ar to LU Zr Hm *# *# *# *# *# *# *# *# *# ",
"1Q 1Q 1Q 1Q 1Q 1Q 1Q 1Q XS YS YS YS YS YS YS YS YS YS YS YS YS YS YS YS YS #U #U #U #U #U #U #U #U MU $U $U $U NU OU PU =U FP FP FP FP QU ;U ;U RU RU SU 9Q 9Q 9Q [) &< 8: *< 0: a: E~ z  A  `. F  9. n+ %+ U+ U+ D@ /# ~@ E@ (# S# <$ <$ <$ <$ <$ F$ Y$ %% 1% z% P% /& ]* _* i= `i d; ^; }; |; TU !, UU [L VU WU .I XU  8 8m k' b) 8! F~ M8  _ ;< ;< ;< ;< ;< ;< ;< ;< ;< ;< 3| _{ <% C6 E5 ~t .p n+ ~8 o) zs (6 ~~ ~~ ~~ ~~ ~~ ~~ ~~ _{ _{ _{ _{ _{ _{ _{ _{ _{ _{ _{ _{ _{ _{ g] 5m &K 2m /6 25 '5 '5 t6 25 25 25 25 25 '5 25 C6 4m o'  8 `7 5m }w ;< ;< ;< ;< ;< ;< ;< ;< ;< ;< ;< ;< ;< ;< ;< ;< ;< ;< ;< ;< ;< ;< ;< ;< ;< ;< ;< ;< ;< ;< ;< ;< ;< ;< ;< ;< ;< ;< ;< ;< ;< ;< ;< ;< ;< ;< ;< ;< ;< ;< ;< ;< ;< ;< ;< ;< ;< ;< ;< ;< ;< ;< ;< ;< ;< ;< ;< ;< ;< ;< ;< ;< ;< ;< ;< ;< ;< ;< ;< ;< ;< ;< ;< ;< ;< ;< ;< ;< ;< ;< ;< ;< ;< ;< ;< ;< ;< ;< ;< ;< ;< ;< ;< ;< ;< ;< ;< ;< ;< ;< ;< ;< ;< ;< ;< ;< ;< ;< ;< ;< ;< ;< ;< ;< ;< ;< ;< ;< ;< ;< ;< ;< ;< ;< ;< ;< ;< ;< ;< ;< ;< ;< ;< ;< ;< ;< ;< ;< ;< ;< ;< ;< ;< ;< ;< 3| ;< &D 2m E5 25 mm km lm lm lm lm lm '5 `6 `6 `6 '5 '5 '5 +5 J6 /6 N4 Z  n5 v4 o' @) $) [% O, 6m }_ _{ _{ _{ _{ }w _{ hr E@ C3 C3 C3 C3 Pk [$ 7( 3| c_ ;< ;< ;< ;< ;< ;< ;< ;< ;< ;< ;< D5 |% 2n '5 YD FD /7 Z. ;8 ]k J7 @s !E .K YU ZU `U *> }; }; [> 7- -= 8* CU qU ]H &p @G xG  V .V +V @V #V $V ZK }o Lo po =C wS %V KF &V *V =V xS -V ;V >V Lo po po %J dJ _) M< 0[ m[ m[ WT XT XT XT XT XT XT XT XT XT XT XT XT XT XT XT ZT wT wT wT ,V 'V }T }T }T }T )V `O `O `O `O `O ;P =! =! =! =! =! =! =! =! !V to to br 85 Hm !n *# *# *# *# *# *# *# *# ",
"1Q 1Q 1Q 1Q 1Q 1Q 1Q %7 YS YS YS YS YS YS YS YS YS YS YS YS YS YS YS YS YS #U #U #U #U #U #U #U #U #U ~V $U $U {V OU OU ]V FP FP FP FP QU ;U ;U RU RU .R 9Q 9Q 9Q [) &< 8: *< 0: a: E~ z  A  `. F  9. n+ %+ U+ U+ D@ /# ~@ E@ (# S# <$ <$ <$ <$ <$ F$ Y$ %% 1% z% P% /& ]* F* i= `i d; ^; G; |; TU <, UU R* ^V LR .I XU  8 8m k' od 8! F~ M8  _ ;< ;< ;< ;< ;< ;< ;< ;< ;< ;< 3| c: $) 35 25 ~t .p G  D  %+ &$ Y! /V (V (V (V (V (V (V (V l~ (V (V (V (V (V (V (V (V (V 7( 7( 7( jr Z$ {o Oa 69 mm mm 25 t6 25 25 25 25 25 25 '5 25 25 25 25 Z  |% }w 3| ;< ;< ;< ;< ;< ;< ;< ;< ;< ;< ;< ;< ;< ;< ;< ;< ;< ;< ;< ;< ;< ;< ;< ;< ;< ;< ;< ;< ;< ;< ;< ;< ;< ;< ;< ;< ;< ;< ;< ;< ;< ;< ;< ;< ;< ;< ;< ;< ;< ;< ;< ;< ;< ;< ;< ;< ;< ;< ;< ;< ;< ;< ;< ;< ;< ;< ;< ;< ;< ;< ;< ;< ;< ;< ;< ;< ;< ;< ;< ;< ;< ;< ;< ;< ;< ;< ;< ;< ;< ;< ;< ;< ;< ;< ;< ;< ;< ;< ;< ;< ;< ;< ;< ;< ;< ;< ;< ;< ;< ;< ;< ;< ;< ;< ;< ;< ;< ;< ;< ;< ;< ;< ;< ;< ;< ;< ;< ;< ;< ;< ;< ;< ;< ;< ;< ;< ;< ;< ;< ;< ;< ;< ;< ;< ;< ;< ;< ;< ;< ;< ;< ;< ;< 3| ;< Le o' /6 mm u4 2G 8J 8J kJ kJ kJ kJ kJ _V _V _V tJ tJ cK cK tJ :V :V :V H7 H7 H7 15 Go =n ]i `k 9% ': #* j} ': X! <V [V ]# C3 C3 C3 C3 Pk [$ 7( 3| c_ ;< ;< ;< ;< ;< ;< ;< ;< ;< ;< ;< ;< 5m 3n 25 YD FD /7 Z. ;8 ]k J7 @s !E .K mS ZU W- *> &> &> !; 7- }V 8* CU qU #F WK Nq |V 1V 2V 3V 4V 5V 0T 6V ,R RG po EK dJ 7V 8V 9V 0V aV bV cV dV Fn BI Lo po %J dJ _) M< 0[ m[ m[ WT XT XT XT XT XT XT XT XT XT XT XT XT XT XT XT wT wT wT wT ,V eV }T }T }T }T fV `O `O `O `O `O [m =! =! =! =! =! =! =!  . lp to to gV  | Hm d> *# *# *# *# *# *# *# *# ",
"1Q 1Q 1Q 1Q 1Q 1Q 1Q YS YS YS YS YS YS YS YS YS YS YS YS YS YS YS YS YS YS hV #U #U #U #U #U #U #U #U iV $U $U )o NU OU FP FP FP FP FP QU ;U ;U jV RU RU 9Q 9Q 9Q [) &< 8: *< 0: a: E~ z  A  `. F  9. n+ %+ U+ U+ D@ /# ~@ E@ (# S# <$ <$ <$ <$ <$ F$ Y$ %% 1% z% P% /& ]* F* kV `i ); /; |; 1; lV K= d= R* M& IT .I GE !v 8m k' od 8! F~ M8  _ ;< ;< ;< ;< ;< ;< ;< ;< ;< ;< 3| }_ o' /6 25 ~t 0) 9. C3 o) ^u zt ss ss ss ss ss ss ss ss ss ss ts ts ts ts ts ts ts ts ts Gt Gt ss (t I' C- C- ,> Ng =n 69 mm mm 25 25 25 25 25 25 `6 `6 t6 +8 5m ;< ;< ;< ;< ;< ;< ;< ;< ;< ;< ;< ;< ;< ;< ;< ;< ;< ;< ;< ;< ;< ;< ;< ;< ;< ;< ;< ;< ;< ;< ;< ;< ;< ;< ;< ;< ;< ;< ;< ;< ;< ;< ;< ;< ;< ;< ;< ;< ;< ;< ;< ;< ;< ;< ;< ;< ;< ;< ;< ;< ;< ;< ;< ;< ;< ;< ;< ;< ;< ;< ;< ;< ;< ;< ;< ;< ;< ;< ;< ;< ;< ;< ;< ;< ;< ;< ;< ;< ;< ;< ;< ;< ;< ;< ;< ;< ;< ;< ;< ;< ;< ;< ;< ;< ;< ;< ;< ;< ;< ;< ;< ;< ;< ;< ;< ;< ;< ;< ;< ;< ;< ;< ;< ;< ;< ;< ;< ;< ;< ;< ;< ;< ;< ;< ;< ;< ;< ;< ;< ;< ;< ;< ;< ;< ;< ;< ;< ;< ;< ;< ;< ;< ;< ;< ;< D5 6B Iq ~: 25 69 k' =+ %+ ,@ mV mV mV mV mV R# Y@ Y@ Y@ Y@ (7 (7 (7 (7 =$ nV nV nV 4f 4f 4f oV pV pV pV qV zM qV yM %$ Bt -t b@ C3 ~8 C3 C3 Pk [$ 7( 3| c_ ;< ;< ;< ;< ;< ;< ;< ;< ;< ;< ;< ;< >| g6 E5 YD FD /7 Z. ;8 ]k Jq @s !E .K mS *, W- ^; G; |; !; 8- d= 8* CU qU 1L EK rV sV 8M tV uV vV wV xV yV zV MI oo =Q Pr AV BV CV DV EV FV GV HV IV zL RG po %J dJ _) M< 0[ m[ m[ WT XT XT XT XT XT XT XT XT XT XT XT XT XT XT kU wT wT wT JV ,V KV }T }T }T }T fV `O `O `O `O `O 6y =! =! =! =! =! =! =! SP to to LV dr Hm Hm Hm n6 *# *# *# *# *# *# *# ",
"1Q 1Q 1Q 1Q 1Q 1Q XS YS YS YS YS YS YS YS YS YS YS YS YS YS YS YS YS YS YS hV #U #U #U #U #U #U #U #U Gq $U $U $U $U MV FP FP FP FP FP QU ;U ;U fU RU RU .R 9Q 9Q [) &< 8: *< 0: a: E~ z  A  `. F  9. n+ %+ U+ U+ D@ /# ~@ E@ (# S# <$ <$ <$ <$ <$ F$ Y$ %% 1% z% P% /& ]* p* .= `i ); /; 1; 3; V- :u d= R* /* IT .I GE !v 1g k' t4 E~ F~ M8  _ ;< ;< ;< ;< ;< ;< ;< ;< ;< 3| {I L5 n5 J6 25 ~t 0) n+ o) NV ]t zt /t /t /t /t /t /t /t /t /t /t /t /t /t /t /t /t /t /t /t /t /t /t /u At ts ts ss ^t T! OV Jh kJ M4 's 25 25 25 25 25 25 35 %) }~ 3| ;< ;< ;< ;< ;< ;< ;< ;< ;< ;< ;< ;< ;< ;< ;< ;< ;< ;< ;< ;< ;< ;< ;< ;< ;< ;< ;< ;< ;< ;< ;< ;< ;< ;< ;< ;< ;< ;< ;< ;< ;< ;< ;< ;< ;< ;< ;< ;< ;< ;< ;< ;< ;< ;< ;< ;< ;< ;< ;< ;< ;< ;< ;< ;< ;< ;< ;< ;< ;< ;< ;< ;< ;< ;< ;< ;< ;< ;< ;< ;< ;< ;< ;< ;< ;< ;< ;< ;< ;< ;< ;< ;< ;< ;< ;< ;< ;< ;< ;< ;< ;< ;< ;< ;< ;< ;< ;< ;< ;< ;< ;< ;< ;< ;< ;< ;< ;< ;< ;< ;< ;< ;< ;< ;< ;< ;< ;< ;< ;< ;< ;< ;< ;< ;< ;< ;< ;< ;< ;< ;< ;< ;< ;< ;< ;< ;< ;< ;< ;< ;< ;< ;< ;< D5 &D v4 /6 '5 25 k0 [# G  Ct {u ~u PV PV Et PV PV PV ;t ;t zt (t (t /t /t /t Ft Ft Ft ts ts ts ts ^t ^t ^t QV zt zt 'u ]t ]t xu RV b@ C3 ~8 E  o+ [$ 7( 3| c_ ;< ;< ;< ;< ;< ;< ;< ;< ;< ;< ;< ;< }~ i% N4 Wu FD /7 Z. ;8 ]k J7 @s !E .K mS *, lV |> |; 2> c; 8- d= `I CU ko @G SV E1 TV %R UV VV WV XV YV ZV `V  W MO (J !p .W +W @W #W $W %W &W *W rV *Q [F oo %J dJ _) M< 0[ m[ m[ WT XT XT XT XT XT XT XT XT XT XT XT XT XT XT _U wT wT wT JV ,V ,V }T }T }T }T =W `O `O `O `O `O -W =! =! =! =! =! =! =! ;W to to +w Yr Hm Hm Hm Hm p} q.  .  .  . =} p} ",
"YS 9A =u QQ WS 9A YS YS YS YS YS YS YS YS YS YS YS YS YS YS YS YS YS YS YS >W #U #U #U #U #U #U #U #U BR $U $U $U }U FP FP FP FP FP FP -U ;U ;U fU RU RU RU SU 9Q [) &< 8: *< 0: a: E~ z  A  `. F  9. n+ %+ U+ U+ D@ /# ~@ E@ (# S# <$ <$ <$ <$ <$ F$ Y$ %% 1% z% P% H, W& p* .= Oh ); ,W 2; 'W )W W= !W ~W /* IT {W GE !v 1g k' t4 E~ F~ M8  _ ;< ;< ;< ;< ;< ;< ;< ;< ;< #/ >| .) /6 25 25 >A C$ D@ NV zt ^t ts ts ts ts ts ts ts ts ts ts ts ts ts ts ts ts ts ts ts ts At At ^t ^t ^t ts ts ss ]W ^u D@ #+ a@ 2g :V 25 U6 25 25 25 E5 o' z_ w/ ;< ;< ;< ;< ;< ;< ;< ;< ;< ;< ;< ;< ;< ;< ;< ;< ;< ;< ;< ;< ;< ;< ;< ;< ;< ;< ;< ;< ;< ;< ;< ;< ;< ;< ;< ;< ;< ;< ;< ;< ;< ;< ;< ;< ;< ;< ;< ;< ;< ;< ;< ;< ;< ;< ;< ;< ;< ;< ;< ;< ;< ;< ;< ;< ;< ;< ;< ;< ;< ;< ;< ;< ;< ;< ;< ;< ;< ;< ;< ;< ;< ;< ;< ;< ;< ;< ;< ;< ;< ;< ;< ;< ;< ;< ;< ;< ;< ;< ;< ;< ;< ;< ;< ;< ;< ;< ;< ;< ;< ;< ;< ;< ;< ;< ;< ;< ;< ;< ;< ;< ;< ;< ;< ;< ;< ;< ;< ;< ;< ;< ;< ;< ;< ;< ;< ;< ;< ;< ;< ;< ;< ;< ;< ;< ;< ;< ;< ;< ;< ;< ;< ;< ;< 3| D5 $) N4 25 25 E5 Oa xH #+ s1 :t zu zt ss >t &s &s us us us us >t >t >t >t >t >t >t >t >t >t >t >t >t >t >t us us ts ts ts ts ts (t (u !t Pk C3 o+ S# 7( 3| c_ ;< ;< ;< ;< ;< ;< ;< ;< ;< ;< ;< ;< D5 &D +8 Wu FD /7 Z. ;8 ]k J7 @s !E .K mS *, i; /; 1; 3; => 8- d= 6c ^L <t Nq ^W /W (W _W :W <W [W }W |W 1W 2W oI 3W xO 4W 5W iQ fN 6W 7W 8W 9W 0W aW bW 8U No %J dJ _) M< 0[ m[ m[ WT XT XT XT XT XT XT XT XT XT XT XT XT XT XT ZT wT wT wT JV ,V ,V >2 }T }T }T =W `O `O `O `O `O ox =! =! =! =! =! =! Bj to to LV +w Hm Hm Hm Hm Hm Hm Hm Hm Hm Hm Hm Hm ",
"YS YS YS YS YS YS YS YS YS YS YS YS YS YS YS YS YS YS YS YS YS YS YS YS YS >W #U #U #U #U #U #U #U #U BR $U $U $U w4 FP FP FP FP FP FP cW ;U ;U dW RU RU RU RU 9Q [) &< 8: *< 0: a: E~ z  A  `. F  9. n+ %+ U+ U+ D@ /# ~@ E@ (# S# <$ <$ <$ <$ <$ F$ Y$ %% 2% z% P% H, B& :* += Oh :> 9; 'W 5; S- 7c !W ~W >z IT {W GE %8 =n k' t4 E~ F~ M8  _ ;< ;< ;< ;< ;< ;< ;< ;< 3| _{ $) N4 25 25 25 mm ]k Bt ]t eW zt zt zt zt zt zt zt zt zt zt zt zt zt zt zt zt zt zt zt zt zt zt zt zt zt (t /t (t xu 9! %+ L4 ~8 ch #+ fW 25 X7 25 25 E5 @5 k% ;< 3| ;< ;< ;< ;< ;< ;< ;< ;< ;< ;< ;< ;< ;< ;< ;< ;< ;< ;< ;< ;< ;< ;< ;< ;< ;< ;< ;< ;< ;< ;< ;< ;< ;< ;< ;< ;< ;< ;< ;< ;< ;< ;< ;< ;< ;< ;< ;< ;< ;< ;< ;< ;< ;< ;< ;< ;< ;< ;< ;< ;< ;< ;< ;< ;< ;< ;< ;< ;< ;< ;< ;< ;< ;< ;< ;< ;< ;< ;< ;< ;< ;< ;< ;< ;< ;< ;< ;< ;< ;< ;< ;< ;< ;< ;< ;< ;< ;< ;< ;< ;< ;< ;< ;< ;< ;< ;< ;< ;< ;< ;< ;< ;< ;< ;< ;< ;< ;< ;< ;< ;< ;< ;< ;< ;< ;< ;< ;< ;< ;< ;< ;< ;< ;< ;< ;< ;< ;< ;< ;< ;< ;< ;< ;< ;< ;< ;< ;< ;< ;< ;< ;< ;< ;< 3| D5 $) 35 25 25 E5 Oa Jh #+ D  c/ S+ Ht Bt /t ts ts /t /t /t /t /t /t /t /t /t /t /t /t /t /t /t /t /t /t /t /t /t /t /t /t /t /t /t zt yt -t o) Pk f# )~ 3| c_ ;< ;< ;< ;< ;< ;< ;< ;< ;< ;< ;< ;< ;< wz .8 gW FD /7 Z. ;8 ]k J7 @s hE 8N q* *, V- (; 2; 3; hW 8- d= 6c ^L <t Nq {N #V iW jW kW (S lW mW uL nW oW un $G 6O pW qW rW sW (N tW 6W uW vW wW xW NI Lo %J dJ _) M< 0[ m[ m[ WT XT XT XT XT XT XT XT XT XT XT XT XT XT yW wT wT wT wT J( ,V ,V zW }T }T }T =W `O `O `O `O `O >' =! =! =! =! =! =! <k to to AW 95 Hm Hm Hm Hm Hm Hm Hm Hm Hm Hm Hm Hm ",
"YS YS YS YS YS YS YS YS YS YS YS YS YS YS YS YS YS YS YS YS YS YS YS YS YS ku #U #U #U #U #U #U #U #U BR $U $U $U /O FP FP FP FP FP FP BW ;U ;U CW RU RU RU RU RU [) &< 8: *< 0: a: E~ z  A  `. F  9. n+ %+ U+ U+ D@ /# ~@ E@ (# S# <$ <$ <$ <$ <$ F$ Y$ %% 2% z% P% H, B& :* += mg :> DW 4; 5; EW x- FW o, >z GW AJ wx %8 =n k' t4 E~ F~ M8  _ ;< ;< ;< ;< ;< ;< ;< ;< ;< 5m R6 E5 25 25 25 jm J' HW IW JW JW JW JW JW JW JW JW JW JW JW JW JW JW JW JW JW JW JW JW JW JW JW JW JW IW KW uu PV D@ s1 D  C3 C3 C3 *+ fW 25 K6 25 25 +7 @) }~ 3| ;< ;< ;< ;< ;< ;< ;< ;< ;< ;< ;< ;< ;< ;< ;< ;< ;< ;< ;< ;< ;< ;< ;< ;< ;< ;< ;< ;< ;< ;< ;< ;< ;< ;< ;< ;< ;< ;< ;< ;< ;< ;< ;< ;< ;< ;< ;< ;< ;< ;< ;< ;< ;< ;< ;< ;< ;< ;< ;< ;< ;< ;< ;< ;< ;< ;< ;< ;< ;< ;< ;< ;< ;< ;< ;< ;< ;< ;< ;< ;< ;< ;< ;< ;< ;< ;< ;< ;< ;< ;< ;< ;< ;< ;< ;< ;< ;< ;< ;< ;< ;< ;< ;< ;< ;< ;< ;< ;< ;< ;< ;< ;< ;< ;< ;< ;< ;< ;< ;< ;< ;< ;< ;< ;< ;< ;< ;< ;< ;< ;< ;< ;< ;< ;< ;< ;< ;< ;< ;< ;< ;< ;< ;< ;< ;< ;< ;< ;< ;< ;< ;< ;< ;< ;< 3| D5 [% Z  J6 25 E5 Oa Jh #+ E  c/ ~8 E  Pk w# ss uu LW LW LW LW LW LW LW LW LW LW LW LW LW LW LW LW LW LW LW LW LW LW LW LW LW LW LW LW MW $s m; w# m; 7( 3| c_ ;< ;< ;< ;< ;< ;< ;< ;< ;< ;< ;< ;< ;< .: @y K8 FD /7 Z. ;8 ]k Jq *t hE BN l, NW V- 9; 3; 5; OW j- !W 0* ^L ko PW SV |M QW RW SW TW oN fN UW VW WW uI XW DF YW ZW `W  X BS .X /N +X @X #X $X LF No %J dJ _) M< 0[ m[ m[ WT XT XT XT XT XT XT XT XT XT XT XT XT XT t' wT wT wT wT J( ,V ,V %X }T }T &X =W *X `O `O `O `O =! =! =! =! =! =! =! Wm to =X .U uU Hm Hm Hm Hm Hm Hm Hm Hm Hm Hm Hm Hm ",
"YS YS YS YS YS YS YS YS YS YS YS YS YS YS YS YS YS YS YS YS YS YS YS YS YS DT #U #U #U #U #U #U #U #U -X $U $U $U N7 FP FP FP FP FP FP BW ;U ;U {B RU RU RU RU RU [) &< 8: *< 0: a: E~ z  A  `. F  9. n+ %+ U+ U+ D@ /# ~@ E@ (# S# <$ <$ <$ <$ <$ F$ Y$ %% 2% z% P% H, t0 :* += mg [> 8; ;X H; >X w- ,X S* O& GW AJ wx %8 =n k' t4 E~ F~ M8  _ ;< ;< ;< ;< ;< ;< ;< w/ g] @) +7 25 25 25 lm $8 'X )X !X ~X ~X ~X ~X ~X ~X ~X ~X ~X ~X ~X ~X ~X ~X ~X ~X ~X ~X ~X ~X ~X ~X ~X ~X !X {X ]X ^X %s L4 8. C3 C3 C3 s4 *+ /X J6 K6 25 E5 g6 vz ;< ;< ;< ;< ;< ;< ;< ;< ;< ;< ;< ;< ;< ;< ;< ;< ;< ;< ;< ;< ;< ;< ;< ;< ;< ;< ;< ;< ;< ;< ;< ;< ;< ;< ;< ;< ;< ;< ;< ;< ;< ;< ;< ;< ;< ;< ;< ;< ;< ;< ;< ;< ;< ;< ;< ;< ;< ;< ;< ;< ;< ;< ;< ;< ;< ;< ;< ;< ;< ;< ;< ;< ;< ;< ;< ;< ;< ;< ;< ;< ;< ;< ;< ;< ;< ;< ;< ;< ;< ;< ;< ;< ;< ;< ;< ;< ;< ;< ;< ;< ;< ;< ;< ;< ;< ;< ;< ;< ;< ;< ;< ;< ;< ;< ;< ;< ;< ;< ;< ;< ;< ;< ;< ;< ;< ;< ;< ;< ;< ;< ;< ;< ;< ;< ;< ;< ;< ;< ;< ;< ;< ;< ;< ;< ;< ;< ;< ;< ;< ;< ;< ;< ;< ;< ;< ;< ;< ;<  _ n5 E5 25 E5 Oa Jh #+ E  C3 C3 D  8. b@ (V (X _X :X <X <X <X <X <X <X <X <X <X <X <X <X <X <X <X <X <X <X <X <X <X <X <X <X <X <X [X -v 4( Y! 4( Sp ;< ;< ;< ;< ;< ;< ;< ;< ;< ;< ;< ;< ;< ;< ;< }~ qn mm L8 /7 Z. ;8 ]k Jq *t jJ BN 7U =, )W 9; 5; ;X 6U 0- >= 0* }X %p 1L &p |X 1X 2X 3X fN qN RN 4X 5X 6X [o ip WK 7X 8X 9X JN 0X aX !T bX cX dX *Q 'R oo %J dJ _) M< 0[ m[ m[ WT XT XT XT XT XT XT XT XT XT XT XT XT XT ZT wT wT wT wT eX ,V ,V ,V tU }T fX =W gX `O `O `O [m =! =! =! =! =! =! y* to to dr dr Hm Hm Hm Hm Hm Hm Hm Hm Hm Hm Hm Hm Hm ",
"YS YS YS YS YS YS YS YS YS YS YS YS YS YS YS YS YS YS YS YS YS YS YS YS YS DT #U #U #U #U #U #U #U #U mi $U $U $U ET FP FP FP FP FP FP BW >U ;U >U RU RU RU RU RU [) &< 8: *< 0: a: E~ z  A  `. F  9. n+ %+ U+ U+ D@ /# ~@ E@ (# S# <$ <$ <$ <$ <$ F$ Y$ %% 2% z% X% _& B& :* @= mg !; 8; 3> H; )J hX iX T* O& GW AJ wx %8 =n k' t4 E~ F~ M8  _ ;< ;< ;< ;< ;< ;< ;< w/ 1% +8 J6 25 25 25 !x jX kX .v mv hv hv hv hv lX mX mX mX mX mX mX mX mX mX mX mX mX mX mX mX mX mX mX mX lX mv nX !X oX L4 8. C3 C3 C3 s4 *+ /X 25 U6 E5 @8  & V~ 3| ;< ;< ;< ;< ;< ;< ;< ;< ;< ;< ;< ;< ;< ;< ;< ;< ;< ;< ;< ;< ;< ;< ;< ;< ;< ;< ;< ;< ;< ;< ;< ;< ;< ;< ;< ;< ;< ;< ;< ;< ;< ;< ;< ;< ;< ;< ;< ;< ;< ;< ;< ;< ;< ;< ;< ;< ;< ;< ;< ;< ;< ;< ;< ;< ;< ;< ;< ;< ;< ;< ;< ;< ;< ;< ;< ;< ;< ;< ;< ;< ;< ;< ;< ;< ;< ;< ;< ;< ;< ;< ;< ;< ;< ;< ;< ;< ;< ;< ;< ;< ;< ;< ;< ;< ;< ;< ;< ;< ;< ;< ;< ;< ;< ;< ;< ;< ;< ;< ;< ;< ;< ;< ;< ;< ;< ;< ;< ;< ;< ;< ;< ;< ;< ;< ;< ;< ;< ;< ;< ;< ;< ;< ;< ;< ;< ;< ;< ;< ;< ;< ;< ;< ;< ;< ;< ;< 3| }_ .8 E5 25 E5 Oa Jh #+ E  C3 C3 C3 {w b@ pX qX rX sX tX tX tX tX tX tX tX tX tX tX tX tX tX tX tX tX tX tX tX tX tX tX tX tX uX vX wX xX _{ _{ 3| 3| ;< ;< ;< ;< ;< ;< ;< ;< ;< ;< ;< ;< ;< ;< ;< 2[ &) ZA L8 /7 Z. ;8 ]k Jq yX jJ BN 7U =, )W :; 3> H; ]; 0- FW zX }X vp 8P EK (J AX BX CX DX aT EX FX GX |N /q lo wS qL 0R HX IX JX KX LX MX NX zO ,R [F =K %J dJ _) M< 0[ m[ m[ WT XT XT XT XT XT XT XT XT XT XT XT XT kU wT wT wT wT wT OX ,V ,V ,V %X PX fX =W gX `O `O `O pp =! =! =! =! =! =! !V to to QX RX Hm Hm Hm Hm Hm Hm Hm Hm Hm Hm Hm Hm Hm ",
"}U #U #U #U hV >W @U YS YS YS YS YS YS YS YS YS YS YS YS YS YS YS YS YS YS SX #U #U #U #U #U #U #U TX $U $U $U $U UX FP FP FP FP FP FP BW {B ;U ;U RU RU RU RU RU [) &< 8: *< 0: a: E~ z  A  `. F  9. n+ %+ U+ U+ D@ /# ~@ E@ (# S# <$ <$ <$ <$ <$ F$ Y$ %% 2% z% X% 9& B& H* @= lh !; 1> H; I; )J VX '= o= O& .K AJ wx %8 =n k' t4 E~ F~ M8  _ ;< ;< ;< ;< ;< ;< ;< D5 &) Am 25 25 25 25 !x WX XX [w jv YX YX jv jv jv ZX `X ZX ZX ZX ZX ZX ZX ZX ZX ZX ZX ZX ZX ZX ZX ZX ZX ZX lX  Y Jw zv B] L4 8. C3 C3 C3 s4 *+ /X 25 U6 /6 $y }~ c_ w/ ;< ;< ;< ;< ;< ;< ;< ;< ;< ;< ;< ;< ;< ;< ;< ;< ;< ;< ;< ;< ;< ;< ;< ;< ;< ;< ;< ;< ;< ;< ;< ;< ;< ;< ;< ;< ;< ;< ;< ;< ;< ;< ;< ;< ;< ;< ;< ;< ;< ;< ;< ;< ;< ;< ;< ;< ;< ;< ;< ;< ;< ;< ;< ;< ;< ;< ;< ;< ;< ;< ;< ;< ;< ;< ;< ;< ;< ;< ;< ;< ;< ;< ;< ;< ;< ;< ;< ;< ;< ;< ;< ;< ;< ;< ;< ;< ;< ;< ;< ;< ;< ;< ;< ;< ;< ;< ;< ;< ;< ;< ;< ;< ;< ;< ;< ;< ;< ;< ;< ;< ;< ;< ;< ;< ;< ;< ;< ;< ;< ;< ;< ;< ;< ;< ;< ;< ;< ;< ;< ;< ;< ;< ;< ;< ;< ;< ;< ;< ;< ;< ;< ;< ;< ;< ;< ;< ;v 2[ YA N4 25 E5 Oa Jh #+ E  C3 C3 C3 .Y ]u +Y @Y #Y $Y %Y &Y &Y &Y &Y &Y &Y &Y &Y &Y &Y &Y &Y &Y &Y &Y &Y &Y &Y &Y &Y &Y &Y &Y *Y =Y ^w -Y #/ ;< a{ c_ c_ c_ ;< ;< ;< ;< ;< ;< ;< ;< ;< ;< ;< ;< ;< D5 |% 6C L8 /7 Z. 0) ]k R6 yX jJ BN 7U ;Y V- :; H; H; ]; a- FW zX }X vp ]H DF (J xO >Y ,Y 'Y )Y !Y ~Y {Y QG No po qL cO js ]Y ^Y /Y (Y _Y :Y <Y [Y VT Lo po %J dJ _) M< 0[ m[ m[ WT XT XT XT XT XT XT XT XT XT XT XT YT ZT wT wT wT wT wT g1 ,V ,V ,V ,V }Y |Y =W gX `O `O `O ox =! =! =! =! =! =! k6 to to 1Y Hm Hm Hm Hm Hm Hm Hm Hm Hm Hm Hm Hm Hm Hm ",
"#U #U #U #U #U #U #U #U 2Y ku ET YS YS YS YS YS YS YS YS YS YS YS YS YS YS YS #U #U #U #U #U #U #U BR $U $U $U $U $U /O FP FP FP FP FP BW {B ;U ;U 3Y RU RU RU RU [) &< 8: *< 0: a: E~ z  A  `. F  9. n+ %+ U+ U+ D@ /# ~@ E@ (# S# <$ <$ <$ <$ <$ F$ Y$ %% 2% f& X% 9& B& o* @= lh c; 1> I; J; g; .- '= o= IJ .K AJ wx %8 =n Jh t4 E~ F~ Pa  _ [< [< [< [< [< [< V~ 2[ YA +7 25 25 25 25 '5 Z7 4Y 5Y =w %w -w 6Y 7Y 8Y 9Y 9Y 9Y 9Y 9Y 9Y 9Y 9Y 9Y 9Y 9Y 9Y 9Y 9Y 9Y 9Y 9Y 9Y 9Y 0Y !w aY ]w 2~ L4 ~8 C3 C3 C3 s4 *+ /X +5 U6 @8 1% [< $/ [< [< [< [< [< [< [< [< [< [< [< [< [< [< [< [< [< [< [< [< [< [< [< [< [< [< [< [< [< [< [< [< [< [< [< [< [< [< [< [< [< [< [< [< [< [< [< [< [< [< [< [< [< [< [< [< [< [< [< [< [< [< [< [< [< [< [< [< [< [< [< [< [< [< [< [< [< [< [< [< [< [< [< [< [< [< [< [< [< [< [< [< [< [< [< [< [< [< [< [< [< [< [< [< [< [< [< [< [< [< [< [< [< [< [< [< [< [< [< [< [< [< [< [< [< [< [< [< [< [< [< [< [< [< [< [< [< [< [< [< [< [< [< [< [< [< [< [< [< [< [< [< [< [< [< [< [< [< D: 2% +8 E5 E5 k0 Jh #+ E  C3 C3 C3 Q8 o) Q6 bY cY dY eY eY eY eY eY eY eY eY eY eY eY eY eY eY eY eY eY eY eY eY eY eY eY eY eY eY fY 0{ ;< ;< c_ c_ c_ c_ c_ [< [< [< [< [< [< [< [< [< [< [< [< }w l% im L8 /7 Z. 0) ll R6 *t jJ 'K m, =, T- 8; gY gY 0; hY ,= a* }X vp ko wp AL dJ +O Io -q $F iY AO jY {H oo po mo EK WK 9K 1L kY lY mY <t {U ,R 'G oo po %J dJ _) M< 0[ m[ m[ WT XT XT XT XT XT XT XT XT XT yW ZT wT wT wT wT wT wT wT wT JV ,V ,V ,V ,V KU =W gX `O `O PQ co =! =! =! =! =! Bj to to to `r Hm Hm Hm Hm Hm Hm Hm Hm Hm Hm Hm Hm Hm Hm ",
"#U #U #U #U #U #U #U #U #U #U #U #U hV >W nY DT DT YS YS YS YS YS YS YS YS ET #U #U #U #U #U #U *} $U $U $U $U $U $U 'o FP FP FP FP FP BW {B ;U ;U fU RU RU RU RU [) &< 8: *< 0: a: E~ z  A  `. F  9. n+ %+ U+ U+ D@ /# ~@ E@ (# S# <$ <$ <$ <$ <$ F$ Y$ %% 2% z% .* 9& V& o* @= `- c; 1> #> @> oY pY qY U* Q& .K lF wx @y =n Jh t4 E~ F~ 79 6m [< [< [< [< [< [< [< }w }% Z  25 25 25 25 '5 +5 2n @w Q, vH 4% o% 8y rY l2 l2 l2 l2 l2 l2 l2 l2 l2 l2 l2 l2 l2 l2 l2 l2 l2 l2 l2 l2 Cw c_ 4( w# L4 C3 C3 C3 C3 s4 *+ /X sY ]o  8 6N $/ [< [< [< [< [< [< [< [< [< [< [< [< [< [< [< [< [< [< [< [< [< [< [< [< [< [< [< [< [< [< [< [< [< [< [< [< [< [< [< [< [< [< [< [< [< [< [< [< [< [< [< [< [< [< [< [< [< [< [< [< [< [< [< [< [< [< [< [< [< [< [< [< [< [< [< [< [< [< [< [< [< [< [< [< [< [< [< [< [< [< [< [< [< [< [< [< [< [< [< [< [< [< [< [< [< [< [< [< [< [< [< [< [< [< [< [< [< [< [< [< [< [< [< [< [< [< [< [< [< [< [< [< [< [< [< [< [< [< [< [< [< [< [< [< [< [< [< [< [< [< [< [< [< [< [< [< [< [< [< c_ .: g6 E5 J6 k0 Jh #+ E  C3 C3 C3 h3 S+ Y! t1 tY tY b: b: b: b: b: b: b: b: b: b: b: b: b: b: b: b: b: b: b: b: b: b: b: b: b: b: u1 *| c_ c_ c_ c_ c_ c_ c_ [< [< [< [< [< [< [< [< [< [< [< [< D: 3% im L8 /7 k+ 0) ll R6 *t .I 'K m, =, T- 8; I; #> 5R b- ,= a* }X vp uY lo 9J EN vY $J ,M FU BI BI tF po po po po sF JK 7V jU IK hG KI PG MG oo po po po %J dJ _) M< 0[ m[ m[ WT XT XT XT XT XT XT XT XT wY wT wT wT wT wT wT wT wT wT wT wT J( ,V ,V ,V KU =W gX `O `O k@ =! =! =! =! =! Te &7 Ao to to uU Hm Hm Hm Hm Hm Hm Hm Hm Hm Hm Hm Hm Hm Hm ",
"#U #U #U #U #U #U #U #U #U #U #U #U #U #U #U #U #U #U #U #U #U #U #U #U #U #U #U #U #U #U #U *} $U $U $U $U $U $U $U xY FP FP FP FP FP  R yY ;U ;U CW RU RU RU RU [) &< 8: *< 0: a: E~ z  A  `. F  9. n+ %+ U+ U+ D@ /# ~@ E@ (# S# <$ <$ <$ <$ <$ G$ .% %% 2% z% .* <& r* o* J= `- => [; J; @> oY zY qY V* Q& .K lF wx @y =n Jh t4 R{ F~ 79 6m [< [< [< [< [< [< [< w/ #y o' +7 J6 25 25 25 ~: $* _7 i% L5  _  _ b/ b/ z_ z_ z_ z_ z_ z_ z_ z_ z_ z_ z_ z_ z_ z_ z_ z_ z_ z_ z_ z_ z_ m{ :{ !@ s4 C3 C3 C3 C3 s4 *+ /X +5 &8 qn D: $/ [< [< [< [< [< [< [< [< [< [< [< [< [< [< [< [< [< [< [< [< [< [< [< [< [< [< [< [< [< [< [< [< [< [< [< [< [< [< [< [< [< [< [< [< [< [< [< [< [< [< [< [< [< [< [< [< [< [< [< [< [< [< [< [< [< [< [< [< [< [< [< [< [< [< [< [< [< [< [< [< [< [< [< [< [< [< [< [< [< [< [< [< [< [< [< [< [< [< [< [< [< [< [< [< [< [< [< [< [< [< [< [< [< [< [< [< [< [< [< [< [< [< [< [< [< [< [< [< [< [< [< [< [< [< [< [< [< [< [< [< [< [< [< [< [< [< [< [< [< [< [< [< [< [< [< [< [< [< [< a{ 2[ @) /6 J6 k0 Jh #+ E  C3 C3 C3 h3 s1 E$ b/ }w }w }w }w }w }w }w }w }w }w }w }w }w }w }w }w }w }w }w }w }w }w }w }w }w }w }w }w }w c_ c_ c_ c_ c_ c_ c_ c_ [< [< [< [< [< [< [< [< [< [< [< [< D: 7% v6 L8 /7 k+ 0) ll R6 *t FE 'K m, =, T- 7; #> J; ^; b- '= a* AY BY ko }X sF 4r KF CY mo 'r 4r oo po po po po po No po 8P Qr MO +H 'R $F lo po po po ]H DY (J 0: M< 0[ m[ m[ WT XT XT XT XT XT XT XT 0U wT wT wT wT wT wT wT wT wT wT wT wT wT ,V ,V ,V KU =W gX `O ZO eP =! =! =! d> 56 &7 &7 $# to xY Hm Hm Hm Hm Hm Hm Hm Hm Hm Hm Hm Hm Hm Hm Hm ",
"#U #U #U #U #U #U #U #U #U #U #U #U #U #U #U #U #U #U #U #U #U #U #U #U #U #U #U #U #U TX Nl $U $U $U $U $U $U $U $U EY FY FP FP FP FP `S GY ;U ;U CW RU RU RU RU [) &< 8: *< 0: a: E~ z  A  `. F  9. n+ %+ U+ U+ D@ /# ~@ E@ (# S# <$ <$ <$ <$ <$ G$ .% %% 2% z% .* <& r* <* f= `- => }; @> K; HY #- 61 V* Q& .K lF wx @y =n Jh 5f R{ F~ 79 6m [< [< [< [< [< [< [< [< }w 5m o' Z  N4 N4 +8 YA IY c_ JY JY JY JY l2 l2 l2 l2 l2 l2 l2 l2 l2 l2 l2 l2 l2 l2 l2 l2 l2 l2 l2 l2 l2 l2 l2 c_ !~ v# L4 C3 C3 C3 C3 s4 *+ /X +5 2n &) V~ l2 [< [< [< [< [< [< [< [< [< [< [< [< [< [< [< [< [< [< [< [< [< [< [< [< [< [< [< [< [< [< [< [< [< [< [< [< [< [< [< [< [< [< [< [< [< [< [< [< [< [< [< [< [< [< [< [< [< [< [< [< [< [< [< [< [< [< [< [< [< [< [< [< [< [< [< [< [< [< [< [< [< [< [< [< [< [< [< [< [< [< [< [< [< [< [< [< [< [< [< [< [< [< [< [< [< [< [< [< [< [< [< [< [< [< [< [< [< [< [< [< [< [< [< [< [< [< [< [< [< [< [< [< [< [< [< [< [< [< [< [< [< [< [< [< [< [< [< [< [< [< [< [< [< [< [< [< [< [< [< $/ ;< *) @5 E5 k0 Jh #+ E  C3 C3 C3 h3 s1 E$ b/ V~ V~ ;< ;< ;< ;< ;< ;< ;< ;< ;< ;< ;< ;< ;< ;< ;< ;< ;< ;< ;< ;< ;< ;< ;< ;< ;< ;< ;< c_ c_ c_ c_ c_ c_ c_ c_ [< [< [< [< [< [< [< [< [< [< [< [< D: 7% Z  L8 /7 k+ 0) ll R6 *t .I aK KY =, EW E; @> K; ^; c- '= b* LY Io qP 9K  t xO 6O JK JK JK JK JK JK JK JK JK JK JK JK JK Fp 8q 8q Fp JK JK JK JK JK 9J MY NY E~ M< 0[ m[ m[ WT XT XT XT XT XT XT XT wT wT wT wT wT wT wT wT wT wT wT wT wT wT J( ,V ,V OY =W gX (1 eP k@ =  PY Ll o6 &7 &7 &7 0c ;W Hm Hm Hm Hm Hm Hm Hm Hm Hm Hm Hm Hm Hm Hm Hm Hm ",
"#U #U #U #U #U #U #U #U #U #U #U #U #U #U #U #U #U #U #U #U #U #U #U #U #U #U *} Nl mi $U $U $U $U $U $U $U $U $U $U QY RY FP FP FP FP `S GY ;U ;U {B RU RU RU RU [) &< 8: *< 0: a: E~ z  A  `. F  9. n+ %+ U+ U+ D@ /# ~@ E@ (# S# <$ <$ <$ <$ <$ G$ .% %% 2% w% R% <& r* <* f= `- => &> SY L; TY UY VY V* Q& .K lF 'x @y =n Jh 5f R{ F~ 79 6m [< [< [< [< [< [< [< [< c_ ;< wz j% YA YA kH 8y c_ a{ c_ c_ c_ c_ c_ c_ c_ c_ c_ c_ c_ c_ c_ c_ c_ c_ c_ c_ c_ c_ c_ c_ c_ c_ c_ c_ l2 c_ !~ v# L4 C3 C3 C3 C3 s4 *+ tJ 25 @8 |% [< $/ [< [< [< [< [< [< [< [< [< [< [< [< [< [< [< [< [< [< [< [< [< [< [< [< [< [< [< [< [< [< [< [< [< [< [< [< [< [< [< [< [< [< [< [< [< [< [< [< [< [< [< [< [< [< [< [< [< [< [< [< [< [< [< [< [< [< [< [< [< [< [< [< [< [< [< [< [< [< [< [< [< [< [< [< [< [< [< [< [< [< [< [< [< [< [< [< [< [< [< [< [< [< [< [< [< [< [< [< [< [< [< [< [< [< [< [< [< [< [< [< [< [< [< [< [< [< [< [< [< [< [< [< [< [< [< [< [< [< [< [< [< [< [< [< [< [< [< [< [< [< [< [< [< [< [< [< [< [< [< $/ [< WY XY )5 69 Jh #+ E  C3 C3 C3 h3 s1 T! }_ ,: c_ c_ c_ c_ c_ c_ c_ c_ c_ c_ c_ c_ c_ c_ c_ c_ c_ c_ c_ c_ c_ c_ c_ c_ c_ c_ c_ c_ c_ c_ c_ c_ c_ c_ c_ c_ [< [< [< [< [< [< [< [< [< [< [< [< D: 7% Z  L8 /7 k+ 0) ll R6 ED .I aK YY kP EW [; K; K; |> c- '= j* 9N ZY `Y *p ;K  Z #K #K #K #K #K #K #K #K #K #K .Z .Z .Z .Z 0J 0J SG SG SG SG SG SG SG SG +Z dn X. M< 0[ m[ m[ WT XT XT XT XT XT XT XT wY wT wT wT wT wT wT wT wT wT wT wT wT wT wT ,V ,V ,V eP eP eP eP eP =z =  =  @Z JH &7 &7 &7 q. Hm Hm Hm Hm Hm Hm Hm Hm Hm Hm Hm Hm Hm Hm Hm Hm ",
"#U #U #U #U #U #U #U Im #Z :C :C :C :C  s $Z #U #U #U #U #U #U #U #U #U iV |U $U $U $U $U $U $U $U $U %Z Nn vU vU 1B &Z tU FP FP FP FP `S GY ;U ;U >U RU RU RU RU [) &< 8: *< 0: a: E~ z  A  `. F  9. n+ %+ U+ U+ D@ /# ~@ E@ (# S# <$ <$ <$ <$ <$ G$ .% %% 2% y% R% <& r* <* f= mg b; G; *Z =Z y; :, VY V*  K -Z  J wx @y =n Jh 5f R{ F~ 79 6m [< [< [< [< [< [< [< [< c_ c_ c_ V~ D5 D: c_ E2 c_ c_ c_ c_ c_ c_ c_ c_ c_ c_ c_ c_ c_ c_ c_ c_ c_ c_ c_ c_ c_ c_ c_ c_ c_ c_ c_ c_ l2 c_ !~ v# L4 C3 C3 C3 C3 s4 *+ tJ u6 3m 1% w/ $/ [< [< [< [< [< [< [< [< [< [< [< [< [< [< [< [< [< [< [< [< [< [< [< [< [< [< [< [< [< [< [< [< [< [< [< [< [< [< [< [< [< [< [< [< [< [< [< [< [< [< [< [< [< [< [< [< [< [< [< [< [< [< [< [< [< [< [< [< [< [< [< [< [< [< [< [< [< [< [< [< [< [< [< [< [< [< [< [< [< [< [< [< [< [< [< [< [< [< [< [< [< [< [< [< [< [< [< [< [< [< [< [< [< [< [< [< [< [< [< [< [< [< [< [< [< [< [< [< [< [< [< [< [< [< [< [< [< [< [< [< [< [< [< [< [< [< [< [< [< [< [< [< [< [< [< [< [< [< [< [< ;Z 6N yx )5 69 Jh #+ E  C3 C3 C3 h3 s1 T! }_ ,: c_ c_ c_ c_ c_ c_ c_ c_ c_ c_ c_ c_ c_ c_ c_ c_ c_ c_ c_ c_ c_ c_ c_ c_ c_ c_ c_ c_ c_ c_ c_ c_ c_ c_ c_ c_ [< [< [< [< [< [< [< [< [< [< [< [< D: 7% Z  L8 /7 k+ 0) ll R6 ED .I aK ^V >Z R- [; K; SY /; ,Z '= 'Z )Z !Z ~Z dn {Z ]Z ^Z X7 X7 X7 X7 X7 X7 X7 X7 X7 U6 25 25 '5 %D %D !x YD /Z ]x (Z lE [u n$ n$ >u %! bI 0[ m[ m[ v! XT XT XT XT XT XT XT XT kU _Z wT wT wT wT wT wT wT wT wT wT wT wT OX ,V ,V eP eP eP eP eP :Z =  =  =  <Z &7 &7 &7 $# Hm Hm Hm Hm Hm Hm Hm Hm Hm Hm Hm Hm Hm Hm Hm Hm ",
"#U #U #U #U #U #U [Z :C :C :C :C :C :C :C :C #Z #U #U #U #U #U #U #U #U $U $U $U $U $U $U $U }Z |Z 1Z 2Z 2Z 2Z 2Z 2Z &Z 3Z FP FP FP FP `S 3Y ;U ;U ;U RU RU RU RU [) &< 8: *< 0: a: E~ z  A  `. F  9. n+ %+ U+ U+ D@ /# ~@ E@ (# S# <$ <$ <$ <$ <$ G$ .% %% 2% y% R% <& r* <* 4Z mg b; G; =Z 4> 5Z ^, {= m=  K -Z  J wx @y =n Jh 5f R{ F~ 79 6m [< [< [< [< [< [< [< [< c_ c_ c_ E2 /3 a{ c_ c_ c_ c_ c_ c_ c_ c_ c_ c_ c_ c_ c_ c_ c_ c_ c_ c_ c_ c_ c_ c_ c_ c_ c_ c_ c_ c_ c_ c_ l2 c_ !~ v# L4 C3 C3 C3 C3 s4 *+ tJ E5  n m% [< $/ [< [< [< [< [< [< [< [< [< [< [< [< [< [< [< [< [< [< [< [< [< [< [< [< [< [< [< [< [< [< [< [< [< [< [< [< [< [< [< [< [< [< [< [< [< [< [< [< [< [< [< [< [< [< [< [< [< [< [< [< [< [< [< [< [< [< [< [< [< [< [< [< [< [< [< [< [< [< [< [< [< [< [< [< [< [< [< [< [< [< [< [< [< [< [< [< [< [< [< [< [< [< [< [< [< [< [< [< [< [< [< [< [< [< [< [< [< [< [< [< [< [< [< [< [< [< [< [< [< [< [< [< [< [< [< [< [< [< [< [< [< [< [< [< [< [< [< [< [< [< [< [< [< [< [< [< [< [< [< [< 6Z }w $y +7 69 Jh #+ E  C3 C3 C3 h3 s1 T! }_ ,: c_ c_ c_ c_ c_ c_ c_ c_ c_ c_ c_ c_ c_ c_ c_ c_ c_ c_ c_ c_ c_ c_ c_ c_ c_ c_ c_ c_ c_ c_ c_ c_ c_ c_ c_ c_ [< [< [< [< [< [< [< [< [< [< [< [< D: 7% v6 L8 /7 k+ 0) ll .7 ED .I 3O ^V l; EW G; L; L; (; f- != b* 7Z 8Z 9Z 0Z aZ '5 bZ [  [  [  [  [  [  [  [  [  [  3  3  _. a  8  g  -@ M. >@ 0+ j  m  k  cZ u_ Ln 9[ 0[ m[ m[ E! nT XT XT XT XT XT XT XT XT dZ ^7 eZ wT wT wT wT wT wT wT wT wT wT J( ,V ,V eP eP eP eP eP fZ =  =  =  =  JH &7 &7 $# Hm Hm Hm Hm Hm Hm Hm Hm Hm Hm Hm Hm Hm Hm Hm Hm ",
"#U #U #U #U {n ZB =. ^1 :C :C :C :C :C :C :C :C #Z #U #U #U #U #U #U #U $U $U $U $U $U $U Nn 2Z 2Z 2Z 2Z 2Z 2Z 2Z 2Z &Z gZ FP FP FP FP 3R QU ;U ;U ;U jV RU RU RU [) &< 8: *< 0: a: E~ z  A  `. F  9. n+ %+ U+ U+ D@ /# ~@ E@ (# S# <$ <$ <$ <$ <$ G$ .% %% 2% y% R% <& U& <* 4Z `- b; |; .> M; hZ t- ]= q,  K /I  J wx @y =n Jh 5f R{ F~ 79 6m [< [< [< [< [< [< [< [< c_ c_ c_ c_ c_ c_ c_ c_ c_ c_ c_ c_ c_ c_ c_ c_ c_ c_ c_ c_ c_ c_ c_ c_ c_ c_ c_ c_ c_ c_ c_ c_ c_ c_ c_ c_ l2 c_ !~ v# L4 C3 C3 C3 C3 s4 *+ tJ K6 @y gD [< $/ [< [< [< [< [< [< [< [< [< [< [< [< [< [< [< [< [< [< [< [< [< [< [< [< [< [< [< [< [< [< [< [< [< [< [< [< [< [< [< [< [< [< [< [< [< [< [< [< [< [< [< [< [< [< [< [< [< [< [< [< [< [< [< [< [< [< [< [< [< [< [< [< [< [< [< [< [< [< [< [< [< [< [< [< [< [< [< [< [< [< [< [< [< [< [< [< [< [< [< [< [< [< [< [< [< [< [< [< [< [< [< [< [< [< [< [< [< [< [< [< [< [< [< [< [< [< [< [< [< [< [< [< [< [< [< [< [< [< [< [< [< [< [< [< [< [< [< [< [< [< [< [< [< [< [< [< [< [< [< [< a{ }w YA N4 69 Jh #+ E  C3 C3 C3 h3 s1 T! }_ ,: c_ c_ c_ c_ c_ c_ c_ c_ c_ c_ c_ c_ c_ c_ c_ c_ c_ c_ c_ c_ c_ c_ c_ c_ c_ c_ c_ c_ c_ c_ c_ c_ c_ c_ c_ c_ [< [< [< [< [< [< [< [< [< [< [< [< D: 2% N4 L8 /7 k+ 0) ll .7 ED .I 3O >z iZ EW G; L; 4> (; e- != a* jZ Qo kZ 7n aZ '5 bZ [  [  [  [  [  [  [  [  [  3  3  _. _. a  8  g  -@ M. 0+ j  m  om lZ mZ 9: *< 9[ 0[ m[ m[ ^T /T nZ XT XT XT XT XT XT XT oZ pZ pZ qZ 0U wT wT wT wT wT wT wT wT J( ,V ,V Xo eP eP eP eP op =  =  =  =  rZ &7 &7 S< Hm Hm Hm Hm Hm Hm Hm Hm Hm Hm Hm Hm Hm Hm Hm Hm ",
"#U #U #U [Z Q7 p0 p0 p0 O7 :C :C :C :C :C :C :C :C sZ #U #U #U #U #U TX $U $U $U $U tZ 1Z 2Z 2Z 2Z 2Z 2Z 2Z 2Z 2Z uZ &Z gZ vZ FP FP FP m3 QU ;U ;U ;U wZ RU RU RU [) &< 8: *< 0: a: E~ z  A  `. F  9. n+ %+ U+ U+ D@ /# ~@ E@ (# S# <$ <$ <$ <$ <$ G$ .% %% 2% y% R% <& U& <* 4Z `- {; 1; 5> 5> xZ yZ zZ q, AZ /I  J wx @y =n Jh 5f R{ F~ 79 6m [< [< [< [< [< [< [< [< c_ c_ c_ c_ c_ c_ c_ c_ c_ c_ c_ c_ c_ c_ c_ c_ c_ c_ c_ c_ c_ c_ c_ c_ c_ c_ c_ c_ c_ c_ c_ c_ c_ c_ c_ c_ l2 c_ !~ v# L4 C3 C3 C3 C3 L4 =+ tJ &8 $y 2[ a{ c_ [< [< [< [< [< [< [< [< [< [< [< [< [< [< [< [< [< [< [< [< [< [< [< [< [< [< [< [< [< [< [< [< [< [< [< [< [< [< [< [< [< [< [< [< [< [< [< [< [< [< [< [< [< [< [< [< [< [< [< [< [< [< [< [< [< [< [< [< [< [< [< [< [< [< [< [< [< [< [< [< [< [< [< [< [< [< [< [< [< [< [< [< [< [< [< [< [< [< [< [< [< [< [< [< [< [< [< [< [< [< [< [< [< [< [< [< [< [< [< [< [< [< [< [< [< [< [< [< [< [< [< [< [< [< [< [< [< [< [< [< [< [< [< [< [< [< [< [< [< [< [< [< [< [< [< [< [< [< [< [< a{ ;< &) 35 69 BZ #+ E  C3 C3 C3 h3 s1 T! }_ ,: c_ c_ c_ c_ c_ c_ c_ c_ c_ c_ c_ c_ c_ c_ c_ c_ c_ c_ c_ c_ c_ c_ c_ c_ c_ c_ c_ c_ c_ c_ c_ c_ c_ c_ c_ c_ [< [< [< [< [< [< [< [< [< [< [< [< D: 2% im L8 /7 k+ 0) ll .7 ED .I 3O >z O- +; G; 4> M; (; g- != b* CZ Qo kZ 7n aZ '5 bZ [  [  [  [  [  [  [  [  [  3  3  4  _. a  8  g  -@ M. 0+ j  m  om DZ Oe 0: *< 9[ 0[ m[ m[ ^T /T /T EZ XT XT XT XT XT XT pZ pZ pZ pZ pZ FZ GZ eZ wT wT wT wT wT eX ,V ,V K( eP eP eP eP op =  =  =  =  HZ &7 &7 ii Hm Hm Hm Hm Hm Hm Hm Hm Hm Hm Hm Hm Hm Hm Hm Hm ",
"#U [Z O7 p0 p0 p0 p0 p0 p0 O7 :C :C :C :C :C :C :C :C hV #U #U #U #U iV $U $U $U %Z 2Z 2Z 2Z 2Z 2Z 2Z 2Z 2Z 2Z 2Z IZ &Z gZ JZ FP FP FP m3 QU ;U ;U ;U ;U jV RU RU [) &< 8: *< 0: a: E~ z  A  `. F  9. n+ %+ U+ U+ D@ /# ~@ E@ (# S# <$ <$ <$ <$ <$ G$ .% %% 2% y% R% <& U& <* 4Z `- {; 2; 5> N; cc yZ ]= W* AZ /I  J wx @y =n Jh 5f R{ F~ 9e >| c_ c_ c_ c_ c_ c_ c_ c_ c_ c_ c_ c_ c_ c_ c_ c_ c_ c_ c_ c_ c_ c_ c_ c_ c_ c_ c_ c_ c_ c_ c_ c_ c_ c_ c_ c_ c_ c_ c_ c_ c_ c_ c_ c_ l2 c_ !~ v# L4 C3 C3 C3 C3 L4 =+ tJ &8 YA D5 a{ c_ c_ c_ c_ c_ c_ c_ c_ c_ c_ c_ c_ c_ c_ c_ c_ c_ c_ c_ c_ c_ c_ c_ c_ c_ c_ c_ c_ c_ c_ c_ c_ c_ c_ c_ c_ c_ c_ c_ c_ c_ c_ c_ c_ c_ c_ c_ c_ c_ c_ c_ c_ c_ c_ c_ c_ c_ c_ c_ c_ c_ c_ c_ c_ c_ c_ c_ c_ c_ c_ c_ c_ c_ c_ c_ c_ c_ c_ c_ c_ c_ c_ c_ c_ c_ c_ c_ c_ c_ c_ c_ c_ c_ c_ c_ c_ c_ c_ c_ c_ c_ c_ c_ c_ c_ c_ c_ c_ c_ c_ c_ c_ c_ c_ c_ c_ c_ c_ c_ c_ c_ c_ c_ c_ c_ c_ c_ c_ c_ c_ c_ c_ c_ c_ c_ c_ c_ c_ c_ c_ c_ c_ c_ c_ c_ c_ c_ c_ c_ c_ c_ c_ c_ c_ c_ c_ c_ c_ c_ c_ c_ a{ V~ j% @8 XA BZ #+ C3 C3 C3 C3 h3 s1 T! }_ ,: c_ c_ c_ c_ c_ c_ c_ c_ c_ c_ c_ c_ c_ c_ c_ c_ c_ c_ c_ c_ c_ c_ c_ c_ c_ c_ c_ c_ c_ c_ c_ c_ c_ c_ c_ c_ c_ c_ c_ c_ c_ c_ c_ c_ c_ c_ c_ c_ D:  & jm L8 /7 k+ 0) ll .7 ED .I 3O O& O- +; G; 4> 5> (; g- != c* KZ Qo kZ ^J aZ +5 mK [  [  [  [  [  [  [  [  [  1  /. Om Q# 5) t# W@ -@ M. 0+ j  m  om V( %! 0: *< 9[ 0[ m[ m[ LZ /T /T /T MZ yW XT XT XT XT NZ pZ pZ pZ pZ pZ pZ pZ OZ PZ wT wT wT ,V ,V ,V K( eP eP eP eP op =  =  =  =  V# O6 &7 O6 Hm Hm Hm Hm Hm Hm Hm Hm Hm Hm Hm Hm Hm Hm Hm Hm ",
"Q7 p0 p0 p0 p0 p0 p0 p0 p0 p0 l& :C :C :C :C :C :C :C KA #U #U #U #U iV $U $U $U %Z 2Z 2Z 2Z 2Z 2Z 2Z 2Z 2Z 2Z 2Z =o &Z gZ JZ FP FP FP m3 QU ;U ;U ;U QZ RZ SZ RU [) &< 8: *< 0: a: E~ z  A  `. F  9. n+ %+ U+ U+ D@ /# ~@ E@ (# S# <$ <$ <$ <$ <$ G$ .% %% 2% y% R% <& D&  ' w, `- {; 2; N; TZ UZ *- 9= W* AZ /I  J wx @y =n Jh 5f R{ F~ 9e >| c_ c_ c_ c_ c_ c_ c_ c_ c_ c_ c_ c_ c_ c_ c_ c_ c_ c_ c_ c_ c_ c_ c_ c_ c_ c_ c_ c_ c_ c_ c_ c_ c_ c_ c_ c_ c_ c_ c_ c_ c_ c_ c_ c_ l2 c_ !~ v# L4 C3 C3 C3 C3 L4 =+ VZ WZ nU n~ a{ c_ c_ c_ c_ c_ c_ c_ c_ c_ c_ c_ c_ c_ c_ c_ c_ c_ c_ c_ c_ c_ c_ c_ c_ c_ c_ c_ c_ c_ c_ c_ c_ c_ c_ c_ c_ c_ c_ c_ c_ c_ c_ c_ c_ c_ c_ c_ c_ c_ c_ c_ c_ c_ c_ c_ c_ c_ c_ c_ c_ c_ c_ c_ c_ c_ c_ c_ c_ c_ c_ c_ c_ c_ c_ c_ c_ c_ c_ c_ c_ c_ c_ c_ c_ c_ c_ c_ c_ c_ c_ c_ c_ c_ c_ c_ c_ c_ c_ c_ c_ c_ c_ c_ c_ c_ c_ c_ c_ c_ c_ c_ c_ c_ c_ c_ c_ c_ c_ c_ c_ c_ c_ c_ c_ c_ c_ c_ c_ c_ c_ c_ c_ c_ c_ c_ c_ c_ c_ c_ c_ c_ c_ c_ c_ c_ c_ c_ c_ c_ c_ c_ c_ c_ c_ c_ c_ c_ c_ c_ c_ c_ a{ V~  & +8 XZ BZ #+ C3 C3 C3 C3 h3 s1 T! }_ ,: c_ c_ c_ c_ c_ c_ c_ c_ c_ c_ c_ c_ c_ c_ c_ c_ c_ c_ c_ c_ c_ c_ c_ c_ c_ c_ c_ c_ c_ c_ c_ c_ c_ c_ c_ c_ c_ c_ c_ c_ c_ c_ c_ c_ c_ c_ c_ c_ 8y vH jm L8 /7 k+ 0) ll R6 ED .I 3O O& O- Q- |; M;  > :; YZ != c* Q& ZZ kZ ^J WX v4 B> =$ /% p$ w; -& '* B$ -& r& 9e Y@ ~@ n. r+ S: 9m `Z M. 0+ j  m  n  %! w_ 0: *< 9[ 0[ m[ m[  ` .` /T /T /T /T oT XT XT XT +` pZ pZ pZ pZ pZ pZ pZ pZ pZ pZ Q3 g1 ,V ,V ,V K( eP eP eP eP op =  =  =  =  d> wB &7 &7 q. Hm Hm Hm Hm Hm Hm YS %7 /+ /+ %7 YS i$ @` #` ",
"$` %` p0 p0 p0 p0 p0 p0 p0 p0 l& :C :C :C :C :C :C :C #Z #U #U #U #U BR $U $U $U $U &n 2Z 2Z 2Z 2Z 2Z 2Z 2Z 2Z 2Z &` &Z gZ JZ FP FP FP =U *` ;U ;U =` =` -` ;` >` [) &< 8: *< 0: a: E~ z  A  `. F  9. n+ %+ U+ U+ D@ /# ~@ E@ (# S# <$ <$ <$ <$ <$ G$ .% %% 2% y% R% <& D&  ' %= `- {; 3;  > O; ,` *- 9= l= F* /I  J wx @y =n Jh 5f R{ F~ 9e >| c_ c_ c_ c_ c_ c_ c_ c_ c_ c_ c_ c_ c_ c_ c_ c_ c_ c_ c_ c_ c_ c_ c_ c_ c_ c_ c_ c_ c_ c_ c_ c_ c_ c_ c_ c_ c_ c_ c_ c_ c_ c_ c_ c_ l2 c_ !~ v# L4 C3 C3 C3 C3 L4 =+ VZ 2n j% #/ a{ c_ c_ c_ c_ c_ c_ c_ c_ c_ c_ c_ c_ c_ c_ c_ c_ c_ c_ c_ c_ c_ c_ c_ c_ c_ c_ c_ c_ c_ c_ c_ c_ c_ c_ c_ c_ c_ c_ c_ c_ c_ c_ c_ c_ c_ c_ c_ c_ c_ c_ c_ c_ c_ c_ c_ c_ c_ c_ c_ c_ c_ c_ c_ c_ c_ c_ c_ c_ c_ c_ c_ c_ c_ c_ c_ c_ c_ c_ c_ c_ c_ c_ c_ c_ c_ c_ c_ c_ c_ c_ c_ c_ c_ c_ c_ c_ c_ c_ c_ c_ c_ c_ c_ c_ c_ c_ c_ c_ c_ c_ c_ c_ c_ c_ c_ c_ c_ c_ c_ c_ c_ c_ c_ c_ c_ c_ c_ c_ c_ c_ c_ c_ c_ c_ c_ c_ c_ c_ c_ c_ c_ c_ c_ c_ c_ c_ c_ c_ c_ c_ c_ c_ c_ c_ c_ c_ c_ c_ c_ c_ c_ a{ V~ l% +8 XZ BZ #+ C3 C3 C3 C3 h3 s1 T! }_ ,: c_ c_ c_ c_ c_ c_ c_ c_ c_ c_ c_ c_ c_ c_ c_ c_ c_ c_ c_ c_ c_ c_ c_ c_ c_ c_ c_ c_ c_ c_ c_ c_ c_ c_ c_ c_ c_ c_ c_ c_ c_ c_ c_ c_ c_ c_ c_ c_ '` ,q mm FD /7 k+ 0) ll R6 ZP .I )` O& O- @; 1; !`  > 8; YZ VY c* Q& ZZ kZ 8n ~` %% ;% <$ %$ y# g# g# g# y# g# g# S# (# v# E@ !@ r+ R  Hl M. 0+ j  m  r  E~ w_ 0: *< 9[ 0[ 7: m[  ` {` ]` ^` /T /T /T /` XT XT XT (` >5 pZ pZ pZ pZ pZ pZ pZ pZ pZ _` ,V ,V ,V K( eP eP eP eP :` =  =  =  =  Hm S< &7 &7 0A Hm Hm Hm Hm st *. =. =. =. =. =. =. <` [` [` ",
"}` }` L1 |` p0 p0 p0 p0 p0 p0 l& :C :C :C :C :C :C :C #Z #U #U #U #U BR $U $U $U $U %Z 1Z 2Z 2Z 2Z 2Z 2Z 2Z 2Z 2Z 1` &Z gZ JZ FP FP FP FP FO ;U ;U =` =` _@ -` ;` [) &< 8: *< 0: a: E~ z  A  `. F  9. n+ %+ U+ U+ D@ /# ~@ E@ (# S# <$ <$ <$ <$ <$ F$ Y$ %% 2% y% R% <& D&  ' %= `- a; 'W 2` 3` 4` *- 9= l= F* /I  J wx @y =n Jh 5f R{ F~ 9e >| c_ c_ c_ c_ c_ c_ c_ c_ c_ c_ c_ c_ c_ c_ c_ c_ c_ c_ c_ c_ c_ c_ c_ c_ c_ c_ c_ c_ c_ c_ c_ c_ c_ c_ c_ c_ c_ c_ c_ c_ c_ c_ c_ c_ l2 c_ !~ v# L4 C3 C3 C3 C3 L4 =+ VZ 2n k% 3| a{ c_ c_ c_ c_ c_ c_ c_ c_ c_ c_ c_ c_ c_ c_ c_ c_ c_ c_ c_ c_ c_ c_ c_ c_ c_ c_ c_ c_ c_ c_ c_ c_ c_ c_ c_ c_ c_ c_ c_ c_ c_ c_ c_ c_ c_ c_ c_ c_ c_ c_ c_ c_ c_ c_ c_ c_ c_ c_ c_ c_ c_ c_ c_ c_ c_ c_ c_ c_ c_ c_ c_ c_ c_ c_ c_ c_ c_ c_ c_ c_ c_ c_ c_ c_ c_ c_ c_ c_ c_ c_ c_ c_ c_ c_ c_ c_ c_ c_ c_ c_ c_ c_ c_ c_ c_ c_ c_ c_ c_ c_ c_ c_ c_ c_ c_ c_ c_ c_ c_ c_ c_ c_ c_ c_ c_ c_ c_ c_ c_ c_ c_ c_ c_ c_ c_ c_ c_ c_ c_ c_ c_ c_ c_ c_ c_ c_ c_ c_ c_ c_ c_ c_ c_ c_ c_ c_ c_ c_ c_ c_ c_ a{ V~ 2% .8 ZA BZ #+ C3 C3 C3 C3 h3 s1 T! }_ ,: c_ c_ c_ c_ c_ c_ c_ c_ c_ c_ c_ c_ c_ c_ c_ c_ c_ c_ c_ c_ c_ c_ c_ c_ c_ c_ c_ c_ c_ c_ c_ c_ c_ c_ c_ c_ c_ c_ c_ c_ c_ c_ c_ c_ c_ c_ c_ c_ .: yx ~t CK /7 k+ 0) ll R6 ZP {W )` nA O- Q- 1; !` 5` 8; YZ VY c* R& 6` kZ 7`  & %% ;% <$ <$ <$ <$ <$ <$ <$ <$ <$ S# (# E@ E@ !@ r+ ~+ $+ Rk 0+ j  j  w  L< w_ 0: *< 9[ 0[ u_ 7:  ` {` {` ]` 8` /T /T /T 9` 0` XT XT XT oZ a` NZ pZ pZ pZ pZ pZ b` ,V ,V ,V ,V K( eP eP eP eP :Z =  =  =  <Z Hm p} O6 &7 &7 p} Hm p} 3$ =. =. =. =. =. =. =. =. F% [` [` ",
"}` }` }` }` L1 %` p0 p0 p0 p0 *o :C :C :C :C :C :C :C #Z #U #U #U #U -X $U $U $U $U $U $U c` 2Z 2Z 2Z 2Z 2Z 2Z 2Z d` &Z gZ JZ FP FP FP FP FO o@ ;U ]+ =` =` _@ -` 7: &< 8: *< 0: a: E~ z  A  `. F  9. n+ %+ U+ U+ D@ /# ~@ E@ (# S# <$ <$ <$ <$ <$ F$ Y$ %% 2% y% R% <& D& }* %= Z- 6U 'W O; P; 4` _, ^= l= AZ /I  J Ey @y =n Jh 5f R{ F~ 9e >| c_ c_ c_ c_ c_ c_ c_ c_ c_ c_ c_ c_ c_ c_ c_ c_ c_ c_ c_ c_ c_ c_ c_ c_ c_ c_ c_ c_ c_ c_ c_ c_ c_ c_ c_ c_ c_ c_ c_ c_ c_ c_ c_ c_ l2 c_ !~ v# L4 C3 C3 C3 C3 s4 *+ tJ C6 1% -v a{ c_ c_ c_ c_ c_ c_ c_ c_ c_ c_ c_ c_ c_ c_ c_ c_ c_ c_ c_ c_ c_ c_ c_ c_ c_ c_ c_ c_ c_ c_ c_ c_ c_ c_ c_ c_ c_ c_ c_ c_ c_ c_ c_ c_ c_ c_ c_ c_ c_ c_ c_ c_ c_ c_ c_ c_ c_ c_ c_ c_ c_ c_ c_ c_ c_ c_ c_ c_ c_ c_ c_ c_ c_ c_ c_ c_ c_ c_ c_ c_ c_ c_ c_ c_ c_ c_ c_ c_ c_ c_ c_ c_ c_ c_ c_ c_ c_ c_ c_ c_ c_ c_ c_ c_ c_ c_ c_ c_ c_ c_ c_ c_ c_ c_ c_ c_ c_ c_ c_ c_ c_ c_ c_ c_ c_ c_ c_ c_ c_ c_ c_ c_ c_ c_ c_ c_ c_ c_ c_ c_ c_ c_ c_ c_ c_ c_ c_ c_ c_ c_ c_ c_ c_ c_ c_ c_ c_ c_ c_ c_ c_ a{ [< 2% E- ZA BZ #+ C3 C3 C3 C3 h3 s1 T! }_ ,: c_ c_ c_ c_ c_ c_ c_ c_ c_ c_ c_ c_ c_ c_ c_ c_ c_ c_ c_ c_ c_ c_ c_ c_ c_ c_ c_ c_ c_ c_ c_ c_ c_ c_ c_ c_ c_ c_ c_ c_ c_ c_ c_ c_ c_ c_ c_ c_ wz .8 YD CK /7 k+ 0) ll R6 _D e` )` VA O- Q- 1;  > O; <; 5K VY c* Q& LR f` g` 2% %% ;% <$ <$ <$ <$ <$ <$ <$ <$ <$ S# (# E@ E@ !@ r+ ~+ $+ Qk 0+ j  h` x  L< w_ 0: *< 9[ 0[ u_ u_ i` {` {` {` {` j` /T /T /T k` nZ l` XT XT XT XT XT XT (` m` n` JV ,V ,V ,V ,V K( eP eP eP eP =z =  =  =  o` Hm Hm =} ,% $# p} wo p@ =. =. =. =. =. =. =. =. =. =. p` [` ",
"P| }` }` }` }` }` r; p0 p0 p0 C= :C :C :C :C :C :C :C KA #U #U #U #U mi $U $U $U $U $U $U $U 1Z 2Z 2Z 2Z 2Z 2Z 2Z d` &Z gZ JZ FP FP FP FP FO q` ;U <7 =` =` =` +t 7: &< 8: *< 0: a: E~ z  A  `. F  9. n+ %+ U+ U+ D@ /# ~@ E@ (# S# <$ <$ <$ <$ <$ G$ .% %% 2% y% R% <& D& }* x, Z- 6U 4; P; Z; r` s` ^= D] AZ /I  J Ey @y =n Jh 5f R{ F~ 9e >| c_ c_ c_ c_ c_ c_ c_ c_ c_ c_ c_ c_ c_ c_ c_ c_ c_ c_ c_ c_ c_ c_ c_ c_ c_ c_ c_ c_ c_ c_ c_ c_ c_ c_ c_ c_ c_ c_ c_ c_ c_ c_ c_ c_ l2 c_ !~ v# L4 C3 C3 C3 C3 s4 *+ fW +8 5m t` a{ c_ c_ c_ c_ c_ c_ c_ c_ c_ c_ c_ c_ c_ c_ c_ c_ c_ c_ c_ c_ c_ c_ c_ c_ c_ c_ c_ c_ c_ c_ c_ c_ c_ c_ c_ c_ c_ c_ c_ c_ c_ c_ c_ c_ c_ c_ c_ c_ c_ c_ c_ c_ c_ c_ c_ c_ c_ c_ c_ c_ c_ c_ c_ c_ c_ c_ c_ c_ c_ c_ c_ c_ c_ c_ c_ c_ c_ c_ c_ c_ c_ c_ c_ c_ c_ c_ c_ c_ c_ c_ c_ c_ c_ c_ c_ c_ c_ c_ c_ c_ c_ c_ c_ c_ c_ c_ c_ c_ c_ c_ c_ c_ c_ c_ c_ c_ c_ c_ c_ c_ c_ c_ c_ c_ c_ c_ c_ c_ c_ c_ c_ c_ c_ c_ c_ c_ c_ c_ c_ c_ c_ c_ c_ c_ c_ c_ c_ c_ c_ c_ c_ c_ c_ c_ c_ c_ c_ c_ c_ c_ c_ a{ c_ m% mF ZA BZ #+ C3 C3 C3 C3 h3 s1 T! }_ ,: c_ c_ c_ c_ c_ c_ c_ c_ c_ c_ c_ c_ c_ c_ c_ c_ c_ c_ c_ c_ c_ c_ c_ c_ c_ c_ c_ c_ c_ c_ c_ c_ c_ c_ c_ c_ c_ c_ c_ c_ c_ c_ c_ c_ c_ c_ c_ c_ >8 @w Wu FD /7 k+ 0) ll R6 _D AJ 7P VA ;, @; 2; 2` P; <; 5K {= c* Q& DJ jJ WA 2% %% ;% <$ <$ <$ <$ <$ <$ <$ <$ <$ S# (# E@ E@ !@ r+ ~+ -+ a@ 0+ O. W. z  L< w_ 0: *< 9[ 0[ 7: u_ u` v` {` {` {` {` .` 8` /T /T /T /T EZ w` x` yW XT XT XT XT XT y` ,V ,V ,V ,V K( eP eP eP eP =  =  =  =  z` Hm Hm Hm !V ;W DT =. =. =. =. =. =. =. =. =. =. =. =. =. p` ",
"A` B` }` }` }` }` }` r; p0 p0 p0 :C :C :C :C :C :C :C Im #U #U #U #U mi $U $U $U $U $U $U $U %Z 2Z 2Z 2Z 2Z 2Z 2Z &Z &Z gZ C` FP FP FP FP FO *` qB D` =` =` =` =` [) &< 8: *< 0: a: E~ z  A  `. F  9. n+ %+ U+ U+ D@ /# ~@ E@ (# S# <$ <$ <$ <$ <$ G$ .% %% 2% B% R% <& D& }* x, Z- ]; 5; P; 7> x> .J ^= D] F* 'K  J Ey @y =n Jh 5f R{ F~ 9e >| c_ c_ c_ c_ c_ c_ c_ c_ c_ c_ c_ c_ c_ c_ c_ c_ c_ c_ c_ c_ c_ c_ c_ c_ c_ c_ c_ c_ c_ c_ c_ c_ c_ c_ c_ c_ c_ c_ c_ c_ c_ c_ c_ c_ l2 c_ !~ v# L4 C3 C3 C3 C3 C3 T+ :V +8 vz E2 a{ c_ c_ c_ c_ c_ c_ c_ c_ c_ c_ c_ c_ c_ c_ c_ c_ c_ c_ c_ c_ c_ c_ c_ c_ c_ c_ c_ c_ c_ c_ c_ c_ c_ c_ c_ c_ c_ c_ c_ c_ c_ c_ c_ c_ c_ c_ c_ c_ c_ c_ c_ c_ c_ c_ c_ c_ c_ c_ c_ c_ c_ c_ c_ c_ c_ c_ c_ c_ c_ c_ c_ c_ c_ c_ c_ c_ c_ c_ c_ c_ c_ c_ c_ c_ c_ c_ c_ c_ c_ c_ c_ c_ c_ c_ c_ c_ c_ c_ c_ c_ c_ c_ c_ c_ c_ c_ c_ c_ c_ c_ c_ c_ c_ c_ c_ c_ c_ c_ c_ c_ c_ c_ c_ c_ c_ c_ c_ c_ c_ c_ c_ c_ c_ c_ c_ c_ c_ c_ c_ c_ c_ c_ c_ c_ c_ c_ c_ c_ c_ c_ c_ c_ c_ c_ c_ c_ c_ c_ c_ c_ c_ a{ E2 >8 mF ZA BZ #+ C3 C3 C3 C3 h3 s1 T! }_ ,: c_ c_ c_ c_ c_ c_ c_ c_ c_ c_ c_ c_ c_ c_ c_ c_ c_ c_ c_ c_ c_ c_ c_ c_ c_ c_ c_ c_ c_ c_ c_ c_ c_ c_ c_ c_ c_ c_ c_ c_ c_ c_ c_ c_ c_ c_ c_ c_ >8 E` Wu FD /7 k+ 0) ll R6 _D JI 7P VA ;, @; 2; TZ P; 1> 5K {= d* R& 2& Q% y% 2% %% ;% <$ <$ <$ <$ <$ <$ <$ <$ <$ S# (# E@ E@ !@ r+ ~+ -+ e< F` BK `. z  L< w_ 0: *< 9[ 0[ [) 7: u` G` H` I` {` {` {` {` J` K` ^` /T /T /T /T /T /T /T /T /T L` M` ,V ,V ,V ,V K( eP eP eP )( =  =  =  =  N` Hm Hm O` 1Y 1Y l& =. =. =. =. =. =. =. =. =. =. =. =. =. =. ",
"P` P` Q` cm }` }` }` }` r; p0 p0 R` :C :C :C :C :C :C $Z #U #U #U #U mi $U $U $U $U $U $U $U $U Pn 2Z 2Z 2Z 2Z S` &Z &Z gZ FP FP FP FP FP FO FO T` ;U ]+ =` =` =` R! &< 8: *< 0: a: E~ z  A  `. F  9. n+ %+ U+ U+ D@ /# ~@ E@ (# S# <$ <$ <$ <$ <$ G$ .% %% 2% B% R% <& D& }* %= Y- ]; 5; 7> Q; y> U` ^= D] F* 'K )K Ey @y =n Jh 5f R{ F~ 9e >| c_ c_ c_ c_ c_ c_ c_ c_ c_ c_ c_ c_ c_ c_ c_ c_ c_ c_ c_ c_ c_ c_ c_ c_ c_ c_ c_ c_ c_ c_ c_ c_ c_ c_ c_ c_ c_ c_ c_ c_ c_ c_ c_ c_ l2 c_ !~ v# L4 C3 C3 C3 C3 C3 T+ :V h# >8 c_ a{ c_ c_ c_ c_ c_ c_ c_ c_ c_ c_ c_ c_ c_ c_ c_ c_ c_ c_ c_ c_ c_ c_ c_ c_ c_ c_ c_ c_ c_ c_ c_ c_ c_ c_ c_ c_ c_ c_ c_ c_ c_ c_ c_ c_ c_ c_ c_ c_ c_ c_ c_ c_ c_ c_ c_ c_ c_ c_ c_ c_ c_ c_ c_ c_ c_ c_ c_ c_ c_ c_ c_ c_ c_ c_ c_ c_ c_ c_ c_ c_ c_ c_ c_ c_ c_ c_ c_ c_ c_ c_ c_ c_ c_ c_ c_ c_ c_ c_ c_ c_ c_ c_ c_ c_ c_ c_ c_ c_ c_ c_ c_ c_ c_ c_ c_ c_ c_ c_ c_ c_ c_ c_ c_ c_ c_ c_ c_ c_ c_ c_ c_ c_ c_ c_ c_ c_ c_ c_ c_ c_ c_ c_ c_ c_ c_ c_ c_ c_ c_ c_ c_ c_ c_ c_ c_ c_ c_ c_ c_ c_ c_ E2 E2 wz yx ZA BZ #+ C3 C3 C3 C3 h3 s1 T! }_ ,: c_ c_ c_ c_ c_ c_ c_ c_ c_ c_ c_ c_ c_ c_ c_ c_ c_ c_ c_ c_ c_ c_ c_ c_ c_ c_ c_ c_ c_ c_ c_ c_ c_ c_ c_ c_ c_ c_ c_ c_ c_ c_ c_ c_ c_ c_ c_ c_ >8 E` Wu FD /7 k+ 0) ll R6 _D JI 7P nA ;, @; 3; O; Z; 1> 5K {= d* a6 4& T% y% 2% %% ;% <$ <$ <$ <$ <$ <$ <$ <$ <$ S# (# E@ E@ !@ r+ ~+ -+ e< g+ `. `. z  L< w_ 0: *< 9[ 0[ R! R! V` W` G` X` Y` {` {` {` {` {` {` J` Z` Z` Z` Z` Z` ``   .. .m] + .,V ,V ,V ,V K( eP eP eP |R =  =  =  =  V# Hm Hm m6 1Y Zx =. =. =. =. =. =. =. =. =. =. =. =. =. =. =. ",
"P` P` P` P` B` }` }` }` }` %` p0 (| :C :C :C :C :C :C 2Y #U #U #U #U $U $U $U $U $U $U $U $U $U }Z 2Z 2Z 2Z 2Z IZ &Z &Z gZ FP FP FP FP FP BW FO @ .wZ # .=` =` =` R! &< 8: *< 0: a: E~ z  A  `. F  9. n+ %+ U+ U+ D@ /# ~@ E@ (# S# <$ <$ <$ <$ <$ G$ .% %% 2% A% R% <& D& }* %= Y- }> %> Q; R; $ .U` % .D] F* 'K )K Ey @y =n Jh 5f R{ F~ 9e >| c_ c_ c_ c_ c_ c_ c_ c_ c_ c_ c_ c_ c_ c_ c_ c_ c_ c_ c_ c_ c_ c_ c_ c_ c_ c_ c_ c_ c_ c_ c_ c_ c_ c_ c_ c_ c_ c_ c_ c_ c_ c_ c_ c_ l2 c_ !~ v# L4 C3 C3 C3 C3 C3 T+ xs E- gD c_ a{ c_ c_ c_ c_ c_ c_ c_ c_ c_ c_ c_ c_ c_ c_ c_ c_ c_ c_ c_ c_ c_ c_ c_ c_ c_ c_ c_ c_ c_ c_ c_ c_ c_ c_ c_ c_ c_ c_ c_ c_ c_ c_ c_ c_ c_ c_ c_ c_ c_ c_ c_ c_ c_ c_ c_ c_ c_ c_ c_ c_ c_ c_ c_ c_ c_ c_ c_ c_ c_ c_ c_ c_ c_ c_ c_ c_ c_ c_ c_ c_ c_ c_ c_ c_ c_ c_ c_ c_ c_ c_ c_ c_ c_ c_ c_ c_ c_ c_ c_ c_ c_ c_ c_ c_ c_ c_ c_ c_ c_ c_ c_ c_ c_ c_ c_ c_ c_ c_ c_ c_ c_ c_ c_ c_ c_ c_ c_ c_ c_ c_ c_ c_ c_ c_ c_ c_ c_ c_ c_ c_ c_ c_ c_ c_ c_ c_ c_ c_ c_ c_ c_ c_ c_ c_ c_ c_ c_ c_ c_ c_ c_ E2 a{ .: yx 6C BZ #+ C3 C3 C3 C3 h3 s1 T! }_ ,: c_ c_ c_ c_ c_ c_ c_ c_ c_ c_ c_ c_ c_ c_ c_ c_ c_ c_ c_ c_ c_ c_ c_ c_ c_ c_ c_ c_ c_ c_ c_ c_ c_ c_ c_ c_ c_ c_ c_ c_ c_ c_ c_ c_ c_ c_ c_ c_ >8 E` Wu FD /7 )1 0) ll R6 _D JI 7P nA ;, )J 3; 6> Q; E; h- zZ d* _* 7& U% y% 2% %% ;% <$ <$ <$ <$ <$ <$ <$ <$ <$ S# (# E@ E@ !@ r+ ~+ -+ #+ l+ D  `. z  L< w_ 0: *< 9[ 0[ R! R! & .* .= .X` G` - .; .{` {` {` {` {` {` {` {` {` {` {` >! '( m] m] > .,V ,V ,V K( eP eP eP op =  =  =  =  ,$ Hm Hm k6 1Y , .=. =. =. =. =. =. =. =. =. =. =. =. =. =. =. ",
"nO P` P` P` P` ' .:| }` }` ) .F% O7 :C :C :C :C :C :C  s #U #U #U #U ! .$U $U $U $U $U $U $U $U $U c` 2Z 2Z 2Z ~ .&Z &Z { .FP FP FP FP FP BW ] .@ .T` ;U mO =` =` R! &< 8: *< 0: a: E~ z  A  `. F  9. n+ %+ U+ U+ D@ /# ~@ E@ (# S# <$ <$ <$ <$ <$ G$ .% %% 2% A% R% <& D& }* %= Y- }> 5; Q; Y; ^ .U` % .D] F* 'K !G Ey @y =n Jh 5f R{ F~ 9e >| c_ c_ c_ c_ c_ c_ c_ c_ c_ c_ c_ c_ c_ c_ c_ c_ c_ c_ c_ c_ c_ c_ c_ c_ c_ c_ c_ c_ c_ c_ c_ c_ c_ c_ c_ c_ c_ c_ c_ c_ c_ c_ c_ c_ l2 c_ !~ v# L4 C3 C3 C3 C3 C3 T+ xs E- / .c_ a{ c_ c_ c_ c_ c_ c_ c_ c_ c_ c_ c_ c_ c_ c_ c_ c_ c_ c_ c_ c_ c_ c_ c_ c_ c_ c_ c_ c_ c_ c_ c_ c_ c_ c_ c_ c_ c_ c_ c_ c_ c_ c_ c_ c_ c_ c_ c_ c_ c_ c_ c_ c_ c_ c_ c_ c_ c_ c_ c_ c_ c_ c_ c_ c_ c_ c_ c_ c_ c_ c_ c_ c_ c_ c_ c_ c_ c_ c_ c_ c_ c_ c_ c_ c_ c_ c_ c_ c_ c_ c_ c_ c_ c_ c_ c_ c_ c_ c_ c_ c_ c_ c_ c_ c_ c_ c_ c_ c_ c_ c_ c_ c_ c_ c_ c_ c_ c_ c_ c_ c_ c_ c_ c_ c_ c_ c_ c_ c_ c_ c_ c_ c_ c_ c_ c_ c_ c_ c_ c_ c_ c_ c_ c_ c_ c_ c_ c_ c_ c_ c_ c_ c_ c_ c_ c_ c_ c_ c_ c_ c_ c_ E2 a{ 6N @y 6C BZ #+ C3 C3 C3 C3 h3 s1 T! }_ ,: c_ c_ c_ c_ c_ c_ c_ c_ c_ c_ c_ c_ c_ c_ c_ c_ c_ c_ c_ c_ c_ c_ c_ c_ c_ c_ c_ c_ c_ c_ c_ c_ c_ c_ c_ c_ c_ c_ c_ c_ c_ c_ c_ c_ c_ c_ c_ c_ >8 E` /Z FD /7 )1 0) ll R6 _D JI 7P VA ;, ( ._ .P; : .[; < .]= GJ F* 7& U% y% 2% %% ;% <$ <$ <$ <$ <$ <$ <$ <$ <$ S# (# E@ E@ !@ r+ ~+ -+ #+ 9. D  `. z  L< w_ 0: *< 9[ 0[ m[ m[ _U [ .* .} .| .X` G` 1 .2 .3 .{` {` {` {` {` {` 4 .5 .6 .7 .m] m] 8 .,V ,V ,V K( eP eP eP :` =  =  =  kz Hm Hm Hm 05 Bq =. =. =. =. =. =. =. =. =. =. =. =. =. =. =. =. ",
"9 .0 .a .P` P` P` P` b .@& Q7 c .:C :C :C :C :C :C :C :C Im #U #U #U ~V $U $U $U $U $U $U $U $U $U }Z 1Z 2Z 2Z 1` &Z &Z tU FP FP FP FP FP BW d .@ .@ .wZ ;U e .=` R! &< 8: *< 0: a: E~ z  A  `. F  9. n+ %+ U+ U+ D@ /# ~@ E@ (# S# <$ <$ <$ <$ <$ G$ .% %% 2% A% R% <& D& }* %= Z- ]; %> Q; Y; ^ .U` % .D] G* 'K !G Ey @y =n Jh 5f R{ F~ 79 >| c_ c_ c_ c_ c_ c_ c_ c_ c_ c_ c_ c_ c_ c_ c_ c_ c_ c_ c_ c_ c_ c_ c_ c_ c_ c_ c_ c_ c_ c_ c_ c_ c_ c_ c_ c_ c_ c_ c_ c_ c_ c_ c_ c_ l2 c_ !~ v# L4 C3 C3 C3 C3 C3 T+ f .yx / .c_ a{ c_ c_ c_ c_ c_ c_ c_ c_ c_ c_ c_ c_ c_ c_ c_ c_ c_ c_ c_ c_ c_ c_ c_ c_ c_ c_ c_ c_ c_ c_ c_ c_ c_ c_ c_ c_ c_ c_ c_ c_ c_ c_ c_ c_ c_ c_ c_ c_ c_ c_ c_ c_ c_ c_ c_ c_ c_ c_ c_ c_ c_ c_ c_ c_ c_ c_ c_ c_ c_ c_ c_ c_ c_ c_ c_ c_ c_ c_ c_ c_ c_ c_ c_ c_ c_ c_ c_ c_ c_ c_ c_ c_ c_ c_ c_ c_ c_ c_ c_ c_ c_ c_ c_ c_ c_ c_ c_ c_ c_ c_ c_ c_ c_ c_ c_ c_ c_ c_ c_ c_ c_ c_ c_ c_ c_ c_ c_ c_ c_ c_ c_ c_ c_ c_ c_ c_ c_ c_ c_ c_ c_ c_ c_ c_ c_ c_ c_ c_ c_ c_ c_ c_ c_ c_ c_ c_ c_ c_ c_ c_ c_ E2 a{ 6N @y 6C BZ #+ C3 C3 C3 C3 h3 s1 T! }_ ,: c_ c_ c_ c_ c_ c_ c_ c_ c_ c_ c_ c_ c_ c_ c_ c_ c_ c_ c_ c_ c_ c_ c_ c_ c_ c_ c_ c_ c_ c_ c_ c_ c_ c_ c_ c_ c_ c_ c_ c_ c_ c_ c_ c_ c_ c_ c_ c_ >8 E` /Z FD /7 )1 0) ll R6 _D JI 7P VA ;, )J 'W Z; g .[; < .]= GJ F* 7& U% y% 2% %% ;% <$ <$ <$ <$ <$ <$ <$ <$ <$ S# (# E@ E@ !@ r+ ~+ -+ #+ 9. D  `. z  L< w_ 0: *< 9[ 0[ m[ m[ YT h .i .j .* .* .k .W` l .l .m .n .o .p .p .p .q .6 .6 .5 .m] m] r .,V ,V ,V K( eP eP eP =  =  =  =  ^M Hm Hm Hm s .*. =. =. =. =. =. =. =. =. =. =. =. =. =. =. =. =. ",
"9 .9 .9 .nC t .a .P` P` A` :C :C :C :C :C :C :C :C :C :C :C Im #U #U #U ! .$U $U $U $U $U $U $U $U $U %Z 1Z 2Z d` &Z &Z u .FP FP FP FP FP BW v .@ .@ .w .;U ;U x .7: &< 8: *< 0: a: E~ z  A  `. F  9. n+ %+ U+ U+ D@ /# ~@ E@ (# S# <$ <$ <$ <$ <$ G$ .% %% 2% A% R% <& D& }* %= Z- ]; %> g .y .z .A .% .D] G* 'K !G Ey @y =n Jh 5f R{ F~ Pa 5m c_ c_ c_ c_ c_ c_ c_ c_ c_ c_ c_ c_ c_ c_ c_ c_ c_ c_ c_ c_ c_ c_ c_ c_ c_ c_ c_ c_ c_ c_ c_ c_ c_ c_ c_ c_ c_ c_ c_ c_ c_ c_ c_ c_ l2 c_ !~ v# L4 C3 C3 C3 C3 C3 M7 ll $y '` a{ a{ c_ c_ c_ c_ c_ c_ c_ c_ c_ c_ c_ c_ c_ c_ c_ c_ c_ c_ c_ c_ c_ c_ c_ c_ c_ c_ c_ c_ c_ c_ c_ c_ c_ c_ c_ c_ c_ c_ c_ c_ c_ c_ c_ c_ c_ c_ c_ c_ c_ c_ c_ c_ c_ c_ c_ c_ c_ c_ c_ c_ c_ c_ c_ c_ c_ c_ c_ c_ c_ c_ c_ c_ c_ c_ c_ c_ c_ c_ c_ c_ c_ c_ c_ c_ c_ c_ c_ c_ c_ c_ c_ c_ c_ c_ c_ c_ c_ c_ c_ c_ c_ c_ c_ c_ c_ c_ c_ c_ c_ c_ c_ c_ c_ c_ c_ c_ c_ c_ c_ c_ c_ c_ c_ c_ c_ c_ c_ c_ c_ c_ c_ c_ c_ c_ c_ c_ c_ c_ c_ c_ c_ c_ c_ c_ c_ c_ c_ c_ c_ c_ c_ c_ c_ c_ c_ c_ c_ c_ c_ c_ c_ E2 a{ .: @y 6C BZ #+ C3 C3 C3 C3 h3 s1 T! }_ ,: c_ c_ c_ c_ c_ c_ c_ c_ c_ c_ c_ c_ c_ c_ c_ c_ c_ c_ c_ c_ c_ c_ c_ c_ c_ c_ c_ c_ c_ c_ c_ c_ c_ c_ c_ c_ c_ c_ c_ c_ c_ c_ c_ c_ c_ c_ c_ c_ >8 E` /Z FD /7 )1 0) ll v4 _D JI 7P VA ;, $; 'W Z; Y; [; <L 9= GJ F* 7& U% y% 2% %% ;% <$ <$ <$ <$ <$ <$ <$ <$ <$ S# (# E@ E@ !@ r+ ~+ -+ #+ 9. D  `. z  L< w_ 0: *< 9[ 0[ m[ m[ YT h .h .h .B .* .* .* .C .D .l .l .m .E .p .F .6 .6 .G .H .m] m] f) ,V ,V ,V K( eP eP eP =z =  =  I1 I .Hm Hm Hm I# =. =. =. =. =. =. =. =. =. =. =. =. =. =. =. =. =. ",
"9 .9 .9 .9 .9 .9 .9 .9 .J .K .:C :C :C :C :C :C :C :C :C :C :C hV #U #U iV $U $U $U $U $U $U $U $U $U $U $U )o L .&Z &Z M .FP FP FP FP FP BW QU @ .@ .@ .N .O .P .u_ &< 8: *< 0: a: E~ z  A  `. F  9. n+ %+ U+ U+ D@ /# ~@ E@ (# S# <$ <$ <$ <$ <$ G$ .% %% 2% A% R% <& D& }* %= Z- ]; %> y .X; Q .A .R .D] G* 'K !G Ey @y =n Jh 5f R{ F~ Pa 5m c_ c_ c_ c_ c_ c_ c_ c_ c_ c_ c_ c_ c_ c_ c_ c_ c_ c_ c_ c_ c_ c_ c_ c_ c_ c_ c_ c_ c_ c_ c_ c_ c_ c_ c_ c_ c_ c_ c_ c_ c_ c_ c_ c_ l2 c_ !~ v# L4 C3 C3 C3 C3 C3 T+ ,u &K 8y a{ a{ c_ c_ c_ c_ c_ c_ c_ c_ c_ c_ c_ c_ c_ c_ c_ c_ c_ c_ c_ c_ c_ c_ c_ c_ c_ c_ c_ c_ c_ c_ c_ c_ c_ c_ c_ c_ c_ c_ c_ c_ c_ c_ c_ c_ c_ c_ c_ c_ c_ c_ c_ c_ c_ c_ c_ c_ c_ c_ c_ c_ c_ c_ c_ c_ c_ c_ c_ c_ c_ c_ c_ c_ c_ c_ c_ c_ c_ c_ c_ c_ c_ c_ c_ c_ c_ c_ c_ c_ c_ c_ c_ c_ c_ c_ c_ c_ c_ c_ c_ c_ c_ c_ c_ c_ c_ c_ c_ c_ c_ c_ c_ c_ c_ c_ c_ c_ c_ c_ c_ c_ c_ c_ c_ c_ c_ c_ c_ c_ c_ c_ c_ c_ c_ c_ c_ c_ c_ c_ c_ c_ c_ c_ c_ c_ c_ c_ c_ c_ c_ c_ c_ c_ c_ c_ c_ c_ c_ c_ c_ c_ c_ E2 a{ .: yx 6C BZ #+ C3 C3 C3 C3 h3 s1 T! }_ ,: c_ c_ c_ c_ c_ c_ c_ c_ c_ c_ c_ c_ c_ c_ c_ c_ c_ c_ c_ c_ c_ c_ c_ c_ c_ c_ c_ c_ c_ c_ c_ c_ c_ c_ c_ c_ c_ c_ c_ c_ c_ c_ c_ c_ c_ c_ c_ c_ wz h# /Z FD /7 )1 0) ll v4 _D JI 7P Q& ;, )J 4; 7> S; [; <L fd GJ F* 7& U% y% 2% %% ;% <$ <$ <$ <$ <$ <$ <$ <$ <$ S# (# E@ E@ !@ r+ ~+ -+ #+ 9. D  `. z  L< w_ 0: *< 9[ 0[ m[ m[ YT h .h .h .h .i .[ .* .* .* .S .T .U .p .V .W .6 .6 .X .m] m] m] f) ,V ,V ,V K( eP eP eP v' =  =  Y .Z .p} /+ C= =. =. =. =. =. =. =. =. =. =. =. =. =. =. =. =. =. =. ",
"9 .9 .9 .9 .9 .9 .9 .9 .` .J ., .Z} :C :C :C :C :C :C :C :C :C KA #U #U #U Nl $U $U $U $U $U $U $U $U $U $U $U &Z &Z &Z FY FP FP FP FP FP BW  ..@ .@ .@ ....P .P .u_ &< 8: *< 0: a: E~ z  A  `. F  9. n+ %+ U+ U+ D@ /# ~@ E@ (# S# <$ <$ <$ <$ <$ G$ .% %% 2% y% c& _' D& }* oA Y- ]; 3> X; T; Q .A ./= Y* G* 'K !G Ey @y =n Jh 5f R{ F~ ;8  _ c_ c_ c_ c_ c_ c_ c_ c_ c_ c_ c_ c_ c_ c_ c_ c_ c_ c_ c_ c_ c_ c_ c_ c_ c_ c_ c_ c_ c_ c_ c_ c_ c_ c_ c_ c_ c_ c_ c_ c_ c_ c_ c_ c_ l2 c_ !~ v# L4 C3 C3 C3 C3 C3 Xa ,u YA D: a{ c_ c_ c_ c_ c_ c_ c_ c_ c_ c_ c_ c_ c_ c_ c_ c_ c_ c_ c_ c_ c_ c_ c_ c_ c_ c_ c_ c_ c_ c_ c_ c_ c_ c_ c_ c_ c_ c_ c_ c_ c_ c_ c_ c_ c_ c_ c_ c_ c_ c_ c_ c_ c_ c_ c_ c_ c_ c_ c_ c_ c_ c_ c_ c_ c_ c_ c_ c_ c_ c_ c_ c_ c_ c_ c_ c_ c_ c_ c_ c_ c_ c_ c_ c_ c_ c_ c_ c_ c_ c_ c_ c_ c_ c_ c_ c_ c_ c_ c_ c_ c_ c_ c_ c_ c_ c_ c_ c_ c_ c_ c_ c_ c_ c_ c_ c_ c_ c_ c_ c_ c_ c_ c_ c_ c_ c_ c_ c_ c_ c_ c_ c_ c_ c_ c_ c_ c_ c_ c_ c_ c_ c_ c_ c_ c_ c_ c_ c_ c_ c_ c_ c_ c_ c_ c_ c_ c_ c_ c_ c_ c_ c_ a{ c_ >8 mF ZA BZ #+ C3 C3 C3 C3 h3 s1 T! }_ ,: c_ c_ c_ c_ c_ c_ c_ c_ c_ c_ c_ c_ c_ c_ c_ c_ c_ c_ c_ c_ c_ c_ c_ c_ c_ c_ c_ c_ c_ c_ c_ c_ c_ c_ c_ c_ c_ c_ c_ c_ c_ c_ c_ c_ c_ c_ c_ c_ wz @w /Z FD /7 )1 0) ll v4 _D JI 7P Q& ;, ( .4; 7> X; [; +..9= GJ F* 7& U% y% 2% %% ;% <$ <$ <$ <$ <$ <$ <$ <$ <$ S# (# E@ E@ !@ r+ ~+ -+ #+ 9. D  `. z  L< w_ 0: *< 9[ 0[ m[ m[ +` /T /T /T @..h .h .#..* .* .* .* .$..p .q .6 .6 .G .%..m] m] m] &..,V ,V ,V K( eP eP eP k@ =  @Z ^M Ll =u =. =. =. =. =. =. =. =. =. =. =. =. =. =. =. =. =. =. =. =. ",
"9 .9 .9 .9 .9 .9 .9 .9 .9 .*..J .J .K .:C :C :C :C :C :C :C :C :C #U #U #U =..$U $U $U $U $U $U $U $U $U $U $U &Z &Z -..FP FP FP FP FP FP BW ;..@ .@ .@ .>..P .P .T: &< 8: *< 0: a: E~ z  A  `. F  9. n+ %+ U+ U+ D@ /# ~@ E@ (# S# <$ <$ <$ <$ <$ F$ Y$ %% 2% y% R% _' D& }* oA Y- ]; H; ,..T; Q .'../= Y* G* 'K !G Ey @y =n Jh 5f R{ F~ ;8  _ c_ c_ c_ c_ c_ c_ c_ c_ c_ c_ c_ c_ c_ c_ c_ c_ c_ c_ c_ c_ c_ c_ c_ c_ c_ c_ c_ c_ c_ c_ c_ c_ c_ c_ c_ c_ c_ c_ c_ c_ c_ c_ c_ c_ l2 c_ !~ v# L4 C3 C3 C3 C3 C3 Xa Go vH )..a{ c_ c_ c_ c_ c_ c_ c_ c_ c_ c_ c_ c_ c_ c_ c_ c_ c_ c_ c_ c_ c_ c_ c_ c_ c_ c_ c_ c_ c_ c_ c_ c_ c_ c_ c_ c_ c_ c_ c_ c_ c_ c_ c_ c_ c_ c_ c_ c_ c_ c_ c_ c_ c_ c_ c_ c_ c_ c_ c_ c_ c_ c_ c_ c_ c_ c_ c_ c_ c_ c_ c_ c_ c_ c_ c_ c_ c_ c_ c_ c_ c_ c_ c_ c_ c_ c_ c_ c_ c_ c_ c_ c_ c_ c_ c_ c_ c_ c_ c_ c_ c_ c_ c_ c_ c_ c_ c_ c_ c_ c_ c_ c_ c_ c_ c_ c_ c_ c_ c_ c_ c_ c_ c_ c_ c_ c_ c_ c_ c_ c_ c_ c_ c_ c_ c_ c_ c_ c_ c_ c_ c_ c_ c_ c_ c_ c_ c_ c_ c_ c_ c_ c_ c_ c_ c_ c_ c_ c_ c_ c_ c_ c_ a{ c_ m% E- ZA BZ #+ C3 C3 C3 C3 h3 s1 T! }_ ,: c_ c_ c_ c_ c_ c_ c_ c_ c_ c_ c_ c_ c_ c_ c_ c_ c_ c_ c_ c_ c_ c_ c_ c_ c_ c_ c_ c_ c_ c_ c_ c_ c_ c_ c_ c_ c_ c_ c_ c_ c_ c_ c_ c_ c_ c_ c_ c_ .: @w /Z FD /7 k+ 0) ll v4 _D AJ 7P Q& ;, ( .4; !..T; }; +..9= GJ F* 7& U% y% 2% %% ;% <$ <$ <$ <$ <$ <$ <$ <$ <$ S# (# E@ E@ !@ r+ ~+ -+ #+ 9. D  `. z  L< w_ 0: *< 9[ 0[ m[ m[ ^T /T /T /T /T j` h .h .#..* .* .* .* .W .6 .6 .6 .~..%..m] m] m] m] ,V ,V ,V Xo eP eP eP eP b4 {..^M >' /+ =. =. =. =. =. =. =. =. =. =. =. =. =. =. =. =. =. =. =. =. ",
"9 .9 .9 .9 .9 .9 .9 .9 .9 .]..J .J .J ., .Z} :C :C :C :C :C :C :C hV #U #U #U Gq $U $U $U $U $U $U $U $U $U $U &Z &Z ^..FP FP FP FP FP FP /..@ .@ .@ .@ .QZ (..e .[) &< 8: *< 0: a: E~ z  A  `. F  9. n+ %+ U+ U+ D@ /# ~@ E@ (# S# <$ <$ <$ <$ <$ G$ Y$ %% 2% y% R% _' D& }* oA Y- ]; H; ,..T; _..0] /= Y* G* 'K !G Ey @y =n Jh 5f R{ F~ ;8 L5 c_ c_ c_ c_ c_ c_ c_ c_ c_ c_ c_ c_ c_ c_ c_ c_ c_ c_ c_ c_ c_ c_ c_ c_ c_ c_ c_ c_ c_ c_ c_ c_ c_ c_ c_ c_ c_ c_ c_ c_ c_ c_ c_ c_ l2 c_ !~ v# L4 C3 C3 C3 C3 C3 Xa Go vH )..a{ c_ c_ c_ c_ c_ c_ c_ c_ c_ c_ c_ c_ c_ c_ c_ c_ c_ c_ c_ c_ c_ c_ c_ c_ c_ c_ c_ c_ c_ c_ c_ c_ c_ c_ c_ c_ c_ c_ c_ c_ c_ c_ c_ c_ c_ c_ c_ c_ c_ c_ c_ c_ c_ c_ c_ c_ c_ c_ c_ c_ c_ c_ c_ c_ c_ c_ c_ c_ c_ c_ c_ c_ c_ c_ c_ c_ c_ c_ c_ c_ c_ c_ c_ c_ c_ c_ c_ c_ c_ c_ c_ c_ c_ c_ c_ c_ c_ c_ c_ c_ c_ c_ c_ c_ c_ c_ c_ c_ c_ c_ c_ c_ c_ c_ c_ c_ c_ c_ c_ c_ c_ c_ c_ c_ c_ c_ c_ c_ c_ c_ c_ c_ c_ c_ c_ c_ c_ c_ c_ c_ c_ c_ c_ c_ c_ c_ c_ c_ c_ c_ c_ c_ c_ c_ c_ c_ c_ c_ c_ c_ c_ c_ a{ [< l% h# XZ BZ #+ C3 C3 C3 C3 h3 s1 T! }_ ,: c_ c_ c_ c_ c_ c_ c_ c_ c_ c_ c_ c_ c_ c_ c_ c_ c_ c_ c_ c_ c_ c_ c_ c_ c_ c_ c_ c_ c_ c_ c_ c_ c_ c_ c_ c_ c_ c_ c_ c_ c_ c_ c_ c_ c_ c_ c_ c_ }~ E- YD FD /7 k+ 0) ll v4 _D AJ 7P Q& ;, ( .4; !..T; }; +..9= GJ F* 7& U% y% 2% %% ;% <$ <$ <$ <$ <$ <$ <$ <$ <$ S# (# E@ E@ !@ r+ ~+ -+ #+ 9. D  `. z  L< w_ 0: *< 9[ 0[ m[ m[ h9 :../T /T /T /T <..h .h .#..* .* .* .6 .6 .6 .6 .[..%..m] m] m] m] ,V ,V ,V eP eP eP eP eP eP }..^M Z .Xz =. =. =. =. =. =. =. =. =. =. =. =. =. =. =. =. =. =. =. =. ",
"9 .9 .9 .9 .9 .9 .9 .9 .9 .9 .*..J .J .J .J .Z} :C :C :C :C :C :C 2Y #U #U #U #U |U $U $U $U $U $U $U $U $U $U &Z &Z |..FP FP FP FP FP FP y+ @ .@ .@ .@ .AU .R .R [) &< 8: *< 0: a: E~ z  A  `. F  9. n+ %+ U+ U+ D@ /# ~@ E@ (# S# <$ <$ <$ <$ <$ G$ .% %% 2% y% R% _' D& }* oA Y- ]; H; ,..W; _..0] /= Y* <M 'K !G Ey @y =n Jh 5f R{ F~ rs L5 c_ c_ c_ c_ c_ c_ c_ c_ c_ c_ c_ c_ c_ c_ c_ c_ c_ c_ c_ c_ c_ c_ c_ c_ c_ c_ c_ c_ c_ c_ c_ c_ c_ c_ c_ c_ c_ c_ c_ c_ c_ c_ c_ c_ l2 c_ !~ v# L4 C3 C3 C3 C3 C3 T+ _n k% c_ a{ c_ c_ c_ c_ c_ c_ c_ c_ c_ c_ c_ c_ c_ c_ c_ c_ c_ c_ c_ c_ c_ c_ c_ c_ c_ c_ c_ c_ c_ c_ c_ c_ c_ c_ c_ c_ c_ c_ c_ c_ c_ c_ c_ c_ c_ c_ c_ c_ c_ c_ c_ c_ c_ c_ c_ c_ c_ c_ c_ c_ c_ c_ c_ c_ c_ c_ c_ c_ c_ c_ c_ c_ c_ c_ c_ c_ c_ c_ c_ c_ c_ c_ c_ c_ c_ c_ c_ c_ c_ c_ c_ c_ c_ c_ c_ c_ c_ c_ c_ c_ c_ c_ c_ c_ c_ c_ c_ c_ c_ c_ c_ c_ c_ c_ c_ c_ c_ c_ c_ c_ c_ c_ c_ c_ c_ c_ c_ c_ c_ c_ c_ c_ c_ c_ c_ c_ c_ c_ c_ c_ c_ c_ c_ c_ c_ c_ c_ c_ c_ c_ c_ c_ c_ c_ c_ c_ c_ c_ c_ c_ c_ c_ a{ D5 ~` C6 1..BZ #+ E  C3 C3 C3 h3 s1 T! }_ ,: c_ c_ c_ c_ c_ c_ c_ c_ c_ c_ c_ c_ c_ c_ c_ c_ c_ c_ c_ c_ c_ c_ c_ c_ c_ c_ c_ c_ c_ c_ c_ c_ c_ c_ c_ c_ c_ c_ c_ c_ c_ c_ c_ c_ c_ c_ c_ c_ / .yx 2..FD /7 k+ 0) ll v4 _D AJ 7P Q& ;, ( .4; !..T; }; +..9= GJ F* 7& U% y% 2% %% ;% <$ <$ <$ <$ <$ <$ <$ <$ <$ S# (# E@ E@ !@ r+ ~+ -+ #+ 9. D  `. z  L< w_ 0: *< 9[ 0[ m[ m[ q] 3..EZ /T /T /T 8` h .h .h .j .* .* .6 .6 .6 .6 .4..%..m] m] m] 8 .,V ,V ,V eP eP eP eP eP eP a4 ^M 5..=. =. =. =. =. =. =. =. =. =. =. =. =. =. =. =. =. =. =. =. =. ",
"9 .9 .9 .9 .9 .9 .9 .9 .9 .9 .6..J .J .J .J .nC :C :C :C :C :C :C KA #U #U #U #U Gq $U $U $U $U $U $U $U $U $U &Z &Z cq FP FP FP FP FP FP jP @ .@ .@ .@ ..R .R .R [) &< 8: *< 0: a: E~ z  A  `. F  9. n+ %+ U+ U+ D@ /# ~@ E@ (# S# <$ <$ <$ <$ <$ G$ .% %% 2% y% R% _' D& }* oA Y- ]; H; W; U; Q .0] /= Y* <M 7..!G Ey @y =n Jh 5f R{ F~ Gj L5 c_ c_ c_ c_ c_ c_ c_ c_ c_ c_ c_ c_ c_ c_ c_ c_ c_ c_ c_ c_ c_ c_ c_ c_ c_ c_ c_ c_ c_ c_ c_ c_ c_ c_ c_ c_ c_ c_ c_ c_ c_ c_ c_ c_ l2 c_ !~ v# L4 C3 C3 C3 C3 C3 T+ _n k% c_ a{ c_ c_ c_ c_ c_ c_ c_ c_ c_ c_ c_ c_ c_ c_ c_ c_ c_ c_ c_ c_ c_ c_ c_ c_ c_ c_ c_ c_ c_ c_ c_ c_ c_ c_ c_ c_ c_ c_ c_ c_ c_ c_ c_ c_ c_ c_ c_ c_ c_ c_ c_ c_ c_ c_ c_ c_ c_ c_ c_ c_ c_ c_ c_ c_ c_ c_ c_ c_ c_ c_ c_ c_ c_ c_ c_ c_ c_ c_ c_ c_ c_ c_ c_ c_ c_ c_ c_ c_ c_ c_ c_ c_ c_ c_ c_ c_ c_ c_ c_ c_ c_ c_ c_ c_ c_ c_ c_ c_ c_ c_ c_ c_ c_ c_ c_ c_ c_ c_ c_ c_ c_ c_ c_ c_ c_ c_ c_ c_ c_ c_ c_ c_ c_ c_ c_ c_ c_ c_ c_ c_ c_ c_ c_ c_ c_ c_ c_ c_ c_ c_ c_ c_ c_ c_ c_ c_ c_ c_ c_ c_ c_ c_ [< 3% @w )5 69 BZ #+ E  C3 C3 C3 h3 s1 T! }_ ,: c_ c_ c_ c_ c_ c_ c_ c_ c_ c_ c_ c_ c_ c_ c_ c_ c_ c_ c_ c_ c_ c_ c_ c_ c_ c_ c_ c_ c_ c_ c_ c_ c_ c_ c_ c_ c_ c_ c_ c_ c_ c_ c_ c_ c_ c_ c_ c_ / .8..lm FD /7 k+ 0) ll v4 _D AJ 7P Q& ;, ( .4; Q; 9..}; +..9= GJ F* 7& U% y% 2% %% ;% <$ <$ <$ <$ <$ <$ <$ <$ <$ S# (# E@ E@ !@ r+ ~+ -+ #+ 9. D  `. z  L< w_ 0: *< 9[ 0[ m[ m[ q] 3..3..0../T /T /T j` h .h .i .a..b..6 .6 .6 .6 .c..%..m] + .d..,V ,V ,V ,V eP eP eP eP eP eP eP Y .^M J) =. =. =. =. =. =. =. =. =. =. =. =. =. =. =. =. =. =. =. =. ",
"9 .9 .9 .9 .9 .9 .9 .9 .9 .9 .` .J .J .J .nC :C :C :C :C :C :C :C #Z #U #U #U #U =..$U $U $U $U $U $U $U $U $U &Z &Z EY FP FP FP FP FP FP e..@ .@ .@ .)S .R .R .R [) &< 8: *< 0: a: E~ z  A  `. F  9. n+ %+ U+ U+ D@ /# ~@ E@ (# S# <$ <$ <$ <$ <$ G$ .% %% 2% y% R% _' D& }* oA Y- ]; H; W; W; Q .0] /= Y* <M 'K !G Ey @y =n Jh 5f R{ F~ Gj }% c_ c_ c_ c_ c_ c_ c_ c_ c_ c_ c_ c_ c_ c_ c_ c_ c_ c_ c_ c_ c_ c_ c_ c_ c_ c_ c_ c_ c_ c_ c_ c_ c_ c_ c_ c_ c_ c_ c_ c_ c_ c_ c_ c_ l2 c_ !~ v# L4 C3 C3 C3 C3 C3 T+ f..l% c_ a{ c_ c_ c_ c_ c_ c_ c_ c_ c_ c_ c_ c_ c_ c_ c_ c_ c_ c_ c_ c_ c_ c_ c_ c_ c_ c_ c_ c_ c_ c_ c_ c_ c_ c_ c_ c_ c_ c_ c_ c_ c_ c_ c_ c_ c_ c_ c_ c_ c_ c_ c_ c_ c_ c_ c_ c_ c_ c_ c_ c_ c_ c_ c_ c_ c_ c_ c_ c_ c_ c_ c_ c_ c_ c_ c_ c_ c_ c_ c_ c_ c_ c_ c_ c_ c_ c_ c_ c_ c_ c_ c_ c_ c_ c_ c_ c_ c_ c_ c_ c_ c_ c_ c_ c_ c_ c_ c_ c_ c_ c_ c_ c_ c_ c_ c_ c_ c_ c_ c_ c_ c_ c_ c_ c_ c_ c_ c_ c_ c_ c_ c_ c_ c_ c_ c_ c_ c_ c_ c_ c_ c_ c_ c_ c_ c_ c_ c_ c_ c_ c_ c_ c_ c_ c_ c_ c_ c_ c_ c_ c_ c_ c_ 6N $y Z7 u6 k0 Jh #+ E  C3 C3 C3 h3 s1 T! }_ ,: c_ c_ c_ c_ c_ c_ c_ c_ c_ c_ c_ c_ c_ c_ c_ c_ c_ c_ c_ c_ c_ c_ c_ c_ c_ c_ c_ c_ c_ c_ c_ c_ c_ c_ c_ c_ c_ c_ c_ c_ c_ c_ c_ c_ c_ c_ c_ c_ / .=L mm FD /7 k+ 0) ll v4 _D AJ 7P Q& ;, ( .4; !..T; }; +..9= GJ F* 7& U% y% 2% %% ;% <$ <$ <$ <$ <$ <$ <$ <$ <$ S# (# E@ E@ !@ r+ ~+ -+ #+ 9. D  `. z  L< w_ 0: *< 9[ 0[ m[ m[ q] 3..3..g../T /T /T /T <..h .h .i .b..6 .6 .6 .6 .h..%..+ .> .,V ,V ,V ,V i..eP eP eP eP eP eP eP -W ^M '7 =. =. =. =. =. =. =. =. =. =. =. =. =. =. =. =. =. =. =. =. ",
"9 .9 .9 .9 .9 .9 .9 .9 .9 .9 .` .J .J .J .K .<C J .nC :C :C :C :C :C hV #U #U #U #U mi $U $U $U $U $U $U $U EY &Z &Z $U FP FP FP FP FP FP j..@ .@ .@ ..R .R .R .R [) &< 8: *< 0: a: E~ z  A  `. F  9. n+ %+ U+ U+ D@ /# ~@ E@ (# S# <$ <$ <$ <$ <$ G$ .% %% 2% y% R% _' D& }* oA Y- ]; H; ,..T; _..0] /= Y* G* 'K !G Ey @y =n Jh 5f R{ F~ Gj }% c_ c_ c_ c_ c_ c_ c_ c_ c_ c_ c_ c_ c_ c_ c_ c_ c_ c_ c_ c_ c_ c_ c_ c_ c_ c_ c_ c_ c_ c_ c_ c_ c_ c_ c_ c_ c_ c_ c_ c_ c_ c_ c_ c_ l2 c_ !~ v# L4 C3 C3 C3 C3 E  T+ k..2% ,: a{ c_ c_ c_ c_ c_ c_ c_ c_ c_ c_ c_ c_ c_ c_ c_ c_ c_ c_ c_ c_ c_ c_ c_ c_ c_ c_ c_ c_ c_ c_ c_ c_ c_ c_ c_ c_ c_ c_ c_ c_ c_ c_ c_ c_ c_ c_ c_ c_ c_ c_ c_ c_ c_ c_ c_ c_ c_ c_ c_ c_ c_ c_ c_ c_ c_ c_ c_ c_ c_ c_ c_ c_ c_ c_ c_ c_ c_ c_ c_ c_ c_ c_ c_ c_ c_ c_ c_ c_ c_ c_ c_ c_ c_ c_ c_ c_ c_ c_ c_ c_ c_ c_ c_ c_ c_ c_ c_ c_ c_ c_ c_ c_ c_ c_ c_ c_ c_ c_ c_ c_ c_ c_ c_ c_ c_ c_ c_ c_ c_ c_ c_ c_ c_ c_ c_ c_ c_ c_ c_ c_ c_ c_ c_ c_ c_ c_ c_ c_ c_ c_ c_ c_ c_ c_ c_ c_ c_ c_ c_ c_ c_ 2[ Nw $8 25 25 k0 Jh #+ E  C3 C3 C3 h3 s1 T! }_ ,: c_ c_ c_ c_ c_ c_ c_ c_ c_ c_ c_ c_ c_ c_ c_ c_ c_ c_ c_ c_ c_ c_ c_ c_ c_ c_ c_ c_ c_ c_ c_ c_ c_ c_ c_ c_ c_ c_ c_ c_ c_ c_ c_ c_ c_ c_ c_ c_ zx ,q mm FD /7 k+ 0) ll v4 _D AJ 7P Q& ;, ( .4; 7> X; [; +..9= GJ F* 7& U% y% 2% %% ;% <$ <$ <$ <$ <$ <$ <$ <$ <$ S# (# E@ E@ !@ r+ ~+ -+ #+ 9. D  `. z  L< w_ 0: *< 9[ 0[ m[ m[ q] 3..3..3..0../T /T /T 8` h .h .h .l..6 .6 .6 .6 .G .%..> .,V ,V ,V ,V ,V i..eP eP eP eP eP eP eP m..^M c9 =. =. =. =. =. =. =. =. =. =. =. =. =. =. =. =. =. =. =. =. ",
"9 .9 .9 .9 .9 .9 .9 .9 .9 .9 .]..J .J .J .J .J .J .K .:C :C :C :C :C  s #U #U #U #U Gq $U $U $U $U $U $U $U cq &Z &Z $U FP FP FP FP FP FP @ .@ .@ .;...R .R .R .R [) &< 8: *< 0: a: E~ z  A  `. F  9. n+ %+ U+ U+ D@ /# ~@ E@ (# S# <$ <$ <$ <$ <$ G$ .% %% 2% y% R% _' D& }* oA Y- ]; H; ,..T; Q .A ./= Y* G* 'K !G Ey @y =n Jh 5f R{ F~ Eo i% [< c_ c_ c_ c_ c_ c_ c_ c_ c_ c_ c_ c_ c_ c_ c_ c_ c_ c_ c_ c_ c_ c_ c_ c_ c_ c_ c_ c_ c_ c_ c_ c_ c_ c_ c_ c_ c_ c_ c_ c_ c_ c_ c_ l2 c_ !~ v# L4 C3 C3 C3 C3 D  T+ =n m% l2 a{ c_ c_ c_ c_ c_ c_ c_ c_ c_ c_ c_ c_ c_ c_ c_ c_ c_ c_ c_ c_ c_ c_ c_ c_ c_ c_ c_ c_ c_ c_ c_ c_ c_ c_ c_ c_ c_ c_ c_ c_ c_ c_ c_ c_ c_ c_ c_ c_ c_ c_ c_ c_ c_ c_ c_ c_ c_ c_ c_ c_ c_ c_ c_ c_ c_ c_ c_ c_ c_ c_ c_ c_ c_ c_ c_ c_ c_ c_ c_ c_ c_ c_ c_ c_ c_ c_ c_ c_ c_ c_ c_ c_ c_ c_ c_ c_ c_ c_ c_ c_ c_ c_ c_ c_ c_ c_ c_ c_ c_ c_ c_ c_ c_ c_ c_ c_ c_ c_ c_ c_ c_ c_ c_ c_ c_ c_ c_ c_ c_ c_ c_ c_ c_ c_ c_ c_ c_ c_ c_ c_ c_ c_ c_ c_ c_ c_ c_ c_ c_ c_ c_ c_ c_ c_ c_ c_ c_ c_ c_ c_ D5 %) C6 25 25 J6 k0 Jh #+ E  C3 C3 C3 h3 s1 T! }_ ,: c_ c_ c_ c_ c_ c_ c_ c_ c_ c_ c_ c_ c_ c_ c_ c_ c_ c_ c_ c_ c_ c_ c_ c_ c_ c_ c_ c_ c_ c_ c_ c_ c_ c_ c_ c_ c_ c_ c_ c_ c_ c_ c_ c_ c_ c_ c_ c_ zx ~` XA L8 /7 k+ 0) ll v4 _D AJ 7P Q& ;, ( ._ .7> X; [; +..9= GJ F* 7& U% y% 2% %% ;% <$ <$ <$ <$ <$ <$ <$ <$ <$ S# (# E@ E@ !@ r+ ~+ -+ #+ 9. D  `. z  L< w_ 0: *< 9[ 0[ m[ m[ q] 3..3..3..nZ /T /T /T /T j` h .h .h .n..6 .6 .6 .6 .o..p..,V ,V ,V ,V ,V q..eP eP eP eP eP eP eP j@ ^M C= C= =. =. =. =. =. =. =. =. =. =. =. =. =. =. =. =. =. =. =. ",
"9 .9 .9 .9 .9 .9 .9 .9 .9 .9 .9 .*..J .J .J .J .J .Z} :C :C :C :C :C :C Im #U #U #U =..|U $U $U $U $U $U $U cq &Z &Z $U FP FP FP FP FP FP @ .@ .@ .;...R .R .R .R [) &< 8: *< 0: a: E~ z  A  `. F  9. n+ %+ U+ U+ D@ /# ~@ E@ (# S# <$ <$ <$ <$ <$ G$ .% %% 2% y% R% _' D& }* oA Z- ]; 3> X; T; Q .A ./= X* G* 'K !G Ey @y =n Jh 5f R{ F~ >r .) 2[ c_ c_ c_ c_ c_ c_ c_ c_ c_ c_ c_ c_ c_ c_ c_ c_ c_ c_ c_ c_ c_ c_ c_ c_ c_ c_ c_ c_ c_ c_ c_ c_ c_ c_ c_ c_ c_ c_ c_ c_ c_ c_ c_ l2 c_ !~ v# L4 C3 C3 C3 C3 c/ M7 wH >8 l2 a{ c_ c_ c_ c_ c_ c_ c_ c_ c_ c_ c_ c_ c_ c_ c_ c_ c_ c_ c_ c_ c_ c_ c_ c_ c_ c_ c_ c_ c_ c_ c_ c_ c_ c_ c_ c_ c_ c_ c_ c_ c_ c_ c_ c_ c_ c_ c_ c_ c_ c_ c_ c_ c_ c_ c_ c_ c_ c_ c_ c_ c_ c_ c_ c_ c_ c_ c_ c_ c_ c_ c_ c_ c_ c_ c_ c_ c_ c_ c_ c_ c_ c_ c_ c_ c_ c_ c_ c_ c_ c_ c_ c_ c_ c_ c_ c_ c_ c_ c_ c_ c_ c_ c_ c_ c_ c_ c_ c_ c_ c_ c_ c_ c_ c_ c_ c_ c_ c_ c_ c_ c_ c_ c_ c_ c_ c_ c_ c_ c_ c_ c_ c_ c_ c_ c_ c_ c_ c_ c_ c_ c_ c_ c_ c_ c_ c_ c_ c_ c_ c_ c_ c_ c_ c_ c_ c_ c_ c_ c_ V~ l% C6 25 25 25 E5 Oa Jh #+ E  C3 C3 C3 h3 s1 T! }_ ,: c_ c_ c_ c_ c_ c_ c_ c_ c_ c_ c_ c_ c_ c_ c_ c_ c_ c_ c_ c_ c_ c_ c_ c_ c_ c_ c_ c_ c_ c_ c_ c_ c_ c_ c_ c_ c_ c_ c_ c_ c_ c_ c_ c_ c_ c_ c_ c_ D: vH ZA L8 /7 k+ 0) ll v4 _D JI 7P VA ;, ( .4; 7> X; [; <L 9= GJ F* 7& U% y% 2% %% ;% <$ <$ <$ <$ <$ <$ <$ <$ <$ S# (# E@ E@ !@ r+ ~+ -+ #+ 9. D  `. z  L< w_ 0: *< 9[ 0[ m[ m[ q] 3..3..3..3..:../T /T /T /T K` h .h .r..6 .6 .6 .7 .s..s..t..,V ,V ,V ,V u..eP eP eP eP eP eP eP }` ^M C= l& =. =. =. =. =. =. =. =. =. =. =. =. =. =. =. =. =. =. =. ",
"9 .9 .9 .9 .9 .9 .9 .9 .9 .9 .9 .]..J .J .J .J .J .K .:C :C :C :C :C :C :C $Z #U #U #U iV $U $U $U $U $U $U cq &Z &Z $U FP FP FP FP FP FP @ .@ .@ .@ ..R .R .R .R [) &< 8: *< 0: a: E~ z  A  `. F  9. n+ %+ U+ U+ D@ /# ~@ E@ (# S# <$ <$ <$ <$ <$ G$ .% %% 2% A% c& <& D& }* oA Z- ]; %> Y; X; [> A .R .D] G* 'K !G Ey @y =n Jh 5f R{ F~ >u Me gD c_ c_ c_ c_ c_ c_ c_ c_ c_ c_ c_ c_ c_ c_ c_ c_ c_ c_ c_ c_ c_ c_ c_ c_ c_ c_ c_ c_ c_ c_ c_ c_ c_ c_ c_ c_ c_ c_ c_ c_ c_ c_ c_ l2 c_ !~ v# L4 C3 C3 C3 C3 c/ M7 Ng >8 l2 a{ c_ c_ c_ c_ c_ c_ c_ c_ c_ c_ c_ c_ c_ c_ c_ c_ c_ c_ c_ c_ c_ c_ c_ c_ c_ c_ c_ c_ c_ c_ c_ c_ c_ c_ c_ c_ c_ c_ c_ c_ c_ c_ c_ c_ c_ c_ c_ c_ c_ c_ c_ c_ c_ c_ c_ c_ c_ c_ c_ c_ c_ c_ c_ c_ c_ c_ c_ c_ c_ c_ c_ c_ c_ c_ c_ c_ c_ c_ c_ c_ c_ c_ c_ c_ c_ c_ c_ c_ c_ c_ c_ c_ c_ c_ c_ c_ c_ c_ c_ c_ c_ c_ c_ c_ c_ c_ c_ c_ c_ c_ c_ c_ c_ c_ c_ c_ c_ c_ c_ c_ c_ c_ c_ c_ c_ c_ c_ c_ c_ c_ c_ c_ c_ c_ c_ c_ c_ c_ c_ c_ c_ c_ c_ c_ c_ c_ c_ c_ c_ c_ c_ c_ c_ c_ c_ c_ c_ c_ a{ }~ $y /6 25 25 25 E5 Oa Jh #+ E  C3 C3 C3 h3 s1 T! }_ ,: c_ c_ c_ c_ c_ c_ c_ c_ c_ c_ c_ c_ c_ c_ c_ c_ c_ c_ c_ c_ c_ c_ c_ c_ c_ c_ c_ c_ c_ c_ c_ c_ c_ c_ c_ c_ c_ c_ c_ c_ c_ c_ c_ c_ c_ c_ c_ c_ V~ l% ZA L8 /7 k+ 0) ll v4 _D JI 7P VA ;, )J 'W Z; Y; [; <L ]= GJ F* 7& U% y% 2% %% ;% <$ <$ <$ <$ <$ <$ <$ <$ <$ S# (# E@ E@ !@ r+ ~+ -+ #+ 9. D  `. z  L< w_ 0: *< 9[ 0[ m[ m[ q] 3..3..3..3../` /T /T /T /T /T K` h .h .q .6 .6 .v..s..s..w..x..y..,V ,V z..eP eP eP eP eP A..^M ^M ^M C= :C *. =. =. =. =. =. =. =. =. =. =. =. =. =. =. =. =. =. =. ",
"9 .9 .9 .9 .9 .9 .9 .9 .9 .9 .9 .9 .*..J .J .J .J .J .l& :C :C :C :C :C :C :C #U #U #U #U -X $U $U $U $U $U cq &Z &Z $U FP FP FP FP FP FP @ .@ .T` @ .AU .R .R .R [) &< 8: *< 0: a: E~ z  A  `. F  9. n+ %+ U+ U+ D@ /# ~@ E@ (# S# <$ <$ <$ <$ <$ G$ .% %% 2% A% R% <& D& }* %= Z- ]; %> Y; X; Q .A .R .D] G* 'K !G Ey @y =n Jh 5f R{ F~ t# Fo 3% [< c_ c_ c_ c_ c_ c_ c_ c_ c_ c_ c_ c_ c_ c_ c_ c_ c_ c_ c_ c_ c_ c_ c_ c_ c_ c_ c_ c_ c_ c_ c_ c_ c_ c_ c_ c_ c_ c_ c_ c_ c_ c_ l2 c_ !~ v# L4 C3 C3 C3 C3 D  M7 `' >8 l2 a{ c_ c_ c_ c_ c_ c_ c_ c_ c_ c_ c_ c_ c_ c_ c_ c_ c_ c_ c_ c_ c_ c_ c_ c_ c_ c_ c_ c_ c_ c_ c_ c_ c_ c_ c_ c_ c_ c_ c_ c_ c_ c_ c_ c_ c_ c_ c_ c_ c_ c_ c_ c_ c_ c_ c_ c_ c_ c_ c_ c_ c_ c_ c_ c_ c_ c_ c_ c_ c_ c_ c_ c_ c_ c_ c_ c_ c_ c_ c_ c_ c_ c_ c_ c_ c_ c_ c_ c_ c_ c_ c_ c_ c_ c_ c_ c_ c_ c_ c_ c_ c_ c_ c_ c_ c_ c_ c_ c_ c_ c_ c_ c_ c_ c_ c_ c_ c_ c_ c_ c_ c_ c_ c_ c_ c_ c_ c_ c_ c_ c_ c_ c_ c_ c_ c_ c_ c_ c_ c_ c_ c_ c_ c_ c_ c_ c_ c_ c_ c_ c_ c_ c_ c_ c_ c_ c_ c_ c_ c_ }~ o' E5 25 25 25 E5 Oa Jh #+ E  C3 C3 C3 h3 s1 T! }_ ,: c_ c_ c_ c_ c_ c_ c_ c_ c_ c_ c_ c_ c_ c_ c_ c_ c_ c_ c_ c_ c_ c_ c_ c_ c_ c_ c_ c_ c_ c_ c_ c_ c_ c_ c_ c_ c_ c_ c_ c_ c_ c_ c_ c_ c_ c_ c_ c_ V~ l% im L8 /7 k+ 0) ll R6 _D JI 7P VA ;, )J 3; Z; Y; [; < .]= GJ F* 7& U% y% 2% %% ;% <$ <$ <$ <$ <$ <$ <$ <$ <$ S# (# E@ E@ !@ r+ ~+ -+ #+ 9. D  `. z  L< w_ 0: *< 9[ 0[ m[ m[ q] 3..3..3..3..3..0../T /T /T /T /T K` h .B..6 .6 .B..s..s..C..D..x..,V ,V K( eP eP eP eP eP ^M ^M ^M ^M C= :C <C =. =. =. =. =. =. =. =. =. =. =. =. =. =. =. =. =. =. ",
"9 .9 .9 .9 .9 .9 .9 .9 .9 .9 .9 .9 .]..J .J .J .J .J .J .<C :C :C :C :C :C :C Im #U #U #U TX $U $U $U $U $U cq &Z &Z $U FP FP FP FP FP FP @ .w .E..F..@ ..R .R .R [) &< 8: *< 0: a: E~ z  A  `. F  9. n+ %+ U+ U+ D@ /# ~@ E@ (# S# <$ <$ <$ <$ <$ G$ .% %% 2% A% R% <& D& }* %= Z- ]; %> Q; Y; ^ .A .% .D] G* 'K !G Ey @y =n Jh 5f R{ F~ t# im l% V~ c_ c_ c_ c_ c_ c_ c_ c_ c_ c_ c_ c_ c_ c_ c_ c_ c_ c_ c_ c_ c_ c_ c_ c_ c_ c_ c_ c_ c_ c_ c_ c_ c_ c_ c_ c_ c_ c_ c_ c_ c_ c_ l2 c_ !~ v# L4 C3 C3 C3 C3 D  =+ t5 wz l2 a{ c_ c_ c_ c_ c_ c_ c_ c_ c_ c_ c_ c_ c_ c_ c_ c_ c_ c_ c_ c_ c_ c_ c_ c_ c_ c_ c_ c_ c_ c_ c_ c_ c_ c_ c_ c_ c_ c_ c_ c_ c_ c_ c_ c_ c_ c_ c_ c_ c_ c_ c_ c_ c_ c_ c_ c_ c_ c_ c_ c_ c_ c_ c_ c_ c_ c_ c_ c_ c_ c_ c_ c_ c_ c_ c_ c_ c_ c_ c_ c_ c_ c_ c_ c_ c_ c_ c_ c_ c_ c_ c_ c_ c_ c_ c_ c_ c_ c_ c_ c_ c_ c_ c_ c_ c_ c_ c_ c_ c_ c_ c_ c_ c_ c_ c_ c_ c_ c_ c_ c_ c_ c_ c_ c_ c_ c_ c_ c_ c_ c_ c_ c_ c_ c_ c_ c_ c_ c_ c_ c_ c_ c_ c_ c_ c_ c_ c_ c_ c_ c_ c_ c_ c_ c_ c_ c_ c_ c_ a{ V~ |% Z  25 25 25 E5 Oa Jh #+ E  C3 C3 C3 h3 s1 T! }_ ,: c_ c_ c_ c_ c_ c_ c_ c_ c_ c_ c_ c_ c_ c_ c_ c_ c_ c_ c_ c_ c_ c_ c_ c_ c_ c_ c_ c_ c_ c_ c_ c_ c_ c_ c_ c_ c_ c_ c_ c_ c_ c_ c_ c_ c_ c_ c_ c_ V~ 5% N4 L8 /7 k+ 0) ll R6 _D JI 7P VA ;, )J 3; 6> Q; [; pK ]= d* _* 7& U% y% 2% %% ;% <$ <$ <$ <$ <$ <$ <$ <$ <$ S# (# E@ E@ !@ r+ ~+ -+ #+ 9. D  `. z  L< w_ 0: *< 9[ 0[ m[ m[ q] 3..3..3..3..3..3..nZ G../T /T /T /T H..I..6 .6 .J..s..s..K..D..D..L..,V k1 eP eP eP eP eP ^M ^M ^M ^M C= :C :C p@ =. =. =. =. =. =. =. =. =. =. =. =. =. =. =. =. =. ",
"9 .9 .9 .9 .9 .9 .9 .9 .9 .9 .9 .9 .9 .*..J .J .J .J .J .J .l& :C :C :C :C :C #Z #U #U #U #U mi $U $U $U $U eI &Z &Z $U FP FP FP FP FP FP @ .E..E..E..F..AU .R .R [) &< 8: *< 0: a: E~ z  A  `. F  9. n+ %+ U+ U+ D@ /# ~@ E@ (# S# <$ <$ <$ <$ <$ G$ .% %% 2% A% R% <& D& }* %= Y- ]; %> Q; Y; ^ .U` % .D] F* 'K )K Ey @y =n Jh 5f R{ F~ t# im 2% [< c_ c_ c_ c_ c_ c_ c_ c_ c_ c_ c_ c_ c_ c_ c_ c_ c_ c_ c_ c_ c_ c_ c_ c_ c_ c_ c_ c_ c_ c_ c_ c_ c_ c_ c_ c_ c_ c_ c_ c_ c_ c_ l2 c_ !~ v# L4 C3 C3 C3 C3 C3 U+ n; .: l2 a{ c_ c_ c_ c_ c_ c_ c_ c_ c_ c_ c_ c_ c_ c_ c_ c_ c_ c_ c_ c_ c_ c_ c_ c_ c_ c_ c_ c_ c_ c_ c_ c_ c_ c_ c_ c_ c_ c_ c_ c_ c_ c_ c_ c_ c_ c_ c_ c_ c_ c_ c_ c_ c_ c_ c_ c_ c_ c_ c_ c_ c_ c_ c_ c_ c_ c_ c_ c_ c_ c_ c_ c_ c_ c_ c_ c_ c_ c_ c_ c_ c_ c_ c_ c_ c_ c_ c_ c_ c_ c_ c_ c_ c_ c_ c_ c_ c_ c_ c_ c_ c_ c_ c_ c_ c_ c_ c_ c_ c_ c_ c_ c_ c_ c_ c_ c_ c_ c_ c_ c_ c_ c_ c_ c_ c_ c_ c_ c_ c_ c_ c_ c_ c_ c_ c_ c_ c_ c_ c_ c_ c_ c_ c_ c_ c_ c_ c_ c_ c_ c_ c_ c_ c_ c_ c_ c_ c_ c_ c_ c_ .: yx /6 25 25 E5 Oa Jh #+ E  C3 C3 C3 h3 s1 T! }_ ,: c_ c_ c_ c_ c_ c_ c_ c_ c_ c_ c_ c_ c_ c_ c_ c_ c_ c_ c_ c_ c_ c_ c_ c_ c_ c_ c_ c_ c_ c_ c_ c_ c_ c_ c_ c_ c_ c_ c_ c_ c_ c_ c_ c_ c_ c_ c_ c_ Bx n% v6 L8 /7 k+ 0) ll R6 _D JI 7P nA ;, )J 3; `; Z; 1> 5K zZ d* _* 7& U% y% 2% %% ;% <$ <$ <$ <$ <$ <$ <$ <$ <$ S# (# E@ E@ !@ r+ ~+ -+ #+ 9. D  `. z  L< w_ 0: *< 9[ 0[ m[ m[ q] 3..3..3..3..3..3..3..3..3..M..EZ :../T /T N..6 .7 .s..s..K..D..D..O..,V eP eP eP eP eP eP l1 ^M ^M ^M C= :C :C , .=. =. =. =. =. =. =. =. =. =. =. =. =. =. =. =. =. ",
"9 .9 .9 .9 .9 .9 .9 .9 .9 .9 .9 .9 .9 .]..J .J .J .J .J .J .J .l& :C :C :C :C :C hV #U #U #U BR $U $U $U $U $U &Z &Z P..=U FP FP FP FP FP @ .Q..R..Q..E..w .+R .R [) &< 8: *< 0: a: E~ z  A  `. F  9. n+ %+ U+ U+ D@ /# ~@ E@ (# S# <$ <$ <$ <$ <$ G$ .% %% 2% B% R% <& D& }* %= Y- ]; %> Q; Q; $ .U` % .D] F* 'K )K Ey @y =n Jh 5f R{ F~ >u qp m% c_ c_ c_ c_ c_ c_ c_ c_ c_ c_ c_ c_ c_ c_ c_ c_ c_ c_ c_ c_ c_ c_ c_ c_ c_ c_ c_ c_ c_ c_ c_ c_ c_ c_ c_ c_ c_ c_ c_ c_ c_ c_ c_ l2 c_ !~ v# L4 C3 C3 C3 C3 C3 V  XG .: l2 a{ c_ c_ c_ c_ c_ c_ c_ c_ c_ c_ c_ c_ c_ c_ c_ c_ c_ c_ c_ c_ c_ c_ c_ c_ c_ c_ c_ c_ c_ c_ c_ c_ c_ c_ c_ c_ c_ c_ c_ c_ c_ c_ c_ c_ c_ c_ c_ c_ c_ c_ c_ c_ c_ c_ c_ c_ c_ c_ c_ c_ c_ c_ c_ c_ c_ c_ c_ c_ c_ c_ c_ c_ c_ c_ c_ c_ c_ c_ c_ c_ c_ c_ c_ c_ c_ c_ c_ c_ c_ c_ c_ c_ c_ c_ c_ c_ c_ c_ c_ c_ c_ c_ c_ c_ c_ c_ c_ c_ c_ c_ c_ c_ c_ c_ c_ c_ c_ c_ c_ c_ c_ c_ c_ c_ c_ c_ c_ c_ c_ c_ c_ c_ c_ c_ c_ c_ c_ c_ c_ c_ c_ c_ c_ c_ c_ c_ c_ c_ c_ c_ c_ c_ c_ c_ c_ c_ c_ c_ c_ c_ [< l% C6 25 25 E5 Oa Jh #+ E  C3 C3 C3 h3 s1 T! }_ ,: c_ c_ c_ c_ c_ c_ c_ c_ c_ c_ c_ c_ c_ c_ c_ c_ c_ c_ c_ c_ c_ c_ c_ c_ c_ c_ c_ c_ c_ c_ c_ c_ c_ c_ c_ c_ c_ c_ c_ c_ c_ c_ c_ c_ c_ c_ c_ c_ c_ / .`5 L8 /7 k+ 0) ll R6 _D JI 7P nA ;, )J 3; O; 7> 1> 5K zZ d* R& S..T..y% 2% %% ;% <$ <$ <$ <$ <$ <$ <$ <$ <$ S# (# E@ E@ !@ r+ ~+ -+ #+ 9. D  `. z  L< w_ 0: *< 9[ 0[ m[ m[ q] 3..3..3..3..3..3..3..3..3..3..3..3../` :../T U..V..v..s..W..D..D..X..Y..eP eP eP eP eP eP -W ^M ;o ;x l& :C :C Z} =. =. =. =. =. =. =. =. =. =. =. =. =. =. =. =. =. ",
"9 .9 .9 .9 .9 .9 .9 .9 .9 .9 .9 .9 .9 .9 .6..J .J .J .J .J .J .J .l& :C :C :C :C Im #U #U #U BR $U $U $U $U $U &Z &Z cq Z..FP FP FP FP FP @ .`..R.. +.E..F...+..R [) &< 8: *< 0: a: E~ z  A  `. F  9. n+ %+ U+ U+ D@ /# ~@ E@ (# S# <$ <$ <$ <$ <$ G$ .% %% 2% B% R% <& D& }* w, Y- ]; %> 7> Q; $ .U` % .D] F* 'K  J Ey @y =n Jh 5f R{ F~ >u $* .: c_ c_ c_ c_ c_ c_ c_ c_ c_ c_ c_ c_ c_ c_ c_ c_ c_ c_ c_ c_ c_ c_ c_ c_ c_ c_ c_ c_ c_ c_ c_ c_ c_ c_ c_ c_ c_ c_ c_ c_ c_ c_ c_ l2 c_ !~ v# L4 C3 C3 C3 C3 C3 V  Y$ }~ l2 a{ c_ c_ c_ c_ c_ c_ c_ c_ c_ c_ c_ c_ c_ c_ c_ c_ c_ c_ c_ c_ c_ c_ c_ c_ c_ c_ c_ c_ c_ c_ c_ c_ c_ c_ c_ c_ c_ c_ c_ c_ c_ c_ c_ c_ c_ c_ c_ c_ c_ c_ c_ c_ c_ c_ c_ c_ c_ c_ c_ c_ c_ c_ c_ c_ c_ c_ c_ c_ c_ c_ c_ c_ c_ c_ c_ c_ c_ c_ c_ c_ c_ c_ c_ c_ c_ c_ c_ c_ c_ c_ c_ c_ c_ c_ c_ c_ c_ c_ c_ c_ c_ c_ c_ c_ c_ c_ c_ c_ c_ c_ c_ c_ c_ c_ c_ c_ c_ c_ c_ c_ c_ c_ c_ c_ c_ c_ c_ c_ c_ c_ c_ c_ c_ c_ c_ c_ c_ c_ c_ c_ c_ c_ c_ c_ c_ c_ c_ c_ c_ c_ c_ c_ c_ c_ c_ c_ c_ c_ c_ c_ c_ m% 3m E5 25 E5 Oa Jh #+ E  C3 C3 C3 h3 s1 T! }_ ,: c_ c_ c_ c_ c_ c_ c_ c_ c_ c_ c_ c_ c_ c_ c_ c_ c_ c_ c_ c_ c_ c_ c_ c_ c_ c_ c_ c_ c_ c_ c_ c_ c_ c_ c_ c_ c_ c_ c_ c_ c_ c_ c_ c_ c_ c_ c_ c_ c_ / .`5 L8 /7 Z. 0) ll R6 _D JI 7P nA ;, @; 2; O; P; 1> 5K {= c* R& 5& T..y% 2% %% ;% <$ <$ <$ <$ <$ <$ <$ <$ <$ S# (# E@ E@ !@ r+ ~+ -+ #+ 9. D  `. z  L< w_ 0: *< 9[ 0[ m[ m[ q] 3..3..3..3..3..3..3..3..3..3..3..3..3..g..:../T ++.@+.s..#+.D..D..x..i..eP eP eP eP eP j@ rw OC 2Y #Z :C :C :C :C ZB =. =. =. =. =. =. =. =. =. =. =. =. =. =. =. =. ",
"9 .9 .9 .9 .9 .9 .9 .9 .9 .9 .9 .9 .9 .9 .9 .J .J .J .J .J .J .J .J .l& :C :C :C :C #U #U #U Nl $U $U $U $U $U L .&Z cq Z..FP FP FP FP FP T` R..R..R..$+.E..T` +R [) &< 8: *< 0: a: E~ z  A  `. F  9. n+ %+ U+ U+ D@ /# ~@ E@ (# S# <$ <$ <$ <$ <$ G$ .% %% 2% B% R% <& D& }* w, Y- ]; %> P; 7> %+.U` ^= D] F* 'K  J Ey @y =n Jh 5f R{ F~ Rp O4 8y c_ c_ c_ c_ c_ c_ c_ c_ c_ c_ c_ c_ c_ c_ c_ c_ c_ c_ c_ c_ c_ c_ c_ c_ c_ c_ c_ c_ c_ c_ c_ c_ c_ c_ c_ c_ c_ c_ c_ c_ c_ c_ c_ l2 c_ !~ v# L4 C3 C3 C3 C3 C3 ,@ -( 2[ l2 a{ c_ c_ c_ c_ c_ c_ c_ c_ c_ c_ c_ c_ c_ c_ c_ c_ c_ c_ c_ c_ c_ c_ c_ c_ c_ c_ c_ c_ c_ c_ c_ c_ c_ c_ c_ c_ c_ c_ c_ c_ c_ c_ c_ c_ c_ c_ c_ c_ c_ c_ c_ c_ c_ c_ c_ c_ c_ c_ c_ c_ c_ c_ c_ c_ c_ c_ c_ c_ c_ c_ c_ c_ c_ c_ c_ c_ c_ c_ c_ c_ c_ c_ c_ c_ c_ c_ c_ c_ c_ c_ c_ c_ c_ c_ c_ c_ c_ c_ c_ c_ c_ c_ c_ c_ c_ c_ c_ c_ c_ c_ c_ c_ c_ c_ c_ c_ c_ c_ c_ c_ c_ c_ c_ c_ c_ c_ c_ c_ c_ c_ c_ c_ c_ c_ c_ c_ c_ c_ c_ c_ c_ c_ c_ c_ c_ c_ c_ c_ c_ c_ c_ c_ c_ c_ c_ c_ c_ c_ c_ c_ a{ >8 .8 u6 25 E5 Oa Jh #+ E  C3 C3 C3 h3 s1 T! }_ ,: c_ c_ c_ c_ c_ c_ c_ c_ c_ c_ c_ c_ c_ c_ c_ c_ c_ c_ c_ c_ c_ c_ c_ c_ c_ c_ c_ c_ c_ c_ c_ c_ c_ c_ c_ c_ c_ c_ c_ c_ c_ c_ c_ c_ c_ c_ c_ c_ c_ / .n5 L8 /7 Z. 0) ll R6 _D AJ 7P VA O- Q- 1; 2` P; 1> 5K {= c* R& 5& T..y% 2% %% ;% <$ <$ <$ <$ <$ <$ <$ <$ <$ S# (# E@ E@ !@ r+ ~+ -+ #+ 9. D  `. z  L< w_ 0: *< 9[ 0[ m[ m[ q] 3..3..3..3..3..3..3..3..3..3..3..3..3..3..w` /T /T &+.s..*+.D..D..D..T@ eP eP eP eP eP L| pp T4 =+.-+.:C :C :C :C C= =. =. =. =. =. =. =. =. =. =. =. =. =. =. =. =. ",
"9 .9 .9 .9 .9 .9 .9 .9 .9 .9 .9 .9 .9 .9 .9 .` .J .J .J .J .J .J .J .J .l& :C :C :C $Z #U =..$U $U $U $U $U $U ;+.&Z cq Z..FP FP FP FP FP >+.R..R..R..R..,+.'+..+.[) &< 8: *< 0: a: E~ z  A  `. F  9. n+ %+ U+ U+ D@ /# ~@ E@ (# S# <$ <$ <$ <$ <$ G$ .% %% 2% B% R% <& D& }* 8T Z- ]; 5; P; Z; r` .J ^= D] AZ 'K  J Ey @y =n Jh 5f R{ F~ sp $) V~ c_ c_ c_ c_ c_ c_ c_ c_ c_ c_ c_ c_ c_ c_ c_ c_ c_ c_ c_ c_ c_ c_ c_ c_ c_ c_ c_ c_ c_ c_ c_ c_ c_ c_ c_ c_ c_ c_ c_ c_ c_ c_ c_ l2 c_ !~ v# L4 C3 C3 C3 C3 C3 ,@ +% 8y l2 a{ c_ c_ c_ c_ c_ c_ c_ c_ c_ c_ c_ c_ c_ c_ c_ c_ c_ c_ c_ c_ c_ c_ c_ c_ c_ c_ c_ c_ c_ c_ c_ c_ c_ c_ c_ c_ c_ c_ c_ c_ c_ c_ c_ c_ c_ c_ c_ c_ c_ c_ c_ c_ c_ c_ c_ c_ c_ c_ c_ c_ c_ c_ c_ c_ c_ c_ c_ c_ c_ c_ c_ c_ c_ c_ c_ c_ c_ c_ c_ c_ c_ c_ c_ c_ c_ c_ c_ c_ c_ c_ c_ c_ c_ c_ c_ c_ c_ c_ c_ c_ c_ c_ c_ c_ c_ c_ c_ c_ c_ c_ c_ c_ c_ c_ c_ c_ c_ c_ c_ c_ c_ c_ c_ c_ c_ c_ c_ c_ c_ c_ c_ c_ c_ c_ c_ c_ c_ c_ c_ c_ c_ c_ c_ c_ c_ c_ c_ c_ c_ c_ c_ c_ c_ c_ c_ c_ c_ c_ c_ c_ a{ .: .8 u6 25 E5 Oa Jh #+ E  C3 C3 C3 h3 s1 T! }_ ,: c_ c_ c_ c_ c_ c_ c_ c_ c_ c_ c_ c_ c_ c_ c_ c_ c_ c_ c_ c_ c_ c_ c_ c_ c_ c_ c_ c_ c_ c_ c_ c_ c_ c_ c_ c_ c_ c_ c_ c_ c_ c_ c_ c_ c_ c_ c_ c_ c_ / .,7 L8 /7 Z. 0) ll R6 _D e` 7P VA O- Q- 1;  > `; 8; h- {= c* R& 5& T..y% 2% %% ;% &$ <$ <$ <$ <$ <$ <$ <$ <$ S# (# E@ E@ !@ r+ ~+ -+ #+ 9. D  `. z  L< w_ 0: *< 9[ 0[ m[ m[ q] 3..3..3..3..3..3..3..3..3..3..3..3..3..3..g../T /T /T )+.s..!+.D..D..~+.eP eP eP eP eP j3 pp {+.=+.=+.}U :C :C :C ZB =. =. =. =. =. =. =. =. =. =. =. =. =. =. =. =. ",
"9 .9 .9 .9 .9 .9 .9 .9 .9 .9 .9 .9 .9 .9 .9 .9 .*..J .J .J .J .J .J .J .J .<C :C :C  s #U -X $U $U $U $U $U $U |k &Z cq Z..FP FP FP FP FP E..R..QZ R..R..]+.E..@ .[) &< 8: *< 0: a: E~ z  A  `. F  9. n+ %+ U+ U+ D@ /# ~@ E@ (# S# <$ <$ <$ <$ <$ G$ .% %% 2% y% R% <& D& }* x, Y- }> 4; O; P; 4` _, ^= D] AZ /I  J Ey @y =n Jh 5f R{ F~ Eo [% c_ c_ c_ c_ c_ c_ c_ c_ c_ c_ c_ c_ c_ c_ c_ c_ c_ c_ c_ c_ c_ c_ c_ c_ c_ c_ c_ c_ c_ c_ c_ c_ c_ c_ c_ c_ c_ c_ c_ c_ c_ c_ c_ c_ l2 c_ !~ v# L4 C3 C3 C3 C3 C3 ,@ +% 8y l2 E2 c_ c_ c_ c_ c_ c_ c_ c_ c_ c_ c_ c_ c_ c_ c_ c_ c_ c_ c_ c_ c_ c_ c_ c_ c_ c_ c_ c_ c_ c_ c_ c_ c_ c_ c_ c_ c_ c_ c_ c_ c_ c_ c_ c_ c_ c_ c_ c_ c_ c_ c_ c_ c_ c_ c_ c_ c_ c_ c_ c_ c_ c_ c_ c_ c_ c_ c_ c_ c_ c_ c_ c_ c_ c_ c_ c_ c_ c_ c_ c_ c_ c_ c_ c_ c_ c_ c_ c_ c_ c_ c_ c_ c_ c_ c_ c_ c_ c_ c_ c_ c_ c_ c_ c_ c_ c_ c_ c_ c_ c_ c_ c_ c_ c_ c_ c_ c_ c_ c_ c_ c_ c_ c_ c_ c_ c_ c_ c_ c_ c_ c_ c_ c_ c_ c_ c_ c_ c_ c_ c_ c_ c_ c_ c_ c_ c_ c_ c_ c_ c_ c_ c_ c_ c_ c_ c_ c_ c_ c_ c_ a{ 2[ o' E5 25 E5 Oa Jh #+ E  C3 C3 C3 h3 s1 T! }_ ,: c_ c_ c_ c_ c_ c_ c_ c_ c_ c_ c_ c_ c_ c_ c_ c_ c_ c_ c_ c_ c_ c_ c_ c_ c_ c_ c_ c_ c_ c_ c_ c_ c_ c_ c_ c_ c_ c_ c_ c_ c_ c_ c_ c_ c_ c_ c_ c_ c_ zx .7 Ne /7 Z. 0) ll R6 _D {W )` nA O- Q- 1; !` TZ 8; YZ VY c* R& 5& T..y% 2% %% ;% <$ <$ <$ <$ <$ <$ <$ <$ <$ S# (# E@ E@ !@ r+ ~+ -+ #+ 9. D  `. z  L< w_ 0: *< 9[ 0[ m[ m[ q] 3..3..3..3..3..3..3..3..3..3..3..3..3..3..G../T /T /T ^+.s../+.(+.D.._+.eP eP eP eP eP XP pp :+.=+.=+.=u T4 l& :C ZB =. =. =. =. =. =. =. =. =. =. =. =. =. =. =. =. ",
"J .6..9 .9 .9 .9 .9 .9 .9 .]..` .6..*..*..*..6..6..J .J .J .J .J .J .J .J .J ., .Z} :C $Z Gq $U $U $U $U $U $U P..&Z cq Z..FP FP FP FP FP <+.[+.}+.[+.R.. +.E..w .[) &< 8: *< 0: a: E~ z  A  `. F  9. n+ %+ U+ U+ D@ /# ~@ E@ (# S# <$ <$ <$ <$ <$ F$ Y$ %% 2% y% R% <& D&  ' %= Y- a; 3; TZ `; ,` *- 8= l= F* /I  J wx @y =n Jh 5f R{ F~ Gj }% c_ c_ c_ c_ c_ c_ c_ c_ c_ c_ c_ c_ c_ c_ c_ c_ c_ c_ c_ c_ c_ c_ c_ c_ c_ c_ c_ c_ c_ c_ c_ c_ c_ c_ c_ c_ c_ c_ c_ c_ c_ c_ c_ c_ l2 c_ !~ v# L4 C3 C3 C3 D  D  ,@ *% D: l2 c_ c_ c_ c_ c_ c_ c_ c_ c_ c_ c_ c_ c_ c_ c_ c_ c_ c_ c_ c_ c_ c_ c_ c_ c_ c_ c_ c_ c_ c_ c_ c_ c_ c_ c_ c_ c_ c_ c_ c_ c_ c_ c_ c_ c_ c_ c_ c_ c_ c_ c_ c_ c_ c_ c_ c_ c_ c_ c_ c_ c_ c_ c_ c_ c_ c_ c_ c_ c_ c_ c_ c_ c_ c_ c_ c_ c_ c_ c_ c_ c_ c_ c_ c_ c_ c_ c_ c_ c_ c_ c_ c_ c_ c_ c_ c_ c_ c_ c_ c_ c_ c_ c_ c_ c_ c_ c_ c_ c_ c_ c_ c_ c_ c_ c_ c_ c_ c_ c_ c_ c_ c_ c_ c_ c_ c_ c_ c_ c_ c_ c_ c_ c_ c_ c_ c_ c_ c_ c_ c_ c_ c_ c_ c_ c_ c_ c_ c_ c_ c_ c_ c_ c_ c_ c_ c_ c_ c_ c_ c_ c_ a{ 8y YA +7 25 E5 k0 Jh #+ E  C3 C3 C3 h3 s1 T! }_ ,: c_ c_ c_ c_ c_ c_ c_ c_ c_ c_ c_ c_ c_ c_ c_ c_ c_ c_ c_ c_ c_ c_ c_ c_ c_ c_ c_ c_ c_ c_ c_ c_ c_ c_ c_ c_ c_ c_ c_ c_ c_ c_ c_ c_ c_ c_ c_ c_ c_ |+.t7 Ne /7 Z. 0) ll R6 ZP {W )` nA O- Q- 1; 5>  > 8; YZ != c* R& 5& T..y% 2% %% ;% <$ <$ <$ <$ <$ <$ <$ <$ <$ S# (# E@ E@ !@ r+ ~+ -+ #+ 9. D  `. z  L< w_ 0: *< 9[ 0[ m[ m[ q] 3..3..3..3..3..3..3..3..3..3..3..3..3..w` /T /T /T /T /T 1+.s..2+.D..3+.eP eP eP eP eP >x pp =+.=+.4+.wB wB !4 :C <C =. =. =. =. =. =. =. =. =. =. =. =. =. =. =. =. ",
"J .J .J .` .9 .9 .]..6..J .J .J .J .J .J .J .J .J .J .J .J .J .J .J .J .J .J .J .J .K .#Z #U Gq $U $U $U $U $U $U 5+.$U Z..FP FP FP FP FP  +.6+.}+.7+.8+.R..Q..E..[) &< 8: *< 0: a: E~ z  A  `. F  9. n+ %+ U+ U+ D@ /# ~@ E@ (# S# <$ <$ <$ <$ <$ F$ Y$ %% 2% y% R% <& D&  ' %= `- a; 3;  > O; ,` *- 9= l= F* /I  J wx @y =n Jh t4 R{ F~ 5f L5 c_ c_ c_ c_ c_ c_ c_ c_ c_ c_ c_ c_ c_ c_ c_ c_ c_ c_ c_ c_ c_ c_ c_ c_ c_ c_ c_ c_ c_ c_ c_ c_ c_ c_ c_ c_ c_ c_ c_ c_ c_ c_ c_ c_ l2 c_ !~ v# L4 C3 C3 C3 D  D  ,@ !* D: l2 c_ c_ c_ c_ c_ c_ c_ c_ c_ c_ c_ c_ c_ c_ c_ c_ c_ c_ c_ c_ c_ c_ c_ c_ c_ c_ c_ c_ c_ c_ c_ c_ c_ c_ c_ c_ c_ c_ c_ c_ c_ c_ c_ c_ c_ c_ c_ c_ c_ c_ c_ c_ c_ c_ c_ c_ c_ c_ c_ c_ c_ c_ c_ c_ c_ c_ c_ c_ c_ c_ c_ c_ c_ c_ c_ c_ c_ c_ c_ c_ c_ c_ c_ c_ c_ c_ c_ c_ c_ c_ c_ c_ c_ c_ c_ c_ c_ c_ c_ c_ c_ c_ c_ c_ c_ c_ c_ c_ c_ c_ c_ c_ c_ c_ c_ c_ c_ c_ c_ c_ c_ c_ c_ c_ c_ c_ c_ c_ c_ c_ c_ c_ c_ c_ c_ c_ c_ c_ c_ c_ c_ c_ c_ c_ c_ c_ c_ c_ c_ c_ c_ c_ c_ c_ c_ c_ c_ c_ c_ c_ c_ c_ V~ 2% +8 25 25 k0 Jh #+ E  C3 C3 C3 h3 s1 T! }_ ,: c_ c_ c_ c_ c_ c_ c_ c_ c_ c_ c_ c_ c_ c_ c_ c_ c_ c_ c_ c_ c_ c_ c_ c_ c_ c_ c_ c_ c_ c_ c_ c_ c_ c_ c_ c_ c_ c_ c_ c_ c_ c_ c_ c_ c_ c_ c_ c_ c_ D: O4 c) /7 Z. 0) ll .7 ZP .I 3O O& O- Q- 2> M; N; _; YZ != c* Q& 5& T..y% 2% %% ;% <$ <$ <$ <$ <$ <$ <$ <$ <$ S# (# E@ E@ !@ r+ ~+ -+ #+ 9. D  `. z  L< w_ 0: *< 9[ 0[ m[ m[ q] 3..3..3..3..3..3..3..3..3..3..3..3..3..:../T /T /T /T 9+.0+.s..a+.D..fZ eP eP eP eP eP pp @t =+.=+.b+.wB wB wB CT Z} =. =. =. =. =. =. =. =. =. =. =. =. =. =. =. =. ",
"J .J .J .J .J .*..J .J .J .J .J .J .J .J .J .J .J .J .J .J .J .J .J .J .J .J .J .J .J .J .Z} hV TX ! .$U $U $U $U eI $U Z..FP FP FP FP FP R..c+.}+.}+.d+.R.._j E..[) &< 8: *< 0: a: E~ z  A  `. F  9. n+ %+ U+ U+ D@ /# ~@ E@ (# S# <$ <$ <$ <$ <$ F$ Y$ %% 2% y% R% <& U&  ' %= `- a; 3;  > e+.UZ *- 9= W* F* /I  J wx @y =n Jh t4 E~ F~ ;8 O, c_ c_ c_ c_ c_ c_ c_ c_ c_ c_ c_ c_ c_ c_ c_ c_ c_ c_ c_ c_ c_ c_ c_ c_ c_ c_ c_ c_ c_ c_ c_ c_ c_ c_ c_ c_ c_ c_ c_ c_ c_ c_ c_ c_ l2 c_ !~ v# L4 C3 C3 C3 D  D  ,@ X! V~ l2 c_ c_ c_ c_ c_ c_ c_ c_ c_ c_ c_ c_ c_ c_ c_ c_ c_ c_ c_ c_ c_ c_ c_ c_ c_ c_ c_ c_ c_ c_ c_ c_ c_ c_ c_ c_ c_ c_ c_ c_ c_ c_ c_ c_ c_ c_ c_ c_ c_ c_ c_ c_ c_ c_ c_ c_ c_ c_ c_ c_ c_ c_ c_ c_ c_ c_ c_ c_ c_ c_ c_ c_ c_ c_ c_ c_ c_ c_ c_ c_ c_ c_ c_ c_ c_ c_ c_ c_ c_ c_ c_ c_ c_ c_ c_ c_ c_ c_ c_ c_ c_ c_ c_ c_ c_ c_ c_ c_ c_ c_ c_ c_ c_ c_ c_ c_ c_ c_ c_ c_ c_ c_ c_ c_ c_ c_ c_ c_ c_ c_ c_ c_ c_ c_ c_ c_ c_ c_ c_ c_ c_ c_ c_ c_ c_ c_ c_ c_ c_ c_ c_ c_ c_ c_ c_ c_ c_ c_ c_ c_ c_ c_ E2 .: g6 25 25 k0 Jh #+ E  C3 C3 C3 h3 s1 T! }_ ,: c_ c_ c_ c_ c_ c_ c_ c_ c_ c_ c_ c_ c_ c_ c_ c_ c_ c_ c_ c_ c_ c_ c_ c_ c_ c_ c_ c_ c_ c_ c_ c_ c_ c_ c_ c_ c_ c_ c_ c_ c_ c_ c_ c_ c_ c_ c_ c_ c_ D: &% c) /7 Z. 0) ll .7 ED .I 3O >z O- +; G; 4> M; _; g- != b* Q& 5& T..y% 2% %% ;% <$ <$ <$ <$ <$ <$ <$ <$ <$ S# (# E@ E@ !@ r+ ~+ -+ #+ 9. D  `. z  L< w_ 0: *< 9[ 0[ m[ m[ q] 3..3..3..3..3..3..3../`  ` M..3..3..G../T /T /T /T /T uT f+.g+.(+.D..eP eP eP eP eP L| pp h+.=+.=+.i+.wB wB wB 0A :C *. =. =. =. =. =. =. =. =. =. =. =. =. =. =. =. ",
"J .J .J .J .J .J .J .J .J .J .J .J .J .J .J .J .J .J .J .J .J .J .J .J .J .J .J .J .J .J .J .j+.#U #U Gq $U $U $U $U $U Z..FP FP FP FP =U R..}+.}+.}+.}+.R.. +.E..[) &< 8: *< 0: a: E~ z  A  `. F  9. n+ %+ U+ U+ D@ /# ~@ E@ (# S# <$ <$ <$ <$ <$ F$ Y$ %% 2% y% R% <& U& <* w, `- {; 1; !`  > cc /, ]= W* AZ /I  J wx @y =n Jh t4 E~ F~ u5  _ c_ c_ c_ c_ c_ c_ c_ c_ c_ c_ c_ c_ c_ c_ c_ c_ c_ c_ c_ c_ c_ c_ c_ c_ c_ c_ c_ c_ c_ c_ c_ c_ c_ c_ c_ c_ c_ c_ c_ c_ c_ c_ c_ c_ l2 c_ !~ v# L4 C3 C3 C3 D  D  77 X! c_ l2 c_ c_ c_ c_ c_ c_ c_ c_ c_ c_ c_ c_ c_ c_ c_ c_ c_ c_ c_ c_ c_ c_ c_ c_ c_ c_ c_ c_ c_ c_ c_ c_ c_ c_ c_ c_ c_ c_ c_ c_ c_ c_ c_ c_ c_ c_ c_ c_ c_ c_ c_ c_ c_ c_ c_ c_ c_ c_ c_ c_ c_ c_ c_ c_ c_ c_ c_ c_ c_ c_ c_ c_ c_ c_ c_ c_ c_ c_ c_ c_ c_ c_ c_ c_ c_ c_ c_ c_ c_ c_ c_ c_ c_ c_ c_ c_ c_ c_ c_ c_ c_ c_ c_ c_ c_ c_ c_ c_ c_ c_ c_ c_ c_ c_ c_ c_ c_ c_ c_ c_ c_ c_ c_ c_ c_ c_ c_ c_ c_ c_ c_ c_ c_ c_ c_ c_ c_ c_ c_ c_ c_ c_ c_ c_ c_ c_ c_ c_ c_ c_ c_ c_ c_ c_ c_ c_ c_ c_ c_ c_ c_ c_ /3 D5 Iq /6 E5 k0 Jh #+ E  C3 C3 C3 h3 s1 T! }_ ,: c_ c_ c_ c_ c_ c_ c_ c_ c_ c_ c_ c_ c_ c_ c_ c_ c_ c_ c_ c_ c_ c_ c_ c_ c_ c_ c_ c_ c_ c_ c_ c_ c_ c_ c_ c_ c_ c_ c_ c_ c_ c_ c_ c_ c_ c_ c_ c_ c_ V~ s7 jl /7 Z. 0) ll .7 ED .I 3O >z O- +; G; =Z M; 9; k+.!= b* Q& 5& T..z% 2% %% ;% <$ <$ <$ <$ <$ <$ <$ <$ <$ S# (# E@ E@ !@ r+ ~+ -+ #+ 9. D  `. z  L< w_ 0: *< 9[ 0[ m[ m[ q] 3..3..3..3..3..3..EZ /T /T /T /T /T /T /T /T /T /T ^` f+.f+.l+.D..m+.eP eP eP eP eP j3 pp Va =+.=+.:J wB wB wB wB /+ <C =. =. =. =. =. =. =. =. =. =. =. =. =. =. =. ",
"J .J .J .J .J .J .J .J .J .J .J .J .J .J .J .J .J .J .J .J .J .J .J .J .J .J .J .J .J .J .J .J .Im #U #U TX mi $U $U $U Z..FP FP FP FP n+.R..}+.}+.}+.}+.o+.R..Q..[) &< 8: *< 0: a: E~ z  A  `. F  9. n+ %+ U+ U+ D@ /# ~@ E@ (# S# <$ <$ <$ <$ <$ F$ Y$ %% 2% y% R% <& U& <* 4Z `- {; |; M; 5> xZ t- zZ q, AZ /I  J wx @y =n Jh t4 E~ F~ M8 m{ c_ c_ c_ c_ c_ c_ c_ c_ c_ c_ c_ c_ c_ c_ c_ c_ c_ c_ c_ c_ c_ c_ c_ c_ c_ c_ c_ c_ c_ c_ c_ c_ c_ c_ c_ c_ c_ c_ c_ c_ c_ c_ c_ c_ l2 c_ !~ v# L4 C3 C3 C3 D  c/ /#  ~ c_ l2 c_ c_ c_ c_ c_ c_ c_ c_ c_ c_ c_ c_ c_ c_ c_ c_ c_ c_ c_ c_ c_ c_ c_ c_ c_ c_ c_ c_ c_ c_ c_ c_ c_ c_ c_ c_ c_ c_ c_ c_ c_ c_ c_ c_ c_ c_ c_ c_ c_ c_ c_ c_ c_ c_ c_ c_ c_ c_ c_ c_ c_ c_ c_ c_ c_ c_ c_ c_ c_ c_ c_ c_ c_ c_ c_ c_ c_ c_ c_ c_ c_ c_ c_ c_ c_ c_ c_ c_ c_ c_ c_ c_ c_ c_ c_ c_ c_ c_ c_ c_ c_ c_ c_ c_ c_ c_ c_ c_ c_ c_ c_ c_ c_ c_ c_ c_ c_ c_ c_ c_ c_ c_ c_ c_ c_ c_ c_ c_ c_ c_ c_ c_ c_ c_ c_ c_ c_ c_ c_ c_ c_ c_ c_ c_ c_ c_ c_ c_ c_ c_ c_ c_ c_ c_ c_ c_ c_ c_ c_ c_ c_ c_ a{ D: %) 35 E5 k0 Jh #+ E  C3 C3 C3 h3 s1 T! }_ ,: c_ c_ c_ c_ c_ c_ c_ c_ c_ c_ c_ c_ c_ c_ c_ c_ c_ c_ c_ c_ c_ c_ c_ c_ c_ c_ c_ c_ c_ c_ c_ c_ c_ c_ c_ c_ c_ c_ c_ c_ c_ c_ c_ c_ c_ c_ c_ c_ c_ V~ }% jl /7 Z. 0) ll .7 ED .I 3O >z iZ EW G; L; .> (; e- != a* Q& 5& T..z% 2% %% ;% <$ <$ <$ <$ <$ <$ <$ <$ <$ S# (# E@ E@ !@ r+ ~+ -+ #+ 9. D  `. z  L< w_ 0: *< 9[ 0[ m[ m[ q] 3..3..3..3..3..3..:../T /T /T /T /T /T /T /T /T /T uT f+.f+.l) D..fA eP eP eP eP eP 5y pp p+.=+.=+.CD wB wB wB wB 37 :C p@ =. =. =. =. =. =. =. =. =. =. =. =. =. =. ",
"J .J .J .J .J .J .J .J .J .J .J .J .J .J .J .J .J .J .J .J .J .J .J .J .J .J .J .J .J .J .J .J .nC #U #U #U TX L) q+.EY r+.FP FP FP FP n+.R..}+.}+.}+.}+.s+.R.._j [) &< 8: *< 0: a: E~ z  A  `. F  9. n+ %+ U+ U+ D@ /# ~@ E@ (# S# <$ <$ <$ <$ <$ F$ Y$ %% 2% y% R% <& U& <* 4Z `- b; |; .> 5> hZ ^, 3H m= AZ /I  J wx @y =n Jh t4 E~ F~ 9e >| c_ c_ c_ c_ c_ c_ c_ c_ c_ c_ c_ c_ c_ c_ c_ c_ c_ c_ c_ c_ c_ c_ c_ c_ c_ c_ c_ c_ c_ c_ c_ c_ c_ c_ c_ c_ c_ c_ c_ c_ c_ c_ c_ c_ l2 c_ !~ v# L4 C3 C3 C3 D  c/ /# .~ c_ l2 c_ c_ c_ c_ c_ c_ c_ c_ c_ c_ c_ c_ c_ c_ c_ c_ c_ c_ c_ c_ c_ c_ c_ c_ c_ c_ c_ c_ c_ c_ c_ c_ c_ c_ c_ c_ c_ c_ c_ c_ c_ c_ c_ c_ c_ c_ c_ c_ c_ c_ c_ c_ c_ c_ c_ c_ c_ c_ c_ c_ c_ c_ c_ c_ c_ c_ c_ c_ c_ c_ c_ c_ c_ c_ c_ c_ c_ c_ c_ c_ c_ c_ c_ c_ c_ c_ c_ c_ c_ c_ c_ c_ c_ c_ c_ c_ c_ c_ c_ c_ c_ c_ c_ c_ c_ c_ c_ c_ c_ c_ c_ c_ c_ c_ c_ c_ c_ c_ c_ c_ c_ c_ c_ c_ c_ c_ c_ c_ c_ c_ c_ c_ c_ c_ c_ c_ c_ c_ c_ c_ c_ c_ c_ c_ c_ c_ c_ c_ c_ c_ c_ c_ c_ c_ c_ c_ c_ c_ c_ c_ c_ c_ c_ V~  & @8 E5 k0 Jh #+ E  C3 C3 C3 h3 s1 T! }_ ,: c_ c_ c_ c_ c_ c_ c_ c_ c_ c_ c_ c_ c_ c_ c_ c_ c_ c_ c_ c_ c_ c_ c_ c_ c_ c_ c_ c_ c_ c_ c_ c_ c_ c_ c_ c_ c_ c_ c_ c_ c_ c_ c_ c_ c_ c_ c_ c_ c_ [< L5 W7 /7 Z. 0) ll .7 ED .I 3O ^V O- +; F; SY L; t+.e- != a* P& 5& T..z% 2% %% ;% <$ <$ <$ <$ <$ <$ <$ <$ <$ S# (# E@ E@ !@ r+ ~+ -+ #+ 9. D  `. z  L< w_ 0: *< 9[ 0[ m[ m[ q] 3..3..3..3..3..g../T /T /T /T /T /T /T /T /T /T 9+.f+.f+.f+.D..D..u+.eP eP eP eP eP v+.pp w+.=+.=+.wB wB wB wB wB wB CT , .=. =. =. =. =. =. =. =. =. =. =. =. =. =. ",
"J .J .J .J .J .J .J .J .J .J .J .J .J .J .J .J .J .J .J .J .J .J .J .J .J .J .J .J .J .J .J .J .J .x+.#U #U #U y+.z+.z+.A+.FP FP FP FP B+.R..}+.}+.}+.}+.7+.R..C+.[) &< 8: *< 0: a: E~ z  A  `. F  9. n+ %+ U+ U+ D@ /# ~@ E@ (# S# <$ <$ <$ <$ <$ F$ Y$ %% 2% y% R% <& r* <* 4Z mg b; G; L; 4> 5Z ^, {= m=  K -Z  J wx @y =n Jh t4 E~ F~ 9e >| c_ c_ c_ c_ c_ c_ c_ c_ c_ c_ c_ c_ c_ c_ c_ c_ c_ c_ c_ c_ c_ c_ c_ c_ c_ c_ c_ c_ c_ c_ c_ c_ c_ c_ c_ c_ c_ c_ c_ c_ c_ c_ c_ c_ l2 c_ !~ v# L4 C3 C3 C3 D  c/ /# .~ c_ l2 c_ c_ c_ c_ c_ c_ c_ c_ c_ c_ c_ c_ c_ c_ c_ c_ c_ c_ c_ c_ c_ c_ c_ c_ c_ c_ c_ c_ c_ c_ c_ c_ c_ c_ c_ c_ c_ c_ c_ c_ c_ c_ c_ c_ c_ c_ c_ c_ c_ c_ c_ c_ c_ c_ c_ c_ c_ c_ c_ c_ c_ c_ c_ c_ c_ c_ c_ c_ c_ c_ c_ c_ c_ c_ c_ c_ c_ c_ c_ c_ c_ c_ c_ c_ c_ c_ c_ c_ c_ c_ c_ c_ c_ c_ c_ c_ c_ c_ c_ c_ c_ c_ c_ c_ c_ c_ c_ c_ c_ c_ c_ c_ c_ c_ c_ c_ c_ c_ c_ c_ c_ c_ c_ c_ c_ c_ c_ c_ c_ c_ c_ c_ c_ c_ c_ c_ c_ c_ c_ c_ c_ c_ c_ c_ c_ c_ c_ c_ c_ c_ c_ c_ c_ c_ c_ c_ c_ c_ c_ c_ c_ c_ c_ c_ >8 @w E5 69 Jh #+ E  C3 C3 C3 h3 s1 T! }_ ,: c_ c_ c_ c_ c_ c_ c_ c_ c_ c_ c_ c_ c_ c_ c_ c_ c_ c_ c_ c_ c_ c_ c_ c_ c_ c_ c_ c_ c_ c_ c_ c_ c_ c_ c_ c_ c_ c_ c_ c_ c_ c_ c_ c_ c_ c_ c_ c_ c_ c_ C/ W7 /7 Z. 0) ll .7 ED .I aK ^V O- +; [; K; D+.|> d- '= a* P& 5& T..z% 2% %% ;% <$ <$ <$ <$ <$ <$ <$ <$ <$ S# (# E@ E@ !@ r+ ~+ -+ #+ 9. D  `. z  L< w_ 0: *< 9[ 0[ m[ m[ q] 3..3..3..3..3..g../T /T /T /T /T /T /T /T /T /T E+.f+.f+.F+.D..D..3+.eP eP eP eP k@ pp pp G+.=+.b+.wB wB wB wB wB wB V# :C p@ =. =. =. =. =. =. =. =. =. =. =. =. =. ",
"J .J .J .J .J .J .J .J .J .J .J .J .J .J .J .J .J .J .J .J .J .J .J .J .J .J .J .J .J .J .J .J .J .nC #U #U #U z+.z+.z+.A+.FP FP FP FP H+.R..}+.}+.}+.}+.}+.QZ R..[) &< 8: *< 0: a: E~ z  A  `. F  9. n+ %+ U+ U+ D@ /# ~@ E@ (# S# <$ <$ <$ <$ <$ F$ Y$ %% 2% y% R% <& r* <* f= mg ~; G; L; I+.y; J+.{= V* Q& -Z  J wx @y =n Jh od 8! F~ 9e >| c_ c_ c_ c_ c_ c_ c_ c_ c_ c_ c_ c_ c_ c_ c_ D5 >| }_ }w c_ c_ c_ c_ c_ c_ c_ c_ c_ c_ c_ c_ c_ c_ c_ c_ c_ c_ c_ c_ c_ c_ c_ c_ c_ l2 c_ !~ v# L4 C3 C3 C3 D  c/ /# .~ c_ l2 c_ c_ c_ c_ c_ c_ c_ c_ c_ c_ c_ c_ c_ c_ c_ c_ c_ c_ c_ c_ c_ c_ c_ c_ c_ c_ c_ c_ c_ c_ c_ c_ c_ c_ c_ c_ c_ c_ c_ c_ c_ c_ c_ c_ c_ c_ c_ c_ c_ c_ c_ c_ c_ c_ c_ c_ c_ c_ c_ c_ c_ c_ c_ c_ c_ c_ c_ c_ c_ c_ c_ c_ c_ c_ c_ c_ c_ c_ c_ c_ c_ c_ c_ c_ c_ c_ c_ c_ c_ c_ c_ c_ c_ c_ c_ c_ c_ c_ c_ c_ c_ c_ c_ c_ c_ c_ c_ c_ c_ c_ c_ c_ c_ c_ c_ c_ c_ c_ c_ c_ c_ c_ c_ c_ c_ c_ c_ c_ c_ c_ c_ c_ c_ c_ c_ c_ c_ c_ c_ c_ c_ c_ c_ c_ c_ c_ c_ c_ c_ c_ c_ c_ c_ c_ c_ c_ c_ c_ c_ c_ c_ c_ c_ a{ 2[ yx +7 69 Jh #+ E  C3 C3 C3 h3 s1 T! }_ ,: c_ c_ c_ c_ c_ c_ c_ c_ c_ c_ c_ c_ c_ c_ c_ c_ c_ c_ c_ c_ c_ c_ c_ c_ c_ c_ c_ c_ c_ c_ c_ c_ c_ c_ c_ c_ c_ c_ c_ c_ c_ c_ c_ c_ c_ c_ c_ c_ c_ c_  _ W7 /7 Z. 0) ll R6 *t .I aK YY -, EW [; K; K; |> d- '= a* (* 4& T% z% 2% %% ;% <$ <$ <$ <$ <$ <$ <$ <$ <$ S# (# E@ E@ !@ r+ ~+ -+ #+ 9. D  `. z  L< w_ 0: *< 9[ 0[ m[ m[ q] 3..3..3..3..3.. ` /T /T /T /T /T /T /T /T /T K+.f+.f+.f+.L+.D..D..eP eP eP eP eP L| pp pp =+.=+.[J wB wB wB wB wB wB wB Z} , .=. =. =. =. =. =. =. =. =. =. =. =. =. ",
"J .J .J .J .J .J .J .J .J .J .J .J .J .J .J .J .J .J .J .J .J .J .J .J .J .J .J .J .J .J .J .J .J .J .Im #U #U z+.z+.z+.A+.FP FP FP FP H+.R..}+.}+.}+.}+.}+.M+.R..[) &< 8: *< 0: a: E~ z  A  `. F  9. n+ %+ U+ U+ D@ /# ~@ E@ (# S# <$ <$ <$ <$ <$ F$ Y$ %% 2% z% R% <& r* <* f= `- => }; *Z L; N+.:, VY V* Q& .K  J 'x @y =n Jh od 8! F~ 9e >| c_ c_ c_ c_ c_ c_ c_ c_ c_ c_ c_ c_ c_ a{ ;< k% +8 ,7 }% D5 c_ c_ c_ c_ c_ c_ c_ c_ c_ c_ c_ c_ c_ c_ c_ c_ c_ c_ c_ c_ c_ c_ c_ c_ l2 c_ !~ v# L4 C3 C3 C3 D  c/ /# .~ c_ l2 c_ c_ c_ c_ c_ c_ c_ c_ c_ c_ c_ c_ c_ c_ c_ c_ c_ c_ c_ c_ c_ c_ c_ c_ c_ c_ c_ c_ c_ c_ c_ c_ c_ c_ c_ c_ c_ c_ c_ c_ c_ c_ c_ c_ c_ c_ c_ c_ c_ c_ c_ c_ c_ c_ c_ c_ c_ c_ c_ c_ c_ c_ c_ c_ c_ c_ c_ c_ c_ c_ c_ c_ c_ c_ c_ c_ c_ c_ c_ c_ c_ c_ c_ c_ c_ c_ c_ c_ c_ c_ c_ c_ c_ c_ c_ c_ c_ c_ c_ c_ c_ c_ c_ c_ c_ c_ c_ c_ c_ c_ c_ c_ c_ c_ c_ c_ c_ c_ c_ c_ c_ c_ c_ c_ c_ c_ c_ c_ c_ c_ c_ c_ c_ c_ c_ c_ c_ c_ c_ c_ c_ c_ c_ c_ c_ c_ c_ c_ c_ c_ c_ c_ c_ c_ c_ c_ c_ c_ c_ c_ c_ c_ c_ a{ }w YA 2n k0 Jh #+ E  C3 C3 C3 h3 s1 T! }_ c_ c_ c_ c_ c_ c_ c_ c_ c_ c_ c_ c_ c_ c_ c_ c_ c_ c_ c_ c_ c_ c_ c_ c_ c_ c_ c_ c_ c_ c_ c_ c_ c_ c_ c_ c_ c_ c_ c_ c_ c_ c_ c_ c_ c_ c_ c_ c_ c_ c_ c_ b/ i9 /7 Z. 0) ll R6 *t FE aK KY =, S- [; O+.@> |> c- '= a* (* 4& T% z% 1% $% ;% <$ <$ <$ <$ <$ <$ <$ <$ <$ S# (# E@ E@ !@ r+ ~+ -+ #+ 9. D  `. z  L< w_ 0: *< 9[ 0[ m[ m[ q] 3..3..3..3..3..EZ /T /T /T /T /T /T /T /T ^` f+.f+.f+.f+.x..D..m+.eP eP eP eP eP j3 pp pp =+.=+.V{ wB wB wB wB wB wB wB /+ :C p@ =. =. =. =. =. =. =. =. =. =. =. =. ",
"J .J .J .J .J .J .J .J .J .J .J .J .J .J .J .J .J .J .J .J .J .J .J .J .J .J .J .J .J .J .J .J .J .J .l& #U BR z+.z+.z+.A+.FP FP FP FP P+.R..7+.}+.}+.}+.}+.Q+.R..7: &< 8: *< 0: a: E~ z  A  `. F  9. n+ %+ U+ U+ D@ /# ~@ E@ (# S# <$ <$ <$ <$ <$ F$ Y$ %% 2% z% .* <& V& o* v, `- => [; @> K; o> UY != V* Q& .K lF wx @y =n Jh od 8! F~ 9e >| c_ c_ c_ c_ c_ c_ c_ c_ c_ c_ c_ c_ a{ c_ }_ o' E5 u6 n5 L5 D5 c_ c_ c_ c_ c_ c_ c_ c_ c_ c_ c_ c_ c_ c_ c_ c_ c_ c_ c_ c_ c_ c_ c_ l2 c_ !~ v# L4 C3 C3 C3 D  c/ /# .~ c_ l2 c_ c_ c_ c_ c_ c_ c_ c_ c_ c_ c_ c_ c_ c_ c_ c_ c_ c_ c_ c_ c_ c_ c_ c_ c_ c_ c_ c_ c_ c_ c_ c_ c_ c_ c_ c_ c_ c_ c_ c_ c_ c_ c_ c_ c_ c_ c_ c_ c_ c_ c_ c_ c_ c_ c_ c_ c_ c_ c_ c_ c_ c_ c_ c_ c_ c_ c_ c_ c_ c_ c_ c_ c_ c_ c_ c_ c_ c_ c_ c_ c_ c_ c_ c_ c_ c_ c_ c_ c_ c_ c_ c_ c_ c_ c_ c_ c_ c_ c_ c_ c_ c_ c_ c_ c_ c_ c_ c_ c_ c_ c_ c_ c_ c_ c_ c_ c_ c_ c_ c_ c_ c_ c_ c_ c_ c_ c_ c_ c_ c_ c_ c_ c_ c_ c_ c_ c_ c_ c_ c_ c_ c_ c_ c_ c_ c_ c_ c_ c_ c_ V~ V~ c_ c_ c_ c_ c_ c_ c_ c_ c_ c_ c_ a{ V~ vH @8 jm Jh #+ E  C3 C3 C3 h3 s1 E$ 6^ #/ c_ c_ c_ c_ c_ c_ c_ c_ c_ c_ c_ c_ c_ c_ c_ c_ c_ c_ c_ c_ c_ c_ c_ c_ c_ c_ c_ c_ c_ c_ c_ c_ c_ c_ c_ c_ c_ c_ c_ c_ c_ c_ c_ c_ c_ c_ c_ c_ c_ c_ b/ i9 #! Z. 0) ll R6 *t FE 'K m, =, S- 1> I; J; ^; c- ,= zX (* 4& T% f& k% $% I$ <$ <$ <$ <$ <$ <$ <$ <$ <$ S# (# E@ E@ !@ r+ ~+ -+ #+ 9. D  `. z  L< w_ 0: *< 9[ 0[ m[ m[ q] 3..3..3..3..3..MZ /T /T /T /T /T /T /T /T E+.f+.f+.f+.F+.D..D..R+.eP eP eP eP eP 5y pp @t =+.=+.pC wB wB wB wB wB wB wB r3 :C <C =. =. =. =. =. =. =. =. =. =. =. =. ",
"J .J .J .J .J .J .J .J .J .J .J .J .J .J .J .J .J .J .J .J .J .J .J .J .J .J .J .J .J .J .J .J .J .J .J .S+.T+.z+.z+.z+.A+.FP FP FP FP U+.R..c+.}+.}+.}+.}+.}+.QZ 7: &< 8: *< 0: a: E~ z  A  `. F  9. n+ %+ U+ U+ D@ /# ~@ E@ (# S# <$ <$ <$ <$ <$ F$ Y$ %% 2% z% .* <& r* o* g= Y- => E; J; @> oY #- != V* VA .K lF wx @y =n Jh od 8! F~ 9e >| c_ c_ c_ c_ c_ c_ c_ c_ c_ c_ c_ c_ a{ ;< nU JB J6 25 25 R6 >| [< c_ c_ c_ c_ c_ c_ c_ c_ c_ c_ c_ c_ c_ c_ c_ c_ c_ c_ c_ c_ c_ c_ l2 c_ !~ v# L4 C3 C3 C3 D  c/ /# .~ c_ l2 c_ c_ c_ c_ c_ c_ c_ c_ c_ c_ c_ c_ c_ c_ c_ c_ c_ c_ c_ c_ c_ c_ c_ c_ c_ c_ c_ c_ c_ c_ c_ c_ c_ c_ c_ c_ c_ c_ c_ c_ c_ c_ c_ c_ c_ c_ c_ c_ c_ c_ c_ c_ c_ c_ c_ c_ c_ c_ c_ c_ c_ c_ c_ c_ c_ c_ c_ c_ c_ c_ c_ c_ c_ c_ c_ c_ c_ c_ c_ c_ c_ c_ c_ c_ c_ c_ c_ c_ c_ c_ c_ c_ c_ c_ c_ c_ c_ c_ c_ c_ c_ c_ c_ c_ c_ c_ c_ c_ c_ c_ c_ c_ c_ c_ c_ c_ c_ c_ c_ c_ c_ c_ c_ c_ c_ c_ c_ c_ c_ c_ c_ c_ c_ c_ c_ c_ c_ c_ c_ c_ c_ c_ c_ c_ c_ c_ c_ c_ 3| g] 5m 5m }~ V~ c_ c_ c_ c_ c_ c_ c_ c_ c_ a{ V~ l% 3m ZA BZ #+ C3 C3 C3 C3 ~8 Pk E$ #* 5m .: 8y ;< ;< D5 ;< c_ c_ c_ c_ c_ c_ c_ c_ c_ c_ c_ c_ c_ c_ c_ c_ c_ c_ c_ c_ c_ c_ c_ c_ c_ c_ c_ c_ c_ c_ c_ c_ c_ c_ c_ c_ c_ c_ c_ c_ c_ c_ c_ c_ b/ b) #! Z. 0) ll R6 *t jJ 'K hJ =, T- 8; I; I; *> b- ,= k* (* 4& T% f& k% $% ;% <$ <$ <$ <$ <$ <$ <$ <$ <$ S# (# E@ E@ !@ r+ ~+ -+ #+ 9. D  `. z  L< w_ 0: *< 9[ 0[ m[ m[ q] 3..3..3..3..g../T /T /T /T /T /T /T /T K+.f+.f+.f+.f+.L+.D..D..V+.PQ eP eP eP eP >x pp h+.=+.=+.0A wB wB wB wB wB wB wB wB Z} :C *. =. =. =. =. =. =. =. =. =. =. =. ",
"J .J .J .J .J .J .J .J .J .J .J .J .J .J .J .J .J .J .J .J .J .J .J .J .J .J .J .J .J .J .J .J .J .J .J .[Z ps z+.z+.z+.A+.FP FP FP FP U+.R..R..}+.}+.}+.}+.}+.Qi 7: &< 8: *< 0: a: E~ z  A  `. F  9. n+ %+ U+ U+ D@ /# ~@ E@ (# S# <$ <$ <$ <$ <$ F$ Y$ %% 2% z% .* <& r* o* @= `- c; E; #> J; k; zY W+.n= VA .K lF jE %8 =n Jh od 8! F~ 9e >| c_ c_ c_ c_ c_ c_ c_ c_ c_ c_ c_ c_ E2 Z5 @) E5 25 25 +5 N4 <% 2[ c_ c_ c_ c_ c_ c_ c_ c_ c_ c_ c_ c_ c_ c_ c_ c_ c_ c_ c_ c_ c_ c_ l2 c_ !~ v# L4 C3 C3 C3 D  c/ /# .~ c_ l2 c_ c_ c_ c_ c_ c_ c_ c_ c_ c_ c_ c_ c_ c_ c_ c_ c_ c_ c_ c_ c_ c_ c_ c_ c_ c_ c_ c_ c_ c_ c_ c_ c_ c_ c_ c_ c_ c_ c_ c_ c_ c_ c_ c_ c_ c_ c_ c_ c_ c_ c_ c_ c_ c_ c_ c_ c_ c_ c_ c_ c_ c_ c_ c_ c_ c_ c_ c_ c_ c_ c_ c_ c_ c_ c_ c_ c_ c_ c_ c_ c_ c_ c_ c_ c_ c_ c_ c_ c_ c_ c_ c_ c_ c_ c_ c_ c_ c_ c_ c_ c_ c_ c_ c_ c_ c_ c_ c_ c_ c_ c_ c_ c_ c_ c_ c_ c_ c_ c_ c_ c_ c_ c_ c_ c_ c_ c_ c_ c_ c_ c_ c_ c_ c_ c_ c_ c_ c_ c_ c_ c_ c_ c_ c_ c_ c_ c_ c_ }_ `7 n5 Z  Iq zJ V~ c_ c_ c_ c_ c_ c_ c_ c_ c_ Bx m% mF ZA BZ #+ C3 C3 C3 C3 ~8 Pk q$ R6 C6 3n yx %) &K @) 1% }w a{ a{ c_ c_ c_ c_ c_ c_ c_ c_ c_ c_ c_ c_ c_ c_ c_ c_ c_ c_ c_ c_ c_ c_ c_ c_ c_ c_ c_ c_ c_ c_ c_ c_ c_ c_ c_ c_ c_ c_ c_ c_ c_ 6^ t4 #! Z. 0) ]k R6 yX jJ BN 7U =, T- :; X+.I; 0; b- ,= k* O& 3& T% f& k% $% ;% <$ <$ <$ <$ <$ <$ <$ <$ <$ S# (# E@ E@ !@ r+ ~+ -+ #+ 9. D  `. z  L< w_ 0: *< 9[ 0[ m[ m[ q] nZ  ` g..Y+.G../T /T /T /T /T /T /T 9+.f+.f+.f+.f+.f+.x..D..Z+.`+.`+.`+.O| eP eP pp pp h+.=+.-+.wB wB wB wB wB wB wB wB wB z+ :C <C =. =. =. =. =. =. =. =. =. =. =. ",
"J .J .J .J .J .J .J .J .J .J .J .J .J .J .J .J .J .J .J .J .J .J .J .J .J .J .J .J .J .J .J .J .J .J .J .J .h) z+.z+.z+.A+.FP FP FP FP R..R.. @.xP .@.}+.}+.}+.}+.7: &< 8: *< 0: a: E~ z  A  `. F  9. n+ %+ U+ U+ D@ /# ~@ E@ (# S# <$ <$ <$ <$ <$ F$ Y$ %% 2% z% X% 9& B& o* @= lh c; 1> X+.#> g; .- +@.o= VA .K AJ wx %8 =n Jh b) 8! F~ 9e >| c_ c_ c_ c_ c_ c_ c_ c_ c_ c_ c_ E2 t` }_ o' E5 25 25 25 E5 =' >| V~ c_ c_ c_ c_ c_ c_ c_ c_ c_ c_ c_ c_ c_ c_ c_ c_ c_ c_ c_ c_ c_ l2 c_ !~ v# L4 C3 C3 C3 D  c/ /# .~ c_ l2 c_ c_ c_ c_ c_ c_ c_ c_ c_ c_ c_ c_ c_ c_ c_ c_ c_ c_ c_ c_ c_ c_ c_ c_ c_ c_ c_ c_ c_ c_ c_ c_ c_ c_ c_ c_ c_ c_ c_ c_ c_ c_ c_ c_ c_ c_ c_ c_ c_ c_ c_ c_ c_ c_ c_ c_ c_ c_ c_ c_ c_ c_ c_ c_ c_ c_ c_ c_ c_ c_ c_ c_ c_ c_ c_ c_ c_ c_ c_ c_ c_ c_ c_ c_ c_ c_ c_ c_ c_ c_ c_ c_ c_ c_ c_ c_ c_ c_ c_ c_ c_ c_ c_ c_ c_ c_ c_ c_ c_ c_ c_ c_ c_ c_ c_ c_ c_ c_ c_ c_ c_ c_ c_ c_ c_ c_ c_ c_ c_ c_ c_ c_ c_ c_ c_ c_ c_ c_ c_ c_ c_ c_ c_ c_ c_ c_ c_ 3| O, n5 E5 25 &8 yx vz ;< c_ c_ c_ c_ c_ c_ c_ c_ c_ .: yx 6C BZ #+ C3 C3 C3 C3 ~8 vu q$ $* &8 25 /6 N4 ~: N4 $y }~ E2 a{ c_ c_ c_ c_ c_ c_ c_ c_ c_ c_ c_ c_ c_ c_ c_ c_ c_ c_ c_ c_ c_ c_ c_ c_ c_ c_ c_ c_ c_ c_ c_ c_ c_ c_ c_ c_ c_ c_ c_ c_ c_  p t4 #! Z. 0) ]k Jq yX jJ BN 7U =, T- :; H; $> ]; a- ,X k* O& 3& T% f& k% 9% ;% <$ <$ <$ <$ <$ <$ <$ <$ <$ S# (# E@ E@ !@ r+ ~+ -+ #+ 9. D  `. z  L< w_ 0: *< 9[ 0[ m[ m[ ^T /T /T /T /T /T /T /T /T /T /T /T /T @@.f+.f+.f+.f+.#@.D..D..$@.`+.`+.`+.%@.eP j@ pp pp &@.xB xJ wB wB wB wB wB wB wB wB wB V# :C :C p@ =. =. =. =. =. =. =. =. =. =. ",
"J .J .J .J .J .J .J .J .J .J .J .J .J .J .J .J .J .J .J .J .J .J .J .J .J .J .J .J .J .J .J .J .J .J .J .J .z+.z+.z+.z+.A+.FP FP FP FP R..*@.=@.=@.dP -@.}+.}+.}+.7: &< 8: *< 0: a: E~ z  A  `. F  9. n+ %+ U+ U+ D@ /# ~@ E@ (# S# <$ <$ <$ <$ <$ F$ Y$ %% 2% z% X% 9& B& H* @= Oh c; <; H; I; ( ..- '= o= O& .K AJ wx %8 =n Jh b) 8! F~ 9e >| c_ c_ c_ c_ c_ c_ c_ c_ c_ c_ c_ a{ 3| >| g6 E5 25 25 25 25 N4 <% 2[ c_ c_ c_ c_ c_ c_ c_ c_ c_ c_ c_ c_ c_ c_ c_ c_ c_ c_ c_ c_ c_ l2 c_ !~ v# L4 C3 C3 C3 D  c/ /# .~ c_ l2 c_ c_ c_ c_ c_ c_ c_ c_ c_ c_ c_ c_ c_ c_ c_ c_ c_ c_ c_ c_ c_ c_ c_ c_ c_ c_ c_ c_ c_ c_ c_ c_ c_ c_ c_ c_ c_ c_ c_ c_ c_ c_ c_ c_ c_ c_ c_ c_ c_ c_ c_ c_ c_ c_ c_ c_ c_ c_ c_ c_ c_ c_ c_ c_ c_ c_ c_ c_ c_ c_ c_ c_ c_ c_ c_ c_ c_ c_ c_ c_ c_ c_ c_ c_ c_ c_ c_ c_ c_ c_ c_ c_ c_ c_ c_ c_ c_ c_ c_ c_ c_ c_ c_ c_ c_ c_ c_ c_ c_ c_ c_ c_ c_ c_ c_ c_ c_ c_ c_ c_ c_ c_ c_ c_ c_ c_ c_ c_ c_ c_ c_ c_ c_ c_ c_ c_ c_ c_ c_ c_ c_ c_ c_ c_ c_ c_ c_ _{ _% +7 25 25 25 /6 g6 &D D5 c_ c_ c_ c_ c_ c_ c_ a{ }w YA im C$ #+ E  C3 C3 C3 ~8 vu q$ $* ;@.t6 25 25 25 J6 >@.wz c_ a{ c_ c_ c_ c_ c_ c_ c_ c_ c_ c_ c_ c_ c_ c_ c_ c_ c_ c_ c_ c_ c_ c_ c_ c_ c_ c_ c_ c_ c_ c_ c_ c_ c_ c_ c_ c_ c_ c_ c_ c_ c_  _ ,@.#! Z. ;8 ]k Jq yX jJ BN 7U =, )W 9; 3> H; ]; a- FW k* O& 3& T% f& k% 9% ;% <$ <$ <$ <$ <$ <$ <$ <$ <$ S# (# E@ E@ !@ r+ ~+ -+ #+ 9. D  `. z  L< w_ 0: *< 9[ 0[ m[ m[ ^T /T /T /T /T /T /T /T '@.K+.)@.)@.!@.f+.f+.f+.f+.f+.~@.D..D..{@.`+.`+.`+.`+.eP L| pp pp pp wB wB wB wB wB wB wB wB wB wB wB 0A :C :C -* =. =. =. =. =. =. =. =. =. =. ",
"J .J .J .J .J .J .J .J .J .J .J .J .J .J .J .J .J .J .J .J .J .J .J .J .J .J .J .J .J .J .J .J .J .J .J .J .]@.z+.z+.z+.^@.FP FP FP FP *@./@.=@.=@.=@.=@.(@._@.:@.7: &< 8: *< 0: a: E~ z  A  `. F  9. n+ %+ U+ U+ D@ /# ~@ E@ (# S# <$ <$ <$ <$ <$ F$ Y$ %% 2% z% X% 9& t0 :* .Q Oh [> 8; H; $> @; hX <@.S* O& .K AJ wx %8 =n k' b) 8! F~ 9e >| c_ c_ c_ c_ c_ c_ c_ c_ c_ c_ c_ a{ 3| 5m 3m E5 25 25 25 25 t6 +8 3% V~ E2 c_ c_ c_ c_ c_ c_ c_ c_ c_ c_ c_ c_ c_ c_ c_ c_ c_ c_ c_ l2 c_ !~ v# L4 C3 C3 C3 D  c/ /# .~ c_ l2 c_ c_ c_ c_ c_ c_ c_ c_ c_ c_ c_ c_ c_ c_ c_ c_ c_ c_ c_ c_ c_ c_ c_ c_ c_ c_ c_ c_ c_ c_ c_ c_ c_ c_ c_ c_ c_ c_ c_ c_ c_ c_ c_ c_ c_ c_ c_ c_ c_ c_ c_ c_ c_ c_ c_ c_ c_ c_ c_ c_ c_ c_ c_ c_ c_ c_ c_ c_ c_ c_ c_ c_ c_ c_ c_ c_ c_ c_ c_ c_ c_ c_ c_ c_ c_ c_ c_ c_ c_ c_ c_ c_ c_ c_ c_ c_ c_ c_ c_ c_ c_ c_ c_ c_ c_ c_ c_ c_ c_ c_ c_ c_ c_ c_ c_ c_ c_ c_ c_ c_ c_ c_ c_ c_ c_ c_ c_ c_ c_ c_ c_ c_ c_ c_ c_ c_ c_ c_ c_ c_ c_ c_ c_ c_ c_ c_ $/ }_ .7 E5 25 25 25 25 E5 o' >8 ;< c_ c_ c_ c_ c_ c_ a{ V~ vH 4e C$ #+ E  C3 C3 C3 ~8 vu q$ R6 ;@.t6 25 25 '5 25 +8 5m 3| a{ c_ c_ c_ c_ c_ c_ c_ c_ c_ c_ c_ c_ c_ c_ c_ c_ c_ c_ c_ c_ c_ c_ c_ c_ c_ c_ c_ c_ c_ c_ c_ c_ c_ c_ c_ c_ c_ c_ c_ c_ [< O, t4 #! Z. ;8 ]k Jq *t jJ BN 7U =, )W 9; 5; %> {; 0- >= 9* D* 3& T% f& k% 9% ;% <$ <$ <$ <$ <$ <$ <$ <$ <$ S# (# E@ E@ !@ r+ ~+ -+ #+ 9. D  `. z  L< w_ 0: *< 9[ 0[ m[ m[ ^T /T /T /T /T /T /T 9+.[@.f+.f+.f+.f+.f+.f+.f+.f+.#@.D..D..D..}@.`+.`+.`+.`+.op eo pp pp pp :B wB wB wB wB wB wB wB wB wB wB wB z+ C= =. =. =. =. =. =. =. =. =. =. =. ",
"J .J .J .J .J .J .J .J .J .J .J .J .J .J .J .J .J .J .J .J .J .J .J .J .J .J .J .J .J .J .J .J .J .J .J .J .R4 z+.z+.|@.Jl 3N rt )( eo =@.=@.=@.=@.=@.=@.=@.=@.=@.m[ &< 8: *< 0: a: E~ z  A  `. F  9. n+ %+ U+ U+ D@ /# ~@ E@ (# S# <$ <$ <$ <$ <$ F$ Y$ %% 2% z% P% _& B& :* += mg :> :; %> 3> 1@.x- ,X S* O& GW AJ wx %8 =n k' b) 8! F~ 9e >| c_ c_ c_ c_ c_ c_ c_ c_ c_ c_ c_ a{ w/ 1% +8 E5 25 25 25 25 `6 +7 i% D5 E2 c_ c_ c_ c_ c_ c_ c_ c_ c_ c_ c_ c_ c_ c_ c_ c_ c_ c_ c_ l2 c_ !~ v# L4 C3 C3 C3 D  c/ /# .~ c_ l2 c_ c_ c_ c_ c_ c_ c_ c_ c_ c_ c_ c_ c_ c_ c_ c_ c_ c_ c_ c_ c_ c_ c_ c_ c_ c_ c_ c_ c_ c_ c_ c_ c_ c_ c_ c_ c_ c_ c_ c_ c_ c_ c_ c_ c_ c_ c_ c_ c_ c_ c_ c_ c_ c_ c_ c_ c_ c_ c_ c_ c_ c_ c_ c_ c_ c_ c_ c_ c_ c_ c_ c_ c_ c_ c_ c_ c_ c_ c_ c_ c_ c_ c_ c_ c_ c_ c_ c_ c_ c_ c_ c_ c_ c_ c_ c_ c_ c_ c_ c_ c_ c_ c_ c_ c_ c_ c_ c_ c_ c_ c_ c_ c_ c_ c_ c_ c_ c_ c_ c_ c_ c_ c_ c_ c_ c_ c_ c_ c_ c_ c_ c_ c_ c_ c_ c_ c_ c_ c_ c_ c_ c_ c_ c_ c_ c_ c_ 6m @5 u6 25 25 25 25 25 Am $) 2[ c_ c_ c_ c_ c_ c_ E2 V~ 3% $* K% #+ C3 C3 C3 C3 ~8 vu q$ R6 ;@.t6 25 25 '5 '5 Z  |% ;< a{ c_ c_ c_ c_ c_ c_ c_ c_ c_ c_ c_ c_ c_ c_ c_ c_ c_ c_ c_ c_ c_ c_ c_ c_ c_ c_ c_ c_ c_ c_ c_ c_ c_ c_ c_ c_ c_ c_ c_ c_ V~ [% t4 #! Z. ;8 ]k J7 ED hE BN q* *, V- (; 3; _ .{; 2@.>= 9* D* 2& J, f& k% 9% ;% <$ <$ <$ <$ <$ <$ <$ <$ <$ S# (# E@ E@ !@ r+ ~+ -+ #+ 9. D  `. z  L< w_ 0: *< 9[ 0[ m[ m[ ^T /T /T /T /T /T '@.[@.f+.f+.f+.f+.f+.f+.f+.f+.f+.~@.D..D..D..}@.`+.`+.`+.n| =. sm pp pp pp rZ wB G4 G4 w. G4 G4 G4 G4 G4 G4 !4 =. =. =. =. =. =. =. =. =. =. =. =. =. ",
"J .J .J .J .J .J .J .J .J .J .J .J .J .J .J .J .J .J .J .J .J .J .J .J .J .J .J .J .J .J .J .J .J .J .J .J .sZ 3@.Jl 3N 3N 3N 3N 3N 3N 3N 3N 3N 3N 3N P2 4@.4@.4@.v| &< 8: *< 0: a: E~ z  A  `. F  9. n+ %+ U+ U+ D@ /# ~@ E@ (# S# <$ <$ <$ <$ <$ F$ Y$ %% 2% z% P% H, B& :* += mg :> 9; 4; %> EW Y= FW S* >z GW AJ wx %8 =n k' b) 8! F~ 9e >| c_ c_ c_ c_ c_ c_ c_ c_ c_ c_ c_ a{ ;< |% C6 E5 25 25 25 25 t6 25 n5 L5 n~ c_ E2 E2 E2 E2 E2 E2 E2 c_ c_ c_ c_ c_ c_ c_ c_ c_ c_ c_ l2 c_ !~ v# L4 C3 C3 C3 D  c/ /# .~ c_ l2 c_ c_ c_ c_ c_ c_ c_ c_ c_ c_ c_ c_ c_ c_ c_ c_ c_ c_ c_ c_ c_ c_ c_ c_ c_ c_ c_ c_ c_ c_ c_ c_ c_ c_ c_ c_ c_ c_ c_ c_ c_ c_ c_ c_ c_ c_ c_ c_ c_ c_ c_ c_ c_ c_ c_ c_ c_ c_ c_ c_ c_ c_ c_ c_ c_ c_ c_ c_ c_ c_ c_ c_ c_ c_ c_ c_ c_ c_ c_ c_ c_ c_ c_ c_ c_ c_ c_ c_ c_ c_ c_ c_ c_ c_ c_ c_ c_ c_ c_ c_ c_ c_ c_ c_ c_ c_ c_ c_ c_ c_ c_ c_ c_ c_ c_ c_ c_ c_ c_ c_ c_ c_ c_ c_ c_ c_ c_ c_ c_ c_ c_ c_ c_ c_ c_ c_ c_ c_ c_ c_ c_ c_ c_ c_ c_ c_ c_ `N 35 25 25 25 25 25 t6 25 n5 1% V~ c_ c_ c_ c_ c_ c_ c_ '` +) /% #+ C3 C3 C3 C3 ~8 vu q$ R6 ;@.t6 25 25 25 25 E5  8 >| 3| a{ c_ c_ c_ c_ c_ c_ c_ c_ c_ c_ c_ c_ c_ c_ c_ c_ c_ c_ c_ c_ c_ c_ c_ c_ c_ c_ c_ c_ c_ c_ c_ c_ c_ c_ c_ c_ c_ c_ c_ D: #* t4 #! Z. ;8 ^o J7 @s hE 8N q* *, V- (; 3; 3; hW 8- !W 9* D* 1& R% f& k% 9% ;% <$ <$ <$ <$ <$ <$ <$ <$ <$ S# (# E@ E@ !@ r+ ~+ -+ #+ 9. D  `. z  L< w_ 0: *< 9[ 0[ m[ m[ ^T /T /T /T /T /T K+.f+.f+.f+.f+.f+.f+.f+.f+.f+.L+.D..D..D..D..5@.`+.`+.6@.=. =. =. ;o 7@.pp S2 ;* =. =. =. =. =. =. =. =. =. =. =. =. =. =. =. =. =. =. =. =. =. =. =. ",
"J .J .J .J .J .J .J .J .J .J .J .J .J .p@ n7 n7 n7 n7 n7 n7 n7 8@.J .J .J .J .J .J .J .J .J .J .9@.A= Yv lL 3N 3N 3N 3N 3N 3N 3N 3N 3N 3N 3N 3N 3N 3N 3N 3N 3N 3N v| &< 8: *< 0: a: E~ z  A  `. F  9. n+ %+ U+ U+ D@ /# ~@ E@ (# S# <$ <$ <$ <$ <$ F$ Y$ %% 2% z% P% H, t0 :* += Oh :> 9; 4; 4; 0@.7c FW o, >z IT JI GE %8 1g k' b) 8! F~ 9e >| c_ c_ c_ c_ c_ c_ c_ c_ c_ c_ c_ a{ ;< j% C6 E5 25 25 25 25 25 t6 J6 n5 k% D5 V~ ;< V~ Bx E2 a{ E2 c_ c_ c_ c_ c_ c_ c_ c_ c_ c_ c_ l2 c_ !~ v# L4 C3 C3 C3 D  c/ /# .~ c_ l2 c_ c_ c_ c_ c_ c_ c_ c_ c_ c_ c_ c_ c_ c_ c_ c_ c_ c_ c_ c_ c_ c_ c_ c_ c_ c_ c_ c_ c_ c_ c_ c_ c_ c_ c_ c_ c_ c_ c_ c_ c_ c_ c_ c_ c_ c_ c_ c_ c_ c_ c_ c_ c_ c_ c_ c_ c_ c_ c_ c_ c_ c_ c_ c_ c_ c_ c_ c_ c_ c_ c_ c_ c_ c_ c_ c_ c_ c_ c_ c_ c_ c_ c_ c_ c_ c_ c_ c_ c_ c_ c_ c_ c_ c_ c_ c_ c_ c_ c_ c_ c_ c_ c_ c_ c_ c_ c_ c_ c_ c_ c_ c_ c_ c_ c_ c_ c_ c_ c_ c_ c_ c_ c_ c_ c_ c_ c_ c_ c_ c_ c_ c_ c_ c_ c_ c_ c_ c_ c_ c_ c_ c_ c_ c_ c_ c_ ;< j% +7 25 25 25 25 25 25 t6 E5 o' z_ V~ c_ c_ c_ c_ c_ a@.[< <% 4f #+ C3 C3 C3 C3 ~8 vu q$ R6 ;@.t6 25 25 25 25 25 N4 @) }~ E2 a{ c_ c_ c_ c_ c_ c_ c_ c_ c_ c_ c_ c_ c_ c_ c_ c_ c_ c_ c_ c_ c_ c_ c_ c_ c_ c_ c_ c_ c_ c_ c_ c_ c_ c_ c_ c_ c_ c_ 8y #* ,@.#! Z. ;8 ]k J7 @s !E .K mS *, lV /; 1; 1; => 8- d= 8* t= 1& c& f& k% 9% W$ <$ <$ <$ <$ <$ <$ <$ <$ <$ S# (# E@ E@ !@ r+ ~+ -+ #+ 9. D  `. z  L< w_ 0: *< 9[ 0[ m[ m[ ^T /T /T /T /T /T )@.f+.f+.f+.f+.f+.f+.f+.f+.L+.D..D..D..D..D..Jm `+.`+.b@.=. =. =. =. =. =. =. =. =. =. =. =. =. =. =. =. =. =. =. =. =. =. =. =. =. =. =. =. =. =. =. ",
"J .J .c@.c@.c@.c@.c@.$` vm Sm d@.=2 Q( e@.e@.e@.e@.e@.e@.e@.e@.e@.e@.e@.e@.e@.e@.e@.f@.Wv 3N 3N 3N 3N 3N 3N 3N 3N 3N 3N 3N 3N 3N 3N 3N 3N 3N 3N 3N 3N 3N 3N 3N 3N v| &< 8: *< 0: a: E~ z  A  `. F  9. n+ %+ U+ U+ D@ /# ~@ E@ (# S# <$ <$ <$ <$ <$ F$ Y$ %% 2% z% P% H, t0 :* += Oh ); (; 2; 4; )W g@.!W ~W /* IT {W GE !v 1g k' b) 8! F~ 9e >| c_ c_ c_ c_ c_ c_ c_ c_ c_ c_ c_ a{ }w &) 2n J6 25 25 25 25 25 25 '5 25 3n &K j% *) &)  & kH vz h@.'` V~ c_ c_ c_ c_ c_ c_ c_ c_ c_ l2 c_ !~ v# L4 C3 C3 C3 D  c/ /# .~ c_ l2 c_ c_ c_ c_ c_ c_ c_ c_ c_ c_ c_ c_ c_ c_ c_ c_ c_ c_ c_ c_ c_ c_ c_ c_ c_ c_ c_ c_ c_ c_ c_ c_ c_ c_ c_ c_ c_ c_ c_ c_ c_ c_ c_ c_ c_ c_ c_ c_ c_ c_ c_ c_ c_ c_ c_ c_ c_ c_ c_ c_ c_ c_ c_ c_ c_ c_ c_ c_ c_ c_ c_ c_ c_ c_ c_ c_ c_ c_ c_ c_ c_ c_ c_ c_ c_ c_ c_ c_ c_ c_ c_ c_ c_ c_ c_ c_ c_ c_ c_ c_ c_ c_ c_ c_ c_ c_ c_ c_ c_ c_ c_ c_ c_ c_ c_ c_ c_ c_ c_ c_ c_ c_ c_ c_ c_ c_ c_ c_ c_ c_ c_ c_ c_ c_ c_ c_ c_ c_ c_ c_ c_ c_ c_ c_ c_ c_ D5 #) +7 25 25 25 25 25 25 25 t6 N4 #) }~ V~ c_ c_ c_ c_ l2 a{ L5 |$ J  D  C3 C3 C3 ~8 vu q$ R6 ;@.t6 25 25 25 25 25 25 Z  YA }~ c_ a{ a{ c_ c_ c_ c_ c_ c_ c_ c_ c_ c_ c_ c_ c_ c_ c_ c_ c_ c_ c_ c_ c_ c_ c_ c_ c_ c_ c_ c_ c_ c_ c_ c_ c_ c_ c_ c_ 2[ &% ,@.#! Z. ;8 ]k J7 @s !E .K mS *, lV |> 2> 1; c; 8- d= 8* M& 1& R% f& k% 9% W$ <$ <$ <$ <$ <$ <$ <$ <$ <$ S# (# E@ E@ !@ r+ ~+ -+ #+ 9. D  `. z  L< w_ 0: *< 9[ 0[ m[ m[ ^T /T /T /T /T /T f+.f+.f+.f+.f+.f+.f+.i@.O@ D..D..D..D..D..j@.`+.`+.k@.=. =. =. =. =. =. =. =. =. =. =. =. =. =. =. =. =. =. =. =. =. =. =. =. =. =. =. =. =. =. =. =. ",
"1T 1T 1T 1T 1T 1T 1T 1T 1T 1T 1T 1T 1T 1T l@.H% b< m@.n@.n@.n@.n@.n@.n@.n@.n@.n@.n@.o@.p@.3N 3N 3N 3N 3N 3N 3N 3N 3N 3N 3N q@.r@.r@.r@.r@.s@.s@.s@.s@.s@.s@.s@.s@.m[ &< 8: *< 0: a: E~ z  A  `. F  9. n+ %+ U+ U+ D@ /# ~@ E@ (# S# <$ <$ <$ <$ <$ F$ Y$ %% 1% z% P% H, W& p* .= Oh ); /; 1; 3; )W :u !W ~W /* IT {W GE !v 1g k' b) 8! F~ 9e >| c_ c_ c_ c_ c_ c_ c_ c_ c_ c_ c_ a{ D5 %) 2n 25 25 25 25 25 25 25 25 '5 J6 E5 Z7 Z7 Z7 Z7 2n 3n E- $y  & >8 8y c_ E2 c_ c_ c_ c_ c_ l2 c_ !~ v# L4 C3 C3 C3 D  c/ /# .~ c_ l2 c_ c_ c_ c_ c_ c_ c_ c_ c_ c_ c_ c_ c_ c_ c_ c_ c_ c_ c_ c_ c_ c_ c_ c_ c_ c_ c_ c_ c_ c_ c_ c_ c_ c_ c_ c_ c_ c_ c_ c_ c_ c_ c_ c_ c_ c_ c_ c_ c_ c_ c_ c_ c_ c_ c_ c_ c_ c_ c_ c_ c_ c_ c_ c_ c_ c_ c_ c_ c_ c_ c_ c_ c_ c_ c_ c_ c_ c_ c_ c_ c_ c_ c_ c_ c_ c_ c_ c_ c_ c_ c_ c_ c_ c_ c_ c_ c_ c_ c_ c_ c_ c_ c_ c_ c_ c_ c_ c_ c_ c_ c_ c_ c_ c_ c_ c_ c_ c_ c_ c_ c_ c_ c_ c_ c_ c_ c_ c_ c_ c_ c_ c_ c_ c_ c_ c_ c_ c_ c_ c_ c_ c_ c_ c_ E2 c_ }_ o' /6 25 25 25 25 25 25 25 t6 t6 $* 5m V~ c_ c_ c_ c_ l2 a@.m{ K$ #+ c/ C3 C3 C3 ~8 vu q$ R6 ;@.t6 25 25 25 25 25 25 25 2n %8 m% D: a{ a{ a{ c_ c_ c_ c_ c_ c_ c_ c_ c_ c_ c_ c_ c_ c_ c_ c_ c_ c_ c_ c_ c_ c_ c_ c_ c_ c_ c_ c_ c_ c_ c_ c_ c_ V~ .: %% ,@.#! Z. ;8 ]k J7 @s !E .K mS ZU W- |> |; 2> c; FI }V D, M& 1& R% f& k% 9% W$ <$ <$ <$ <$ <$ <$ <$ <$ <$ S# (# E@ E@ !@ r+ ~+ -+ #+ 9. D  `. z  L< w_ 0: *< 9[ 0[ m[ m[ ^T /T /T /T /T /T @@.f+.{4 eV eV eV t@.D..D..D..D..D..D..~@.Jm `+.`+.`+.`+.k@.6@.>x XN u@.~1 v@.v@.v@.v@.v@.v@.v@.u@.m3 6@.6@.6@.6@.6@.6@.6@.6@.k@.`+.`+.`+.`+.`+.`+.`+.",
"1T 1T 1T 1T 1T 1T 1T 1T 1T 1T 1T 1T 1T 1T 1T 1T 1T w@.w@.w@.w@.w@.w@.w@.w@.w@.w@.w@.w@.w@.x@.y@.z@.A@.A@.A@.B@.y@.y@.w@.w@.w@.w@.w@.w@.w@.C@.C@.C@.C@.C@.C@.C@.C@.u_ &< 8: *< 0: a: E~ z  A  `. F  9. n+ %+ U+ U+ D@ /# ~@ E@ (# S# <$ <$ <$ <$ <$ F$ Y$ %% 1% z% P% /& ]* p* kV `i ); /; t> 1; lV y- ;= R* ^V IT .I GE !v 8m k' b) 8! F~ 9e >| c_ c_ c_ c_ c_ c_ c_ c_ c_ c_ c_ a{ D5 D@.WZ 25 25 25 25 25 25 25 25 25 25 25 '5 '5 '5 '5 '5 25 E5 &8 Z7 .8 %) >8 GH V~ [< c_ c_ E2 l2 c_ !~ v# L4 C3 C3 C3 D  c/ /# .~ c_ l2 c_ c_ c_ c_ c_ c_ c_ c_ c_ c_ c_ c_ c_ c_ c_ c_ c_ c_ c_ c_ c_ c_ c_ c_ c_ c_ c_ c_ c_ c_ c_ c_ c_ c_ c_ c_ c_ c_ c_ c_ c_ c_ c_ c_ c_ c_ c_ c_ c_ c_ c_ c_ c_ c_ c_ c_ c_ c_ c_ c_ c_ c_ c_ c_ c_ c_ c_ c_ c_ c_ c_ c_ c_ c_ c_ c_ c_ c_ c_ c_ c_ c_ c_ c_ c_ c_ c_ c_ c_ c_ c_ c_ c_ c_ c_ c_ c_ c_ c_ c_ c_ c_ c_ c_ c_ c_ c_ c_ c_ c_ c_ c_ c_ c_ c_ c_ c_ c_ c_ c_ c_ c_ c_ c_ c_ c_ c_ c_ c_ c_ c_ c_ c_ c_ c_ c_ c_ c_ c_ c_ c_ c_ c_ E2 a{ c_ 5m n5 J6 25 25 25 25 25 25 25 25 t6 N4 <% D5 c_ c_ c_ c_ l2 l2 z_ G$ %+ c/ C3 C3 C3 ~8 vu q$ R6 ;@.t6 25 25 25 25 25 25 25 25 )5 3m &) z_ D5 V~ c_ E2 a{ a{ a{ E2 c_ c_ c_ c_ c_ c_ c_ c_ c_ c_ c_ c_ c_ c_ c_ c_ c_ c_ c_ c_ c_ c_ c_ c_ c_ c_ c_ V~ >8 +) ,@.#! Z. ;8 ]k Jq @s !E .K mS *, `U ^; &> G; c; FI -= D, E* 1& R% f& k% 9% W$ <$ <$ <$ <$ <$ <$ <$ <$ <$ S# (# E@ E@ !@ r+ ~+ -+ #+ 9. D  `. z  L< w_ 0: *< 9[ 0[ m[ m[ ^T /T /T /T /T /T E@.f+.i@.D..D..D..D..D..Z+.$@.F@.5@.Jm `+.`+.`+.`+.`+.`+.`+.`+.`+.`+.`+.`+.`+.`+.`+.`+.`+.`+.`+.`+.`+.`+.`+.`+.`+.`+.`+.`+.`+.`+.`+.`+.`+.`+.`+.`+.`+.",
"1T 1T 1T 1T 1T 1T 1T 1T 1T 1T 1T 1T 1T 1T 1T 1T G@.H@.w@.w@.w@.w@.w@.I@.J@.J@.J@.J@.J@.K@.w@.w@.w@.w@.y@.y@.y@.y@.y@.y@.y@.y@.y@.y@.y@.y@.L@.L@.M@.C@.C@.C@.C@.C@.u_ &< 8: *< 0: a: E~ z  A  `. F  9. n+ %+ U+ U+ D@ /# ~@ E@ (# S# <$ <$ <$ <$ <$ F$ Y$ %% 1% z% P% /& ]* F* i= `i ); |> G; |; TU K= WD R* ^V WU .I GE  8 8m k' Xa 8! F~ 9e >| c_ c_ c_ c_ c_ c_ c_ c_ c_ c_ c_ a{ D5 &K &8 25 25 25 25 25 25 25 25 25 25 25 25 25 25 25 25 25 25 25 '5 J6 Z7 +8 o' j% m% zx V~ E2 l2 c_ !~ v# L4 C3 C3 C3 D  c/ /# .~ c_ l2 c_ c_ c_ c_ c_ c_ c_ c_ c_ c_ c_ c_ c_ c_ c_ c_ c_ c_ c_ c_ c_ c_ c_ c_ c_ c_ c_ c_ c_ c_ c_ c_ c_ c_ c_ c_ c_ c_ c_ c_ c_ c_ c_ c_ c_ c_ c_ c_ c_ c_ c_ c_ c_ c_ c_ c_ c_ c_ c_ c_ c_ c_ c_ c_ c_ c_ c_ c_ c_ c_ c_ c_ c_ c_ c_ c_ c_ c_ c_ c_ c_ c_ c_ c_ c_ c_ c_ c_ c_ c_ c_ c_ c_ c_ c_ c_ c_ c_ c_ c_ c_ c_ c_ c_ c_ c_ c_ c_ c_ c_ c_ c_ c_ c_ c_ c_ c_ c_ c_ c_ c_ c_ c_ c_ c_ c_ c_ c_ c_ c_ c_ c_ c_ c_ c_ c_ c_ c_ c_ c_ c_ c_ c_ c_ V~ wz o' /6 25 25 25 25 25 25 25 25 25 25 #N Iq 2[ c_ c_ c_ c_ l2 l2 g] I$ o) C3 C3 C3 C3 ~8 Pk q$ R6 ;@.t6 25 25 25 25 25 25 25 25 t6 u6 N4 2m $y j% 3% .: 2[ }w ;< V~ [< c_ a{ a{ E2 c_ c_ c_ c_ c_ c_ c_ c_ c_ c_ c_ c_ c_ c_ c_ c_ c_ c_ c_ c_ c_ c_ zx 2% .) ,@.#! Z. ;8 ]k J7 @s !E .K $' e6 `U pU [; [; [> 7- -= 7* E* w& R% f& k% 9% W$ <$ <$ <$ <$ <$ <$ <$ <$ <$ S# (# E@ E@ !@ r+ ~+ -+ #+ 9. D  `. z  L< w_ 0: *< 9[ 0[ v| v| N@.`+.`+.`+.`+.`+.O@.X5 P@.Xk i_ Jm `+.`+.`+.`+.`+.`+.`+.`+.`+.`+.`+.`+.`+.`+.`+.`+.`+.`+.`+.`+.`+.`+.`+.`+.`+.`+.`+.`+.`+.`+.`+.`+.`+.`+.`+.`+.Q@.bc R@.R@.R@.R@.R@.(Q ",
"S@.S@.G@.1T 1T 1T 1T 1T 1T 1T 1T 1T 1T 1T 1T T@.U@.P6 V@.W@.X@.Y@.Z@.Z@.`@. #. #. #. #..#..4 .4 .4 .4 .4 .4 .4 .4 .4 .4 .4 .4 .4 .4 .4 .4 .4 .4 .4 .4 .4 .4 .4 .4 R! &< 8: *< 0: a: E~ z  A  `. F  9. n+ %+ U+ U+ D@ /# ~@ E@ (# S# <$ <$ <$ <$ <$ F$ Y$ %% 1% w% P% /& ]* F* i= `i d; ^; &> G; j; <, UU +#.VU LR .I XU  8 8m k' Xa 8! F~ 9e >| c_ c_ c_ c_ c_ c_ c_ c_ c_ c_ c_ a{ D5 $y E5 25 25 25 25 25 25 25 25 25 25 25 25 25 25 25 25 25 25 25 25 25 '5 25 E5 N4 +8 $y l% zx Ax c_ 4( v# L4 C3 C3 C3 D  c/ /# .~ c_ l2 c_ c_ c_ c_ c_ c_ c_ c_ c_ c_ c_ c_ c_ c_ c_ c_ c_ c_ c_ c_ c_ c_ c_ c_ c_ c_ c_ c_ c_ c_ c_ c_ c_ c_ c_ c_ c_ c_ c_ c_ c_ c_ c_ c_ c_ c_ c_ c_ c_ c_ c_ c_ c_ c_ c_ c_ c_ c_ c_ c_ c_ c_ c_ c_ c_ c_ c_ c_ c_ c_ c_ c_ c_ c_ c_ c_ c_ c_ c_ c_ c_ c_ c_ c_ c_ c_ c_ c_ c_ c_ c_ c_ c_ c_ c_ c_ c_ c_ c_ c_ c_ c_ c_ c_ c_ c_ c_ c_ c_ c_ c_ c_ c_ c_ c_ c_ c_ c_ c_ c_ c_ c_ c_ c_ c_ c_ c_ c_ c_ c_ c_ c_ c_ c_ c_ c_ c_ c_ c_ c_ c_ c_ ;< .: j% g6 +7 25 25 25 25 25 25 25 25 25 25 +5 /6 &K }~ c_ c_ c_ c_ l2 l2 g] I$ o) C3 C3 C3 C3 h3 Pk q$ R6 ;@.t6 25 25 25 25 25 25 25 25 25 25 25 25 K6 2n E` )G E- yx &K &) l% m% }~ 8y V~ c_ E2 a{ a{ c_ c_ c_ c_ c_ c_ c_ c_ c_ c_ c_ c_ c_ c_ c_ c_ c_ c_ }~ j% `k ,@.#! Z. ;8 ]k J7 @s XD +G $' e6 `U pU E; [; :> 7- -= +' K& w& R% v% |% 9% H$ <$ <$ <$ <$ <$ <$ <$ <$ <$ S# (# E@ E@ !@ r+ ~+ -+ #+ 9. D  `. z  L< w_ 0: *< 9[ 0[ v| v| N@.`+.`+.`+.`+.`+.`+.`+.`+.`+.`+.`+.`+.`+.`+.`+.`+.`+.`+.`+.`+.`+.`+.`+.@#.Q@.Q@.##.$#.$#.%#.&#.*#.=#.=#.-#.;#.XT g..g..n_ >#.,#.,#.,#.,#.'#.'#.'#.1+ )#.!#.!#.!#.!#.!#.",
"~#.~#.~#.~#.U@.{#.]#.^#.y' S@.S@.T@.^#.##./#.~#.~#.P6 ^  (#.(#.(#.(#.(#.(#.(#.(#.(#.(#.(#._#.:#..4 .4 .4 .4 .4 .4 .4 .4 .4 .4 .4 .4 .4 .4 .4 .4 .4 .4 .4 .4 .4 .4 R! &< 8: *< 0: a: E~ z  A  `. F  9. n+ %+ U+ U+ D@ /# ~@ E@ (# S# <$ <$ <$ <$ <$ F$ -% %% 1% v% P% /& ]* _*  = `i d; ^; [; }; Y- R= UU P* hJ LR .I XU  8 8m k' Xa 8! F~ 9e >| c_ c_ c_ c_ c_ c_ c_ c_ c_ c_ c_ a{ 2[ %8 E5 t6 25 25 25 U6 U6 U6 U6 U6 U6 U6 U6 U6 U6 U6 U6 U6 U6 U6 U6 U6 U6 U6 U6 25 J6 /6 C6 yx 5% 2[ .~ E@ L4 C3 C3 C3 D  c/ /# .~ c_ l2 c_ c_ c_ c_ c_ c_ c_ c_ c_ c_ c_ c_ c_ c_ c_ c_ c_ c_ c_ c_ c_ c_ c_ c_ c_ c_ c_ c_ c_ c_ c_ c_ c_ c_ c_ c_ c_ c_ c_ c_ c_ c_ c_ c_ c_ c_ c_ c_ c_ c_ c_ c_ c_ c_ c_ c_ c_ c_ c_ c_ c_ c_ c_ c_ c_ c_ c_ c_ c_ c_ c_ c_ c_ c_ c_ c_ c_ c_ c_ c_ c_ c_ c_ c_ c_ c_ c_ c_ c_ c_ c_ c_ c_ c_ c_ c_ c_ c_ c_ c_ c_ c_ c_ c_ c_ c_ c_ c_ c_ c_ c_ c_ c_ c_ c_ c_ c_ c_ c_ c_ c_ c_ c_ c_ c_ c_ c_ c_ c_ c_ c_ c_ c_ c_ c_ c_ c_ c_ c_ c_ c_ D5 |% .8 Am u6 25 25 25 25 25 25 25 25 25 25 '5 '5 3n 5m V~ c_ c_ c_ c_ l2 l2 g] I$ o) C3 C3 C3 C3 ~8 Pk %$ J7 E5 25 25 E5 E5 u6 u6 u6 u6 u6 u6 25 25 25 25 25 25 25 E5 E5 ~: JB 3n +8 .8 o' &) >| D5 ;< 3| Bx Bx c_ c_ c_ c_ c_ c_ c_ c_ c_ c_ c_ c_ c_ c_ c_ c_ }~ %) Me ,@.#! X. ;8 ]k J7 @s XD +G 7R &, X- <#.1> <; ); 6- == +' K& v& R% v% |% 9% H$ <$ <$ <$ <$ <$ <$ <$ <$ <$ S# (# E@ E@ !@ r+ ~+ -+ #+ 9. D  `. z  L< w_ 0: *< 9[ 0[ v| v| N@.`+.`+.`+.`+.`+.`+.`+.`+.`+.`+.`+.`+.`+.`+.`+.`+.`+.`+.`+.`+.@#.[#.n_ ,#.,#.,#.,#.,#.,#.,#.,#.,#.,#.,#.,#.,#.,#.,#.,#.,#.,#.}#.|#.1#.2#.3#.3#.4#.{$ {$ 5#.@2 !#.!#.!#.",
"~#.~#.~#.~#.~#.~#.~#.~#.~#.~#.~#.~#.~#.~#.~#.~#.~#.6#.(#.(#.(#.(#.(#.(#.(#.(#.(#.(#.(#.(#.(#.(#.w@ 7#.8#.9#.0#..4 .4 .4 .4 .4 .4 .4 .4 .4 .4 .4 .4 .4 .4 .4 .4 .4 R! &< 8: *< 0: a: E~ z  A  `. F  9. n+ %+ U+ U+ D@ /# ~@ E@ (# S# <$ <$ <$ <$ <$ F$ -% 9% k% v% O% /& ]* _* a#.6j '; ]; E; [; Y- b#.z, P* m, LR .I GE  8 8m k' Xa 8! F~ 9e >| c_ c_ c_ c_ c_ c_ c_ c_ c_ c_ c_ -v g] o' E5 t6 ~t 15 15 15 ,5 15 c#.15 ,5 ,5 ,5 ,5 d#.M4 M4 M4 M4 M4 M4 M4 ,5 15 15 :V _V cK mK M4 Oa `' K$ D@ L4 C3 C3 C3 D  c/ /# .~ c_ l2 c_ c_ c_ c_ c_ c_ c_ c_ c_ c_ c_ c_ c_ c_ c_ c_ c_ c_ c_ c_ c_ c_ c_ c_ c_ c_ c_ c_ c_ c_ c_ c_ c_ c_ c_ c_ c_ c_ c_ c_ c_ c_ c_ c_ c_ c_ c_ c_ c_ c_ c_ c_ c_ c_ c_ c_ c_ c_ c_ c_ c_ c_ c_ c_ c_ c_ c_ c_ c_ c_ c_ c_ c_ c_ c_ c_ c_ c_ c_ c_ c_ c_ c_ c_ c_ c_ c_ c_ c_ c_ c_ c_ c_ c_ c_ c_ c_ c_ c_ c_ c_ c_ c_ c_ c_ c_ c_ c_ c_ c_ c_ c_ c_ c_ c_ c_ c_ c_ c_ c_ c_ c_ c_ c_ c_ c_ c_ c_ c_ c_ c_ c_ c_ c_ c_ c_ c_ c_ c_ c_ D5 |% C6 25 25 25 25 25 25 25 25 25 25 25 25 25 '5 '5 .8 .: c_ c_ c_ c_ c_ l2 l2 g] I$ o) C3 C3 C3 C3 D  L4 e#.^j _V mK cK cK cK tJ tJ tJ tJ tJ tJ tJ _V :V _V _V _V :V _V _V :V :V :V _V _V H7 AM {o 3' +% X! f#.6^ ;< c_ c_ c_ c_ c_ c_ c_ c_ c_ c_ c_ c_ c_ c_ c_ .: $y o; ,@.#! <{ ;8 ]k J7 gq XD IT dQ &, X- 6U 8; 8; ); 5- z, 5* K& v& Q% v% |% 9% H$ <$ <$ <$ <$ <$ <$ <$ <$ <$ S# (# E@ E@ !@ r+ ~+ -+ #+ 9. D  `. z  L< w_ 0: *< 9[ 0[ v| v| N@.`+.`+.`+.`+.`+.`+.`+.`+.`+.`+.`+.`+.`+.`+.`+.`+.g#.H% EQ h#.i#.j#.,#.,#.,#.,#.,#.,#.,#.,#.,#.,#.,#.,#.,#.,#.,#.}#.k#.|#.l#.l#.l#.m#.4#.n#.n#.n#.o#.4#.{$ {$ K+.!#.!#.",
"~#.~#.~#.~#.~#.~#.~#.~#.~#.~#.~#.~#.~#.~#.~#.p#.PS L+ (#.(#.(#.(#.(#.(#.(#.(#.(#.(#.(#.(#.(#.(#.(#.(#.(#.(#.(#.(#.(#.w@ 7#.8#.0#..4 .4 .4 .4 .4 .4 .4 .4 .4 .4 .4 R! &< 8: *< 0: a: E~ z  A  `. F  9. n+ %+ U+ U+ D@ /# ~@ E@ (# S# <$ <$ <$ <$ <$ F$ -% 9% k% v% O% ^& z& R& a#.6j '; ]; <; 7; Y- Q= z, q#.7U LR .I GE  8 8m k' Xa 8! F~ 9e >| c_ c_ c_ c_ c_ c_ c_ c_ c_ c_ E2 3| z_ g6 K6 gW a) t4 od Xa C@ X@ W7 4) 4) 4) 4) 4) {# r#.s#.s#.tK tK tK tK tK 2) 2) 2) 1) 1) e+ vK uK 2) F7 L2 8. C3 L4 C3 D  c/ /# .~ c_ l2 c_ c_ c_ c_ c_ c_ c_ c_ c_ c_ c_ c_ c_ c_ c_ c_ c_ c_ c_ c_ c_ c_ c_ c_ c_ c_ c_ c_ c_ c_ c_ c_ c_ c_ c_ c_ c_ c_ c_ c_ c_ c_ c_ c_ c_ c_ c_ c_ c_ c_ c_ c_ c_ c_ c_ c_ c_ c_ c_ c_ c_ c_ c_ c_ c_ c_ c_ c_ c_ c_ c_ c_ c_ c_ c_ c_ c_ c_ c_ c_ c_ c_ c_ c_ c_ c_ c_ c_ c_ c_ c_ c_ c_ c_ c_ c_ c_ c_ c_ c_ c_ c_ c_ c_ c_ c_ c_ c_ c_ c_ c_ c_ c_ c_ c_ c_ c_ c_ c_ c_ c_ c_ c_ c_ c_ c_ c_ c_ c_ c_ c_ c_ c_ c_ c_ c_ c_ c_ c_ ;< 1% 3m E5 25 25 25 25 25 25 25 25 25 25 25 25 25 '5 '5 3m .: c_ c_ c_ c_ c_ l2 l2 g] I$ o) C3 C3 C3 c/ 7. kl z} t#.u#.vK uK uK uK uK uK uK uK uK uK uK uK 1) V. V. F7 F7 2) 2) 2) 2) 2) uK uK 3c s#.tK ^k 3) A7 ~+ %4 6^ a{ l2 c_ c_ c_ c_ c_ c_ c_ c_ c_ c_ c_ c_ [< >|  8 4e ,@.#! <{ ;8 ]k J7 uG XD GW )U JT md 6U :; :; <> 5- z, 5* S& |& Q% v% |% 9% H$ <$ <$ <$ <$ <$ <$ <$ <$ <$ S# (# E@ E@ !@ r+ ~+ -+ #+ 9. D  `. z  L< w_ 0: *< 9[ 0[ v| v| N@.v#.w#.AR x#.]( y#.z#.A#.(Q `+.`+.`+.`+.B#.C#.D#.D#.D#.E#.l#.l#.l#.l#.l#.F#.F#.F#.G#.G#.G#.G#.G#.G#.F#.F#.H#.l#.l#.l#.l#.l#.l#.l#.I#.{$ J#.n#.n#.n#.n#.K#.{$ L#.@2 !#.",
"~#.~#.~#.~#.~#.~#.~#.~#.~#.~#.~#.~#.~#.P) h/ +2 52 (#.(#.(#.(#.(#.(#.(#.(#.(#.(#.(#.(#.(#.(#.(#.(#.(#.(#.(#.(#.(#.(#.(#.(#.(#.(#._#.:#..4 .4 .4 .4 .4 .4 .4 .4 .4 R! &< 8: *< 0: a: E~ z  A  `. F  9. n+ %+ U+ U+ D@ /# ~@ E@ (# S# <$ <$ <$ <$ <$ F$ -% 9% k% v% O% ^& z& R& `* 6j '; M#.8; 7; 9H A- z, f* 7U LR jJ ev  8 8m nh Xa 8! F~ 9e >| c_ c_ c_ c_ c_ c_ c_ c_ c_ c_ a{ 3| 5m 2m E5 M4 >r 8! #! #! #! }) t/ t/ t/ 1( 1( R! R! R! 8[ 8[ e_ 5! 5! 5! [{ 7! 7! 7! R) R) R) R) R) ]4 ]4 z! 5H Q8 C3 L4 C3 c/ /# .~ c_ l2 c_ c_ c_ c_ c_ c_ c_ c_ c_ c_ c_ c_ c_ c_ c_ c_ c_ c_ c_ c_ c_ c_ c_ c_ c_ c_ c_ c_ c_ c_ c_ c_ c_ c_ c_ c_ c_ c_ c_ c_ c_ c_ c_ c_ c_ c_ c_ c_ c_ c_ c_ c_ c_ c_ c_ c_ c_ c_ c_ c_ c_ c_ c_ c_ c_ c_ c_ c_ c_ c_ c_ c_ c_ c_ c_ c_ c_ c_ c_ c_ c_ c_ c_ c_ c_ c_ c_ c_ c_ c_ c_ c_ c_ c_ c_ c_ c_ c_ c_ c_ c_ c_ c_ c_ c_ c_ c_ c_ c_ c_ c_ c_ c_ c_ c_ c_ c_ c_ c_ c_ c_ c_ c_ c_ c_ c_ c_ c_ c_ c_ c_ c_ c_ c_ c_ c_ c_ c_ 3| }~ %8 E5 25 25 25 25 25 25 25 25 25 25 25 25 25 25 t6 t6 n5 6m ;< c_ c_ c_ c_ l2 l2 g] I= -+ C3 C3 C3 7. ]! N#.j] j] J< ]4 [{ ]4 ]4 ]4 ]4 ]4 ]4 ]4 ]4 ]4 R) 7! 7! 7! 7! ^! ^! ^! ^! ^! ^! 7! 7! 7! 5! J< ]4 ]4 8[ L2 f# B] a{ l2 c_ c_ c_ c_ c_ c_ c_ c_ c_ c_ c_ c_ V~ k% .8 4e ,@.#! <{ ;8 ]k J7 gq XD IT )U JT md b; 9; 9; '; 4- &= .' S& |& Q% v% |% 9% H$ <$ <$ <$ <$ <$ <$ <$ <$ <$ S# (# E@ E@ !@ r+ ~+ -+ #+ 9. D  `. z  L< w_ 0: *< 9[ 0[ m[ v| O#.x#.x#.x#.P#.P#.P#.P#.P#.P#.Q#.R#.S#.T#.D#.D#.D#.D#.D#.U#.l#.l#.l#.l#.l#.l#.l#.l#.l#.l#.l#.l#.l#.l#.l#.l#.l#.l#.l#.l#.l#.V#.W#.I#.{$ {$ X#.Y#.Z#.`#. $.n#..$.2#.+$.!#.",
"@$.#$.$$.IS %$.$$.$$.&$.*$.=$.~#.P) -$.;$.>$.,$.~. (#.(#.(#.(#.(#.(#.(#.(#.(#.(#.'$.>#.)$.]Q (#.(#.(#.(#.(#.(#.(#.(#.(#.(#.(#.(#.(#.(#.w@ 8#..4 .4 .4 .4 .4 .4 .4 R! &< 8: *< 0: a: E~ z  A  `. F  9. n+ %+ U+ U+ D@ /# ~@ E@ (# S# <$ <$ <$ <$ <$ F$ -% 9% k% v% O% ^& z& Q& s, 6j ,; {; _; 8; 9H L= y, f* ,U 'U jJ ev  8 8m nh X@ 8! F~ 9e >| c_ c_ c_ c_ c_ c_ c_ c_ c_ c_ a{ ;< j% C6 J6 _V !$.F~ R) R) R) 7! 7! 7! 7! R) R) R) R) R) R) R) R) $! p) p) p) p) p) p) p) p) p) p) p) p) p) @~ ^! O^ 4! C3 C3 c/ /# .~ c_ l2 c_ c_ c_ c_ c_ c_ c_ c_ c_ c_ c_ c_ c_ c_ c_ c_ c_ c_ c_ c_ c_ c_ c_ c_ c_ c_ c_ c_ c_ c_ c_ c_ c_ c_ c_ c_ c_ c_ c_ c_ c_ c_ c_ c_ c_ c_ c_ c_ c_ c_ c_ c_ c_ c_ c_ c_ c_ c_ c_ c_ c_ c_ c_ c_ c_ c_ c_ c_ c_ c_ c_ c_ c_ c_ c_ c_ c_ c_ c_ c_ c_ c_ c_ c_ c_ c_ c_ c_ c_ c_ c_ c_ c_ c_ c_ c_ c_ c_ c_ c_ c_ c_ c_ c_ c_ c_ c_ c_ c_ c_ c_ c_ c_ c_ c_ c_ c_ c_ c_ c_ c_ c_ c_ c_ c_ c_ c_ c_ c_ c_ c_ c_ c_ c_ c_ c_ c_ c_ ;< k% +8 25 25 25 25 25 25 25 25 25 25 25 25 25 25 25 25 t6 Z  }% }w c_ c_ c_ c_ l2 l2 g] I= -+ E  4k 4! /4 F~ R) $! p) p) p) p) p) p) p) p) p) p) p) p) p) p) p) p) p) p) p) p) p) p) p) p) p) p) p) p) $! $! R) <) ~8 S# B] a{ l2 c_ c_ c_ c_ c_ c_ c_ c_ c_ c_ c_ c_ }~ $) +8 J7 ,@.#! <{ ;8 ]k J7 gq DD IT )U JT Y- {; (; (; ,; ~$.y, K* S& }& Q% v% |% 9% H$ <$ <$ <$ <$ <$ <$ <$ <$ <$ S# (# E@ E@ !@ r+ ~+ -+ #+ 9. D  `. z  L< w_ 0: *< 9[ 0[ 7: m[ {$.x#.x#.x#.P#.P#.P#.P#.P#.P#.]$.^$.^$./$.D#.D#.D#.D#.D#.D#.($._$._$._$._$._$._$._$._$._$._$._$._$._$._$.:$.<$.[$.}$.}$.}$.}$.}$.|$.1$.2$.3$.4$.4$.4$.5$.6$.n#.7$.8$.9$.",
"%$.%$.%$.%$.%$.%$.%$.%$.0$.a$.b$.c$.>$.>$.d$.(#.(#.]Q ]Q e$.(#.e$.>#.>#.)$.(( n_ n_ n_ n_ n_ n_ )$.]Q e$.(#.(#.(#.(#.(#.(#.(#.(#.(#.(#.(#.(#. ! 9#..4 .4 .4 .4 .4 R! &< 8: *< 0: a: E~ z  A  `. F  9. n+ %+ U+ U+ D@ /# ~@ E@ (# S# <$ <$ <$ <$ <$ F$ -% 9% k% v% O% ^& z& Q& Z* 6j B; {; 9; 8; f$.N= y, O* mS 7J jJ ev  8 8m p$ X@ 8! F~ 9e >| c_ c_ c_ c_ c_ c_ c_ c_ c_ c_ a{ n~ $) Z7 25 ,5 W7 <) R) @~ @~ R) R) R) R) R) R) R) R) R) R) R) R) R) R) R) R) R) R) R) R) R) R) R) R) R) R) R) R) G) O^ L2 ~8 dc ^# .~ c_ l2 c_ c_ c_ c_ c_ c_ c_ c_ c_ c_ c_ c_ c_ c_ c_ c_ c_ c_ c_ c_ c_ c_ c_ c_ c_ c_ c_ c_ c_ c_ c_ c_ c_ c_ c_ c_ c_ c_ c_ c_ c_ c_ c_ c_ c_ c_ c_ c_ c_ c_ c_ c_ c_ c_ c_ c_ c_ c_ c_ c_ c_ c_ c_ c_ c_ c_ c_ c_ c_ c_ c_ c_ c_ c_ c_ c_ c_ c_ c_ c_ c_ c_ c_ c_ c_ c_ c_ c_ c_ c_ c_ c_ c_ c_ c_ c_ c_ c_ c_ c_ c_ c_ c_ c_ c_ c_ c_ c_ c_ c_ c_ c_ c_ c_ c_ c_ c_ c_ c_ c_ c_ c_ c_ c_ c_ c_ c_ c_ c_ c_ c_ c_ c_ c_ c_ c_ c_ c_ }~ #) /6 25 25 25 25 25 25 25 25 25 25 25 25 25 25 25 25 25 +7 $) D5 c_ c_ c_ c_ l2 l2 g] I$ -+ 8. oL *< G) R) R) R) R) R) R) R) R) R) R) R) R) R) R) R) R) R) R) R) R) R) R) R) R) R) R) R) R) R) R) R) @~ j] <) L2 L4 &$ B] a{ l2 c_ c_ c_ c_ c_ c_ c_ c_ c_ c_ c_ c_ wz  8 35 J7 ,@.#! <{ ;8 ]k J7 gq DD IT [' %, Y- => /; D; B; 3- y, 4* I& }& Q% v% |% @% G$ <$ <$ <$ <$ <$ <$ <$ <$ <$ S# (# E@ E@ !@ r+ ~+ -+ #+ 9. D  `. z  L< w_ 0: *< 9[ 0[ 7: [) {$.x#.x#.x#.P#.P#.P#.P#.P#.P#.g$.h$.^$.i$.j$.D#.D#.D#.D#.D#.k$.l$.l$.l$.l$.l$.l$.l$.l$.l$.l$.l$.l$.l$.l$.l$.4$.4$.4$.4$.4$.4$.4$.m$.n$.n$.n$.n$.n$.n$.n$.n$.o$.p$.q$.n#.",
"r$.r$.b[ b[ s$.>$.>$.>$.>$.>$.>$.t$.u$.x$ (#.(#.>#.n_ n_ n_ n_ n_ n_ n_ n_ n_ n_ n_ n_ n_ n_ n_ n_ n_ n_ n_ n_ (( (( >#.>#.]Q e$.(#.(#.(#.(#.(#.(#.7#..4 .4 .4 .4 R! &< 8: *< 0: a: E~ z  A  `. F  9. n+ %+ U+ U+ D@ /# ~@ E@ (# S# <$ <$ <$ <$ <$ F$ -% 9% |% v% O% ]& z& P& @P 6j B; ~; D; 9; 7T v$.x, d* mS 7J jJ ev  8 8m p$ X@ 8! F~ 9e >| c_ c_ c_ c_ c_ c_ c_ c_ c_ c_ a{ c: Iq K6 25 ,5 $$ 8! 5! R) R) R) R) R) R) R) R) R) R) @~ @~ A! A! A! A! A! A! A! A! A! A! p) p) p) p) p) p) p) p) n! w$.0[ _) 4! D@ .~ c_ l2 c_ c_ c_ c_ c_ c_ c_ c_ c_ c_ c_ c_ c_ c_ c_ c_ c_ c_ c_ c_ c_ c_ c_ c_ c_ c_ c_ c_ c_ c_ c_ c_ c_ c_ c_ c_ c_ c_ c_ c_ c_ c_ c_ c_ c_ c_ c_ c_ c_ c_ c_ c_ c_ c_ c_ c_ c_ c_ c_ c_ c_ c_ c_ c_ c_ c_ c_ c_ c_ c_ c_ c_ c_ c_ c_ c_ c_ c_ c_ c_ c_ c_ c_ c_ c_ c_ c_ c_ c_ c_ c_ c_ c_ c_ c_ c_ c_ c_ c_ c_ c_ c_ c_ c_ c_ c_ c_ c_ c_ c_ c_ c_ c_ c_ c_ c_ c_ c_ c_ c_ c_ c_ c_ c_ c_ c_ c_ c_ c_ c_ c_ c_ c_ c_ c_ c_ c_ c_ vz x$.J6 25 25 25 25 25 25 25 25 25 25 25 25 25 25 25 25 25 J6 g6 g] c_ c_ c_ c_ l2 l2 g] F$ ++ *< v| 7! n! p) A! A! A! A! A! A! A! A! A! A! A! A! A! A! @~ @~ R) R) R) R) R) R) R) R) R) R) R) R) R) @~ R) M2 E~ ~8 Pk <$ B] a{ l2 c_ c_ c_ c_ c_ c_ c_ c_ c_ c_ c_ c_ >8 +8 +7 J7 ,@.#! <{ ;8 ]k J7 gq %I LR #P %, `- => /; /; >; 3- oA 4* I& }& P% u% |% +% G$ <$ <$ <$ <$ <$ <$ <$ <$ <$ S# (# E@ E@ !@ r+ ~+ -+ #+ 9. D  `. z  L< w_ 0: *< 9[ 0[ 7: 7: {$.x#.x#.x#.P#.P#.P#.P#.P#.y$.z$.A$.^$.^$.B$.D#.D#.D#.D#.D#.D#.]$.C$.C$.C$.C$.D$.l$.l$.l$.l$.l$.C$.C$.C$.C$.E$.F$.F$.G$.H$.I$.J$.J$.J$.J$.J$.J$.J$.J$.J$.J$.J$.J$.J$.J$.",
"K$.K$.K$.K$.K$.L$.M$.N$.O$.P$.9S Q$.(#.(#.(#.(#.)$.n_ n_ n_ n_ n_ n_ n_ n_ n_ n_ n_ n_ n_ n_ n_ n_ n_ n_ n_ n_ n_ n_ n_ n_ n_ n_ n_ n_ (#.(#.(#.(#.(#.w@ 0#..4 .4 R! &< 8: *< 0: a: E~ z  A  `. F  9. n+ %+ U+ U+ D@ /# ~@ E@ (# S# <$ <$ <$ <$ <$ F$ -% 9% |% v% l' {& ^I O& @P Rl B; => /; (; 6j +T w, d* mS oP jJ ev  8 8m p$ X@ 8! F~ 9e >| c_ c_ c_ c_ c_ c_ c_ c_ c_ c_ t` z_ v4 K6 25 ,5 2g 7. R$.^! A! p) p) p) p) p) p) p) A! A! S$.3^ S) PL PL PL 3^ 3^ 3^ S) S) S) T$.T$.+] +] +] U) U) U) U) S) *L 3G %+ X! c_ l2 c_ c_ c_ c_ c_ c_ c_ c_ c_ c_ c_ c_ c_ c_ c_ c_ c_ c_ c_ c_ c_ c_ c_ c_ c_ c_ c_ c_ c_ c_ c_ c_ c_ c_ c_ c_ c_ c_ c_ c_ c_ c_ c_ c_ c_ c_ c_ c_ c_ c_ c_ c_ c_ c_ c_ c_ c_ c_ c_ c_ c_ c_ c_ c_ c_ c_ c_ E2 E2 E2 E2 a{ a{ a{ E2 c_ c_ c_ c_ c_ c_ c_ c_ c_ c_ c_ c_ c_ E2 E2 c_ c_ c_ c_ c_ c_ c_ c_ c_ c_ c_ c_ c_ c_ c_ c_ c_ c_ c_ c_ c_ c_ c_ c_ c_ c_ c_ c_ c_ c_ c_ c_ c_ c_ c_ c_ c_ c_ c_ c_ c_ c_ c_ c_ c_ c_ c_ c_ kH JB '5 25 25 25 25 25 25 25 25 25 25 25 25 25 25 25 t6 t6 '5 Z  k% ;< c_ c_ c_ l2 l2 m{ Y@ d) p) S) U$.T$.S) S) S) 3^ 3^ 3^ 3^ PL PL PL PL PL PL PL 3^ S$.A! A! A! p) p) p) p) p) p) p) p) p) p) p) @~ F~ R: ~8 C3 Pk &$ B] a{ l2 c_ c_ c_ c_ c_ c_ c_ c_ c_ c_ c_ V~ 3% JB /6 J7 t4 #! <{ ;8 ]k J7 gq %I LR sO |, mg => ^; |> V$.3- w, 4* I& [& P% u% |% +% G$ <$ <$ <$ <$ <$ <$ <$ <$ <$ S# (# E@ E@ !@ r+ ~+ -+ #+ 9. D  `. z  L< w_ 0: *< 9[ 0[ 7: 7: {$.x#.x#.]( P#.P#.P#.P#.P#.W$.z$.z$.g9 ^$.X$.D#.D#.D#.D#.D#.D#.g..Y$.Z$.Z$.Z$.Z$.Z$.Z$.Z$.Z$.Z$.Z$.Z$.Z$.Z$.Z$.Z$.Z$.Z$.`$.-$._$. %..%.+%.@%.#%.$%.%%.J$.J$.J$.J$.J$.J$.",
"K$.K$.K$.K$.K$.&%.*%.=%.-%.;%.>%.,#.(#.(#.(#.(#.>#.n_ n_ n_ n_ n_ n_ n_ n_ n_ n_ n_ n_ n_ n_ n_ n_ n_ n_ n_ n_ n_ n_ n_ n_ n_ n_ n_ n_ (( (#.(#.(#.(#.(#.w@ 0#..4 R! &< 8: *< 0: a: E~ z  A  `. F  9. n+ %+ U+ U+ D@ /# ~@ E@ (# S# <$ <$ <$ <$ <$ F$ -% 9% |% u% N% {& X& O& Y* Zk >; => |> /; {S z> ,%.wJ mS oP ^S ev  8 8m p$ A7 8! F~ 9e >| c_ c_ c_ c_ c_ c_ c_ c_ c_ E2 #/ k% `5 ]o 25 ,5 2g C3 '%.M2 z! 5! 5! z! F~ V) R! R! R! 1( K7 1( <) <) t/ /7 /7 )%.L7 #! #! #! #! L7 L7 L7 _M i] i] i] 8! 2| 2| C( n. !~ c_ l2 c_ c_ c_ c_ c_ c_ c_ c_ c_ c_ c_ c_ c_ c_ c_ c_ c_ c_ c_ c_ c_ c_ c_ c_ c_ c_ c_ c_ c_ c_ c_ c_ c_ c_ c_ c_ c_ c_ c_ c_ c_ c_ c_ c_ c_ c_ c_ c_ c_ c_ c_ c_ c_ c_ c_ c_ c_ c_ c_ c_ c_ c_ E2 E2 E2 a{ a{ E2 E2 E2 a{ a{ a{ a{ a{ c_ c_ c_ c_ c_ c_ c_ c_ c_ c_ V~ 2[ .: V~ E2 E2 c_ c_ c_ c_ c_ c_ c_ c_ c_ c_ c_ c_ c_ c_ c_ c_ c_ c_ c_ c_ c_ c_ c_ c_ c_ c_ c_ c_ c_ c_ c_ c_ c_ c_ c_ c_ c_ c_ c_ c_ c_ c_ c_ c_ c_ c_ c_ vz g6 WZ /6 25 25 25 25 25 25 25 25 25 25 25 '5 '5 '5 '5 '5 !%.J6 @) 2[ c_ c_ c_ ,: [< 2( e#.d_ L7 L7 L7 )%./7 #! #! #! L7 L7 )%./7 t/ <) t/ t/ t/ <) 1( K7 K7 K7 R! R! R! R! V) V) F~ z! 5! 5! 5! 5! e_ ~%.{%.C3 C3 Pk <$ B] a{ l2 c_ c_ c_ c_ c_ c_ c_ c_ c_ c_ c_ V~ k% 2n /6 J7 t4 #! <{ ;8 ]k J7 Aw %I LR sO |, mg c; ^; ^; ;; 2- w, 2* H& [& P% t% |% +% G$ <$ <$ <$ <$ <$ <$ <$ <$ <$ S# (# E@ E@ !@ r+ ~+ -+ #+ 9. D  `. z  L< w_ 0: *< 9[ 0[ 7: 7: ]%.x#.x#.]( P#.P#.P#.P#.^%.z$.z$.z$./%.^$.^$./$.D#.D#.D#.D#.D#.(%._%.:%.Y$.Z$.Z$.Z$.Z$.Z$.Z$.Z$.Z$.Z$.Z$.Z$.Z$.Z$.Z$.Z$.Z$.Z$.Z$.Z$.Z$.Z$.Z$.Z$.Z$.Z$.<%.[%.}%.|%.1%.J$.",
"&%.*%.2%.3%.4%.5%.6%.-%.H#.>%.7%.(#.(#.(#.(#.(#.]Q n_ n_ n_ n_ n_ n_ n_ n_ n_ n_ n_ n_ n_ n_ n_ n_ n_ n_ n_ n_ n_ n_ n_ n_ n_ n_ n_ n_ n_ (( (#.(#.(#.(#.(#.w@ 0#.R! &< 8: *< 0: a: E~ z  A  `. F  9. n+ %+ U+ U+ D@ /# ~@ E@ (# S# <$ <$ <$ <$ <$ F$ -% 9% |% u% N% {& X& O& Y* Rl e; c; ^; /; JR ,, v, c* KR oP ^S ev =' 8m p$ A7 8! F~ 9e >| c_ c_ c_ c_ c_ c_ c_ c_ c_ a{ n~ $) N4 U6 25 ,5 2g s1 Q8 L2 m! Xa v] v] U+ e7 V  e7 67 n. xM xM Y@ Y@ Y@ (7 8%.n[ g# D( D( %$ q$ E$ E$ E$ I' H$ H$ I$ X$ X$ X$ f<  ~ Sp c_ c_ c_ c_ c_ c_ c_ c_ c_ c_ c_ c_ c_ c_ c_ c_ c_ c_ c_ c_ c_ c_ c_ c_ c_ c_ c_ c_ c_ c_ c_ c_ c_ c_ c_ c_ c_ c_ c_ c_ c_ c_ c_ c_ c_ c_ c_ c_ c_ c_ c_ c_ c_ c_ c_ c_ c_ c_ c_ c_ c_ c_ c_ E2 E2 E2 Bx V~ 8y '` .: wz .: .: / .'` zx 8y c_ E2 E2 c_ c_ c_ c_ a{ c_ .: $) @) vz Bx E2 E2 c_ c_ c_ c_ c_ c_ c_ c_ c_ c_ c_ c_ c_ c_ c_ c_ c_ c_ c_ c_ c_ c_ c_ c_ c_ c_ c_ c_ c_ c_ c_ c_ c_ c_ c_ c_ c_ c_ c_ c_ c_ c_ c_ c_ c_ c_ 8y 3% &) o' N4 25 25 25 25 25 25 25 25 '5 '5 '5 25 E5 N4 N4 E5 E5  8 .: c_ c_ c_ c_ A_ S6 >7 E$ E$ E$ q$ q$ %$ D( D( g# n[ n[ 9%.(7 (7 (7 (7 Y@ Y@ Y@ Y@ e#.0%.67 Tp M8 V  e7 V  U+ U+ v] v] v] M7 2^ OK a%.dc C3 C3 Pk <$ B] a{ l2 c_ c_ c_ c_ c_ c_ c_ c_ c_ c_ c_ &C j% 2n +7 J7 ,@.#! <{ ;8 4f J7 5n lH iJ 2O |, 9H c; 0; 0; f; 5G f= J* $' [& P% t% |% +% G$ <$ <$ <$ <$ <$ <$ <$ <$ <$ S# (# E@ E@ !@ r+ ~+ -+ #+ 9. D  `. z  L< w_ 0: *< 9[ 0[ 7: 7: bP x#.x#.]( P#.P#.P#.P#.g$.z$.z$.z$.b%.^$.^$.c%.D#.D#.D#.D#.D#.d%._%._%._%.e%.f%.Z$.Z$.Z$.Z$.Z$.Z$.Z$.Z$.Z$.Z$.Z$.Z$.Z$.Z$.Z$.Z$.Z$.Z$.Z$.Z$.Z$.Z$.Z$.g%.g%.g%.g%.g%.g%.",
"5%.5%.5%.5%.5%.5%.h%.-%.i%.>%.,#.(#.(#.(#.(#.(#.]Q n_ n_ n_ n_ n_ n_ n_ n_ n_ n_ n_ n_ n_ n_ n_ n_ n_ n_ n_ n_ n_ n_ n_ n_ n_ n_ n_ n_ n_ n_ (( (#.(#.(#.(#.(#.(#.m[ &< 8: *< 0: a: E~ z  A  `. F  9. n+ %+ U+ U+ D@ /# ~@ E@ (# S# <$ <$ <$ <$ <$ E$ -% 9% |% u% N% {& X& O& X* Rl e; !; *> |> %N ,, v, b* KR j%.^S ev =' 8m p$ A7 8! F~ 9e >| c_ c_ c_ c_ c_ c_ c_ c_ c_ a{ }~ o' E5 U6 25 ,5 5f s1 ~8 Pk %$ +~ Z! 4( 4( !~ [_ 5( 5( ({  _  _ m{ m{ b/ b/ b/ }_ }_ }_ g] g] c: _{ _{ ~~ ~~ }w D5 ;< ;< [< c_ c_ [< 3| c_ c_ c_ c_ c_ c_ c_ c_ c_ c_ c_ c_ c_ c_ c_ c_ c_ c_ c_ c_ c_ c_ c_ c_ c_ c_ c_ c_ c_ c_ c_ c_ c_ c_ c_ c_ c_ c_ c_ c_ c_ c_ c_ c_ c_ c_ c_ c_ c_ c_ c_ c_ c_ c_ c_ c_ c_ c_ c_ c_ $/ $/ [< V~ D5 }~ 6m j% $y mF @w .8 .8 .8 @w E- $y 7H >8 D5 Bx c_ c_ c_ a{ a{ V~ |% C6 +7 $y '` E2 E2 c_ c_ c_ c_ c_ c_ c_ c_ c_ c_ c_ c_ c_ c_ E2 E2 E2 c_ c_ c_ c_ c_ c_ c_ c_ c_ c_ c_ c_ c_ c_ c_ c_ c_ c_ c_ c_ c_ c_ c_ c_ c_ c_ c_ c_ c_ c_ V~ }w >| .8 25 25 25 25 25 25 25 t6 25 K6 $8 2m $y |% |% %) o' YA .: c_ c_ c_ c_ V~ }w _{ _{ _{ _{ g] g] g] g] }_ }_ }_ B( b/ b/ b/ b/ b/ b/ m{ m{ m{ ({ ({ ({ J~ [_ [_ !~ !~ 4( 4( 4( 4( 4( Z! =% D@ c/ C3 C3 C3 Pk <$ B] a{ l2 c_ c_ c_ c_ c_ c_ c_ c_ c_ c_ c_ 8y %) 2n +7 J7 ,@.#! <{ ;8 eQ J7 uG lH iJ yN #, 9H [> ]; ]; f; 8R f= 2* $' [& P% t% |% +% G$ <$ <$ <$ <$ <$ <$ <$ <$ <$ S# (# E@ E@ !@ r+ ~+ -+ #+ 9. D  `. z  L< w_ 0: *< 9[ 0[ 7: 7: k%.x#.x#.]( P#.P#.P#.l%.z$.z$.z$.z$./%.^$.^$.m%.D#.D#.D#.D#.n%._%._%._%._%._%._%.e%.Y$.Z$.Z$.Z$.Z$.Z$.Z$.Z$.Z$.Z$.Z$.Z$.Z$.Z$.Z$.Z$.Z$.Z$.Z$.Z$.Z$.Z$.o%.g%.g%.g%.g%.g%.",
"5%.5%.5%.5%.5%.p%.-%.q%.>%.r%.(#.(#.(#.(#.(#.]Q n_ n_ n_ n_ n_ n_ n_ n_ n_ n_ n_ n_ n_ n_ n_ n_ n_ n_ n_ n_ n_ n_ n_ n_ n_ n_ n_ n_ n_ n_ n_ n_ (( (#.(#.(#.(#.(#.m[ &< 8: *< 0: a: E~ z  A  `. F  9. n+ %+ U+ U+ D@ /# ~@ E@ (# S# <$ <$ <$ <$ <$ E$ s%.9% |% u% N% {& X& t= D] Rl e; !; 0; 0; fq t%.u, a* 7R GI XD ev =' 8m p$ A7 8! F~ 9e >| c_ c_ c_ c_ c_ c_ c_ c_ c_ E2 wz .8 E5 U6 25 ,5 rs s1 C3 D@ U! ~~ a{ l2 a{ Ax c_ c_ a{ a{ l2 a@.a@.l2 l2 l2 l2 l2 l2 l2 l2 l2 l2 l2 K~ K~ Q6 /3 l2 l2 l2 l2 l2 l2 E2 c_ c_ c_ c_ c_ c_ c_ c_ c_ c_ c_ c_ c_ c_ c_ c_ c_ c_ c_ c_ c_ c_ c_ c_ c_ c_ c_ c_ c_ c_ c_ c_ c_ c_ c_ c_ c_ c_ c_ c_ c_ c_ c_ c_ c_ c_ c_ c_ c_ c_ c_ c_ c_ c_ c_ c_ c_ c_ c_ a{ E2 [< 2[ >| j% `7  8 .8 C6 Z7 U6 '5 '5 '5 '5 @7 U6 ]o JB g6 i% >8 V~ $/ $/ a{ c_ >8 mF u6 t6 #8 |% V~ E2 c_ c_ c_ c_ c_ c_ c_ c_ E2 E2 E2 c_ V~ V~ V~ V~ c_ $/ E2 E2 c_ c_ c_ c_ c_ c_ c_ c_ c_ c_ c_ c_ c_ c_ c_ c_ c_ c_ c_ c_ c_ c_ c_ c_ c_ c_ c_ c_ a{ D5 o' 25 25 25 25 25 25 25 Z7 .8 $y  & vz }~ ;< 3| D5 wz .: V~ c_ c_ c_ c_ c_ E2 a{ a{ K~ l2 l2 l2 l2 l2 l2 l2 l2 l2 l2 l2 ,: l2 l2 l2 a@.a@.a@.a@.a{ a{ a{ E2 c_ c_ Ax a{ a{ l2 a{ K~ l2 (6 (# 9. C3 C3 C3 Pk <$ B] a{ l2 c_ c_ c_ c_ c_ c_ c_ c_ c_ c_ c_ 8y %) 2n +7 J7 ,@.#! <{ rs eQ qp uG lH iJ @p #, 9H :> a; }> -; |- J= 2* $' [& P% u% |% +% G$ <$ <$ <$ <$ <$ <$ <$ <$ <$ S# (# E@ E@ !@ r+ ~+ -+ #+ 9. D  `. z  L< w_ 0: *< 9[ 0[ 7: 7: {$.x#.x#.u%.P#.P#.P#.g$.z$.z$.v%.w%.h$.^$.^$.^$._` D#.D#.x%.sT _%._%._%._%._%._%._%._%.y%.Z$.Z$.Z$.Z$.Z$.Z$.Z$.Z$.Z$.Z$.Z$.Z$.Z$.Z$.Z$.Z$.Z$.Z$.Z$.Z$.z%.g%.g%.g%.g%.g%.",
"5%.5%.5%.6%.h%.-%.-%.Q$.>%..! (#.(#.(#.(#.]Q n_ n_ n_ n_ n_ n_ n_ n_ n_ n_ n_ n_ n_ n_ n_ n_ n_ n_ n_ n_ n_ n_ n_ n_ n_ n_ n_ n_ n_ n_ n_ n_ n_ n_ n_ e$.(#.(#.(#.m[ &< 8: *< 0: a: E~ z  A  `. F  9. n+ %+ U+ U+ D@ /# ~@ E@ (# S# <$ <$ <$ <$ <$ <$ W$ 9% |% u% N% {& X& t= W* Rl ;; C; ]; 0; 7e A%.+= a* dQ $P DD _D =' 8m p$ A7 8! F~ 9e >| c_ c_ c_ c_ c_ c_ c_ c_ c_ E2 >8 .8 E5 U6 25 15 rs s1 C3 D@ +~ {I a{ l2 l2 l2 l2 l2 l2 l2 l2 l2 l2 l2 l2 l2 l2 l2 l2 l2 l2 l2 a{ a{ a{ a{ a{ E2 c_ c_ c_ c_ c_ c_ c_ c_ c_ c_ c_ c_ c_ c_ c_ c_ c_ c_ c_ c_ c_ c_ c_ c_ c_ c_ c_ c_ c_ c_ c_ c_ c_ c_ c_ c_ c_ c_ c_ c_ c_ c_ c_ c_ c_ c_ c_ c_ c_ c_ c_ c_ c_ c_ c_ c_ c_ c_ c_ c_ c_ c_ c_ a{ $/ c_ ;< }~ k% @) .8 $8 E5 25 25 25 25 t6 '5 '5 '5 '5 '5 '5 '5 '5 25 E5 2m k% D: a{ a{ 2[ &K +7 t6 '5 J6 .8 6m [< a{ E2 E2 E2 E2 c_ c_ c_ V~ V~ D: 2[ >8 l% *) |% 5m }~ n~ V~ c_ $/ a{ E2 c_ c_ c_ c_ c_ c_ c_ c_ c_ c_ c_ c_ c_ c_ c_ c_ c_ c_ c_ c_ c_ c_ c_ c_ E2 D5 %8 25 25 25 25 25 25 C6 YA >8 zx V~ c_ c_ c_ a{ E2 c_ [< c_ c_ c_ c_ c_ c_ c_ E2 a{ a{ a{ a{ l2 l2 l2 l2 l2 l2 l2 l2 l2 l2 l2 l2 l2 l2 l2 l2 l2 l2 l2 l2 l2 l2 l2 l2 l2 l2 l2 K~ K~ f] (6 9%.9. C3 C3 C3 Pk <$ B] a{ l2 c_ c_ c_ c_ c_ c_ c_ c_ c_ c_ c_ 8y %) 2n +7 J7 ,@.#! <{ ;8 ^j qp uG SC oP vM 1, `i ); {; 6U ;> B%.@= 1* G& 9& P% u% |% +% G$ <$ <$ <$ <$ <$ <$ <$ <$ <$ S# (# E@ E@ !@ r+ ~+ -+ #+ 9. D  `. z  L< w_ 0: *< 9[ 0[ 7: 7: {$.x#.x#.Q@.P#.P#.l%.z$.z$.z$.b%.^$.^$.^$.^$.^$.C%.(%.D%.E%._%._%._%._%._%._%._%._%._%._%.F%.Z$.Z$.Z$.Z$.Z$.Z$.Z$.Z$.Z$.Z$.Z$.Z$.Z$.Z$.Z$.Z$.Z$.Z$.Z$.G%.g%.g%.g%.g%.g%.",
"p%.H%.h%.-%.-%.-%.I%.>%.r%.(#.(#.(#.(#.]Q n_ n_ n_ n_ n_ n_ n_ n_ n_ n_ n_ n_ n_ n_ n_ n_ n_ n_ n_ n_ n_ n_ n_ n_ n_ n_ n_ n_ n_ n_ n_ n_ n_ n_ n_ n_ n_ ]Q (#.(#.m[ &< 8: *< 0: a: E~ z  A  `. F  9. n+ %+ U+ U+ D@ /# ~@ E@ (# S# <$ <$ <$ <$ <$ D$ W$ 9% |% u% N% ~& Y& M& W* Rl f; ); a; J%.aQ bQ cQ N* dQ [K %I ZP =' 8m p$ A7 8! F~ 9e >| c_ c_ c_ c_ c_ c_ c_ c_ c_ E2 >8 .8 E5 U6 25 ,5 rs s1 C3 ~+ T6 _{ c_ c_ c_ c_ c_ c_ c_ c_ c_ c_ c_ c_ c_ c_ c_ c_ c_ c_ c_ c_ c_ c_ c_ c_ c_ c_ c_ c_ c_ c_ c_ c_ c_ c_ c_ c_ c_ c_ c_ c_ c_ c_ c_ c_ c_ E2 E2 E2 E2 c_ a{ c_ c_ c_ [< V~ Bx Bx Bx Bx Bx V~ c_ c_ c_ c_ c_ c_ c_ E2 E2 c_ c_ c_ c_ c_ c_ c_ c_ c_ c_ c_ c_ c_ c_ c_ c_ c_ c_ V~ .: 5m j% o' C6 E5 25 25 '5 '5 '5 25 25 25 25 25 25 25 25 25 25 t6 '5 `6 25 +8 3% V~ D5 &) 35 25 t6 25 '5 E5  8 3% &C Bx [< V~ V~ '` h@.m%  & K%.YA yx +8 C6 2n C6 +8 o' YA k% >8 2[ V~ [< c_ Bx c_ a{ c_ c_ c_ c_ c_ c_ c_ c_ c_ c_ c_ c_ c_ c_ c_ c_ c_ c_ c_ c_ c_ }w &) +7 t6 t6 '5 25 $8 %) 8y $/ $/ $/ c_ c_ c_ c_ c_ E2 c_ c_ c_ c_ c_ c_ c_ c_ c_ c_ c_ c_ c_ c_ c_ c_ c_ c_ c_ c_ c_ c_ c_ c_ c_ c_ c_ c_ c_ c_ c_ c_ c_ c_ c_ c_ c_ c_ c_ c_ c_ l2 c_ ({ 9%.9. C3 C3 C3 Pk <$ B] a{ l2 c_ c_ c_ c_ c_ c_ c_ c_ c_ c_ c_ 8y vH 2n +7 J7 ,@.#! <{ rs ^j qp uG zN oP NL 1, `i d; b; {; ;> |- .Q 1* G& 9& P% u% |% +% G$ <$ <$ <$ <$ <$ <$ <$ <$ <$ S# (# E@ E@ !@ r+ ~+ -+ #+ 9. D  `. z  L< w_ 0: *< 9[ 0[ 7: m[ {$.x#.x#.]( P#.P#.L%.z$.z$.z$.M%.^$.^$.^$.^$.^$.N%._%._%._%._%._%._%._%._%._%._%._%._%._%._%.F%.Z$.Z$.Z$.Z$.Z$.Z$.Z$.Z$.Z$.Z$.Z$.Z$.Z$.Z$.Z$.Z$.Z$.Z$.O%.g%.g%.g%.g%.g%.",
"-%.-%.-%.-%.-%.i%.>%.>%..! (#.(#.(#.e$.n_ n_ n_ n_ n_ n_ n_ n_ n_ n_ n_ n_ n_ n_ n_ n_ n_ n_ n_ n_ n_ n_ n_ n_ n_ P%.Q%.R%.S%.T%.n_ n_ n_ n_ n_ n_ n_ n_ n_ )$.]Q m[ &< 8: *< 0: a: E~ z  A  `. F  9. n+ %+ U+ U+ D@ /# ~@ E@ (# S# <$ <$ <$ <$ <$ D$ W$ 9% |% u% N% ~& Y& t= W* }m -; ); {; a; xf bQ i= 0* IP [K %I ZP .7 $g p$ A7 8! F~ 9e >| c_ c_ c_ c_ c_ c_ c_ c_ c_ E2 >8 .8 E5 U6 25 ,5 5f s1 C3 ~+ T6 _{ c_ c_ c_ c_ c_ c_ c_ c_ c_ c_ c_ c_ c_ c_ c_ c_ c_ c_ c_ c_ c_ c_ c_ c_ c_ c_ c_ c_ c_ c_ c_ c_ c_ c_ c_ c_ c_ c_ c_ c_ c_ E2 c_ c_ Bx Bx c_ c_ V~ 8y '` '` .: >8 m% 3% 2% 2% 2% 2% 2% 3% >8 .: '` 8y V~ [< c_ c_ c_ Bx Bx c_ c_ E2 E2 E2 E2 E2 E2 c_ c_ Bx Bx V~ 8y .: 5m &) %8 n5 N4 u6 t6 '5 '5 25 25 25 25 25 25 25 25 25 25 25 25 25 25 25 25 t6 `6 K6 yx k% %) +8 25 t6 25 25 25 '5 E5 h# U%.7H hD <p &K $y E- +8 $8 &8 ]o 25 '5 t6 25 25 t6 u6 E5 35 .8 %8 YA j% kH vz }~ D: [< Bx Bx E2 c_ c_ c_ c_ c_ c_ c_ c_ c_ c_ c_ c_ c_ c_ c_ c_ c_ c_ .: %8 +7 E5 +7 3m j% zx c_ a{ $/ c_ c_ c_ c_ c_ c_ c_ c_ c_ c_ c_ c_ c_ c_ c_ c_ c_ c_ c_ c_ c_ c_ c_ c_ c_ c_ c_ c_ c_ c_ c_ c_ c_ c_ c_ c_ c_ c_ c_ c_ c_ c_ c_ c_ c_ c_ c_ c_ l2 c_ ({ 9%.9. C3 C3 C3 Pk <$ B] a{ l2 c_ c_ c_ c_ c_ c_ c_ c_ c_ c_ c_ V~ 7H 2n E5 J7 ,@./7 R{ 5f ^j qp 5n zN oP NL V%.`i d; => b; y; n- += 1* F& 9& P% u% |% +% G$ <$ <$ <$ <$ <$ <$ <$ <$ <$ S# (# E@ E@ !@ r+ ~+ -+ #+ 9. D  `. z  L< w_ 0: *< 9[ 0[ [) m[ {$.x#.x#.]( P#.*5 z$.z$.z$.z$.w%.^$.^$.^$.^$.^$.W%._%._%._%._%._%._%._%._%._%._%._%._%._%._%._%.F%.Z$.Z$.Z$.Z$.Z$.Z$.Z$.Z$.Z$.Z$.Z$.Z$.Z$.Z$.Z$.Z$.Z$.X%.g%.g%.g%.g%.g%.",
"-%.-%.-%.-%.i%.>%.>%.r%.(#.(#.(#.(#.(( n_ n_ n_ n_ n_ n_ n_ n_ n_ n_ n_ n_ n_ n_ n_ n_ n_ n_ n_ n_ n_ n_ n_ n_ Y%.Z%.Z%.Z%.Z%.Z%.T%.n_ n_ n_ n_ n_ n_ n_ n_ n_ n_ m[ &< 8: *< 0: a: E~ z  A  `. F  9. n+ %+ U+ U+ D@ /# ~@ E@ (# S# <$ <$ <$ <$ <$ <$ W$ 9% |% Z% N% a& %' M& W* }m -; y> b; {; xf [, HP 6c IP mP %I ZP .7 $g p$ A7 8! F~ 9e >| c_ c_ c_ c_ c_ c_ c_ c_ c_ a{ .: @w E5 U6 25 ,5 5f s1 C3 ~+ T6 _{ c_ c_ c_ c_ c_ c_ c_ c_ c_ c_ c_ c_ c_ c_ c_ c_ c_ c_ a@.l2 l2 l2 l2 l2 a{ a{ E2 E2 E2 c_ c_ $/ a{ a{ $/ c_ c_ c_ c_ c_ V~ 8y '` >8 3% l%  & |% %) &K $y yx yx g6 .8 +8 @8 $8 $8 $8 @8 +8 .8  8 @y &K YA &) j% l% l% 3% >8 >8 .: }~ %y %y %y %y %y '` wz vz &D j% YA o' @8 Z7 E5 u6 t6 t6 t6 25 25 25 25 25 25 25 25 25 25 25 25 25 25 25 25 25 25 25 '5 25 $8 +8 $8 U6 t6 25 25 25 25 25 '5 U6 &8 2n Z7 K6 ]o ]o 25 25 t6 t6 '5 '5 '5 t6 25 25 t6 t6 '5 25 u6 u6 E5 2n 3n g6 $y YA &) l% >8 8y V~ c_ a{ a{ a{ a{ a{ a{ a{ a{ a{ a{ a{ a{ a{ a{ a{ a{ c_ .: Nw @y %) >8 V~ c_ a{ a{ $/ a{ a{ a{ a{ a{ a{ a{ a{ a{ a{ a{ l2 l2 l2 l2 l2 l2 l2 l2 l2 l2 l2 l2 l2 l2 l2 l2 a{ c_ c_ c_ c_ c_ c_ c_ c_ c_ c_ c_ c_ c_ c_ c_ c_ c_ c_ c_ c_ l2 c_ ({ 9%.9. C3 C3 C3 Pk <$ B] a{ l2 c_ c_ c_ c_ c_ c_ c_ c_ c_ c_ c_ V~ l% 2n E5 J7 ,@./7 R{ t4 z7 4e 5n sC oP 7P JP ]s <> => => =; }- += }* F& _& O% s% |%  % G$ <$ <$ <$ <$ <$ <$ <$ <$ <$ S# (# E@ E@ !@ r+ ~+ -+ #+ 9. D  `. z  L< w_ 0: *< 9[ 0[ [) m[ {$.x#.x#.]( P#.`%.z$.z$.z$.z$. &.^$.^$.^$.^$.^$..&.Y$.+&._%._%._%._%._%._%._%._%._%._%._%._%._%._%.F%.Z$.Z$.Z$.Z$.Z$.Z$.Z$.Z$.Z$.Z$.Z$.Z$.Z$.Z$.Z$.Z$.Z$.g%.g%.g%.g%.g%.",
"-%.-%.-%.@&.>%.>%.>%.,#.(#.(#.(#.>#.n_ n_ n_ n_ n_ n_ n_ n_ n_ n_ n_ n_ n_ n_ n_ n_ n_ n_ n_ n_ n_ n_ n_ n_ P%.Z%.Z%.Z%.Z%.Z%.Z%.Z%.T%.n_ n_ n_ n_ n_ n_ n_ n_ n_ m[ &< 8: *< 0: a: E~ z  A  `. F  9. n+ %+ U+ U+ D@ /# ~@ E@ (# S# <$ <$ <$ <$ <$ <$ n; +) |% Z% s& a& 7& M& #&.qO -; x> => b; (j iZ `* `I lP mP nP *t R6 ll p$ A7 8! F~ 9e >| c_ c_ c_ c_ c_ c_ c_ c_ c_ a{ }~ yx E5 U6 25 ,5 5f s1 C3 ~+ T6 _{ c_ c_ c_ c_ c_ c_ c_ c_ c_ c_ c_ c_ c_ c_ c_ c_ c_ c_ Bx c_ c_ c_ c_ c_ c_ c_ Bx Bx Bx c_ c_ V~ D: |+.zx h@.>8 m% 2% 2%  & YA yx E- E` $8 Z7 E5 E5 J6 K6 K6 K6 ]o U6 U6 U6 Y7 Y7 Y7 U6 U6 ]o K6 K6 ]o ]o &8 Z7 2n 2n @8 3m g6 o' $y $y &K &K &K $y &! $&.+8 C6 Z7 K6 K6 U6 Y7 Y7 U6 X7 K6 K6 K6 K6 K6 K6 K6 K6 K6 K6 K6 K6 K6 K6 K6 K6 K6 X7 X7 X7 X7 U6 U6 X7 X7 U6 25 25 25 25 25 25 25 25 25 25 25 t6 t6 t6 t6 25 25 25 25 25 25 25 25 25 25 25 25 25 25 25 25 25 U6 U6 E5 K6 ]o %&.2n g6 YA j% l% >8 wz }_ }_ #y >| >| >| >| >| >| >| >8 >8 >8 z_ wz >8 2% 2% m% .: }~ .: .: .: .: }~ }~ }~ }~ }~ 2[ 2[ D5 D5 D5 D5 D: D: V~ V~ V~ [< [< [< c_ c_ c_ c_ c_ c_ c_ c_ c_ c_ c_ c_ c_ c_ c_ c_ c_ c_ c_ c_ c_ c_ c_ c_ c_ c_ c_ c_ c_ l2 c_ ({ 9%.9. C3 C3 C3 Pk <$ B] a{ l2 c_ c_ c_ c_ c_ c_ c_ c_ c_ c_ c_ c_ 3% JB E5 J7 ,@./7 R{ t4 z7 {o YG sC $P %L +, Zk ,; !; c; *; nd i= }* E& _& l' s% |%  % F$ <$ <$ <$ <$ <$ <$ <$ <$ <$ S# (# E@ E@ !@ r+ ~+ -+ #+ 9. D  `. z  L< w_ 0: *< 9[ 0[ [) m[ {$.x#.x#.]( P#.g$.z$.z$.z$.&&.Y| ^$.^$.^$.^$.*&.=&.Z$.Z$.-&._%._%._%._%._%._%._%._%._%._%._%._%._%._%.e%.;&.Z$.Z$.Z$.Z$.Z$.Z$.Z$.Z$.Z$.Z$.Z$.Z$.Z$.Z$.Z$.Z$.Z$.>&.X%.X%.",
"-%.-%.-%.;%.>%.>%.,&.(#.(#.(#.e$.n_ n_ n_ n_ n_ n_ n_ n_ n_ n_ n_ n_ n_ n_ n_ n_ n_ n_ n_ n_ n_ n_ n_ n_ P%.Z%.Z%.Z%.Z%.Z%.Z%.Z%.Z%.R%.n_ n_ n_ n_ n_ n_ n_ n_ n_ m[ &< 8: *< 0: a: E~ z  A  `. F  9. n+ %+ U+ U+ D@ /# ~@ E@ (# S# <$ <$ <$ <$ <$ <$ W$ 9% |% Z% s& a& 7& u= V* (n -; '; c; '&.gd -, s, 8* [' )&.SC *t R6 ll p$ A7 8! F~ 9e >| c_ c_ c_ c_ c_ c_ c_ c_ c_ a{ 2[ @y +7 U6 25 ,5 5f s1 C3 ~+ 1~ g] c_ c_ c_ c_ c_ c_ c_ c_ c_ c_ c_ c_ c_ c_ c_ a{ c_ c: Z! Y$ ;% ;% /n Y$ !&.*% $% #5 :% [% [% <% `7 %8 v4 G7 Z  im jm XA Mm mm ~t lm !x !x YD Wu /Z /Z ~&.!x !x !x !x ~&./Z /Z /Z /Z /Z /Z /Z /Z /Z Wu /Z /Z /Z bK bK M4 M4 M4 15 sK sK YD YD YD YD sK M4 M4 bK (Z {&.bK ]&.]&.M4 M4 ^&.^&.bK bK ^&.^&.^&.^&.^&.^&.bK bK bK bK bK bK bK cK cK CM CM CM mK mK mK mK mK mK mK mK mK mK mK mK eK eK eK mK mK CM cK dK dK /&./&.eK eK eK eK eK eK eK eK eK eK eK eK eK eK eK eK (&.hK _&._&.hK eK :&.8J _V H7 <&.ll ll ll ,u ,u f .f .f .f .f .f .f .f .,u ll ll _n _n 8m 8m _n _n zm zm zm zm X' X' X' pV pV [&.qV qV qV qV ,> y= y= D- C- C- C- n; XG XG ;% W$ W$ ;% ;% I$ B| 7( ;< a{ a{ c_ c_ c_ c_ c_ c_ c_ c_ c_ c_ c_ c_ c_ c_ c_ c_ l2 c_ ({ 9%.9. C3 C3 C3 Pk <$ B] a{ l2 c_ c_ c_ c_ c_ c_ c_ c_ c_ c_ c_ c_ zJ 3n E5 J7 ,@./7 R{ t4 z7 {o YG IB [K %L +, 6j ,; [> c; *; <- i=  ' E& _& H' s% |%  % F$ <$ <$ <$ <$ <$ <$ <$ <$ <$ S# (# E@ E@ !@ r+ ~+ -+ #+ 9. D  `. z  L< w_ 0: *< 9[ 0[ [) m[ k%.x#.x#.]( }&.g9 |&.c' 1&.2&.^$.^$.^$.3&.4&.5&.Z$.Z$.Z$.Z$.+&._%._%._%._%._%._%._%._%._%._%._%._%._%._%._%.6&.Z$.Z$.Z$.Z$.Z$.Z$.Z$.Z$.Z$.Z$.Z$.Z$.Z$.Z$.Z$.Z$.Z$.Z$.Z$.",
"-%.-%.-%.7&.>%.>%.j#.(#.(#.(#.(( n_ n_ n_ n_ n_ n_ n_ n_ n_ n_ n_ n_ n_ n_ n_ n_ n_ n_ n_ n_ n_ n_ P%.Z%.Z%.Z%.Z%.Z%.Z%.Z%.Z%.Z%.Z%.Z%.S%.n_ n_ n_ n_ n_ n_ n_ n_ m[ &< 8: *< 0: a: E~ z  A  `. F  9. n+ %+ U+ U+ D@ /# ~@ E@ (# S# <$ <$ <$ <$ <$ D$ ;% 9% |% Z% s& !& 6& L& U* Xm -; ,; c; => Il =, @P !I #P ZH SC 8I R6 ll p$ rp 8! F~ 9e >| c_ c_ c_ c_ c_ c_ c_ c_ c_ a{ D5 YA 35 U6 25 ,5 5f s1 C3 D@ 1~ g] c_ c_ c_ c_ c_ c_ c_ c_ c_ c_ c_ c_ c_ c_ c_ l2 a{ 4( w# m! E~ %! %! y3 F7 8&.c) 9&.Gj b$ b$ b$ 8) :$ a$ 0&.1  Om a&.a&.a&.a&.a&.a&.a&.Om Om Om Om Om Om Om Om Om a&.4  4  t# t# t# t# t# t# t# t# <g <g <g t# t# t# t# b&.b&.H. H. H. c&.c&.c&.H. H. H. FD FD FD FD FD CK FD L8 FD FD FD CK FD FD FD FD FD FD FD FD CK CK CK CK d&.d&.3c 3c 3c 3c uK uK uK vK uK uK uK uK uK uK uK uK uK uK uK uK uK uK uK uK uK uK uK uK vK vK vK vK vK -8 -8 -8 -8 BK BK BK BK BK BK u  u  u  s  s  xK xK yK yK yK yK yK xK xK e&.yK h| h| h| h| h| h| h| h| h| yK yK e&.e&.xK s  yK yK yK zK zK zK zK f&.f&.f&.f&._M _M _M _M i] i] i] f&.f&.f&.i] 2| i] i] i] i] i] i] i] i] i] z} ]m T! g] K~ l2 c_ c_ c_ c_ c_ c_ c_ c_ c_ c_ c_ c_ c_ c_ c_ c_ l2 c_ ({ 9%.9. C3 C3 C3 Pk <$ B] a{ l2 c_ c_ c_ c_ c_ c_ c_ c_ c_ c_ c_ c_ h@.h# Z7 J7 ,@./7 R{ t4 z7 {o YG IB [K 3O +, Zk ,; :> !; &; <-  = [* ^* _& H' s% j% .% F$ <$ <$ <$ <$ <$ <$ <$ <$ <$ S# (# E@ E@ !@ r+ ~+ -+ #+ 9. D  `. z  L< w_ 0: *< 9[ 0[ [) m[ g&.x#.x#.h&.2&.2&.2&.2&.2&.H> 3&.i&.j&.5&.5&.k&.l&.Z$.Z$.Z$.;&._%._%._%._%._%._%._%._%._%._%._%._%._%._%._%._%.!# ;&.Z$.Z$.Z$.Z$.Z$.Z$.Z$.Z$.Z$.Z$.Z$.Z$.Z$.Z$.Z$.Z$.Z$.",
"-%.-%.-%.-%.I%.>%.>%.,#.(#.(#.>#.n_ n_ n_ n_ n_ n_ n_ n_ n_ n_ n_ n_ n_ n_ n_ n_ n_ n_ n_ n_ n_ Y%.Z%.Z%.Z%.Z%.Z%.Z%.Z%.Z%.Z%.Z%.Z%.Z%.Z%.T%.n_ n_ n_ n_ n_ n_ n_ m[ &< 8: *< 0: a: E~ z  A  `. F  9. n+ %+ U+ U+ D@ /# ~@ E@ (# S# <$ <$ <$ <$ <$ D$ ;% $% |% Z% s& !& 6& K& mh qO -; ,; !; c; Il +P X* !I IO 7N SC 8I R6 ]k Pa rp 8! F~ 9e >| c_ c_ c_ c_ c_ c_ c_ c_ c_ a{ ;< |% Z  U6 25 ,5 5f s1 C3 D@ B| g] c_ c_ c_ c_ c_ c_ c_ c_ c_ c_ c_ c_ c_ c_ c_ K~ a{ .~ ]# oL 3G 7! PL m&.T$.S) A! ]4 5! PK PK PK PK PK PK PK PK 8[ 8[ 8[ 8[ RK RK RK RK RK RK RK RK RK RK RK RK RK RK RK 8[ 8[ 8[ 8[ 8[ 8[ 8[ 8[ 8[ 8[ 8[ 8[ 8[ 8[ 8[ 8[ 8[ QK QK PK PK PK PK PK PK PK PK QK QK 5! 5! 5! 5! 5! 5! 5! 5! 5! 5! 5! 5! 5! 5! 5! 5! 5! 5! J< J< J< J< J< J< R) R) R) R) R) R) R) R) R) R) R) R) R) R) R) R) R) R) R) R) R) R) R) R) R) R) R) R) R) R) R) R) R) R) R) R) R) R) R) @~ @~ @~ @~ @~ @~ @~ @~ @~ @~ R) R) R) @~ @~ @~ R) @~ @~ @~ A! A! A! A! A! A! A! A! A! A! @~ n&.n&.A! A! A! A! p) p) p) p) p) p) 3^ 3^ 3^ p) 3^ 3^ 3^ 3^ 3^ S) S) S) S) S) S) S) U$.U$.U$.U$.T$.S) p) V) o&.Q8 y# z_ JY l2 c_ c_ c_ c_ c_ c_ c_ c_ c_ c_ c_ c_ c_ c_ c_ c_ l2 c_ ({ 9%.9. C3 C3 C3 Pk <$ B] a{ l2 c_ c_ c_ c_ c_ c_ c_ c_ c_ c_ c_ c_ h@.E- 2n J7 ,@./7 R{ t4 z7 {o YG IB mP 3O tO Rl B; ); !; z; uO j= <* D& H, l' s% j% Y$ F$ <$ <$ <$ <$ <$ <$ <$ <$ <$ S# (# E@ E@ !@ r+ ~+ -+ #+ 9. D  `. z  L< w_ 0: *< 9[ 0[ 7: m[ g&.x#.x#.Rz 2&.2&.p&.q&.5&.5&.5&.5&.5&.5&.5&.q4 r&.Z$.Z$.Z$.Z$.!# _%._%._%._%._%._%._%._%._%._%._%._%._%._%._%._%._%.+&.;&.Z$.Z$.Z$.Z$.Z$.Z$.Z$.Z$.Z$.Z$.Z$.Z$.Z$.Z$.Z$.",
"-%.-%.-%.-%.-%.s&.>%.>%.i#.(#.(#.]Q n_ n_ n_ n_ n_ n_ n_ n_ n_ n_ n_ n_ n_ n_ n_ n_ n_ n_ t&.Z%.Z%.Z%.Z%.Z%.Z%.Z%.Z%.Z%.Z%.Z%.Z%.Z%.Z%.Z%.Y%.n_ n_ n_ n_ n_ n_ n_ m[ &< 8: *< 0: a: E~ z  A  `. F  9. n+ %+ U+ U+ D@ /# ~@ E@ (# S# <$ <$ <$ <$ <$ D$ ;% $% |% s% s& !& 6& S& mh u&.P- B; :> c; Il *, l= 7* sO 7N zN ED R6 ]k Pa rp 8! F~ 9e >| c_ c_ c_ c_ c_ c_ c_ c_ c_ c_ 3| 6B $* ]o 25 ,5 5f s1 c/ U+ 65 g] c_ c_ c_ c_ c_ c_ c_ c_ c_ c_ c_ c_ c_ c_ c_ K~ a{ !~ E@ C3 8. E~ <) R) U$.v&.w&.x&.x&.U) U) U) U) U) U) U) T$.U$.U$.y&.y&.y&.y&.U$.U$.U$.U$.U$.U$.U$.U$.U$.U$.U$.U$.U$.U$.U$.U$.U$.U$.U$.U$.U$.U$.U$.U$.U$.U$.U$.U$.U$.U$.U$.U$.U$.U$.U$.U$.U$.U$.y&.y&.y&.y&.U) U) U) U) U) T$.T$.T$.T$.T$.T$.T$.T$.T$.T$.T$.T$.T$.T$.T$.T$.T$.T$.U) U) U) U) U) U) T$.T$.T$.T$.T$.T$.T$.T$.T$.T$.T$.T$.T$.T$.T$.T$.T$.T$.T$.T$.T$.T$.T$.T$.T$.T$.T$.T$.T$.T$.T$.T$.T$.T$.T$.T$.T$.T$.T$.T$.T$.T$.T$.T$.T$.T$.T$.U$.U$.U$.S) S) S) S) S) S) S) S) S) S) S) S) S) S) S) S) S) S) S) S) S) S) S) S) S) S) S) S) S) S) S) S) S) S) S) S) S) S) S) S) S) S) S) m&.U) U$.U$.p) z! /4 {w {%.L4 <$ z_ JY l2 c_ c_ c_ c_ c_ c_ c_ c_ c_ c_ c_ c_ c_ c_ c_ c_ l2 c_ ({ 9%.9. C3 C3 C3 Pk <$ B] a{ l2 c_ c_ c_ c_ c_ c_ c_ c_ c_ c_ c_ c_ / .&! C6 J7 ,@./7 R{ t4 z7 {o YG 4B [K aK 4O Rl e; ); C; %; :- `* H* U& /& l' s% j% .% F$ <$ <$ <$ <$ <$ <$ <$ <$ <$ S# (# E@ E@ !@ r+ ~+ -+ #+ 9. D  `. z  L< w_ 0: *< 9[ 0[ 7: m[ g&.x#.x#.Rz h$.z&.5&.5&.5&.5&.5&.5&.5&.5&.5&.A&._^ =&.Z$.Z$.Z$.6&._%._%._%._%._%._%._%._%._%._%._%._%._%._%._%._%._%._%._%.6&.;&.Z$.Z$.Z$.Z$.Z$.Z$.Z$.Z$.Z$.Z$.Z$.Z$.Z$.",
"-%.-%.-%.-%.-%.-%.i%.>%.>%.B&.(#.(#.(#.]Q (( n_ n_ n_ n_ n_ n_ n_ n_ n_ n_ n_ n_ n_ t| R%.Z%.Z%.Z%.Z%.Z%.Z%.Z%.Z%.Z%.Z%.Z%.Z%.Z%.Z%.Z%.Z%.Z%.Q%.n_ n_ n_ n_ n_ n_ m[ &< 8: *< 0: a: E~ z  A  `. F  9. n+ %+ U+ U+ D@ /# ~@ E@ (# S# <$ <$ <$ <$ <$ D$ ;% 9% |% s% d& !& 3B S& o= qO P- >; :> !; rn &, W* 6* sO ZN zN ED R6 ]k Pa rp %! F~ 9e >| c_ c_ c_ c_ c_ c_ c_ c_ c_ c_ a{ }_ g6 E5 25 ,5 5f 9. c/ U+ =% g] c_ c_ c_ c_ c_ c_ c_ c_ c_ c_ c_ c_ c_ c_ c_ K~ a{ !~ E@ n+ C3 ]m C3 9. Z. %! <) <) <) <) <) <) <) <) <) <) <) <) <) <) <) <) <) <) <) <) <) <) <) <) <) <) <) <) <) <) <) <) <) <) <) <) <) <) <) <) <) <) <) <) <) <) <) <) <) <) <) <) <) <) <) <) <) <) <) <) <) <) <) <) <) <) <) <) <) <) <) <) <) <) <) <) <) <) 1( 1( 1( 1( 1( 1( 1( 1( 1( 1( (M (M (M (M (M (M (M (M (M (M (M (M (M (M (M (M (M (M (M (M (M (M (M (M (M (M (M (M (M (M (M (M (M (M (M (M (M (M (M (M (M (M (M (M (M (M (M (M 94 /7 /7 /7 /7 /7 /7 /7 /7 /7 /7 /7 /7 /7 /7 /7 /7 /7 /7 /7 /7 /7 /7 /7 /7 /7 /7 /7 /7 /7 /7 /7 /7 /7 /7 /7 /7 /7 /7 /7 /7 /7 /7 /7 /7 K7 K7 f&.E~ q2 #+ S+ n+ ;h L4 <$ z_ JY l2 c_ c_ c_ c_ c_ c_ c_ c_ c_ c_ c_ c_ c_ c_ c_ c_ l2 c_ ({ 9%.9. C3 C3 C3 Pk <$ B] a{ l2 c_ c_ c_ c_ c_ c_ c_ c_ c_ c_ c_ c_ 8y %) +8 J7 ,@./7 R{ t4 z7 {o YG 4B 7N 'K 3, }m e; d; ); %; :- s, :* U& ^& N% s% j% .% F$ <$ <$ <$ <$ <$ <$ <$ <$ <$ S# (# E@ E@ !@ r+ ~+ -+ #+ 9. D  `. z  L< w_ 0: *< 9[ 0[ 7: m[ k%.x#.x#.j[ C&.q4 5&.5&.5&.5&.5&.5&.5&.5&.5&.A&._^ r&.Z$.Z$.Z$.;&._%._%._%._%._%._%._%._%._%._%._%._%._%._%._%._%._%._%._%._%._%.+&.;&.Z$.Z$.Z$.Z$.Z$.Z$.Z$.Z$.Z$.Z$.>&.",
"-%.-%.-%.-%.-%.-%.H#.>%.>%.>%.,&.D&.(#.(#.(#.e$.>#.n_ n_ n_ n_ n_ n_ n_ n_ n_ R%.Z%.Z%.Z%.Z%.Z%.Z%.Z%.Z%.Z%.Z%.Z%.Z%.Z%.Z%.Z%.Z%.Z%.Z%.Z%.Z%.Z%.Z%.Y%.T%.n_ n_ n_ m[ &< 8: *< 0: a: E~ z  A  `. F  9. n+ %+ U+ U+ D@ /# ~@ E@ (# S# <$ <$ <$ <$ <$ D$ ;% 9% <% r% M% !& 4& I& S* Xm y; e; ); :> E&.F&.q, 6* yN ZN zN ED R6 ]k c$ 5c %! F~ 9e >| c_ c_ c_ c_ c_ c_ c_ c_ c_ c_ a{ D5 o' K6 25 ,5 5f 9. ~8 o) =% g] c_ c_ c_ c_ c_ c_ c_ c_ c_ c_ c_ c_ c_ c_ c_ K~ a{ !~ E@ C3 4k o+ w# )* !~ W! -% s%.s%.s%.s%.s%.s%.s%.s%.s%.s%.s%.s%.s%.s%.s%.s%.s%.s%.s%.s%.s%.s%.s%.s%.s%.s%.s%.s%.s%.s%.s%.s%.s%.s%.s%.s%.s%.s%.s%.s%.s%.s%.s%.s%.s%.s%.s%.s%.s%.s%.s%.s%.s%.s%.s%.s%.s%.s%.s%.s%.s%.s%.s%.s%.s%.s%.s%.s%.s%.s%.s%.s%.s%.s%.s%.s%.s%.s%.s%.s%.s%.s%.s%.s%.s%.s%.s%.s%.s%.s%.s%.s%.s%.s%.s%.s%.s%.s%.s%.s%.s%.s%.s%.s%.s%.s%.s%.s%.s%.s%.s%.s%.s%.s%.s%.s%.s%.s%.s%.s%.s%.s%.s%.s%.s%.s%.s%.s%.s%.s%.s%.s%.s%.s%.s%.s%.s%.s%.s%.s%.s%.s%.s%.s%.s%.s%.s%.s%.s%.s%.s%.s%.s%.s%.s%.s%.s%.s%.s%.s%.s%.s%.s%.s%.s%.s%.s%.s%.s%.s%.s%.s%.s%.s%.s%.s%.s%.s%.s%.s%.W$ W$ f<  ~ ({ 4( E$ o) D  L4 <$ z_ JY l2 c_ c_ c_ c_ c_ c_ c_ c_ c_ c_ c_ c_ c_ c_ c_ c_ l2 c_ ({ 9%.9. C3 C3 C3 Pk <$ B] a{ l2 c_ c_ c_ c_ c_ c_ c_ c_ c_ c_ c_ c_ V~ l% @w 4e ,@./7 R{ t4 z7 {o ,q 4B 7N BN 3, %N e; '; ); %; ,n G&.:* U& ^& N% s% j% .% F$ <$ <$ <$ <$ <$ <$ <$ <$ <$ S# (# E@ E@ !@ r+ ~+ -+ #+ 9. D  `. z  L< w_ 0: *< 9[ 0[ 7: m[ {$.x#.x#.x#.H&._^ 5&.5&.5&.5&.5&.5&.5&.5&.5&.A&._^ _^ l&.Z$.Z$.Z$.I&._%._%._%._%._%._%._%._%._%._%._%._%._%._%._%._%._%._%._%._%._%._%.:%.-&.Z$.Z$.Z$.Z$.Z$.J&.K&.L&.L&.",
"-%.-%.-%.-%.-%.-%.-%.>%.>%.>%.>%.,&.,#.(#.(#.(#.(#.'$.>#.n_ n_ n_ n_ n_ n_ P%.Z%.Z%.Z%.Z%.Z%.Z%.Z%.Z%.Z%.Z%.Z%.Z%.Z%.Z%.Z%.Z%.Z%.Z%.Z%.Z%.Z%.Z%.Z%.Z%.Z%.Z%.Q%.T%.m[ &< 8: *< 0: a: E~ z  A  `. F  9. n+ %+ U+ U+ D@ /# ~@ E@ (# S# <$ <$ <$ <$ <$ <$ ;% 9% <% r% M% !& 4& I& S* Do y; e; d; ); 'A xN V* K* yN FH zN gq R6 ]k c$ 5c _) F~ 9e >| c_ c_ c_ c_ c_ c_ c_ c_ c_ c_ a{ D5 qn Z7 25 :V @/ 9. ~8 %+ X$ g] E2 c_ c_ c_ c_ c_ c_ c_ c_ c_ c_ c_ c_ c_ c_ K~ a{ !~ E@ 9. ~8 o+ y# i} M&.N&.o[ Ew Ew Ew Ew Ew Ew Ew Ew Ew Ew Ew Ew Ew Ew Ew Ew Ew Ew Ew Ew Ew Ew Ew Ew Ew Ew Ew Ew Ew Ew Ew Ew Ew Ew Ew Ew Ew Ew Ew Ew Ew Ew Ew Ew Ew Ew Ew Ew Ew Ew Ew Ew Ew Ew Ew Ew Ew Ew Ew Ew Ew Ew Ew Ew Ew Ew Ew Ew Ew Ew Ew Ew Ew Ew Ew Ew Ew Ew Ew Ew Ew Ew Ew Ew Ew Ew Ew Ew Ew Ew Ew Ew Ew Ew Ew Ew Ew Ew Ew Ew Ew Ew Ew Ew Ew Ew Ew Ew Ew Ew Ew Ew Ew Ew Ew Ew Ew Ew Ew Ew Ew Ew Ew Ew Ew Ew Ew Ew Ew Ew Ew Ew Ew Ew Ew Ew Ew Ew Ew Ew Ew Ew Ew Ew Ew Ew Ew Ew Ew Ew Ew Ew Ew Ew Ew Ew Ew Ew Ew Ew Ew Ew Ew Ew Ew Ew Ew Ew Ew Ew Ew Ew Ew Ew Ew Ew Ew Ew Ew Ew Ew '^ o[ O&.w| f] B| U+ ~8 C3 <$ z_ JY l2 c_ c_ c_ c_ c_ c_ c_ c_ c_ c_ c_ c_ c_ c_ c_ c_ l2 c_ ({ 9%.9. C3 C3 C3 Pk <$ B] a{ l2 c_ c_ c_ c_ c_ c_ c_ c_ c_ c_ c_ c_ V~ 3% @w 4e ,@./7 E~ od {m {o ,q 4B 7N BN NK %N ;; '; <> `J :p Y* :* U& ^& N% s% j% .% F$ <$ <$ <$ <$ <$ <$ <$ <$ <$ S# (# E@ E@ !@ r+ ~+ -+ #+ 9. D  `. z  L< w_ 0: *< 9[ 0[ 7: m[ {$.x#.x#.x#.P&._^ ~} 5&.5&.5&.5&.5&.5&.5&.5&.Q&._^ _^ 13 Z$.Z$.Z$.f%._%._%._%._%._%._%._%._%._%._%._%._%._%._%._%._%._%._%._%._%._%._%._%._%.Z$.Z$.Z$.R&.K&.L&.L&.L&.L&.",
"-%.-%.-%.-%.-%.-%.q%.>%.>%.>%.>%.>%.S&.(#.(#.(#.(#.(#.(#.]Q n_ n_ n_ n_ n_ S%.Z%.Z%.Z%.Z%.Z%.Z%.Z%.Z%.Z%.Z%.Z%.Z%.Z%.Z%.Z%.Z%.Z%.Z%.Z%.Z%.Z%.Z%.Z%.Z%.Z%.Z%.Z%.Z%.m[ &< 8: *< 0: a: E~ z  A  `. F  9. n+ %+ U+ U+ D@ /# ~@ E@ (# S# <$ <$ <$ <$ <$ <$ ;% 9% <% r% M% b& 3& I& ~W Do y; ;; <> ); 'A $, n= K* yN tH IB gq R6 ]k c$ 5c _) F~ 9e >| c_ c_ c_ c_ c_ c_ c_ c_ c_ c_ a{ }w &) $8 25 :V @/ 9. ~8 %+ W$ g] a{ c_ c_ c_ c_ c_ c_ c_ c_ c_ c_ c_ c_ c_ c_ K~ a{ !~ E@ 9. D  n+ R# W! d: N&.T&.U&.U&.V&.V&.V&.V&.V&.V&.V&.V&.V&.V&.V&.V&.V&.V&.V&.V&.V&.V&.V&.V&.V&.V&.V&.V&.V&.V&.V&.V&.V&.V&.V&.V&.V&.V&.V&.V&.V&.V&.V&.V&.V&.V&.V&.V&.V&.V&.V&.V&.V&.V&.V&.V&.V&.V&.V&.V&.V&.V&.V&.V&.V&.V&.V&.V&.V&.V&.V&.V&.V&.V&.V&.V&.V&.V&.V&.V&.V&.V&.V&.V&.V&.V&.V&.V&.V&.V&.V&.V&.V&.V&.V&.V&.V&.V&.V&.V&.V&.V&.V&.V&.V&.V&.V&.V&.V&.V&.V&.V&.V&.V&.V&.V&.V&.V&.V&.V&.V&.V&.V&.V&.V&.V&.V&.V&.V&.V&.V&.V&.V&.V&.V&.V&.V&.V&.V&.V&.V&.V&.V&.V&.V&.V&.V&.V&.V&.V&.V&.V&.V&.V&.V&.V&.V&.V&.V&.V&.V&.V&.V&.V&.V&.V&.V&.V&.V&.V&.V&.V&.V&.V&.V&.V&.V&.V&.V&.V&.U&.U&.V&.W&.X&.W&.N&.2[ G$ o) ~8 ]m <$ z_ JY l2 c_ c_ c_ c_ c_ c_ c_ c_ c_ c_ c_ c_ c_ c_ c_ c_ l2 c_ ({ 9%.9. C3 C3 C3 Pk <$ B] a{ l2 c_ c_ c_ c_ c_ c_ c_ c_ c_ c_ c_ c_ Bx >8 mF 4e ,@./7 8! od {m Rn ,q WA 7N .K NK Xm -> ,; '; g; (- X* p* V& ^& N% ;& <% Y$ f, <$ <$ <$ <$ <$ <$ <$ <$ <$ S# (# E@ E@ !@ r+ ~+ -+ #+ 9. D  `. z  L< w_ 0: *< 9[ 0[ 7: m[ {$.x#.x#.Y&._^ _^ Q&.5&.5&.5&.5&.5&.5&.5&.5&.q4 _^ _^ _^ Z$.Z$.Z$.Z$.e%._%._%._%._%._%._%._%._%._%._%._%._%._%._%._%._%._%._%._%._%._%._%.Z&.Z$.Z$.`&.L&.L&.L&.L&.L&.L&.",
"-%.-%.-%.-%.-%.-%.q%.>%.>%.>%.>%.r%.(#.(#.(#.(#.(#.(#.(#.(#.]Q n_ n_ n_ n_ 1: Z%.Z%.Z%.Z%.Z%.Z%.Z%.Z%.Z%.Z%.Z%.Z%.Z%.Z%.Z%.Z%.Z%.Z%.Z%.Z%.Z%.Z%.Z%.Z%.Z%.Z%.Z%.Z%.m[ &< 8: *< 0: a: E~ z  A  `. F  9. n+ %+ U+ U+ D@ /# ~@ E@ (# S# <$ <$ <$ <$ <$ <$ 2' @% <% r% M% b& 3& H& R* tM @N f; '; '; 'A |, o= ,H vM tH 4B uG R6 ]k c$ 5c _) F~ 9e >| c_ c_ c_ c_ c_ c_ c_ c_ c_ c_ a{ w/ |% @8 J6 :V @/ 9. ~8 %+ W$ g] E2 c_ c_ c_ c_ c_ c_ c_ c_ c_ c_ c_ c_ c_ c_ K~ a{ !~ E@ C3 ~8 n+ n. B-  : l2  *..*..*.u1 u1 u1 u1 u1 u1 u1 u1 u1 u1 u1 u1 u1 u1 u1 u1 u1 u1 u1 u1 u1 u1 u1 u1 u1 u1 u1 u1 u1 u1 u1 u1 u1 u1 u1 u1 u1 u1 u1 u1 u1 u1 u1 u1 u1 u1 u1 u1 u1 u1 u1 u1 u1 u1 u1 u1 u1 u1 u1 u1 u1 u1 u1 u1 u1 u1 u1 u1 u1 u1 u1 u1 u1 u1 u1 u1 u1 u1 u1 u1 u1 u1 u1 u1 u1 u1 u1 u1 u1 u1 u1 u1 u1 u1 u1 u1 u1 u1 u1 u1 u1 u1 u1 u1 u1 u1 u1 u1 u1 u1 u1 u1 u1 u1 u1 u1 u1 u1 u1 u1 u1 u1 u1 u1 u1 u1 u1 u1 u1 u1 u1 u1 u1 u1 u1 u1 u1 u1 u1 u1 u1 u1 u1 u1 u1 u1 u1 u1 u1 u1 u1 u1 u1 u1 u1 u1 u1 u1 u1 u1 u1 u1 u1 u1 u1 u1 u1 u1 u1 u1 u1 u1 u1 u1 u1 u1 u1 +*.u1 W&.V&.Ew D5 !*  # %+ c/ @*.m; z_ JY l2 c_ c_ c_ c_ c_ c_ c_ c_ c_ c_ c_ c_ c_ c_ c_ c_ l2 c_  _ 9%.9. C3 C3 C3 Pk <$ B] a{ l2 c_ c_ c_ c_ c_ c_ c_ c_ c_ c_ c_ c_ c_ >8 mF 4e ,@./7 %! b) {m Rn qn WA tH JJ 4, Xm -> ,; ,; $; #*.l= F* V& ]& N% ;& [% Y$ F$ <$ <$ <$ <$ <$ <$ <$ <$ <$ S# (# E@ E@ !@ r+ ~+ -+ #+ 9. D  `. z  L< w_ 0: *< 9[ 0[ 7: m[ {$.x#.x#.uT _^ _^ _^ 5&.5&.5&.5&.5&.5&.5&.5&.~} _^ _^ _^ =&.Z$.Z$.Z$.;&.e%._%._%._%._%._%._%._%._%._%._%._%._%._%._%._%._%._%._%._%._%._%.6&.Z$.>&.L&.L&.L&.L&.L&.L&.L&.",
"-%.-%.-%.-%.-%.-%.$*.>%.>%.>%.>%.,#.(#.(#.(#.(#.(#.(#.(#.(#.(#.(( n_ n_ n_ R%.Z%.Z%.Z%.Z%.Z%.Z%.Z%.Z%.Z%.Z%.Z%.Z%.Z%.Z%.Z%.Z%.Z%.Z%.Z%.Z%.Z%.Z%.Z%.Z%.Z%.Z%.Z%.Z%.m[ &< 8: *< 0: a: E~ z  A  `. F  9. n+ %+ U+ U+ D@ /# ~@ E@ (# S# <$ <$ <$ <$ <$ <$ 2' @% <% r% M% b& 2& $' R* tM *; -; ,; '; /M uM S* 2* %*.tH 4B uG `k ]k c$ 5c _) F~ 9e >| c_ c_ c_ c_ c_ c_ c_ c_ c_ c_ c_ 3| 6m .8 E5 :V @/ 9. ~8 %+ W$ g] E2 c_ c_ c_ c_ c_ c_ c_ c_ c_ c_ c_ c_ c_ c_ K~ a{ !~ E@ C3 ~8 o+ /# q$ Z! T&.#v &*.**.6Y 6Y 6Y 6Y 6Y 6Y 6Y 6Y 6Y 6Y 6Y 6Y 6Y 6Y 6Y 6Y 6Y 6Y 6Y 6Y 6Y 6Y 6Y 6Y 6Y 6Y 6Y 6Y 6Y 6Y 6Y 6Y 6Y 6Y 6Y 6Y 6Y 6Y 6Y 6Y 6Y 6Y 6Y 6Y 6Y 6Y 6Y 6Y 6Y 6Y 6Y 6Y 6Y 6Y 6Y 6Y 6Y 6Y 6Y 6Y 6Y 6Y 6Y 6Y 6Y 6Y 6Y 6Y 6Y 6Y 6Y 6Y 6Y 6Y 6Y 6Y 6Y 6Y 6Y 6Y 6Y 6Y 6Y 6Y 6Y 6Y 6Y 6Y 6Y 6Y 6Y 6Y 6Y 6Y 6Y 6Y 6Y 6Y 6Y 6Y 6Y 6Y 6Y 6Y 6Y 6Y 6Y 6Y 6Y 6Y 6Y 6Y 6Y 6Y 6Y 6Y 6Y 6Y 6Y 6Y 6Y 6Y 6Y 6Y 6Y 6Y 6Y 6Y 6Y 6Y 6Y 6Y 6Y 6Y 6Y 6Y 6Y 6Y 6Y 6Y 6Y 6Y 6Y 6Y 6Y 6Y 6Y 6Y 6Y 6Y 6Y 6Y 6Y 6Y 6Y 6Y 6Y 6Y 6Y 6Y 6Y 6Y 6Y 6Y 6Y 6Y 6Y 6Y 6Y 6Y 6Y 6Y 6Y 6Y 6Y 6Y 6Y **.=*.-*.T&.D5 ': ;%  # %+ c/ @*.m; z_ JY l2 c_ c_ c_ c_ c_ c_ c_ c_ c_ c_ c_ c_ c_ c_ c_ c_ a{ c_ 5m W' s1 ;h C3 C3 Pk <$ B] a{ l2 c_ c_ c_ c_ c_ c_ c_ c_ c_ c_ c_ c_ c_ >8 mF qp ,@./7 %! b) {m Rn qn -A tH JJ `> Xm -; B; ,; $; ;*.W* F* B&  * s& r% [% Y$ F$ <$ <$ <$ <$ <$ <$ <$ <$ <$ S# (# E@ E@ !@ r+ ~+ -+ #+ 9. D  `. z  L< w_ 0: *< 9[ 0[ 7: m[ {$.x#.T@._^ _^ _^ _^ ~} 5&.5&.5&.5&.5&.5&.5&.5&._^ _^ _^ 13 Z$.Z$.Z$.Z$.Z$.F%._%._%._%._%._%._%._%._%._%._%._%._%._%._%._%._%._%._%._%.6&.Z$.>&.L&.L&.L&.L&.L&.L&.L&.L&.",
"-%.-%.-%.-%.-%.-%.$*.>%.>%.>%.>%.&$.,#.(#.(#.(#.(#.(#.(#.(#.(#.>#.n_ n_ n_ R%.Z%.Z%.Z%.Z%.Z%.Z%.Z%.Z%.Z%.Z%.Z%.Z%.Z%.Z%.Z%.Z%.Z%.Z%.Z%.Z%.Z%.Z%.Z%.Z%.Z%.Z%.Z%.Z%.m[ &< 8: *< 0: a: E~ z  A  `. F  9. n+ %+ U+ U+ D@ /# ~@ E@ (# S# <$ <$ <$ <$ <$ <$ 2' @% <% r% M% U% 2& G& p= 7e *; -; ,; ,; /M @, o, 2* NL >*.4B uG `k ]k 0) 5c _) F~ 9e >| c_ c_ c_ c_ c_ c_ c_ c_ c_ c_ c_ c_ }_  8 E5 :V @/ 9. 4k %+ W$ g] E2 c_ c_ c_ c_ c_ c_ c_ c_ c_ c_ c_ c_ c_ c_ K~ a{ !~ E@ C3 ~8 Pk /# K$ Le ^x ,*.Lw uX '*.'*.'*.'*.'*.'*.'*.'*.'*.'*.'*.'*.'*.'*.'*.'*.'*.'*.'*.'*.'*.'*.'*.'*.'*.'*.'*.'*.'*.'*.'*.'*.'*.'*.'*.'*.'*.'*.'*.'*.'*.'*.'*.'*.'*.'*.'*.'*.'*.'*.'*.'*.'*.'*.'*.'*.'*.'*.'*.'*.'*.'*.'*.'*.'*.'*.'*.'*.'*.'*.'*.'*.'*.'*.'*.'*.'*.'*.'*.'*.'*.'*.'*.'*.'*.'*.'*.'*.'*.'*.'*.'*.'*.'*.'*.'*.'*.'*.'*.'*.'*.'*.'*.'*.'*.'*.'*.'*.'*.'*.'*.'*.'*.'*.'*.'*.'*.'*.'*.'*.'*.'*.'*.'*.'*.'*.'*.'*.'*.'*.'*.'*.'*.'*.'*.'*.'*.'*.'*.'*.'*.'*.'*.'*.'*.'*.'*.'*.'*.'*.'*.'*.'*.'*.'*.'*.'*.'*.'*.'*.'*.'*.'*.'*.'*.'*.'*.'*.'*.'*.'*.'*.'*.'*.'*.'*.)*.gv tX !*.~*.B/ ;% ;%  # %+ c/ @*.m; z_ JY l2 c_ c_ c_ c_ c_ c_ c_ c_ c_ c_ c_ c_ c_ c_ c_ c_ a{ c_ 5m L$ e< ;h C3 C3 Pk <$ B] a{ l2 c_ c_ c_ c_ c_ c_ c_ c_ c_ c_ c_ c_ c_ >8 {*.qp ,@./7 w_ Xa Jh ed <x -A tH JJ `> fq -; >; B; #; /- #&._* A& t& d& q% [% Y$ F$ <$ <$ <$ <$ <$ <$ <$ <$ <$ S# (# E@ E@ !@ r+ ~+ -+ #+ 9. D  `. z  L< w_ 0: *< 9[ 0[ 7: m[ {$.x#.]*._^ _^ _^ _^ Q&.5&.5&.5&.5&.5&.5&.5&.5&.^*._^ _^ /*.Z$.Z$.Z$.Z$.Z$.Y$._%._%._%._%._%._%._%._%._%._%._%._%._%._%._%._%._%.e%.-&.Z$.>&.L&.L&.L&.L&.L&.L&.L&.L&.L&.",
"-%.-%.-%.-%.-%.-%.s&.>%.>%.>%.>%.>%.>%.>%.j#.(#.(#.(#.(#.(#.(#.>#.n_ n_ n_ R%.Z%.Z%.Z%.Z%.Z%.Z%.Z%.Z%.Z%.Z%.Z%.Z%.Z%.Z%.Z%.Z%.Z%.Z%.Z%.Z%.Z%.Z%.Z%.Z%.Z%.Z%.Z%.Z%.m[ &< 8: *< 0: a: E~ z  A  `. F  9. n+ %+ U+ U+ D@ /# ~@ E@ (# S# <$ <$ <$ <$ <$ <$ 2' @% <% r% M% U% 1& F& [L Pe *; ;> B; ,; (*.2, ,] 1* NL vJ 4I Aw Jq ^j 0) 5c ]! F~ 9e >| c_ c_ c_ c_ c_ c_ c_ c_ c_ c_ c_ a{ 2[ @y E5 _V @/ 9. 4k %+ W$ g] E2 c_ c_ c_ c_ c_ c_ c_ c_ c_ c_ c_ c_ c_ c_ K~ a{ !~ E@ C3 ~8 Pk /# K$ m{ _2 uv Yu _*.:*.:*.:*.:*.:*.:*.:*.:*.:*.:*.:*.:*.:*.:*.:*.:*.:*.:*.:*.:*.:*.:*.:*.:*.:*.:*.:*.:*.:*.:*.:*.:*.:*.:*.:*.:*.:*.:*.:*.:*.:*.:*.:*.:*.:*.:*.:*.:*.:*.:*.:*.:*.:*.:*.:*.:*.:*.:*.:*.:*.:*.:*.:*.:*.:*.:*.:*.:*.:*.:*.:*.:*.:*.:*.:*.:*.:*.:*.:*.:*.:*.:*.:*.:*.:*.:*.:*.:*.:*.:*.:*.:*.:*.:*.:*.:*.:*.:*.:*.:*.:*.:*.:*.:*.:*.:*.:*.:*.:*.:*.:*.:*.:*.:*.:*.:*.:*.:*.:*.:*.:*.:*.:*.:*.:*.:*.:*.:*.:*.:*.:*.:*.:*.:*.:*.:*.:*.:*.:*.:*.:*.:*.:*.:*.:*.:*.:*.:*.:*.:*.:*.:*.:*.:*.:*.:*.:*.:*.:*.:*.:*.:*.:*.:*.:*.:*.:*.:*.:*.:*.:*.:*.:*.:*.:*.:*.:*.<*.[*.}*.l5 *% X$ Y$  # %+ c/ @*.m; z_ JY l2 c_ c_ c_ c_ c_ c_ c_ c_ c_ c_ c_ c_ c_ c_ c_ c_ c_ D: <% ,u a@ 4k C3 C3 Pk <$ B] a{ l2 c_ c_ c_ c_ c_ c_ c_ c_ c_ c_ c_ c_ [< m% mF 4e ,@./7 E~ Xa Jh ed b> uz }L DJ Z> 7e ;> e; B; h; /- V* Q& A& {* d& q% [% Y$ F$ <$ <$ <$ <$ <$ <$ <$ <$ <$ S# (# E@ E@ !@ r+ ~+ -+ #+ 9. D  `. z  L< w_ 0: *< 9[ 0[ 7: m[ {$.x#.|*._^ _^ _^ _^ _^ + .5&.5&.5&.5&.5&.5&.5&.1*._^ _^ _^ Z$.Z$.Z$.Z$.Z$.-&._%._%._%._%._%._%._%._%._%._%._%._%._%._%._%.e%.f%.Z$.Z$.J&.L&.L&.L&.L&.L&.L&.L&.L&.L&.L&.",
"-%.-%.-%.-%.-%.-%.@&.>%.>%.>%.>%.>%.>%.>%.>%.7%.D&.(#.(#.(#.(#.>#.n_ n_ n_ R%.Z%.Z%.Z%.Z%.Z%.Z%.Z%.Z%.Z%.Z%.Z%.Z%.Z%.Z%.Z%.Z%.Z%.Z%.Z%.Z%.Z%.Z%.Z%.Z%.Z%.Z%.Z%.Z%.m[ &< 8: *< 0: a: E~ z  A  `. F  9. n+ %+ U+ U+ D@ /# ~@ E@ (# S# <$ <$ <$ <$ <$ <$ 2' @% <% r% M% U% w& F& P* Pe *; 5Z >; ,; ML 2*.p= 1* %L vJ 4I 5n Jq ^j 0) q2 ]! F~ 9e >| c_ c_ c_ c_ c_ c_ c_ c_ c_ c_ c_ a{ D5 $y E5 _V @/ 9. 4k %+ W$ g] E2 c_ c_ c_ c_ c_ c_ c_ c_ c_ c_ c_ c_ c_ c_ K~ a{ !~ E@ C3 ~8 n+ R# e1 +% m{ 3*.'~ T&.T&.T&.T&.T&.T&.T&.T&.T&.T&.T&.T&.T&.T&.T&.T&.T&.T&.T&.T&.T&.T&.T&.T&.T&.T&.T&.T&.T&.T&.T&.T&.T&.T&.T&.T&.T&.T&.T&.T&.T&.T&.T&.T&.T&.T&.T&.T&.T&.T&.T&.T&.T&.T&.T&.T&.T&.T&.T&.T&.T&.T&.T&.T&.T&.T&.T&.T&.T&.T&.T&.T&.T&.T&.T&.T&.T&.T&.T&.T&.T&.T&.T&.T&.T&.T&.T&.T&.T&.T&.T&.T&.T&.T&.T&.T&.T&.T&.T&.T&.T&.T&.T&.T&.T&.T&.T&.T&.T&.T&.T&.T&.T&.T&.T&.T&.T&.T&.T&.T&.T&.T&.T&.T&.T&.T&.T&.T&.T&.T&.T&.T&.T&.T&.T&.T&.T&.T&.T&.T&.T&.T&.T&.T&.T&.T&.T&.T&.T&.T&.T&.T&.T&.T&.T&.T&.T&.T&.T&.T&.T&.T&.T&.T&.T&.T&.T&.T&.T&.T&.T&.T&.T&.T&.T&.T&.T&.T&.~*.~*.o[ c: W!  % Y$  # %+ c/ @*.m; z_ JY l2 c_ c_ c_ c_ c_ c_ c_ c_ c_ c_ c_ c_ c_ c_ c_ c_ V~ m% .8 :V a@ 4k C3 C3 Pk <$ B] a{ l2 c_ c_ c_ c_ c_ c_ c_ c_ c_ c_ c_ c_ V~ 3% E- 4e ,@./7 E~ 4*.Jh ed =L uz }L &' TK Pe ;> ;; e; Q- q- pL Q& @p {& d& q% [% Y$ F$ <$ <$ <$ <$ <$ <$ <$ <$ <$ S# (# E@ E@ !@ r+ ~+ -+ #+ 9. D  `. z  L< w_ 0: *< 9[ 0[ 7: m[ {$.x#.5*._^ _^ _^ _^ _^ Q&.5&.5&.5&.5&.5&.5&.5&.5&._^ _^ _^ =&.Z$.Z$.Z$.Z$.:%._%._%._%._%._%._%._%._%._%._%._%._%._%.:%.-&.Z$.Z$.Z$.Z$.R&.6*.L&.L&.L&.L&.L&.L&.L&.L&.L&.",
"-%.-%.-%.-%.-%.-%.-%.i%.>%.>%.>%.>%.>%.>%.>%.>%.r%.(#.(#.(#.(#.>#.n_ n_ n_ R%.Z%.Z%.Z%.Z%.Z%.Z%.Z%.Z%.Z%.Z%.Z%.Z%.Z%.Z%.Z%.Z%.Z%.Z%.Z%.Z%.Z%.Z%.Z%.Z%.Z%.Z%.Z%.Z%.m[ &< 8: *< 0: a: E~ z  A  `. F  9. n+ %+ U+ U+ D@ /# ~@ E@ (# S# <$ <$ <$ <$ <$ <$ 2' @% <% r% M% U% w& E& P* Pe o> y; e; >; <L ., Q* 1* %L (H 4I 5n J7 ^j 0) q2 ]! F~ 9e >| c_ c_ c_ c_ c_ c_ c_ c_ c_ c_ c_ a{ D5 %) N4 2G T+ 9. ~8 %+ W$ g] E2 c_ c_ c_ c_ c_ c_ c_ c_ c_ c_ c_ c_ c_ c_ K~ a{ !~ E@ C3 ~8 n+ R# G$ XG B- XG  :  _  _  _  _  _  _  _  _  _  _  _  _  _  _  _  _  _  _  _  _  _  _  _  _  _  _  _  _  _  _  _  _  _  _  _  _  _  _  _  _  _  _  _  _  _  _  _  _  _  _  _  _  _  _  _  _  _  _  _  _  _  _  _  _  _  _  _  _  _  _  _  _  _  _  _  _  _  _  _  _  _  _  _  _  _  _  _  _  _  _  _  _  _  _  _  _  _  _  _  _  _  _  _  _  _  _  _  _  _  _  _  _  _  _  _  _  _  _  _  _  _  _  _  _  _  _  _  _  _  _  _  _  _  _  _  _  _  _  _  _  _  _  _  _  _  _  _  _  _  _  _  _  _  _  _  _  _  _  _  _  _  _  _  _  _  _  _  _  _  _  _  _  _  _  _  _  _  _ m{ m{ z_ ({ W! .% Y$  # %+ c/ @*.m; z_ JY l2 c_ c_ c_ c_ c_ c_ c_ c_ c_ c_ c_ c_ c_ c_ c_ c_ 8y %) /6 :&.#+ 4k C3 C3 Pk <$ B] a{ l2 c_ c_ c_ c_ c_ c_ c_ c_ c_ c_ c_ c_ V~ l% @w 4e ,@./7 E~ Xa Jh ed =L ,z vJ iJ TK Pe P- ;; e; Q- q- o= P& ]* {& d& p% <% Y$ F$ <$ <$ <$ <$ <$ <$ <$ <$ <$ S# (# E@ E@ !@ r+ ~+ -+ #+ 9. D  `. z  L< w_ 0: *< 9[ 0[ 7: m[ {$.j5 5*._^ _^ _^ _^ _^ _^ 1*.5&.5&.5&.5&.5&.5&.5&.^*._^ _^ 7*.Z$.Z$.Z$.-&._%._%._%._%._%._%._%._%._%._%._%._%.Z&.f%.Z$.Z$.Z$.Z$.Z$.Z$.Z$.R&.8*.L&.L&.L&.L&.L&.L&.L&.L&.",
"-%.-%.-%.-%.-%.-%.-%.-%.$*.>%.>%.>%.>%.>%.>%.>%.>%.,#.(#.(#.(#.>#.n_ n_ n_ R%.Z%.Z%.Z%.Z%.Z%.Z%.Z%.Z%.Z%.Z%.Z%.Z%.Z%.Z%.Z%.Z%.Z%.Z%.Z%.Z%.Z%.Z%.Z%.Z%.Z%.Z%.Z%.Z%.m[ &< 8: *< 0: a: E~ z  A  `. F  9. n+ %+ U+ U+ D@ /# ~@ E@ (# S# <$ <$ <$ <$ <$ <$ 2' @% <% p% ~* ,& w& E& P* Pe o> y; ;; e; $L 3, h* }* %L (H 4I uG J7 ^j 0) q2 ]! F~ 9e >| c_ c_ c_ c_ c_ c_ c_ c_ c_ c_ c_ a{ ;< 2% +8 2G T+ 9. ~8 %+ W$ g] E2 c_ c_ c_ c_ c_ c_ c_ c_ c_ c_ c_ c_ c_ c_ K~ a{ !~ E@ C3 ~8 n+ R# G$ Y$ Y$  : 2[ c_ c_ c_ c_ c_ c_ c_ c_ c_ c_ c_ c_ c_ c_ c_ c_ c_ c_ c_ c_ c_ c_ c_ c_ c_ c_ c_ c_ c_ c_ c_ c_ c_ c_ c_ c_ c_ c_ c_ c_ c_ c_ c_ c_ c_ c_ c_ c_ c_ c_ c_ c_ c_ c_ c_ c_ c_ c_ c_ c_ c_ c_ c_ c_ c_ c_ c_ c_ c_ c_ c_ c_ c_ c_ c_ c_ c_ c_ c_ c_ c_ c_ c_ c_ c_ c_ c_ c_ c_ c_ c_ c_ c_ c_ c_ c_ c_ c_ c_ c_ c_ c_ c_ c_ c_ c_ c_ c_ c_ c_ c_ c_ c_ c_ c_ c_ c_ c_ c_ c_ c_ c_ c_ c_ c_ c_ c_ c_ c_ c_ c_ c_ c_ c_ c_ c_ c_ c_ c_ c_ c_ c_ c_ c_ c_ c_ c_ c_ c_ c_ c_ c_ c_ c_ c_ c_ c_ c_ c_ c_ c_ c_ c_ c_ c_ c_ c_ c_ c_ c_ c_ c_ c_ c_ c_ c_ c_ c_ c_ c_ ;< 6^ $% .% Y$  # %+ c/ @*.m; z_ JY l2 c_ c_ c_ c_ c_ c_ c_ c_ c_ c_ c_ c_ c_ c_ c_ V~ >8 E- +5 :&.#+ 4k C3 C3 Pk <$ B] a{ l2 c_ c_ c_ c_ c_ c_ c_ c_ c_ c_ c_ c_ V~ l% h# 4e ,@./7 E~ Xa k' =n @y ,z vJ 7J TK Pe y; -; ;; +; ]- o= (* z& {& d& p% <% Y$ F$ <$ <$ <$ <$ <$ <$ <$ <$ <$ S# (# E@ E@ !@ r+ ~+ -+ #+ 9. D  `. z  L< w_ 0: *< 9[ 0[ 7: m[ {$.9*.5*._^ _^ _^ _^ _^ _^ _^ ~} 5&.5&.5&.5&.5&.5&.1*._^ _^ 13 Z$.Z$.Z$.e%._%._%._%._%._%._%._%._%._%._%._%.+&.Z$.Z$.Z$.Z$.Z$.Z$.Z$.Z$.Z$.Z$.Z$.>&.0*.L&.L&.L&.L&.L&.L&.",
"-%.-%.-%.-%.-%.-%.-%.-%.-%.q%.a*.>%.>%.>%.>%.>%.>%.r%.(#.(#.(#.]Q n_ n_ n_ S%.Z%.Z%.Z%.Z%.Z%.Z%.Z%.Z%.Z%.Z%.Z%.Z%.Z%.Z%.Z%.Z%.Z%.Z%.Z%.Z%.Z%.Z%.Z%.Z%.Z%.Z%.Z%.Z%.m[ &< 8: *< 0: a: E~ z  A  `. F  9. n+ %+ U+ U+ D@ /# ~@ E@ (# S# <$ <$ <$ <$ <$ &$ I= @% <% p% >& S% v& D& f* [g z; =; ;; e; MK  , g* }* )` (H 4B uG J7 Pi 0) q2 ]! F~ 9e >| c_ c_ c_ c_ c_ c_ c_ c_ c_ c_ c_ a{ 3| gD g6 2G T+ 9. D  =+ ;% g] c_ c_ c_ c_ c_ c_ c_ c_ c_ c_ c_ c_ c_ c_ c_ K~ a{ !~ E@ C3 ~8 n+ R# G$ Y$ )*  : 8y Ax c_ c_ c_ c_ c_ c_ c_ c_ c_ c_ c_ c_ c_ c_ c_ c_ c_ c_ c_ c_ c_ c_ c_ c_ c_ c_ c_ c_ c_ c_ c_ c_ c_ c_ c_ c_ c_ c_ c_ c_ c_ c_ c_ c_ c_ c_ c_ c_ c_ c_ c_ c_ c_ c_ c_ c_ c_ c_ c_ c_ c_ c_ c_ c_ c_ c_ c_ c_ c_ c_ c_ c_ c_ c_ c_ c_ c_ c_ c_ c_ c_ c_ c_ c_ c_ c_ c_ c_ c_ c_ c_ c_ c_ c_ c_ c_ c_ c_ c_ c_ c_ c_ c_ c_ c_ c_ c_ c_ c_ c_ c_ c_ c_ c_ c_ c_ c_ c_ c_ c_ c_ c_ c_ c_ c_ c_ c_ c_ c_ c_ c_ c_ c_ c_ c_ c_ c_ c_ c_ c_ c_ c_ c_ c_ c_ c_ c_ c_ c_ c_ c_ c_ c_ c_ c_ c_ c_ c_ c_ c_ c_ c_ c_ c_ c_ c_ c_ c_ c_ c_ c_ c_ c_ c_ c_ c_ c_ c_ E2 Bx z_ $% .% Y$  # %+ c/ @*.m; z_ JY l2 c_ c_ c_ c_ c_ c_ c_ c_ c_ c_ c_ c_ c_ c_ a{ V~ 2% C6 '5 fW #+ 4k C3 C3 Pk <$ B] a{ l2 c_ c_ c_ c_ c_ c_ c_ c_ c_ c_ c_ c_ D: k% 2m 4e ,@./7 E~ b) k' =n @y ,z vJ GI :K Pe y; -; ;; +; {- o, D* z& {& d& p% <% Y$ D$ <$ <$ <$ <$ <$ <$ <$ <$ <$ S# (# E@ E@ !@ r+ ~+ -+ #+ 9. D  `. z  L< w_ 0: *< 9[ 0[ 7: m[ {$.9*.5*._^ _^ _^ _^ _^ _^ _^ b*.5&.5&.5&.5&.5&.5&.5&._^ _^ /*.Z$.Z$.Z$.6&.e%._%._%._%._%._%._%._%.I&.6&.Z$.Z$.Z$.Z$.Z$.Z$.Z$.Z$.Z$.Z$.Z$.Z$.Z$.Z$.Z$.>&.0*.L&.L&.L&.L&.",
"-%.-%.-%.-%.-%.-%.-%.-%.-%.q%.a*.>%.>%.>%.>%.>%.>%.>%.(#.(#.(#.e$.n_ n_ n_ S%.Z%.Z%.Z%.Z%.Z%.Z%.Z%.Z%.Z%.Z%.Z%.Z%.Z%.Z%.Z%.Z%.Z%.Z%.Z%.Z%.Z%.Z%.Z%.Z%.Z%.Z%.Z%.Z%.m[ &< 8: *< 0: a: E~ z  A  `. F  9. n+ %+ U+ U+ D@ /# ~@ E@ (# S# <$ <$ <$ <$ <$ &$ I= @% <% p% >& S% 0K D& f* [g %; *; -> ;; MK `> e* I* )` (H WA <p J7 Pi 0) q2 ]! F~ 9e >| c_ c_ c_ c_ c_ c_ c_ c_ c_ c_ c_ c_ -v 2[ o' 2G T+ 9. D  U+ =% g] c_ c_ c_ c_ c_ c_ c_ c_ c_ c_ c_ c_ c_ c_ c_ K~ a{ !~ E@ C3 ~8 n+ R# G$ Y$ )*  : 8y Ax c_ c_ c_ c_ c_ c_ c_ c_ c_ c_ c_ c_ c_ c_ c_ c_ c_ c_ c_ c_ c_ c_ c_ c_ c_ c_ c_ c_ c_ c_ c_ c_ c_ c_ c_ c_ c_ c_ c_ c_ c_ c_ c_ c_ c_ c_ c_ c_ c_ c_ c_ c_ c_ c_ c_ c_ c_ c_ c_ c_ c_ c_ c_ c_ c_ c_ c_ c_ c_ c_ c_ c_ c_ c_ c_ c_ c_ c_ c_ c_ c_ c_ c_ c_ c_ c_ c_ c_ c_ c_ c_ c_ c_ c_ c_ c_ c_ c_ c_ c_ c_ c_ c_ c_ c_ c_ c_ c_ c_ c_ c_ c_ c_ c_ c_ c_ c_ c_ c_ c_ c_ c_ c_ c_ c_ c_ c_ c_ c_ c_ c_ c_ c_ c_ c_ c_ c_ c_ c_ c_ c_ c_ c_ c_ c_ c_ c_ c_ c_ c_ c_ c_ c_ c_ c_ c_ c_ c_ c_ c_ c_ c_ c_ c_ c_ c_ c_ c_ c_ c_ c_ c_ c_ c_ c_ c_ c_ c_ E2 Bx z_ $% .% Y$  # %+ c/ @*.m; z_ JY l2 c_ c_ c_ c_ c_ c_ c_ c_ c_ c_ c_ c_ c_ c_ c_ D: vH Z7 '5 2G #+ 4k C3 C3 Pk <$ B] a{ l2 c_ c_ c_ c_ c_ c_ c_ c_ c_ c_ c_ c_ V~ k% 2m 4e ,@./7 E~ b) k' =n @y Ey 6K GI X> xf =; ;> -; R- {- o, t= Z, ~& d& p% <% -% D$ <$ <$ <$ <$ <$ <$ <$ <$ <$ S# (# E@ E@ !@ r+ ~+ -+ #+ 9. D  `. z  L< w_ 0: *< 9[ 0[ 7: m[ {$.j5 5*._^ _^ _^ _^ _^ _^ _^ _^ ~} 5&.5&.5&.5&.5&.5&.b*._^ _^ Z$.Z$.Z$.Z$.Z$.;&.f%.y%.+&.6&.f%.Z$.Z$.Z$.Z$.Z$.Z$.Z$.Z$.Z$.Z$.Z$.Z$.Z$.Z$.Z$.Z$.Z$.Z$.Z$.Z$.`&.8*.L&.L&.",
"-%.-%.-%.-%.-%.-%.-%.-%.7&.>%.>%.>%.>%.>%.>%.>%.>%.>%.(#.(#.(#.e$.n_ n_ n_ S%.Z%.Z%.Z%.Z%.Z%.Z%.Z%.Z%.Z%.Z%.Z%.Z%.Z%.Z%.Z%.Z%.Z%.Z%.Z%.Z%.Z%.Z%.Z%.Z%.Z%.Z%.Z%.Z%.m[ &< 8: *< 0: a: E~ z  A  `. F  9. n+ %+ U+ U+ D@ /# ~@ E@ (# S# <$ <$ <$ <$ <$ <$ I= @% <% p% >& S% 0K U& f* SJ %; *; -; ;; 5K `> e* <* aK 6G -A <p J7 Pi 0) q2 ]! F~ 9e >| c_ c_ c_ c_ c_ c_ c_ c_ c_ c_ c_ c_ a{ ;< @) Pi T+ 9. c/ U+ f< g] c_ c_ c_ c_ c_ c_ c_ c_ c_ c_ c_ c_ c_ c_ c_ K~ a{ !~ E@ C3 ~8 n+ R# G$ Y$ )*  : 8y Ax c_ c_ c_ c_ c_ c_ c_ c_ c_ c_ c_ c_ c_ c_ c_ c_ c_ c_ c_ c_ c_ c_ c_ c_ c_ c_ c_ c_ c_ c_ c_ c_ c_ c_ c_ c_ c_ c_ c_ c_ c_ c_ c_ c_ c_ c_ c_ c_ c_ c_ c_ c_ c_ c_ c_ c_ c_ c_ c_ c_ c_ c_ c_ c_ c_ c_ c_ c_ c_ c_ c_ c_ c_ c_ c_ c_ c_ c_ c_ c_ c_ c_ c_ c_ c_ c_ c_ c_ c_ c_ c_ c_ c_ c_ c_ c_ c_ c_ c_ c_ c_ c_ c_ c_ c_ c_ c_ c_ c_ c_ c_ c_ c_ c_ c_ c_ c_ c_ c_ c_ c_ c_ c_ c_ c_ c_ c_ c_ c_ c_ c_ c_ c_ c_ c_ c_ c_ c_ c_ c_ c_ c_ c_ c_ c_ c_ c_ c_ c_ c_ c_ c_ c_ c_ c_ c_ c_ c_ c_ c_ c_ c_ c_ c_ c_ c_ c_ c_ c_ c_ c_ c_ c_ c_ V~ c_ c_ c_ E2 Bx z_ $% .% Y$  # %+ c/ @*.m; z_ JY l2 c_ c_ c_ c_ c_ c_ c_ c_ c_ c_ c_ c_ c_ c_ c_ .: @y E5 '5 2G #+ 4k C3 C3 Pk <$ B] a{ l2 c_ c_ c_ c_ c_ c_ c_ c_ c_ c_ c_ c_ V~ k% .8 4e ,@./7 E~ b) k' =n @y Ey 6K 7K X> [g =; ;> -; R- c*.o, t= y& a& d& p% <% -% D$ <$ <$ <$ <$ <$ <$ <$ <$ <$ S# (# E@ E@ !@ r+ ~+ -+ #+ 9. D  `. z  L< w_ 0: *< 9[ 0[ 7: m[ {$.x#.5*._^ _^ _^ 13 _^ _^ _^ _^ _^ k&.5&.5&.5&.5&.5&.Q&._^ _^ Z$.Z$.Z$.Z$.Z$.Z$.Z$.Z$.Z$.Z$.Z$.Z$.Z$.Z$.Z$.Z$.Z$.Z$.Z$.Z$.Z$.Z$.Z$.Z$.Z$.Z$.Z$.Z$.Z$.Z$.Z$.Z$.Z$.Z$.>&.",
"-%.-%.-%.-%.-%.-%.d*.a*.>%.>%.>%.>%.>%.>%.>%.>%.r%..! (#.(#.(#.e$.n_ n_ n_ S%.Z%.Z%.Z%.Z%.Z%.Z%.Z%.Z%.Z%.Z%.Z%.Z%.Z%.Z%.Z%.Z%.Z%.Z%.Z%.Z%.Z%.Z%.Z%.Z%.Z%.Z%.Z%.Z%.m[ &< 8: *< 0: a: E~ z  A  `. F  9. n+ %+ U+ U+ D@ /# ~@ E@ (# S# <$ <$ <$ <$ <$ <$ 2' @% <% o% A% T% [& C& 4K SJ %; *; ;> -; 5K Z> e*.H* aK 6G -A <p J7 Pi 0) q2 ]! F~ [# 6B c_ c_ c_ c_ c_ c_ c_ c_ c_ c_ c_ c_ a{ V~ &) ]k T+ 9. ~8 o) X$ z_ c_ c_ c_ c_ c_ c_ c_ c_ c_ c_ c_ c_ c_ c_ c_ K~ a{ !~ E@ C3 ~8 n+ R# G$ Y$ )*  : 8y Ax c_ c_ c_ c_ c_ c_ c_ c_ c_ c_ c_ c_ c_ c_ c_ c_ c_ c_ c_ c_ c_ c_ c_ c_ c_ c_ c_ c_ c_ c_ c_ c_ c_ c_ c_ c_ c_ c_ c_ c_ c_ c_ c_ c_ c_ c_ c_ c_ c_ c_ c_ c_ c_ c_ c_ c_ c_ c_ c_ c_ c_ c_ c_ c_ c_ c_ c_ c_ c_ c_ c_ c_ c_ c_ c_ c_ c_ c_ c_ c_ c_ c_ c_ c_ c_ c_ c_ c_ c_ c_ c_ c_ c_ c_ c_ c_ c_ c_ c_ c_ c_ c_ c_ c_ c_ c_ c_ c_ c_ c_ c_ c_ c_ c_ c_ c_ c_ c_ c_ c_ c_ c_ c_ c_ c_ c_ c_ c_ c_ c_ c_ c_ c_ c_ c_ c_ c_ c_ c_ c_ c_ c_ c_ c_ c_ c_ c_ c_ c_ c_ c_ c_ c_ c_ c_ c_ c_ c_ c_ c_ c_ c_ c_ c_ c_ c_ c_ c_ c_ c_ c_ a{ [< 2[ }~ V~ c_ c_ E2 Bx z_ $% .% Y$  # %+ c/ @*.m; z_ JY l2 c_ c_ c_ c_ c_ c_ c_ c_ c_ c_ c_ c_ c_ c_ V~ >8 g6 25 t6 2G #+ 4k C3 C3 Pk <$ B] a{ l2 c_ c_ c_ c_ c_ c_ c_ c_ c_ c_ c_ c_ V~ 3% @w 4e ,@./7 E~ b) k' =n @y Ey 6G ~I X> xf *; ;> ;> R- !K R* M& X& !& M% p% <% -% D$ <$ <$ <$ <$ <$ <$ <$ <$ <$ S# (# E@ E@ !@ r+ ~+ -+ #+ 9. D  `. z  L< w_ 0: *< 9[ 0[ 7: v| {$.x#.f*._^ _^ _^ Z$.=&._^ _^ _^ _^ _^ ~} 5&.5&.5&.5&.1*._^ _^ =&.Z$.Z$.Z$.Z$.Z$.Z$.Z$.Z$.Z$.Z$.Z$.Z$.Z$.Z$.Z$.Z$.Z$.Z$.Z$.Z$.Z$.6&.+&.() ~. ~. ~. ~. ~. 6&.Z$.Z$.Z$.Z$.",
"-%.-%.-%.-%.d*.Q$.>%.>%.>%.>%.>%.>%.>%.>%.,&.,#.(#.(#.(#.(#.(#.(#.n_ n_ n_ Y%.Z%.Z%.Z%.Z%.Z%.Z%.Z%.Z%.Z%.Z%.Z%.Z%.Z%.Z%.Z%.Z%.Z%.Z%.Z%.Z%.Z%.Z%.Z%.Z%.Z%.Z%.Z%.Z%.m[ &< 8: *< 0: a: E~ z  A  `. F  9. n+ %+ U+ U+ D@ /# ~@ E@ (# S# <$ <$ <$ <$ <$ <$ I= @% <% o% A% S% [& V& d* SJ %; z; ;> -; S~ Y> b* :* 'K <K -A <p J7 Pi 0) q2 ]! F~ Pa 6B c_ c_ c_ c_ c_ c_ c_ c_ c_ c_ c_ c_ a{ [< O, X' =+ 9. ~8 %+ e1  _ ;< c_ c_ c_ c_ c_ c_ c_ c_ c_ c_ c_ c_ c_ c_ K~ a{ !~ E@ C3 ~8 n+ R# G$ Y$ )*  : 8y Ax c_ c_ c_ c_ c_ c_ c_ c_ c_ c_ c_ c_ c_ c_ c_ c_ c_ c_ c_ c_ c_ c_ c_ c_ c_ c_ c_ c_ c_ c_ c_ c_ c_ c_ c_ c_ c_ c_ c_ c_ c_ c_ c_ c_ c_ c_ c_ c_ c_ c_ c_ c_ c_ c_ c_ c_ c_ c_ c_ c_ c_ c_ c_ c_ c_ c_ c_ c_ c_ c_ c_ c_ c_ c_ c_ c_ c_ c_ c_ c_ c_ c_ c_ c_ c_ c_ c_ c_ c_ c_ c_ c_ c_ c_ c_ c_ c_ c_ c_ c_ c_ c_ c_ c_ c_ c_ c_ c_ c_ c_ c_ c_ c_ c_ c_ c_ c_ c_ c_ c_ c_ c_ c_ c_ c_ c_ c_ c_ c_ c_ c_ c_ c_ c_ c_ c_ c_ c_ c_ c_ c_ c_ c_ c_ c_ c_ c_ c_ c_ c_ c_ c_ c_ c_ c_ c_ c_ c_ c_ c_ c_ c_ c_ c_ c_ c_ c_ c_ c_ c_ c_ a{ ;< vz vz &C E2 E2 E2 Bx z_ $% .% Y$  # %+ c/ @*.m; z_ JY l2 c_ c_ c_ c_ c_ c_ c_ c_ c_ c_ c_ c_ c_ E2 c_ >| g6 J6 t6 2G #+ ;h C3 C3 Pk <$ B] a{ l2 c_ c_ c_ c_ c_ c_ c_ c_ c_ c_ c_ c_ V~ 3% E- 4e ,@./7 E~ b) k' =n @y 'x !G ZH 6, xf o> y; P- T- !- p= L& X& !& M% p% <% -% D$ <$ <$ <$ <$ <$ <$ <$ <$ <$ S# (# E@ E@ !@ r+ ~+ -+ #+ 9. D  `. z  L< w_ 0: *< 9[ 0[ 7: v| {$.x#.LZ _^ _^ /*.Z$.Z$.=&._^ _^ _^ _^ _^ Q&.5&.5&.5&.~} _^ _^ 7*.Z$.Z$.Z$.Z$.Z$.Z$.Z$.Z$.Z$.=&.=&.=&.Z$.Z$.Z$.Z$.Z$.Z$.Z$.M+ E= ~. ~. ~. ~. ~. ~. ~. ~. ~. Y$.Z$.Z$.Z$.",
"-%.-%.g*.Q$.>%.>%.>%.>%.>%.>%.>%.>%.>%.j#.D&.(#.(#.(#.(#.(#.(#.(#.(( n_ n_ R%.Z%.Z%.Z%.Z%.Z%.Z%.Z%.Z%.Z%.Z%.Z%.Z%.Z%.Z%.Z%.Z%.Z%.Z%.Z%.Z%.Z%.Z%.Z%.Z%.Z%.Y%.P%.Z%.m[ &< 8: *< 0: a: E~ z  A  `. F  9. n+ %+ U+ U+ D@ /# ~@ E@ (# S# <$ <$ <$ <$ <$ <$ I$ +% <% o% A% S% [& B& wJ SJ %; z; ;> ;> S~ X> j* p* BN )K uz YG J7 Pi ;8 q2 ]! F~ u5  _ c_ c_ c_ c_ c_ c_ c_ c_ c_ c_ c_ c_ a{ c_ 6( W' =+ C3 ~8 %+ W' &% 6N c_ c_ c_ E2 a{ a{ c_ c_ c_ c_ c_ c_ c_ c_ K~ a{ !~ E@ C3 ~8 n+ R# G$ Y$ )*  : 8y Ax c_ c_ c_ c_ c_ c_ c_ c_ c_ c_ c_ c_ c_ c_ c_ c_ c_ c_ c_ c_ c_ c_ c_ c_ c_ c_ c_ c_ c_ c_ c_ c_ c_ c_ c_ c_ c_ c_ c_ c_ c_ c_ c_ c_ c_ c_ c_ c_ c_ c_ c_ c_ c_ c_ c_ c_ c_ c_ c_ c_ c_ c_ c_ c_ c_ c_ c_ c_ c_ c_ c_ c_ c_ c_ c_ c_ c_ c_ c_ c_ c_ c_ c_ c_ c_ c_ c_ c_ c_ c_ c_ c_ c_ c_ c_ c_ c_ c_ c_ c_ c_ c_ c_ c_ c_ c_ c_ c_ c_ c_ c_ c_ c_ c_ c_ c_ c_ c_ c_ c_ c_ c_ c_ c_ c_ c_ c_ c_ c_ c_ c_ c_ c_ c_ c_ c_ c_ c_ c_ c_ c_ c_ c_ c_ c_ c_ c_ c_ c_ c_ c_ c_ c_ c_ c_ c_ c_ c_ c_ c_ c_ c_ c_ c_ c_ c_ c_ c_ c_ c_ c_ E2 }~ j% kH &C a{ E2 E2 Bx z_ $% .% Y$  # %+ c/ @*.m; z_ JY l2 c_ c_ c_ c_ c_ c_ c_ c_ c_ c_ c_ c_ c_ E2 c_ >| o' E5 '5 2G &+ ;h C3 C3 Pk <$ B] a{ l2 c_ c_ c_ c_ c_ c_ c_ c_ c_ c_ c_ c_ [< m% mF 4e ,@./7 E~ b) k' =n @y GE !G ZH W> eh o> y; P- T- !- P* K& Y& !& M% o% <% -% <$ <$ <$ <$ <$ <$ <$ <$ <$ <$ S# (# E@ E@ !@ r+ ~+ -+ #+ 9. D  `. z  L< w_ 0: *< 9[ 0[ 7: v| {$.x#.h*._^ _^ 13 Z$.Z$.Z$.13 _^ _^ _^ _^ _^ _^ q4 ~} _^ _^ _^ _^ _^ 13 13 13 13 r&./*._^ _^ _^ _^ _^ =&.Z$.Z$.Z$.Z$.Z$.6&.~. ~. ~. ~. ~. ~. ~. ~. ~. ~. ~. 7@ Z$.Z$.Z$.",
"H#.;%.>%.>%.>%.>%.>%.r%.&$.&$.&$.i#.D&.(#.(#.(#.(#.(#.(#.(#.(#.(#.>#.n_ n_ Z%.Z%.Z%.Z%.Z%.Z%.Z%.Z%.Z%.Z%.Z%.Z%.Z%.Z%.Z%.Z%.Z%.Z%.Z%.Z%.Z%.Z%.Z%.Z%.Z%.Y%.n_ n_ R%.m[ &< 8: *< 0: a: E~ z  A  `. F  9. n+ %+ U+ U+ D@ /# ~@ E@ (# S# <$ <$ <$ <$ <$ <$ I$ +% i% o% A% T% <& B& wJ SJ %; %; P- ;> e- X> a* p* 8N lF uz YG J7 Pi ;8 Z. ]! F~ ;8  _ c_ c_ c_ c_ c_ c_ c_ c_ c_ c_ c_ c_ l2 [< 4( f# n+ C3 ~8 $+ xH 4e &) .: 8y V~ c_ c_ c_ c_ c_ c_ c_ c_ c_ c_ c_ K~ a{ !~ E@ C3 ~8 n+ R# G$ Y$ )*  : 8y Ax c_ c_ c_ c_ c_ c_ c_ c_ c_ c_ c_ c_ c_ c_ c_ c_ c_ c_ c_ c_ c_ c_ c_ c_ c_ c_ c_ c_ c_ c_ c_ c_ c_ c_ c_ c_ c_ c_ c_ c_ c_ c_ c_ c_ c_ c_ c_ c_ c_ c_ c_ c_ c_ c_ c_ c_ c_ c_ c_ c_ c_ c_ c_ c_ c_ c_ c_ c_ c_ c_ c_ c_ c_ c_ c_ c_ c_ c_ c_ c_ c_ c_ c_ c_ c_ c_ c_ c_ c_ c_ c_ c_ c_ c_ c_ c_ c_ c_ c_ c_ c_ c_ c_ c_ c_ c_ c_ c_ c_ c_ c_ c_ c_ c_ c_ c_ c_ c_ c_ c_ c_ c_ c_ c_ c_ c_ c_ c_ c_ c_ c_ c_ c_ c_ c_ c_ c_ c_ c_ c_ c_ c_ c_ c_ c_ c_ c_ c_ c_ c_ c_ c_ c_ c_ c_ c_ c_ c_ c_ c_ c_ c_ c_ c_ c_ c_ c_ c_ c_ c_ E2 c_ vz &K i*.D: a{ a{ E2 Bx z_ $% .% Y$  # %+ c/ @*.m; z_ JY l2 c_ c_ c_ c_ c_ c_ c_ c_ c_ c_ c_ c_ c_ c_ c_ }_ %8 E5 lm 2G #+ ;h C3 C3 Pk &$ B] a{ l2 c_ c_ c_ c_ c_ c_ c_ c_ c_ c_ c_ c_ [< m% mF 4e ,@./7 E~ Xa k' =n @y GE )K 7N V> eh o> y; y; U- a] P* S& Y& )& e& o% <% -% <$ <$ <$ <$ <$ <$ <$ <$ <$ <$ S# (# E@ E@ !@ r+ ~+ -+ #+ 9. D  `. z  L< w_ 0: *< 9[ 0[ [) v| {$.x#.h*._^ _^ 13 Z$.Z$.Z$.Z$._^ _^ _^ _^ _^ _^ _^ _^ _^ _^ _^ _^ _^ _^ _^ _^ _^ _^ _^ _^ _^ _^ _^ _^ =&.Z$.Z$.Z$.Z$.Z$.() ~. ~. ~. ~. ~. ~. ~. ~. ~. ~. ~. ~. Y$.Z$.Z$.",
"a*.>%.>%.>%.>%.j#.D&.(#.(#.(#.(#.(#.(#.(#.(#.(#.(#.(#.(#.(#.(#.(#.'$.n_ n_ t| Z%.Z%.Z%.Z%.Z%.Z%.Z%.Z%.Z%.Z%.Z%.Z%.Z%.Z%.Z%.Z%.Z%.Z%.Z%.Z%.Z%.Z%.Z%.Z%.T%.n_ n_ R%.m[ &< 8: *< 0: a: E~ z  A  `. F  9. n+ %+ U+ U+ D@ /# ~@ E@ (# S# <$ <$ <$ <$ <$ <$ I$ +% i% o% A% R% 9& W& c* SJ A; %; y; P- e- N{ 0* _* .K lF uz YG )x z7 5f Z. ]! F~ 5f L5 c_ c_ c_ c_ c_ c_ c_ c_ c_ c_ c_ c_ l2 [< 2( w# n+ C3 D  T+ j*.XA C6 &! %) k% 3% 3% 3% >8 zx V~ c_ c_ c_ c_ c_ K~ a{ !~ E@ C3 ~8 n+ R# G$ Y$ )*  : 8y Ax c_ c_ c_ c_ c_ c_ c_ c_ c_ c_ c_ c_ c_ c_ c_ c_ c_ c_ c_ c_ c_ c_ c_ c_ c_ c_ c_ c_ c_ c_ c_ c_ c_ c_ c_ c_ c_ c_ c_ c_ c_ c_ c_ c_ c_ c_ c_ c_ c_ c_ c_ c_ c_ c_ c_ c_ c_ c_ c_ c_ c_ c_ c_ c_ c_ c_ c_ c_ c_ c_ c_ c_ c_ c_ c_ c_ c_ c_ c_ c_ c_ c_ c_ c_ c_ c_ c_ c_ c_ c_ c_ c_ c_ c_ c_ c_ c_ c_ c_ c_ c_ c_ c_ c_ c_ c_ c_ c_ c_ c_ c_ c_ c_ c_ c_ c_ c_ c_ c_ c_ c_ c_ c_ c_ c_ c_ c_ c_ c_ c_ c_ c_ c_ c_ c_ c_ c_ c_ c_ c_ c_ c_ c_ c_ c_ c_ c_ c_ c_ c_ c_ c_ c_ c_ c_ c_ V~ V~ V~ V~ c_ c_ c_ c_ c_ c_ c_ c_ c_ c_ a{ D: %) h# &) D: a{ a{ E2 Bx z_ $% .% Y$  # %+ c/ @*.m; z_ JY l2 c_ c_ c_ c_ c_ c_ c_ c_ c_ c_ c_ c_ c_ c_ [< }_ o' E5 lm 2G #+ 4k C3 C3 Pk <$ B] $/ a{ c_ c_ c_ c_ c_ c_ c_ c_ c_ c_ c_ c_ [< >8 mF 4e ,@./7 E~ Xa k' =n @y GE  J FH V> eh %; *; =; V- ^] f* I& x& )& >& n% #* X$ <$ <$ <$ <$ <$ <$ <$ <$ <$ <$ S# (# E@ E@ !@ r+ ~+ -+ #+ 9. D  `. z  L< w_ 0: *< 9[ 0[ [) v| {$.x#.h*._^ _^ =&.Z$.Z$.Z$.Z$./*._^ _^ _^ _^ _^ _^ ^*.k*.j&.k*.k*.Y^ k&.q4 b*._^ _^ _^ _^ _^ _^ _^ _^ Z$.Z$.Z$.Z$.Z$.Z$.M+ ~. ~. ~. ~. ~. ~. ~. ~. ~. ~. ~. ~. () Z$.Z$.",
">%.>%.>%.,&.,#.(#.(#.(#.(#.(#.(#.(#.(#.(#.(#.(#.(#.(#.(#.(#.(#.(#.(#.>#.n_ n_ T%.R%.Z%.Z%.Z%.Z%.Z%.Z%.Z%.Z%.Z%.Z%.Z%.Z%.Z%.Z%.Z%.Z%.Z%.Z%.Z%.Z%.Z%.Y%.n_ n_ n_ Z%.m[ &< 8: *< 0: a: E~ z  A  `. F  9. n+ %+ U+ U+ D@ /# ~@ E@ (# S# <$ <$ <$ <$ <$ <$ I$ +% i% n% A% R% 9& W& b* SJ A; %; y; y; TJ l*.9* Q& .K lF Ey YG )x z7 5f Z. ]! F~ Gj }% c_ c_ c_ c_ c_ c_ c_ c_ c_ c_ c_ c_ l2 [< 2( w# n+ C3 D  M7 Pi mm 25 ]o K6 2n C6 C6 +8 @w &K 3% 8y c_ c_ c_ c_ K~ a{ !~ E@ C3 ~8 n+ R# G$ Y$ )*  : 8y Ax c_ c_ c_ c_ c_ c_ c_ c_ c_ c_ c_ c_ c_ c_ c_ c_ c_ c_ c_ c_ c_ c_ c_ c_ c_ c_ c_ c_ c_ c_ c_ c_ c_ c_ c_ c_ c_ c_ c_ c_ c_ c_ c_ c_ c_ c_ c_ c_ c_ c_ c_ c_ c_ c_ c_ c_ c_ c_ c_ c_ c_ c_ c_ c_ c_ c_ c_ c_ c_ c_ c_ c_ c_ c_ c_ c_ c_ c_ c_ c_ c_ c_ c_ c_ c_ c_ c_ c_ c_ c_ c_ c_ c_ c_ c_ c_ c_ c_ c_ c_ c_ c_ c_ c_ c_ c_ c_ c_ c_ c_ c_ c_ c_ c_ c_ V~ D: 8y 8y D5 8y 8y D: V~ V~ V~ Bx Bx c_ c_ c_ c_ c_ c_ c_ c_ c_ c_ c_ c_ c_ c_ c_ c_ c_ c_ c_ Bx V~ D: zx 2[ }~ }~ .: wz >8 1% k% 1% >8 .: }~ zx 8y V~ Bx Bx Bx Bx }w 2% E` 2n %) D: a{ a{ E2 Bx z_ $% .% Y$  # %+ c/ @*.m; z_ JY l2 c_ c_ c_ c_ c_ c_ c_ c_ c_ c_ c_ c_ c_ c_ V~ >| g6 J6 lm Jh #+ 4k C3 C3 Pk D$ 6B Ax a{ c_ c_ c_ c_ c_ c_ c_ c_ c_ c_ c_ c_ c_ >8 mF 4e ,@./7 E~ Xa nh =n %8 ev lF FH V> eh %; *; =; V- '- f* I& 7& b& >& 7% :% ;% z# <$ <$ <$ <$ <$ <$ <$ <$ <$ S# (# E@ E@ !@ r+ ~+ -+ #+ 9. D  `. z  L< w_ 0: *< 9[ 0[ R! v| {$.x#.h*._^ _^ =&.Z$.Z$.Z$.Z$./*._^ _^ _^ _^ _^ ~} m*.m*.m*.m*.m*.m*.m*.m*.m*.n*._^ _^ _^ _^ _^ r&.=&.Z$.Z$.Z$.Z$.Z$.Z$.Z$.7@ ~. ~. ~. ~. ~. ~. ~. ~. ~. ~. ~. ~. 1+ Z$.",
">%.>%.S&.D&.(#.(#.(#.(#.(#.(#.(#.(#.(#.(#.(#.(#.(#.(#.(#.(#.(#.(#.(#.(#.(( n_ n_ n_ P%.R%.Z%.Z%.Z%.Z%.Z%.Z%.Z%.Z%.Z%.Z%.Z%.Z%.Z%.Z%.Z%.Z%.Z%.Z%.Z%.S%.n_ n_ t| Z%.m[ &< 8: *< 0: a: E~ z  A  `. F  9. n+ %+ U+ U+ D@ /# ~@ E@ (# S# <$ <$ <$ <$ <$ <$ F$ +% i% n% B% R% _& ]* b* eh A; `J =; =; TJ U> 9* P& JJ lF Ey YG {o z7 5f Z. ]! F~ Eo <% [< c_ c_ c_ c_ c_ c_ c_ c_ c_ c_ c_ l2 [< 4( v# n+ C3 D  M7 Pi jm 25 `6 o*.`6 `6 `6 '5 +5 J6 2m 2% 8y c_ c_ c_ K~ a{ !~ E@ C3 ~8 n+ R# G$ Y$ )*  : 8y Ax c_ c_ c_ c_ c_ c_ c_ c_ c_ c_ c_ c_ c_ c_ c_ c_ c_ c_ c_ c_ c_ c_ c_ c_ c_ c_ c_ c_ c_ c_ c_ c_ c_ c_ c_ c_ c_ c_ c_ c_ c_ c_ c_ c_ c_ c_ c_ c_ c_ c_ c_ c_ c_ c_ c_ c_ c_ c_ c_ c_ c_ c_ c_ c_ c_ c_ c_ c_ c_ c_ c_ c_ c_ c_ c_ c_ c_ c_ c_ c_ c_ c_ c_ c_ c_ c_ c_ c_ c_ c_ c_ c_ c_ c_ c_ c_ c_ c_ c_ c_ c_ c_ c_ c_ c_ c_ Bx V~ D: 8y 8y zx '` .: >8 5m l% j% &) <% &) j% k% k% 5m 5m >8 >8 / .'` '` '` zx zx 8y 8y 8y 8y 8y 8y zx zx '` '` '` / .>8 6B 3% k% &) $) $) @) g6 2m 3n $8 p*.$8 +8 yx @) %) k% 3% >8 >8 >8 >| j% g6 E5 ;@.YA D: a{ a{ E2 Bx z_ $% .% Y$  # %+ c/ @*.m; z_ JY l2 c_ c_ c_ c_ c_ c_ c_ c_ c_ c_ c_ c_ c_ c_ V~ 1% +8 25 lm {8 #+ 4k C3 C3 Pk K$ &D Ax a{ c_ c_ c_ c_ c_ c_ c_ c_ V~ V~ c_ c_ c_ >8 @y J7 ,@./7 E~ X@ Pa 8m  8 ev lF tH 7, (j %; *; =; i; '- O* H& 7& b& >& 7% &% X$ <$ <$ <$ <$ <$ <$ <$ <$ <$ <$ S# (# E@ E@ !@ r+ ~+ -+ #+ 9. D  `. z  L< w_ 0: *< 9[ 0[ m[ v| {$.x#.h*._^ _^ =&.Z$.Z$.Z$.Z$./*._^ _^ _^ Q&.k*.m*.m*.m*.m*.m*.m*.m*.m*.m*.m*.m*._^ _^ _^ /*.=&.Z$.Z$.Z$.Z$.Z$.Z$.Z$.Z$.Z$.M+ ~. ~. ~. ~. ~. ~. ~. ~. ~. ~. ~. ~. ~. ~. ",
">%.B&.(#.(#.(#.(#.(#.(#.(#.(#.(#.(#.(#.(#.(#.(#.(#.(#.(#.(#.(#.(#.(#.(#.(#.n_ n_ n_ n_ n_ P%.R%.Z%.Z%.Z%.Z%.Z%.Z%.Z%.Z%.Z%.Z%.Z%.Z%.Z%.Z%.Z%.Z%.Z%.Z%.n_ T%.Z%.R%.m[ &< 8: *< 0: a: E~ z  A  `. F  9. n+ %+ U+ U+ D@ /# ~@ E@ (# S# <$ <$ <$ <$ <$ <$ F$ .% i% 7% B% R% _& ld a* eh A; A; *; =; CJ T> 8* O& JJ AJ Ey qn {o Pi b$ Z. 5H F~ >r .) 2[ c_ c_ c_ c_ c_ c_ c_ c_ c_ c_ c_ l2 [< 4( v# n+ C3 D  M7 Pi jm 25 25 25 25 25 25 25 '5 `6 u6 %8 .: c_ c_ c_ K~ a{ !~ E@ C3 ~8 n+ R# G$ Y$ )*  : 8y Ax c_ c_ c_ c_ c_ c_ c_ c_ c_ c_ c_ c_ c_ c_ c_ c_ c_ c_ c_ c_ c_ c_ c_ c_ c_ c_ c_ c_ c_ c_ c_ c_ c_ c_ c_ c_ c_ c_ c_ c_ c_ c_ c_ c_ c_ c_ c_ c_ c_ c_ c_ c_ c_ c_ c_ c_ c_ c_ c_ c_ c_ c_ c_ c_ c_ c_ c_ c_ c_ c_ c_ c_ c_ c_ c_ c_ c_ c_ c_ c_ c_ c_ c_ c_ c_ c_ c_ c_ c_ c_ c_ c_ c_ c_ c_ c_ [< D: D: 8y zx zx zx q*./ ..: wz vz l% j% &) YA $y E- +8 C6 2n N4 +7 Am +7 +7 2n C6 C6 3n +8 E` @w mF yx $y YA &) |% k% k% k% j% &) &) YA &K yx mF @w +8 C6 C6 $8 +7 +7 +7 E5 t6 '5 `6 `6 !%.!%.'5 25 J6 /6 35 C6 E` @w +8 n5 N4 J6 '5 K6 YA D: a{ a{ E2 Bx z_ $% .% Y$  # %+ c/ @*.m; z_ JY l2 c_ c_ c_ c_ c_ c_ c_ c_ c_ c_ c_ c_ c_ a{ V~ |% 2n '5 ~t p$ #+ ;h C3 C3 S+ OV j% )..a{ c_ c_ c_ c_ c_ c_ c_ D: m% m% }w c_ c_ wz @y J7 ,@./7 E~ X@ Pa 8m  8 ev AJ 4H T> gd `J &; *; i; '- GJ $' 6& vx >& 7% &% ;% &$ <$ <$ <$ <$ <$ <$ <$ <$ <$ S# (# E@ E@ !@ r+ ~+ -+ #+ 9. D  `. z  L< w_ 0: *< 9[ 0[ m[ v| {$.x#.h*._^ _^ l&.Z$.Z$.Z$.Z$./*._^ _^ ~} m*.m*.m*.m*.m*.m*.m*.m*.m*.m*.m*.m*.x3 _^ _^ _^ 7*.Z$.Z$.Z$.Z$.Z$.Z$.Z$.Z$.Z$.Z$.1+ ~. ~. ~. ~. ~. ~. ~. ~. ~. ~. ~. ~. ~. ~. ",
"r*.(#.(#.(#.(#.(#.(#.(#.(#.(#.(#.(#.(#.(#.(#.(#.(#.(#.(#.(#.(#.(#.(#.(#.>#.n_ n_ n_ n_ n_ n_ n_ P%.R%.Z%.Z%.Z%.Z%.Z%.Z%.Z%.Z%.Z%.Z%.Z%.Z%.Z%.Z%.Z%.Z%.t| n_ n_ n_ m[ &< 8: *< 0: a: E~ z  A  `. F  9. n+ %+ U+ U+ D@ /# ~@ E@ (# S# <$ <$ <$ <$ <$ <$ F$ .% i% 7% y% R% _& s* N* eh $; $; *; *; CJ s*.7* O& IT AJ Ey qn {o Pi 0) Z. 5H F~ <g 4e 3% [< c_ c_ c_ c_ c_ c_ c_ c_ c_ c_ l2 [< 4( v# n+ C3 D  M7 Pi XA 25 25 25 25 25 25 25 25 25 25 +8 vz c_ a{ c_ K~ a{ !~ E@ C3 ~8 n+ R# G$ Y$ )*  : '` Ax c_ c_ c_ c_ c_ c_ c_ c_ c_ c_ c_ c_ c_ c_ c_ c_ c_ c_ c_ c_ c_ c_ c_ c_ c_ c_ c_ c_ c_ c_ c_ c_ c_ c_ c_ c_ c_ c_ c_ c_ c_ c_ c_ c_ c_ c_ c_ c_ c_ c_ c_ c_ c_ c_ c_ c_ c_ c_ c_ c_ c_ c_ c_ c_ c_ c_ c_ c_ c_ c_ c_ c_ c_ c_ c_ c_ c_ c_ c_ c_ c_ c_ c_ c_ c_ c_ c_ c_ c_ Bx Bx V~ D: D: D: zx / .o% n% 5% 2% *) Nw $y yx o' o' .8 +8 3n Z  v6 /6 J6 25 +5 25 25 25 u6 u6 25 25 25 25 +5 +5 +5 25 E5 /6 /6 35 Z  `5 `5 `5 n5 `5 Z  Z  v6 +7 E5 J6 25 t6 '5 '5 '5 t6 25 J6 J6 J6 J6 J6 J6 J6 J6 J6 E5 25 25 t6 '5 '5 '5 '5 !%.'5 25 25 Z7 YA |+.$/ a{ E2 #/ 6^ $% .% Y$  # %+ c/ @*.m; z_ JY l2 c_ c_ c_ c_ c_ c_ c_ c_ c_ c_ c_ c_ c_ a{ 8y YA K6 `6 >A p$ #+ ;h C3 C3 n+ z7 <% V~ a{ c_ c_ c_ c_ c_ c_ c_ >8 mF qn 2[ a{ c_ wz @y J7 ,@./7 E~ X@ Pa 8m  8 iE JI vJ T> eD $; %; *; W- >- d* G& 5& vx >& 7% &% ;% <$ <$ <$ <$ <$ <$ <$ <$ <$ <$ S# (# E@ E@ !@ r+ ~+ -+ #+ 9. D  `. z  L< w_ 0: *< 9[ 0[ m[ v| {$.x#.h*._^ _^ Z$.Z$.Z$.Z$.Z$./*._^ t*.m*.m*.m*.m*.m*.m*.m*.m*.m*.m*.m*.m*.m*.t*._^ _^ _^ l&.Z$.Z$.Z$.Z$.Z$.Z$.Z$.Z$.Z$.1+ ~. ~. ~. ~. ~. ~. ~. ~. ~. ~. ~. ~. ~. ~. ~. ",
"(#.(#.(#.(#.(#.(#.(#.(#.(#.(#.(#.(#.(#.(#.(#.(#.(#.(#.(#.(#.(#.(#.(#.e$.n_ n_ n_ n_ n_ n_ n_ n_ n_ n_ t| Z%.Z%.Z%.Z%.Z%.Z%.Z%.Z%.Z%.Z%.Z%.Z%.Z%.Z%.Z%.R%.n_ n_ u*.[) &< 8: *< 0: a: E~ z  A  `. F  9. n+ %+ U+ U+ D@ /# ~@ E@ (# S# <$ <$ <$ <$ <$ <$ F$ .% i% 7% y% R% _& y& N* Aj $; $; *; *; CJ R> +' >z IT JI wx qn {o z7 0) X. /4 F~ t# XA qn .: 8y 8y 8y V~ c_ c_ c_ c_ c_ c_ l2 [< 4( v# n+ C3 D  M7 Pi XA 25 25 25 25 25 25 25 25 t6 t6 C6 3% c_ a{ c_ K~ a{ !~ E@ C3 ~8 n+ R# G$ Y$ Y$ ': z_ 8y D: D: D: D: D: D: D: D: D: D: D: D: D: D: D: D: D: D: D: D: D: D: D: D: D: D: D: D: D: D: D: D: D: D: D: D: D: D: D: D: D: D: D: D: D: D: D: D: D: D: D: D: D: D: D: D: D: D: D: D: D: D: D: D: D: D: D: D: D: D: D: D: D: D: D: D: D: D: D: D: D: D: 8y D5 D5 D5 2[ }~ .: wz A3 z_ >| >| 5m 5m k% |% &) YA #) @)  8 .8 n5 n5 $* n5 n5 +8 2m .8 .8 g6 g6 E- E- E- E- E- E- E- E- E- @w @w @w @w h# +8 3n 3n `5 `5 `5 Z  Z  `5 `5 `5 `5 `5 `5 `5 n5 n5 n5 n5 n5 n5 `5 Z  Z  Z  Z  Z  Z  Z  Z  Z  @5 @5 @5 Z  Z  Z  Z  Z  35 35 35 N4 ~: 35 YA 6N [< V~ ;< _{ m{ !* .% Y$  # %+ c/ @*.m; z_ JY l2 c_ c_ c_ c_ c_ c_ c_ c_ c_ c_ c_ c_ c_ [< gD  8 25 '5 >A p$ #+ ;h C3 C3 n+ K% @) D: a{ c_ c_ c_ c_ c_ c_ D: vH $8  8 .: c_ c_ wz yx 4e ,@./7 E~ X@ Pa 8m  8 _D JI (H lJ eD $; %; &; W- >- c* F& 4& S% A% 7% &% ;% <$ <$ <$ <$ <$ <$ <$ <$ <$ <$ S# (# E@ E@ !@ r+ ~+ -+ #+ 9. D  `. z  L< w_ 0: *< 9[ 0[ m[ v| {$.x#.h*._^ _^ =&.Z$.Z$.Z$.Z$./*._^ ^*.m*.m*.m*.m*.m*.m*.m*.m*.m*.m*.m*.m*.k*._^ _^ _^ r&.Z$.Z$.Z$.Z$.Z$.Z$.Z$.Z$.;&.1+ ~. ~. ~. ~. ~. ~. ~. ~. ~. ~. ~. ~. ~. ~. ~. ~. ",
"(#.(#.(#.(#.(#.(#.(#.(#.(#.(#.(#.(#.(#.(#.(#.(#.(#.(#.(#.(#.(#.(#.(#.n_ n_ n_ n_ n_ n_ n_ n_ n_ n_ n_ n_ n_ Y%.Z%.R%.R%.Q%.1: R%.R%.Z%.Z%.Z%.Z%.Z%.Z%.Z%.n_ n_ v*.[) &< 8: *< 0: a: E~ z  A  `. F  9. n+ %+ U+ U+ D@ /# ~@ E@ (# S# <$ <$ <$ <$ <$ <$ G$ Y$ i% 7% y% X% /& y& 0* Aj $; $; *; *; y< 2= 5* /* iJ .I wx qn {o z7 2g <{ /4 F~ t# ~t C6 $y 7H 7H j% >8 [< c_ c_ c_ c_ c_ l2 [< 4( v# n+ C3 D  M7 Pi XA 25 25 25 25 25 25 25 25 t6 `6 Z7 k% c_ a{ c_ K~ a{ !~ E@ C3 ~8 n+ R# G$ Y$ Y$ )* ': [_ 5( 5( 5( 5( 5( 5( 5( 5( 5( 5( 5( 5( 5( 5( 5( 5( 5( 5( 5( 5( 5( 5( 5( 5( 5( 5( 5( 5( 5( 5( 5( 5( 5( 5( 5( 5( 5( 5( 5( 5( 5( 5( 5( 5( 5( 5( 5( 5( 5( 5( 5( 5( 5( 5( 5( 5( 5( 5( 5( 5( 5( 5( 5( 5( 5( 5( 5( 5( 5( 5( 5( 5( 5( 5( 5( 5( 5( 5( 5( 5( 5( 5( [_ Z! j} j} (% $% 9% $% }3 }3 +% +% +% +% +% @% @% @% @% #% $% $% $% $% $% $% $% $% $% $% $% $% $% $% #% @% @% @% @% @% @% @%  ) Zo Zo Zo Zo Zo w*.w*.`$ +% +% +% +% `$ .% .% .% .% .% .% 3' 3' 3' 3' 3' 3' 3' 3' P, 3' 3' 3' P, P, 3' 3' 3' 3' 3' P, P, P, P, '> '> '> '> '> ]i '> @% j} `! 5( [_ B/ !* Y$ Y$ Y$  # %+ c/ @*.m; z_ JY l2 c_ c_ c_ c_ c_ c_ c_ c_ c_ c_ c_ c_ c_ D: |% C6 +5 25 >A p$ #+ ;h C3 C3 n+ C$ v4 n% c_ c_ c_ c_ c_ c_ c_ zx @y K6 C6 1% V~ Bx vz mF 4e ,@./7 E~ rp .p 8m  8 _D FE vx lJ eD $; %; &; W- >- b* F& 3& S% A% 7% &% ;% <$ <$ <$ <$ <$ <$ <$ <$ <$ <$ S# (# E@ E@ !@ r+ ~+ -+ #+ 9. D  `. z  L< w_ 0: *< 9[ 0[ m[ v| {$.x#.h*._^ _^ =&.Z$.Z$.Z$.Z$._^ _^ _^ m*.m*.m*.m*.m*.m*.m*.m*.m*.m*.m*.m*.^*._^ _^ _^ l&.Z$.Z$.Z$.Z$.Z$.Z$.Z$.-&.() ~. ~. ~. ~. ~. ~. ~. ~. ~. ~. ~. ~. ~. ~. ~. ~. ~. ",
"(#.(#.(#.(#.(#.(#.(#.(#.(#.(#.(#.(#.(#.(#.(#.(#.(#.(#.(#.x*.-5 ]$ n_ n_ n_ n_ n_ n_ n_ n_ n_ n_ n_ n_ n_ n_ n_ n_ n_ n_ n_ n_ n_ n_ n_ T%.P%.S%.R%.Z%.Z%.P%.n_ n_ m[ &< 8: *< 0: a: E~ z  A  `. F  9. n+ %+ U+ U+ D@ /# ~@ E@ (# S# <$ <$ <$ <$ <$ <$ G$ Y$ :% m% z% P% ^& t* 0* Aj $; $; &; &; 3} 1= K* M& iJ .I GE <x {o z7 5f <{ /4 F~ <g gW 25 &8 2n 2n C6 vH D: c_ c_ c_ c_ c_ l2 [< 4( v# n+ C3 D  M7 y*.mm 25 25 25 25 25 25 25 25 t6 `6 Z7 j% V~ E2 c_ K~ a{ !~ E@ C3 ~8 n+ R# W$ Y$ G$ Y@ Tp Tp 67 67 67 67 67 67 67 67 67 67 67 67 67 67 67 67 67 67 67 67 67 67 67 67 67 67 67 67 67 67 67 67 67 67 67 67 67 67 67 67 67 67 67 67 67 67 67 67 67 67 67 67 67 67 67 67 67 67 67 67 67 67 67 67 67 67 67 67 67 67 67 67 67 67 67 67 67 67 67 67 67 67 67 67 67 67 67 67 Tp !+ !+ !+ Tp Tp Tp Tp Tp Tp !+ n. n. n. n. n. n. n. n. n. n. n. n. n. n. n. n. n. n. n. n. n. n. n. n. n. 67 67 67 67 67 67 n. n. n. n. n. n. n. n. 67 67 67 67 67 67 67 67 67 67 67 67 0%.0%.0%.e#.e#.e#.e#.e#.e#.e#.e#.e#.e#.e#.e#.e#.e#.R# R# R# R# R# R# R# n. 67 67 67 67 M8 n. |$ XG Y$  # %+ c/ @*.m; z_ JY l2 c_ c_ c_ c_ c_ c_ c_ c_ c_ c_ c_ c_ a{ zx $y ]o '5 25 >A p$ #+ ;h C3 C3 n+ 3! N4 7H ;< a{ c_ c_ c_ c_ c_ wz @w 25 /6 @) }~ Bx k% .8 4e ,@./7 E~ 5c 0) 8m  8 _D FE ho lJ eD $; %; %; .; {] j* D& 1& S% A% 7% &% ;% <$ <$ <$ <$ <$ <$ <$ <$ <$ <$ S# (# E@ E@ !@ r+ ~+ -+ #+ 9. D  `. z  L< w_ 0: *< 9[ 0[ m[ v| {$.x#.h*._^ _^ =&.Z$.Z$.Z$.Z$./*._^ _^ m*.m*.m*.m*.m*.m*.m*.m*.m*.m*.m*.Q&._^ _^ _^ =&.Z$.Z$.Z$.Z$.Z$.Z$.Y$.7@ ~. ~. ~. ~. ~. ~. ~. ~. ~. ~. ~. ~. ~. ~. ~. ~. ~. ~. ~. ",
"(#.(#.(#.(#.(#.(#.(#.(#.(#.(#.(#.(#.(#.(#.(#.(#.(#.(#.(#.z*.A*.B*.n_ n_ n_ n_ n_ n_ n_ n_ n_ n_ n_ n_ n_ n_ n_ n_ n_ n_ n_ n_ n_ n_ n_ n_ n_ n_ n_ n_ n_ n_ n_ n_ m[ &< 8: *< 0: a: E~ z  A  `. F  9. n+ %+ U+ U+ D@ /# ~@ E@ (# S# <$ <$ <$ <$ <$ <$ F$ Y$ &% m% z% P% ^& t* 0* Aj $; $; gJ &; 3} 1= K* M& 7J jJ GE <x {o z7 t4 <{ 5H F~ <g ~t 25 25 25 25 2n K%.8y c_ c_ c_ c_ c_ l2 [< 4( v# n+ C3 D  M7 y*.mm 25 25 25 25 25 25 25 25 25 '5 Z7 YA D5 E2 c_ K~ a{ !~ E@ C3 ~8 n+ R# G$ I= {@ q2 v  %! 8! 8! 8! 8! 8! 8! 8! 8! 8! 8! 8! 8! 8! 8! 8! 8! 8! 8! 8! 8! 8! 8! 8! 8! 8! 8! 8! 8! 8! 8! 8! 8! 8! 8! 8! 8! 8! 8! 8! 8! 8! 8! 8! 8! 8! 8! 8! 8! 8! 8! 8! 8! 8! 8! 8! 8! 8! 8! 8! 8! 8! 8! 8! 8! 8! 8! 8! 8! 8! 8! 8! 8! 8! 8! 8! 8! 8! 8! 8! 8! 8! 8! 8! 8! 8! 8! 8! 8! 8! 8! y3 y3 y3 y3 y3 y3 y3 8! 8! 8! 8! 8! 8! 8! 8! 8! 8! 8! 8! 8! 8! 8! 8! 8! 8! 8! 8! 8! 8! 8! 8! 8! 8! 8! 8! 8! 8! 8! 8! 8! 8! 8! y3 y3 y3 y3 y3 y3 y3 y3 y3 y3 y3 y3 y3 y3 y3 y3 y3 y3 y3 y3 y3 R{ R{ R{ R{ R{ R{ R{ R{ R{ R{ R{ R{ R{ R{ R{ R{ R{ R{ R{ R{ R{ E~ 8! 8! 8! 8! i] R{ *+ K$ ;%  # %+ c/ @*.m; z_ JY l2 c_ c_ c_ c_ c_ c_ c_ c_ c_ c_ c_ a{ c_ >8 E- 25 `6 25 >A p$ #+ C3 C3 C3 n+ r& E5 =L }~ a{ c_ c_ c_ c_ V~ l% C6 25 25 +8 5m .: YA C6 4e ,@./7 E~ 5c 0) 8m  8 _D .I !G S> Il $; %; %; .; {] N* D& 1& S% A% 7% &% ;% <$ <$ <$ <$ <$ <$ <$ <$ <$ <$ S# (# E@ E@ !@ r+ ~+ -+ #+ 9. D  `. z  L< w_ 0: *< 9[ 0[ m[ v| {$.x#.h*._^ _^ =&.Z$.Z$.Z$.Z$.r&._^ _^ k*.m*.m*.m*.m*.m*.m*.m*.m*.m*.Q&._^ _^ _^ =&.Z$.Z$.;&.6&.9# !# () ~. ~. ~. ~. ~. ~. ~. ~. ~. ~. ~. ~. ~. ~. ~. ~. ~. ~. ~. ~. ~. ",
"(#.(#.(#.(#.(#.(#.(#.(#.(#.(#.(#.(#.(#.(#.(#.(#.(#.(#.1+ A*.C*.n_ n_ n_ n_ n_ n_ n_ n_ n_ n_ n_ n_ n_ n_ n_ n_ n_ n_ n_ n_ n_ n_ n_ n_ n_ n_ n_ n_ n_ n_ n_ n_ n_ m[ &< 8: *< 0: a: E~ z  A  `. F  9. n+ %+ U+ U+ D@ /# ~@ E@ (# S# <$ <$ <$ <$ <$ <$ F$ -% &% m% z% P% t& x& 0* Aj )J $; %; %; 8- [= 2* K& `& !E GE @y {o Jh t4 <{ 5H F~ t# ~t 25 25 25 25 2n %) &C c_ c_ c_ c_ c_ l2 [< 4( v# n+ C3 D  M7 y*.mm 25 25 25 25 25 25 25 25 25 '5 E5 %8 .: c_ E2 K~ a{ !~ E@ C3 ~8 n+ ~@ q$ =$ a@ R{ u  %! %! %! %! %! %! %! %! %! %! %! %! %! %! %! %! %! %! %! %! %! %! %! %! %! %! %! %! %! %! %! %! %! %! %! %! %! %! %! %! %! %! %! %! %! %! %! %! %! %! %! %! %! %! %! %! %! %! %! %! %! %! %! %! %! %! %! %! %! %! %! %! %! %! %! %! %! %! %! %! %! %! %! %! %! %! %! %! %! %! %! %! %! %! %! %! %! %! %! %! %! %! %! %! %! %! %! %! %! %! %! %! %! %! %! %! %! %! %! %! %! %! %! %! %! %! %! %! %! %! %! %! %! %! %! %! %! %! %! %! %! %! %! %! %! %! %! %! %! %! %! %! %! %! %! %! %! %! %! %! %! %! %! %! %! %! %! %! %! %! %! %! %! %! %! %! %! %! %! %! %! v  X. V  g# c@ %+ c/ @*.m; z_ JY l2 c_ c_ c_ c_ c_ c_ c_ c_ c_ c_ c_ E2 &C j% 2n '5 25 25 >A 3! #+ C3 C3 C3 n+ r& mm @w vz c_ c_ c_ c_ c_ D: vH 2n 25 25 +7 g6 $y +8 2n J7 ,@./7 E~ q2 0) 8m  8 *t .I !G S> Il $; $; %; X- .J r= U& 1& S% A% 7% &% ;% <$ <$ <$ <$ <$ <$ <$ <$ <$ <$ S# (# E@ E@ !@ r+ ~+ -+ #+ 9. D  `. z  L< w_ 0: *< 9[ 0[ m[ v| {$.x#.h*._^ _^ 7*.Z$.Z$.Z$.Z$.7*._^ _^ ~} m*.m*.m*.m*.m*.m*.m*.j&.^*._^ _^ r&.Z$.Z$.M+ ]$ ~. ~. ~. ~. ~. ~. ~. ~. ~. ~. ~. ~. ~. ~. ~. ~. ~. ~. ~. ~. ~. ~. ~. ~. ~. ~. ",
"(#.(#.(#.(#.(#.(#.(#.(#.(#.(#.(#.(#.(#.(#.(#.(#.(#.(#.D*.A*. ! n_ n_ n_ n_ n_ n_ n_ n_ n_ n_ n_ n_ n_ n_ n_ n_ n_ n_ n_ n_ n_ n_ n_ n_ n_ n_ n_ n_ n_ n_ n_ n_ n_ m[ &< 8: *< 0: a: E~ z  A  `. F  9. n+ %+ U+ U+ D@ /# ~@ E@ (# S# <$ <$ <$ <$ <$ <$ D$ -% &% 3% f& P% t& x& `I Aj h; $; %; %; 8- E*.J* K& GI XD ev @y =n k' t4 <{ 5H F~ t# ~t 25 25 25 25 /6 %) V~ c_ c_ c_ c_ c_ l2 [< 4( v# n+ C3 E  *+ 2G mm 25 25 25 25 25 25 25 25 25 25 E5 g6 >8 c_ a{ K~ a{ !~ E@ C3 ~8 o+ r+ n. #+ X. R{ d_ <{ <{ <{ <{ <{ <{ <{ <{ <{ <{ <{ <{ <{ <{ <{ <{ <{ <{ <{ <{ <{ <{ <{ <{ <{ <{ <{ <{ <{ <{ <{ <{ <{ <{ <{ <{ <{ <{ <{ <{ <{ <{ <{ <{ <{ <{ <{ <{ <{ <{ <{ <{ <{ <{ <{ <{ <{ <{ <{ <{ <{ <{ <{ <{ <{ <{ <{ <{ <{ <{ <{ <{ <{ <{ <{ <{ <{ <{ <{ <{ <{ <{ <{ <{ <{ <{ <{ <{ <{ <{ <{ <{ <{ <{ <{ <{ <{ <{ <{ <{ <{ <{ <{ <{ <{ <{ <{ <{ <{ <{ <{ <{ <{ <{ <{ <{ <{ <{ <{ <{ <{ <{ <{ <{ <{ <{ <{ <{ <{ <{ <{ <{ <{ <{ <{ <{ <{ <{ <{ <{ <{ <{ <{ <{ <{ <{ <{ <{ <{ <{ <{ <{ <{ <{ <{ <{ <{ <{ <{ <{ <{ <{ <{ <{ <{ <{ <{ <{ <{ <{ <{ <{ <{ <{ <{ <{ <{ <{ <{ <{ <{ R{ R{ k+ u# ,@ %+ c/ ]m <$ z_ JY l2 c_ c_ c_ c_ c_ c_ c_ c_ c_ c_ E2 Bx wz mF 25 '5 25 25 ~t r& #+ C3 C3 C3 n+ r& mm C6 %) D: a{ c_ c_ c_ 8y $y E5 25 25 25 25 J6 25 +7 J7 ,@./7 E~ 5c 0) 8m =' *t jJ lF S> Il h; A; %; X- .J 0* U& w& S% A% 7% &% ;% <$ <$ <$ <$ <$ <$ <$ <$ <$ <$ S# (# E@ E@ !@ r+ ~+ -+ #+ 9. D  `. z  L< w_ 0: *< 9[ 0[ m[ v| {$.x#.h*._^ _^ 13 Z$.Z$.Z$.Z$.Z$.r&._^ ^*.m*.m*.m*.m*.m*.m*.~} _^ _^ _^ 7*.Z$.M+ () ~. ~. ~. ~. ~. ~. ~. ~. ~. ~. ~. ~. ~. ~. ~. ~. ~. ~. ~. ~. ~. ~. ~. ~. ~. ~. ~. ~. ",
"(#.(#.(#.(#.(#.(#.(#.(#.(#.(#.(#.(#.(#.(#.(#.(#.(#.(#.z*.;  n_ n_ n_ n_ n_ n_ n_ n_ n_ n_ n_ n_ n_ n_ n_ n_ n_ n_ n_ n_ n_ n_ n_ n_ n_ n_ n_ n_ n_ n_ n_ n_ n_ n_ m[ &< 8: *< 0: a: E~ z  A  `. F  9. n+ %+ U+ U+ D@ /# ~@ E@ (# S# <$ <$ <$ <$ <$ <$ D$ -% &% 3% f& P% {& 7& 8* Aj Q- h; %; %; 8- := 1* l, GI XD ev @y =n k' 5f X. ]! F~ t# ~t 25 25 25 25 E5 YA D: c_ c_ c_ c_ c_ l2 [< 4( v# n+ C3 C3 *+ j*.mm 25 25 25 25 25 25 25 25 25 25 25 2m m% c_ a{ K~ a{ !~ E@ 9. D  n+ -+ #+ D  q2 2^ 2^ 2^ 2^ 2^ 2^ 2^ 2^ 2^ 2^ 2^ 2^ 2^ 2^ 2^ 2^ 2^ 2^ 2^ 2^ 2^ 2^ 2^ 2^ 2^ 2^ 2^ 2^ 2^ 2^ 2^ 2^ 2^ 2^ 2^ 2^ 2^ 2^ 2^ 2^ 2^ 2^ 2^ 2^ 2^ 2^ 2^ 2^ 2^ 2^ 2^ 2^ 2^ 2^ 2^ 2^ 2^ 2^ 2^ 2^ 2^ 2^ 2^ 2^ 2^ 2^ 2^ 2^ 2^ 2^ 2^ 2^ 2^ 2^ 2^ 2^ 2^ 2^ 2^ 2^ 2^ 2^ 2^ 2^ 2^ 2^ 2^ 2^ 2^ 2^ 2^ 2^ 2^ 2^ 2^ 2^ 2^ 2^ 2^ 2^ 2^ 2^ 2^ 2^ 2^ 2^ 2^ 2^ 2^ 2^ 2^ 2^ 2^ 2^ 2^ 2^ 2^ 2^ 2^ 2^ 2^ 2^ 2^ 2^ 2^ 2^ 2^ 2^ 2^ 2^ 2^ 2^ 2^ 2^ 2^ 2^ 2^ 2^ 2^ 2^ 2^ 2^ 2^ 2^ 2^ 2^ 2^ 2^ 2^ 2^ 2^ 2^ 2^ 2^ 2^ 2^ 2^ 2^ 2^ 2^ 2^ 2^ 2^ 2^ 2^ 2^ 2^ 2^ 2^ 2^ 2^ 2^ 2^ 2^ 2^ 2^ 2^ 2^ 2^ 2^ 2^ 2^ 2^ 2^ q2 Z. ++ #+ n+ c/ L4 <$ z_ JY l2 c_ c_ c_ c_ c_ c_ c_ c_ c_ c_ E2 8y %) 2n '5 '5 25 25 ~t r& e< C3 C3 C3 n+ 3! 's ;@.mF .: $/ c_ c_ c_ .: E- 25 25 25 25 '5 '5 t6 +7 J7 ,@./7 E~ q2 0) 8m .7 *t !E Q% R> Il h; $; $; X- .J 0* V& v& T% L, 5% %% ;% <$ <$ <$ <$ <$ <$ <$ <$ <$ <$ S# (# E@ E@ !@ r+ ~+ -+ #+ 9. D  `. z  L< w_ 0: *< 9[ 0[ m[ v| {$.x#.h*._^ _^ r&.Z$.Z$.Z$.Z$.Z$.Z$._^ _^ 5&.m*.m*.m*.5&.^*._^ _^ r&.Z$.;&.!# ~. ~. ~. ~. ~. ~. F*.w@ ]Q G*.G*.G*.'$.w@ N+ ~. ~. ~. ~. ~. ~. ~. ~. ~. ~. ~. ~. ~. ~. ~. ",
"(#.(#.(#.(#.(#.(#.(#.(#.(#.(#.(#.(#.(#.(#.(#.(#.(#.N+ A*.H*.n_ n_ n_ n_ n_ n_ n_ n_ n_ n_ n_ n_ n_ n_ n_ n_ n_ n_ n_ n_ n_ n_ n_ n_ n_ n_ n_ n_ n_ n_ n_ n_ n_ n_ m[ &< 8: *< 0: a: E~ z  A  `. F  9. n+ %+ U+ U+ D@ /# ~@ E@ (# S# <$ <$ <$ <$ <$ <$ D$ X$ &% 2% f& P% {& S..8* Aj h; h; %; %; FI := E, q* GI DD ev %8 =n k' @/ <{ ]! F~ t# ~t 25 25 25 25 25 @y 8y c_ c_ c_ c_ c_ l2 [< 4( v# n+ C3 C3 *+ j*.mm 25 25 25 25 25 25 25 25 25 25 25 @8 2% c_ a{ K~ a{ !~ E@ s1 C3 9. n+ Pk D@ xt NV NV NV NV NV NV NV NV NV NV NV NV NV NV NV NV NV NV NV NV NV NV NV NV NV NV NV NV NV NV NV NV NV NV NV NV NV NV NV NV NV NV NV NV NV NV NV NV NV NV NV NV NV NV NV NV NV NV NV NV NV NV NV NV NV NV NV NV NV NV NV NV NV NV NV NV NV NV NV NV NV NV NV NV NV NV NV NV NV NV NV NV NV NV NV NV NV NV NV NV NV NV NV NV NV NV NV NV NV NV NV NV NV NV NV NV NV NV NV NV NV NV NV NV NV NV NV NV NV NV NV NV NV NV NV NV NV NV NV NV NV NV NV NV NV NV NV NV NV NV NV NV NV NV NV NV NV NV NV NV NV NV NV NV NV NV NV NV NV NV NV NV NV NV NV NV NV NV NV NV NV NV NV NV xt :t s1 C3 C3 dc L4 <$ z_ JY l2 c_ c_ c_ c_ c_ c_ c_ c_ c_ a{ c_ vz @w 25 '5 25 25 25 ~t 0) e< C3 C3 C3 n+ 3! mm X7 @8 =) [< c_ c_ V~ l% C6 25 25 25 25 25 25 25 +7 J7 ,@./7 E~ k+ 0) Bf R6 -) XD FE R> nm Q- $; $; &I -- 9* B& |& J, z% 5% %% ;% <$ <$ <$ <$ <$ <$ <$ <$ <$ <$ S# (# E@ E@ !@ r+ ~+ -+ #+ 9. D  `. z  L< w_ 0: *< 9[ 0[ m[ v| {$.x#.h*._^ _^ /*.Z$.Z$.Z$.Z$.Z$.Z$.=&._^ b*.j&.I*.t*._^ _^ _^ 7*.Z$.M+ ~. ~. ~. ~. ~. ~. C. ]Q J*.J*.J*.J*.J*.J*.J*.J*.J*.J*.K*.(#.N+ ~. ~. ~. ~. ~. ~. () ~. ~. ~. ~. ",
"(#.(#.(#.(#.(#.(#.(#.(#.(#.(#.(#.(#.(#.(#.(#.(#.(#.+$ A*.B*.n_ n_ n_ n_ n_ n_ n_ n_ n_ n_ n_ n_ n_ n_ n_ n_ n_ n_ n_ n_ n_ n_ n_ n_ n_ n_ n_ n_ n_ n_ n_ n_ n_ n_ m[ &< 8: *< 0: a: E~ z  A  `. F  9. n+ %+ U+ U+ D@ /# ~@ E@ (# S# <$ <$ <$ <$ <$ <$ <$ X$ &% 2% v% P% {& 4& !I Aj h; h; $; A; FI _= }* YU ~I SC Vu %8 =n k' @/ <{ ]! F~ t# ~t 25 25 25 25 25 mF .: c_ c_ c_ c_ c_ l2 [< 4( v# n+ C3 C3 *+ 2G mm 25 25 25 25 25 25 25 25 25 25 +5 $8 l% V~ a{ K~ a{ !~ E@ L4 C3 n+ :t ): zt /u At At At At At At At At At At At At At At At At At At At At At At At At At At At At At At At At At At At At At At At At At At At At At At At At At At At At At At At At At At At At At At At At At At At At At At At At At At At At At At At At At At At At At At At At At At At At At At At At At At At At At At At At At At At At At At At At At At At At At At At At At At At At At At At At At At At At At At At At At At At At At At At At At At At At At At At At At At At At At At At At At At At At At At At At At At At At At At At At At At At At At At At At /t ]t xt ;( L4 dc L*.m; z_ JY l2 c_ c_ c_ c_ c_ c_ c_ c_ c_ a{ D5 %) 2n '5 25 25 25 25 ~t 0) e< C3 C3 C3 n+ 3! mm X7 )5 {*.>8 Bx V~ / .Q, Z7 25 25 25 25 25 25 25 +7 J7 ,@./7 E~ k+ 0) ]k R6 @s XD FE P> nm Q- $; $; &I =- 8* B& |& R% z% 5% %% I$ <$ <$ <$ <$ <$ <$ <$ <$ <$ <$ S# (# E@ E@ !@ r+ ~+ -+ #+ 9. D  `. z  L< w_ 0: *< 9[ 0[ m[ v| {$.x#.h*._^ _^ _^ Z$.Z$.;&.M+ Y$.Z$.Z$.7*._^ _^ _^ _^ _^ r&.Z$.Z$.+&.~. ~. ~. ~. N+ ]Q J*.J*.J*.J*.J*.J*.J*.J*.J*.J*.J*.J*.J*.J*.J*.J*.J*.~. ~. ~. ~. W| M*.N*.~. ~. ~. ",
"(#.(#.(#.(#.(#.(#.(#.(#.(#.(#.(#.(#.(#.(#.(#.(#.(#.($.A*.O*.n_ n_ n_ n_ n_ n_ n_ n_ n_ n_ n_ n_ n_ n_ n_ n_ n_ n_ n_ n_ n_ n_ n_ n_ n_ n_ n_ n_ n_ n_ n_ n_ n_ n_ m[ &< 8: *< 0: a: E~ z  A  `. F  9. n+ %+ U+ U+ D@ /# ~@ E@ (# S# <$ <$ <$ <$ <$ <$ <$ X$ &% 2% v% O% ~& 4& !I uw h; h; $; A; P*.(= `, $' ZH SC Vu %8 =n k' od <{ ]! F~ t# ~t 25 25 25 25 25 @8 3% V~ c_ c_ c_ c_ l2 [< 4( v# n+ C3 C3 T+ 2G mm 25 25 25 25 25 25 25 25 25 25 '5 Z7 K%.D: $/ K~ a{ !~ E@ L4 Pk !t Bt /t >t >t >t >t >t >t >t >t >t >t >t >t >t >t >t >t >t >t >t >t >t >t >t >t >t >t >t >t >t >t >t >t >t >t >t >t >t >t >t >t >t >t >t >t >t >t >t >t >t >t >t >t >t >t >t >t >t >t >t >t >t >t >t >t >t >t >t >t >t >t >t >t >t >t >t >t >t >t >t >t >t >t >t >t >t >t >t >t >t >t >t >t >t >t >t >t >t >t >t >t >t >t >t >t >t >t >t >t >t >t >t >t >t >t >t >t >t >t >t >t >t >t >t >t >t >t >t >t >t >t >t >t >t >t >t >t >t >t >t >t >t >t >t >t >t >t >t >t >t >t >t >t >t >t >t >t >t >t >t >t >t >t >t >t >t >t >t >t >t >t >t >t >t >t >t >t >t >t >t >t >t >t >t >t >t >t >t >t zt _t :t ]m L*.m; z_ JY l2 c_ c_ c_ c_ c_ c_ c_ c_ a{ c_ >8 E- J6 '5 25 25 25 25 ~t 0) s1 C3 C3 C3 n+ 3! mm X7 25 $8 @y 3% >8 <p C6 25 25 25 25 25 25 25 25 +7 J7 ,@./7 E~ k+ 0) ]k R6 @s %I FE P> nm Q- $; $; &I *- 8* A& }& R% z% 3% $% I$ <$ <$ <$ <$ <$ <$ <$ <$ <$ <$ S# (# E@ E@ !@ r+ ~+ -+ #+ 9. D  `. z  L< w_ 0: *< 9[ 0[ m[ v| {$.x#.h*._^ _^ _^ Z$.Z$.-&.~. ~. E= 6&.Z$.7*._^ _^ _^ 13 Z$.;&.!# ~. ~. ~. w@ G*.J*.J*.J*.J*.J*.J*.J*.J*.J*.J*.J*.J*.J*.J*.J*.J*.J*.J*.J*.~. ~. ~. W| M*.M*.Q*.~. ~. ~. ",
"(#.(#.(#.(#.(#.(#.(#.(#.(#.(#.(#.(#.(#.(#.(#.(#.(#.(#.A*.H*.n_ n_ n_ n_ n_ n_ n_ n_ n_ n_ n_ n_ n_ n_ n_ n_ n_ n_ n_ n_ n_ n_ n_ n_ n_ n_ n_ n_ n_ n_ n_ n_ n_ n_ m[ &< 8: *< 0: a: E~ z  A  `. F  9. n+ %+ U+ U+ D@ /# ~@ E@ (# S# <$ <$ <$ <$ <$ <$ <$ X$ &% 2% v% +y ~& 4& 7* uw Q- Q- A; $; 6- ,A <* $' ZH lH _D %8 =n k' i9 <{ ]! F~ t# ~t 25 25 25 25 25 Z7 vH &C c_ c_ c_ c_ l2 [< 4( v# n+ C3 C3 T+ 2G mm 25 25 25 25 25 25 25 25 25 25 '5 E5 yx .: [< f] c_ .~ v# ]u {u yt /t ts ts ts ts ts ts ts ts ts ts ts ts ts ts ts ts ts ts ts ts ts ts ts ts ts ts ts ts ts ts ts ts ts ts ts ts ts ts ts ts ts ts ts ts ts ts ts ts ts ts ts ts ts ts ts ts ts ts ts ts ts ts ts ts ts ts ts ts ts ts ts ts ts ts ts ts ts ts ts ts ts ts ts ts ts ts ts ts ts ts ts ts ts ts ts ts ts ts ts ts ts ts ts ts ts ts ts ts ts ts ts ts ts ts ts ts ts ts ts ts ts ts ts ts ts ts ts ts ts ts ts ts ts ts ts ts ts ts ts ts ts ts ts ts ts ts ts ts ts ts ts ts ts ts ts ts ts ts ts ts ts ts ts ts ts ts ts ts ts ts ts ts ts ts ts ts ts ts ts ts ts ts ts ts ts ts ts ts ts ts /t ~u R*.]u F$ 6^ l2 l2 c_ c_ c_ c_ c_ c_ c_ c_ a{ }w j% JB '5 t6 25 25 25 25 ~t 0) s1 C3 C3 C3 n+ 3! mm X7 25 25 +7 3n 2m 2n 25 t6 25 25 25 25 25 25 25 +7 J7 ,@./7 E~ k+ 0) ]k R6 gq %I jJ P> :H Q- h; $; `- /, S*.A& [& R% z% 2% $% I$ <$ <$ <$ <$ <$ <$ <$ <$ <$ <$ S# (# E@ E@ !@ r+ ~+ -+ #+ 9. D  `. z  L< w_ 0: *< 9[ 0[ m[ v| {$.x#.h*._^ _^ _^ =&.Z$.Z$.E= ~. ~. ~. E= M+ Z$.=&.l&.Z$.Y$.() ~. ~. N+ G*.J*.J*.J*.J*.J*.J*.J*.J*.J*.J*.J*.J*.J*.J*.J*.J*.J*.J*.J*.J*.(( ~. ~. T*.M*.M*.M*.M*.~. ~. ~. ",
"(#.(#.(#.(#.(#.(#.(#.(#.(#.(#.(#.U*.>#.>#./  (#.(#.(#.V*.W*.n_ n_ n_ n_ n_ n_ n_ n_ n_ n_ n_ n_ n_ n_ n_ n_ n_ n_ n_ n_ n_ n_ n_ n_ n_ n_ n_ n_ n_ n_ n_ n_ n_ n_ m[ &< 8: *< 0: a: E~ z  A  `. F  9. n+ %+ U+ U+ D@ /# ~@ E@ (# S# <$ <$ <$ <$ <$ <$ <$ X$ &% 2% v% N% !& 3& @' Aj OH +; $; $; 6- 9y Qa YH ZH SC *t !v =n k' i9 <{ ]! F~ t# ~t 25 25 25 25 25 J6 $&.}~ c_ c_ c_ c_ l2 [< 4( v# n+ C3 C3 T+ 2G mm 25 25 25 25 25 25 25 25 25 25 25 25 C6  & zx )..D: Z! m; [$ /t &s &s &s &s &s &s &s &s &s &s &s &s &s &s &s &s &s &s &s &s &s &s &s &s &s &s &s &s &s &s &s &s &s &s &s &s &s &s &s &s &s &s &s &s &s &s &s &s &s &s &s &s &s &s &s &s &s &s &s &s &s &s &s &s &s &s &s &s &s &s &s &s &s &s &s &s &s &s &s &s &s &s &s &s &s &s &s &s &s &s &s &s &s &s &s &s &s &s &s &s &s &s &s &s &s &s &s &s &s &s &s &s %s &s %s &s &s &s &s &s &s &s &s &s &s &s &s &s &s &s &s &s &s &s &s &s &s &s &s &s &s &s &s &s &s &s &s &s &s &s &s &s &s &s &s &s &s &s &s &s &s &s &s &s &s &s &s &s &s &s &s &s &s &s &s &s &s &s &s &s &s &s &s &s &s &s &s &s &s &s &s &s &s &s zt &$ 2~ z_ l2 l2 c_ c_ c_ c_ c_ c_ c_ a{ c_ >8 E- J6 '5 25 25 25 25 25 15 ;8 s1 C3 C3 C3 n+ 3! mm X7 25 25 t6 '5 '5 '5 25 25 25 25 25 25 25 25 25 +7 J7 ,@./7 E~ Z. ;8 ]k R6 uG SC !E P> nm R- h; $; `- /, 7* ]* <& R% z% 2% 9% H$ <$ <$ <$ <$ <$ <$ <$ <$ <$ <$ S# (# E@ E@ !@ r+ ~+ -+ #+ 9. D  `. z  L< w_ 0: *< 9[ 0[ m[ v| {$.x#.h*._^ _^ _^ 7*.Z$.Z$.-&.E= ~. ~. ~. ~. 1+ ;&.Z$.-&.~. ~. ~. w@ J*.J*.J*.J*.J*.J*.J*.J*.J*.J*.J*.J*.J*.J*.J*.J*.J*.J*.J*.J*.J*.J*.X*.~. ~. Q*.M*.M*.M*.M*.~. ~. ~. ",
"(#.(#.(#.(#.(#.(#.(#.(#./  Y*.Z*.Z*.Z*.Z*.Z*.D= (#.(#.x*.A*.H*.n_ n_ n_ n_ n_ n_ n_ n_ n_ n_ n_ n_ n_ n_ n_ n_ n_ n_ n_ n_ n_ n_ n_ n_ n_ n_ n_ n_ n_ n_ n_ n_ n_ m[ &< 8: *< 0: a: E~ z  A  `. F  9. n+ %+ U+ U+ D@ /# ~@ E@ (# S# <$ <$ <$ <$ <$ <$ <$ ;% &% 2% v% N% !& 1& 5* Aj Q- Q- $; $; <} 9y F, E& ZH 8H *t !v =n k' X@ <{ ]! F~ t# ~t 25 25 25 25 25 +5 C6 2% V~ c_ c_ c_ l2 [< 4( v# n+ C3 C3 T+ 2G mm 25 25 25 25 25 25 25 25 25 25 25 '5 J6 3n $y vH vH +) `*.G~  ~ .~ 2( 2( ir ir ir ir ir ir ir ir ir ir ir ir ir ir ir ir ir ir ir ir ir ir ir ir ir ir ir ir ir ir ir ir ir ir ir ir ir ir ir ir ir ir ir ir ir ir ir ir ir ir ir ir ir ir ir ir ir ir ir ir ir ir ir ir ir ir ir ir ir ir ir ir ir ir ir ir ir ir ir ir ir ir ir ir ir ir ir ir ir ir ir ir ir ir ir ir ir ir ir ir ir ir ir ir ir ir ir ir 4( 2( 2( 2( 2( ir ir ir ir ir ir ir ir ir ir ir ir ir ir ir ir ir ir ir ir ir ir ir ir ir ir ir ir ir ir ir ir ir ir ir ir ir ir ir ir ir ir ir ir ir ir ir ir ir ir ir ir ir ir ir ir ir ir ir ir ir ir ir ir ir ir ir ir ir ir ir ir ir ir ir ir ir 7( /V kr B] D5 Ax a{ c_ c_ c_ c_ c_ c_ c_ c_ D5 %) 2n '5 t6 25 25 25 25 25 15 ;8 s1 C3 C3 C3 n+ 3! mm X7 25 25 25 25 25 25 25 25 25 25 25 25 25 25 25 +7 J7 ,@./7 E~ Z. ;8 ]k R6 uG SC 2I P> nm R- h; h; `- t- 7* QH 9& R% z% 2% *% H$ <$ <$ <$ <$ <$ <$ <$ <$ <$ <$ S# (# E@ E@ !@ r+ ~+ -+ #+ 9. D  `. z  L< w_ 0: *< 9[ 0[ m[ v| {$.x#.h*._^ _^ _^ 13 Z$.Z$.Z$.;&.1+ ~. ~. ~. ~. ~. 7@ ~. ~. ~. 1! J*.J*.J*.J*.J*.J*.J*.J*.J*.J*.J*.J*.J*.J*.J*.J*.J*.J*.J*.J*.J*.J*.m/ F*.~. T*.M*.M*.M*.M*. =.~. ~. ~. ",
"(#.(#.(#.(#.(#.(#.(#.J*.Z*.Z*.Z*.Z*.Z*.Z*.Z*.Z*.(#.(#.N+ Y4 Y4 .=.n_ n_ n_ n_ n_ n_ n_ n_ n_ n_ n_ n_ n_ n_ n_ n_ n_ n_ n_ n_ n_ n_ n_ n_ n_ n_ n_ n_ n_ n_ n_ n_ m[ &< 8: *< 0: a: E~ z  A  `. F  9. n+ %+ U+ U+ D@ /# ~@ E@ (# S# <$ <$ <$ <$ <$ <$ <$ ;% &% 2% u% N% )& 1& 5* (j OH OH $; #; <} 9y :* E& PH sC *t  8 1g nh A7 <{ ]! F~ t# ~t 25 25 25 25 25 '5 K6 @y / .[< c_ c_ l2 [< 4( v# n+ C3 C3 T+ 2G mm 25 25 25 25 25 25 25 25 25 25 25 25 25 +5 +5 25 Z7 $8 +8  8 #) j% +=.h@.8y V~ c_ Ax Ax Ax Ax Ax Ax Ax Ax Ax Ax Ax Ax Ax Ax Ax Ax Ax Ax Ax Ax Ax Ax Ax Ax Ax Ax Ax Ax Ax Ax Ax Ax Ax Ax Ax Ax Ax Ax Ax Ax Ax Ax Ax Ax Ax Ax Ax Ax Ax Ax Ax Ax Ax Ax Ax Ax Ax Ax Ax Ax Ax Ax Ax Ax Ax Ax Ax Ax Ax Ax Ax Ax Ax Ax Ax Ax Ax Ax Ax Ax Ax Ax Ax Ax Ax Ax Ax Ax Ax Ax Ax Ax Ax Ax Ax Ax Ax Ax <_ )..V~ V~ 8y '` '` IY h@.>8 wz / .'` %y %y &C V~ V~ V~ V~ <_ Ax Ax Ax Ax Ax Ax Ax Ax Ax Ax Ax Ax Ax Ax Ax Ax Ax Ax Ax Ax Ax Ax Ax Ax Ax Ax Ax Ax Ax Ax Ax Ax Ax Ax Ax Ax Ax Ax Ax Ax Ax Ax Ax Ax Ax Ax Ax Ax Ax Ax Ax Ax Ax Ax Ax Ax Ax Ax Ax Ax Ax Ax Ax Ax Ax Ax Ax Ax c_ c_ c_ c_ c_ c_ c_ c_ c_ c_ c_ c_ c_ a{ V~  & +8 t6 '5 25 25 25 25 25 25 15 ;8 s1 C3 C3 C3 n+ 3! mm X7 25 25 25 25 25 25 25 25 25 25 25 25 25 25 25 +7 J7 ,@./7 E~ X. ;8 ]k R6 uG zN DD @=.:H R- Q- h; #=.t- #' y& 9& Q% z% 2% *% G$ <$ <$ <$ <$ <$ <$ <$ <$ <$ <$ S# (# E@ E@ !@ r+ ~+ -+ #+ 9. D  `. z  L< w_ 0: *< 9[ 0[ R! v| {$.x#.h*._^ _^ _^ /*.Z$.Z$.Z$.Z$.Z$.Y$.() ~. ~. ~. ~. ~. ~. ~. m/ J*.J*.J*.J*.J*.J*.J*.J*.J*.J*.J*.J*.J*.J*.J*.J*.J*.J*.J*.J*.J*.J*.N+ ~. ~. $=.M*.M*.M*.M*.W| ~. ~. ~. ",
"(#.(#.(#.(#.(#.(#.m/ Z*.Z*.Z*.Z*.Z*.Z*.Z*.Z*.Z*.(#.(#.(#.%=.A*.-5 n_ n_ n_ n_ n_ n_ n_ n_ n_ n_ n_ n_ n_ n_ n_ n_ n_ n_ n_ n_ n_ n_ n_ n_ n_ n_ n_ n_ n_ n_ n_ n_ m[ &< 8: *< 0: a: E~ z  A  `. F  9. n+ %+ U+ U+ D@ /# ~@ E@ (# S# <$ <$ <$ <$ <$ <$ <$ ;% &% 2% u% N% )& w& L* (j OH OH h; h; m- 8= p* E& FH sC ED  8 8m p$ 5c R{ ]! F~ t# ~t 25 25 25 25 25 25 25 2n &=.zx c_ c_ l2 [< 4( v# n+ C3 C3 T+ 2G mm 25 25 25 25 25 25 25 25 25 25 25 25 25 25 25 25 25 25 t6 '5 25 Z7 E` yx j% >8 D5 V~ c_ c_ c_ c_ c_ c_ c_ c_ c_ c_ c_ c_ c_ c_ c_ c_ c_ c_ c_ c_ c_ c_ c_ c_ c_ c_ c_ c_ c_ c_ c_ c_ c_ c_ c_ c_ c_ c_ c_ c_ c_ c_ c_ c_ c_ c_ c_ c_ c_ c_ c_ c_ c_ c_ c_ c_ c_ c_ c_ c_ c_ c_ c_ c_ c_ c_ c_ c_ c_ c_ c_ c_ c_ c_ c_ c_ c_ c_ c_ c_ c_ c_ c_ c_ c_ c_ c_ c_ c_ c_ c_ c_ c_ V~ V~ D: 8y '` n% 2% i*.7H %) YA &! yx yx yx $y &K D@.nU i*.l% 3% >8 .: 8y 8y &C V~ V~ V~ V~ [< [< c_ c_ c_ c_ c_ c_ c_ c_ c_ c_ c_ c_ c_ c_ c_ c_ c_ c_ c_ c_ c_ c_ c_ c_ c_ c_ c_ c_ c_ c_ c_ c_ c_ c_ c_ c_ c_ c_ [< V~ D: 8y 8y 8y V~ V~ V~ V~ [< c_ c_ c_ c_ c_ c_ c_ c_ c_ c_ c_ c_ c_ c_ c_ c_ c_ c_ c_ c_ c_ c_ c_ c_ V~ >8 E- J6 '5 25 25 25 25 25 25 25 15 ;8 s1 C3 C3 C3 n+ 3! mm X7 25 25 25 25 25 25 25 25 25 25 25 25 25 25 25 +7 J7 ,@./7 E~ X. ;8 ]k R6 5n IB fD N> rn R- Q- h; `- u- 5* y& _& P% v% 2% +% G$ <$ <$ <$ <$ <$ <$ <$ <$ <$ <$ S# (# E@ E@ !@ r+ ~+ -+ #+ 9. D  `. z  L< w_ 0: *< 9[ 0[ R! v| {$.x#.h*._^ _^ _^ _^ Z$.Z$.Z$.Z$.Z$.Z$.Z$.9# ~. ~. ~. ~. ~. ~. J*.J*.J*.J*.J*.J*.J*.J*.J*.J*.J*.J*.J*.J*.J*.J*.J*.J*.J*.J*.J*.J*.w@ ~. ~. ~. *=.M*.M*.M*.==.~. ~. ~. ~. ",
"(#.(#.(#.(#.(#.e$.Z*.Z*.Z*.Z*.Z*.Z*.Z*.Z*.Z*.Z*.(#.(#.(#.($.A*.A*.-=.n_ n_ n_ n_ n_ n_ n_ n_ n_ n_ n_ n_ n_ n_ n_ n_ n_ n_ n_ n_ n_ n_ n_ n_ n_ n_ n_ n_ n_ n_ n_ m[ &< 8: *< 0: a: E~ z  A  `. F  9. n+ %+ U+ U+ D@ /# ~@ E@ (# S# <$ <$ <$ <$ <$ <$ <$ ;% &% l% s% h, '& v& L* eD Q- Q- h; h; m- 9= R& U& EJ IB ED  8 8m p$ q2 E~ ]! F~ t# ~t 25 25 25 25 25 25 25 25 ;=.l% 8y c_ l2 [< 4( v# n+ C3 C3 T+ 2G mm 25 25 25 25 25 25 25 25 25 25 25 25 25 25 25 25 25 25 25 25 25 25 25 '5 J6 2m %) 3% / .8y V~ c_ c_ c_ c_ c_ c_ c_ c_ c_ c_ c_ c_ c_ c_ c_ c_ c_ c_ c_ c_ c_ c_ c_ c_ c_ c_ c_ c_ c_ c_ c_ c_ c_ c_ c_ c_ c_ c_ c_ c_ c_ c_ c_ c_ c_ c_ c_ c_ c_ c_ c_ c_ c_ c_ c_ c_ c_ c_ c_ c_ c_ c_ c_ c_ c_ c_ c_ c_ c_ c_ c_ c_ c_ c_ c_ c_ c_ c_ c_ c_ c_ c_ c_ c_ c_ c_ V~ 8y .: vz 3% l% 7H K%.yx @w 2n 25 +5 +5 '5 '5 '5 '5 '5 '5 >=.'5 +5 J6 +7 Z  +8 o' &K &) j% l% kH 3% vz >8 >8 wz / .zx zx D: V~ V~ V~ c_ c_ c_ c_ c_ c_ c_ c_ c_ c_ c_ c_ c_ c_ c_ c_ c_ c_ c_ c_ c_ c_ c_ c_ c_ c_ c_ V~ D5 wz 3% l% l% tC tC tC l% 2% 3% 3% vz >8 '` 8y D: V~ V~ c_ c_ c_ c_ c_ c_ c_ c_ c_ c_ c_ c_ c_ c_ c_ V~ V~ 8y vz &! Z7 '5 25 25 25 25 25 25 25 25 15 ;8 s1 C3 C3 C3 n+ 3! mm X7 25 25 25 25 25 25 25 25 25 25 25 25 25 25 25 +7 J7 ,@./7 E~ <{ rs ^j Jq <p IB SC N> rn R- Q- h; `- u- 5* X& H, P% u% 2% +% G$ <$ <$ <$ <$ <$ <$ <$ <$ <$ <$ S# (# E@ E@ !@ r+ ~+ -+ #+ 9. D  `. z  L< w_ 0: *< 9[ 0[ R! v| {$.AR h*._^ _^ _^ _^ Z$.Z$.Z$.Z$.Z$.Z$.Z$.Z$.() ~. ~. ~. ~. ~. J*.J*.J*.J*.J*.J*.J*.J*.J*.J*.J*.J*.J*.J*.J*.J*.J*.J*.J*.J*.J*.L- ~. ~. ~. ~. *=.M*.M*.M*.() ~. ~. ~. ~. ",
"(#.(#.(#.(#.(#.,=.Z*.Z*.Z*.Z*.Z*.Z*.Z*.Z*.Z*.'=.(#.(#.(#.(#.)=.A*.A*. ! n_ n_ n_ n_ n_ n_ n_ n_ n_ n_ n_ n_ n_ n_ n_ n_ n_ n_ n_ n_ n_ n_ n_ n_ n_ n_ n_ n_ n_ n_ m[ &< 8: *< 0: a: E~ z  A  `. F  9. n+ %+ U+ U+ D@ /# ~@ E@ (# S# <$ <$ <$ <$ <$ <$ T# I= %% l% s% h, U% |& K* eD R- R- h; h; m- 9= Q& r* EJ 4B ED =' 8m p$ q2 E~ ]! F~ t# ~t 25 25 25 25 25 25 25 25 J6 E` 7H zx Ax [< 4( v# n+ C3 C3 T+ 2G mm 25 25 25 25 25 25 25 25 25 25 25 25 25 25 25 25 25 25 25 25 25 25 25 25 25 25 25 2n E- 7H >8 '` V~ V~ V~ c_ c_ c_ c_ c_ c_ c_ c_ c_ c_ c_ c_ c_ c_ c_ c_ c_ c_ c_ c_ c_ c_ c_ c_ c_ c_ c_ c_ c_ c_ c_ c_ c_ c_ Bx V~ V~ V~ V~ 8y 8y zx zx zx zx q*.q*.zx 8y 8y V~ [< c_ c_ c_ c_ c_ c_ c_ c_ c_ c_ c_ c_ c_ c_ c_ c_ c_ c_ c_ c_ c_ c_ c_ c_ c_ c_ c_ D: }~ >| k% %) yx 2m JB &8 25 25 25 25 25 25 25 25 25 25 25 25 25 25 25 25 25 25 25 25 J6 25 25 25 25 25 J6 ~: C6 +8 2m g6 yx $y YA %) j% l% 3% 3% 3% vz >8 >8 .: zx 8y 8y V~ V~ V~ V~ c_ c_ c_ c_ c_ c_ c_ c_ c_ c_ c_ V~ 8y .: m% &) o' Z  /6 25 25 25 25 25 E5 /6 2n +8 E- yx &K %) |% kH kH 3% 3% 3% vz vz vz >8 >8 vz vz 3% 3% 3% 3% kH l% YA 2m /6 25 25 25 25 25 25 25 25 25 25 15 ;8 9. C3 C3 C3 n+ 3! mm X7 25 25 25 25 25 25 25 25 25 25 25 25 25 25 25 +7 J7 ,@./7 E~ <{ rs ^j Jq <p IB 8H N> rn R- Q- Q- mg %- K* X& H, P% u% 2% +% G$ <$ <$ <$ <$ <$ <$ <$ <$ <$ <$ S# (# E@ E@ !@ r+ ~+ -+ #+ 9. D  `. z  L< w_ 0: *< 9[ 0[ R! v| {$.ZO x#._^ _^ _^ _^ =&.Z$.Z$.Z$.Z$.Z$.Z$.Z$.1+ ~. ~. ~. ~. ~. ]Q J*.J*.J*.J*.J*.J*.J*.J*.J*.J*.J*.J*.J*.J*.J*.J*.J*.J*.J*.J*.F*.~. !=.~=.{=.]=.M*.M*.W| ~. ~. ~. ~. ~. ",
"(#.(#.(#.(#.m/ Z*.Z*.Z*.Z*.Z*.Z*.Z*.Z*.Z*.Z*.,=.(#.(#.(#.(#.^=./=.A*.(=.n_ n_ n_ n_ n_ n_ n_ n_ n_ n_ n_ n_ n_ n_ n_ n_ n_ n_ n_ n_ n_ n_ n_ n_ n_ n_ n_ n_ n_ n_ m[ &< 8: *< 0: a: E~ z  A  `. F  9. n+ %+ U+ U+ D@ /# ~@ E@ (# S# <$ <$ <$ <$ <$ <$ &$ I$ %% l% s% g, U% }& K* Aj R- R- h; h; /H ]= P& B& 4H vG @s =' 8m p$ q2 E~ ]! F~ t# ~t 25 25 25 25 25 25 25 25 25 E5 E`  & V~ [< 4( v# n+ C3 C3 T+ 2G mm 25 25 25 25 25 25 25 25 25 25 25 25 25 25 25 25 25 25 25 25 25 25 25 25 25 25 25 25 25 &8 +8 $y j% &D 3% >8 >8 >8 gD .: .: 6N 6N 2[ zx zx zx zx 8y 8y 8y 8y 8y zx zx zx zx 2[ 2[ 6N 6N .: .: gD >8 >8 >8 >8 m% 3% 5m k% k% j% &) YA $y $y @y yx yx yx $y &K %) |% 3% gD |+.V~ c_ c_ c_ c_ c_ c_ c_ c_ c_ c_ c_ c_ c_ c_ c_ c_ c_ c_ c_ c_ c_ c_ c_ }~ |% o' Z  /6 J6 E5 J6 25 25 25 25 25 25 25 25 25 25 25 25 25 25 25 25 25 25 25 25 25 25 25 25 25 25 25 25 25 25 25 J6 E5 E5 E5 E5 E5 E5 25 J6 K6 Z7 $8 3n 2m g6 o' $y &K %) &) k% 3% vz >8 >8 .: 6N D5 8y D: V~ V~ V~ D5 >8 j%  8 35 )5 E5 25 25 25 25 25 25 25 25 25 25 J6 E5 E5 J6 J6 J6 ]o %&.WZ WZ JB C6 +8 +8 +8 +8 3n 3n C6 $8 2n WZ K6 K6 u6 E5 25 25 25 25 25 25 25 25 25 U6 25 15 ;8 9. C3 C3 C3 n+ 3! mm X7 25 25 25 25 25 25 25 25 25 25 25 25 25 25 25 +7 J7 ,@./7 E~ <{ 5f ^j Jq <p IB _H O> rn R- Q- h; mg )H K* 7& ^& P% u% 2% +% G$ <$ <$ <$ <$ <$ <$ <$ <$ <$ <$ S# (# E@ E@ !@ r+ ~+ -+ #+ 9. D  `. z  L< w_ 0: *< 9[ 0[ R! v| _=.PQ x#._^ _^ _^ _^ 7*.Z$.Z$.Z$.Z$.Z$.Z$.Z$.9# ~. ~. ~. ~. ~. :=.J*.J*.J*.J*.J*.J*.J*.J*.J*.J*.J*.J*.J*.J*.J*.J*.J*.J*.J*.X*.~. 8{ bP bP bP m@.M*.$=.~. ~. ~. ~. ~. ~. ",
"(#.(#.(#.e$.<=.Z*.Z*.Z*.Z*.Z*.Z*.Z*.Z*.Z*.Z*.D= (#.(#.(#.(#.[=.Z*.%@ ($.n_ n_ n_ n_ n_ n_ n_ n_ n_ n_ n_ n_ n_ n_ n_ n_ n_ n_ n_ n_ n_ n_ n_ n_ n_ n_ n_ n_ n_ n_ m[ &< 8: *< 0: a: E~ z  A  `. F  9. n+ %+ U+ U+ D@ /# ~@ E@ (# S# <$ <$ <$ <$ <$ <$ &$ I$ %% l% s% M% U% }& ,H eD R- R- Q- Q- /H {= O& B& 4H WA @s .7 8m p$ q2 E~ ]! F~ t# ~t 25 25 25 25 25 25 25 25 25 25 E5 @w n% D5 hr v# n+ C3 C3 T+ 2G 's 25 25 25 25 25 25 25 25 25 25 25 25 25 25 25 25 25 25 25 25 25 25 25 25 25 25 25 25 25 25 J6 E5 Z7 Z7 Z7 $8 @8 +8 3m .8 }=.{*.{*.@y $y ,q ,q ,q YG <p <p <p <p YG ,q Q, @y @y {*.{*.mF }=.@w )G )G @8 C6 $8 p*.p*.Z7 Z7 Z7 &8 &8 &8 &8 &8 K6 K6 K6 &8 &8 &8 &8 Z7 $8 3m qn l% .: 2[ 2[ 6N 6N 6N 6N 2[ D5 D5 D5 D5 D5 &C 8y D: D: D: D: D: }w }w .: $y $8 E5 25 25 t6 25 25 25 25 25 25 25 25 25 25 25 25 25 25 25 25 25 25 25 25 25 25 25 25 25 25 25 25 25 25 25 25 25 25 25 25 25 25 25 t6 t6 '5 t6 25 25 25 E5 E5 E5 &8 &8 &8 K6 Z7 Z7 p*.$8 +8 .8 {*.qn K%.7H l% 3% 5m &) .8 p*.E5 25 25 25 25 25 25 25 25 25 25 25 25 25 25 25 25 25 t6 '5 '5 +5 +5 25 25 25 25 J6 J6 J6 J6 25 25 25 25 25 '5 '5 t6 25 25 25 25 25 25 25 25 25 25 U6 25 15 ;8 9. C3 C3 C3 n+ 3! mm X7 25 25 25 25 25 25 25 25 25 25 25 25 25 25 25 +7 J7 ,@./7 E~ <{ 5f Pi J7 YG 4B IB N> rn R- Q- Q- lh )H 3* 7& ^& P% u% 2% +% G$ <$ <$ <$ <$ <$ <$ <$ <$ <$ <$ S# (# E@ E@ !@ r+ ~+ -+ #+ 9. D  `. z  L< w_ 0: *< 9[ 0[ R! v| |=.PQ x#._^ _^ _^ _^ _^ _^ 7*.Z$.Z$.Z$.Z$.Z$.6&.~. ~. ~. ~. ~. ~. N+ G*.J*.J*.J*.J*.J*.J*.J*.J*.J*.J*.J*.J*.J*.J*.J*.J*.J*.:=.8{ bP bP bP bP _5 *=.1=.~. ~. ~. ~. ~. ~. ",
"(#.(#.(#.Y*.Z*.Z*.Z*.Z*.Z*.Z*.Z*.Z*.Z*.Z*.Z*.>#.(#.(#.(#.2=.Z*.Z*.Z*.Z*.Z*.'=.w} n_ n_ n_ n_ n_ n_ n_ n_ n_ n_ n_ n_ n_ n_ n_ n_ n_ n_ n_ n_ n_ n_ n_ n_ n_ n_ n_ m[ &< 8: *< 0: a: E~ z  A  `. F  9. n+ %+ U+ U+ D@ /# ~@ E@ (# S# <$ <$ <$ <$ <$ <$ <$ I$ $% |% s% M% S% `& 2* eD R- R- Q- Q- /H ~= N& A& (H WA gq R6 8m p$ k+ E~ ]! F~ kK 3=.4=.4=.4=.4=.4=.4=.4=.4=.4=.4=.]Z 5=.6=.7=.8=.+% W' =$ =$ L$ @w 9=.4=.4=.4=.4=.4=.4=.4=.4=.4=.4=.4=.4=.4=.4=.4=.4=.4=.4=.4=.4=.4=.4=.4=.4=.4=.4=.4=.4=.4=.4=.4=.4=.hF hF hF hF 4=.4=.4=.0=.6n 6n 6n 6n 6n a=.a=.a=.a=.a=.a=.a=.a=.a=.a=.a=.a=.6n 6n 6n 6n 6n 6n 0=.4=.4=.4=.4=.hF hF hF hF hF 4=.4=.4=.4=.4=.4=.4=.4=.4=.4=.4=.4=.hF 4=.0=.a=.oG b=.c=.d=.d=.d=.d=.d=.d=.e=.6=.6=.f=.g=.OL h=.i=.j=.j=.j=.4Y _H k=.g` l=.4=.4=.4=.4=.4=.4=.4=.4=.4=.4=.4=.4=.4=.4=.4=.4=.4=.4=.4=.4=.4=.4=.4=.4=.4=.4=.4=.4=.4=.4=.4=.4=.4=.4=.4=.4=.4=.4=.4=.4=.4=.4=.4=.4=.4=.4=.4=.4=.4=.4=.4=.4=.4=.4=.4=.4=.hF ]Z ]Z ]Z hF hF 4=.6n 6n 6n m=.m=.l=.l=.l=.0Z 0=.hF hF 4=.4=.4=.4=.4=.4=.4=.4=.4=.4=.4=.4=.4=.4=.4=.4=.4=.4=.4=.4=.4=.4=.4=.hF ]Z ]Z ]Z ]Z ]Z ]Z ]Z ]Z ]Z 4=.4=.4=.4=.4=.]Z n=.n=.n=.n=.n=.n=.n=.n=.]Z ]Z ]Z o=.=n 'z /% /% /% 'z Z  p=.hF n=.n=.n=.n=.n=.n=.n=.n=.n=.n=.n=.n=.n=.n=.n=.6n 9I Pa #! E~ <{ 5f z7 J7 YG 4B vG }= rn R- R- Q- lh ZG 2* 5& ^& O% Z% 1% +% G$ <$ <$ <$ <$ <$ <$ <$ <$ <$ <$ S# (# E@ E@ !@ r+ ~+ -+ #+ 9. D  `. z  L< w_ 0: *< 9[ 0[ R! v| q=.PQ l@._^ _^ _^ _^ _^ _^ _^ 13 Z$.Z$.Z$.Z$.;&.~. ~. ~. ~. ~. ~. ~. ~. w@ >#.J*.J*.J*.J*.J*.J*.J*.J*.J*.J*.J*.J*.J*.J*.J*.8{ bP bP bP bP r=.M*.s=.~. ~. ~. ~. ~. ~. ~. ",
"(#.(#.>#.Z*.Z*.Z*.Z*.Z*.Z*.Z*.Z*.Z*.Z*.Z*.Z*.U*.(#.(#.>#.Z*.Z*.Z*.Z*.Z*.Z*.Z*.Z*.Z*.<=.=$.w} D= n_ n_ n_ n_ n_ n_ T%.t=.t=.t=.t=.t=.t=.t=.=$.n_ n_ n_ n_ n_ n_ n_ m[ &< 8: *< 0: a: E~ z  A  `. F  9. n+ %+ U+ U+ D@ /# ~@ E@ (# S# <$ <$ <$ <$ <$ <$ <$ H$ 9% |% s% M% S% 9& 2* eD R- R- Q- Q- _} u=.t= @p vx -A gq R6 8m Pa Z. E~ ]! ^! v=.w=.x=.y=.y=.y=.y=.y=.y=.y=.y=.y=.z=.y=.A=.B=.C=.D=.E=.F=.F=.G=.H=.I=.I=.I=.I=.I=.I=.I=.I=.I=.I=.I=.I=.I=.I=.I=.I=.J=.K=.K=.K=.K=.K=.K=.K=.K=.K=.K=.K=.K=.K=.K=.K=.K=.K=.K=.K=.K=.K=.K=.L=.M=.N=.N=.N=.N=.N=.O=.O=.O=.O=.O=.O=.O=.O=.O=.O=.N=.N=.N=.N=.N=.N=.N=.                                                                                                                                                                                                                                                                                                                                                                                                                                                                                                                                                                                                                                    P=.i] E~ <{ 5f z7 J7 ,q WA WA N> rn R- R- Q- {G #- 2* 4& t& +y Z% 1%  % E$ <$ <$ <$ <$ <$ <$ <$ <$ <$ <$ S# (# E@ E@ !@ r+ ~+ -+ #+ 9. D  `. z  L< w_ 0: *< 9[ 0[ m[ v| q=.PQ *  _^ _^ _^ _^ _^ _^ _^ _^ 13 Z$.Z$.Z$.Z$.() ~. ~. ~. ~. ~. ~. ~. ~. ~. :=.(#.m/ J*.J*.J*.J*.J*.J*.J*.J*.J*.J*.J*.}^ bP bP bP bP bP Q=.R=.~. ~. ~. ~. ~. ~. ~. ~. ",
"(#.U*.Z*.Z*.Z*.Z*.Z*.Z*.Z*.Z*.Z*.Z*.Z*.Z*.Z*.(#.(#.U*.Z*.Z*.Z*.Z*.Z*.Z*.Z*.Z*.Z*.Z*.Z*.S=.T=.T=.T=.T=.T=.Z| U=.V=.W=.W=.W=.W=.V=.U=.U=.U=.U=.U=.U=.U=.U=.X=.Y=.Z=.v| &< 8: *< 0: a: E~ z  A  `. F  9. n+ %+ U+ U+ D@ /# ~@ E@ (# S# <$ <$ <$ <$ <$ <$ <$ H$ 9% |% s% ~* S% 9& 2* eD R- R- Q- Q- 5G != M& ]* vx -A gq R6 $g Pa Z. E~ ]! `=. -..-.                                                                                                                                                                                                                                                                                                                                                                                                                                                                                                                                                                                                                                                                                                                                                                                                                                                                                                +-.Ne E~ <{ 5f z7 qp ,q -A WA M> +p R- R- R- {G #- J* 4& {& N% s% k%  % E$ <$ <$ <$ <$ <$ <$ <$ <$ <$ <$ S# (# E@ E@ !@ r+ ~+ -+ #+ 9. D  `. z  L< w_ 0: *< 9[ 0[ v| v| q=.PQ *  _^ _^ _^ _^ _^ _^ _^ _^ _^ 7*.Z$.Z$.Z$.6&.~. ~. ~. ~. ~. ~. ~. ~. ~. ~. ~. ~. 1! >#.J*.J*.J*.J*.J*.J*.J*.J*.J*.j2 Dy bP bP bP bP M# 1=.~. ~. ~. ~. ~. ~. ~. ~. ",
">#.Z*.Z*.Z*.Z*.Z*.Z*.Z*.Z*.Z*.Z*.Z*.Z*.Z*.Z*.e$.2=.Z*.Z*.Z*.Z*.T=.@-.#-.T1 AR GQ $-.$-.$-.$-.$-.$-.$-.$-.$-.$-.$-.$-.$-.$-.$-.$-.$-.$-.$-.$-.$-.$-.$-.$-.$-.$-.$-.v| &< 8: *< 0: a: E~ z  A  `. F  9. n+ %+ U+ U+ D@ /# ~@ E@ (# S# <$ <$ <$ <$ <$ <$ <$ H$ 9% |% r% ~* ,& 9& J* eD R- R- Q- Q- 5G )= L& z& !G uz pA R6 $g Pa Z. E~ ]! %-.&-.*-.                                                                                                                                                                                                                                                                                                                                                                                                                                                                                                                                                                                                                                                                                                                                                                                                                                                                                                =-.sp E~ R{ 5f y*.qp ,q uz ,z <= :F R- R- R- --.@- 1* 3& {& N% s% |%  % E$ <$ <$ <$ <$ <$ <$ <$ <$ <$ <$ S# (# E@ E@ !@ r+ ~+ -+ #+ 9. D  `. z  L< w_ 0: *< 9[ 0[ v| v| q=.PQ *  ;-._^ _^ _^ _^ _^ _^ _^ _^ /*.Z$.Z$.Z$.;&.~. ~. ~. ~. ~. ~. ~. ~. ~. ~. ~. ~. ~. ~. w@ >-.>-.J*.J*.J*.J*.J*.J*.,-.PQ (1 %3 bP bP ~. ~. ~. ~. ~. ~. ~. ~. ~. ~. ",
"Z*.Z*.Z*.Z*.Z*.Z*.Z*.Z*.Z*.Z*.Z*.Z*.Z*.Z*.'-.T=.Z=.)-.AR !-.$-.$-.$-.$-.$-.$-.$-.$-.$-.$-.$-.$-.$-.$-.$-.$-.$-.$-.$-.$-.$-.$-.$-.$-.$-.$-.$-.$-.$-.$-.$-.$-.$-.$-.v| &< 8: *< 0: a: E~ z  A  `. F  9. n+ %+ U+ U+ D@ /# ~@ E@ (# S# <$ <$ <$ <$ <$ <$ <$ G$ @% |% r% Y, dv _& 1* eD R- R- R- R- (] <~ K& Z, !G Ey pA R6 $g Pa z  E~ ]! %-.&-.~-.                                                                                                                                                                                                                                                                                                                                                                                                                                                                                                                                                                                                                                                                                                                                                                                                                                                                                                {-.Rp E~ R{ b$ Pi )x qn uz ,z <= rn R- R- R- --.@- 1* 1& a& N% r% |%  % E$ <$ <$ <$ <$ <$ <$ <$ <$ <$ <$ S# (# E@ E@ !@ r+ ~+ -+ #+ 9. D  `. z  L< w_ 0: *< 9[ 0[ v| v| q=.PQ 1T *  M1  5 ]-.]-.^-._^ _^ _^ _^ Z$.Z$.Z$.F%.'$./-.N+ ~. ~. ~. ~. ~. ~. ~. ~. ~. s] T=.(-.PQ PQ ZO Z=.w} J*.J*.>I PQ PQ PQ PQ _-.bP :-.~. ~. ~. ~. ~. ~. ~. ~. <=.",
"Z*.Z*.Z*.Z*.Z*.Z*.S=.T=.T=.Z=.#-.<-.AR $-.$-.$-.$-.$-.$-.$-.[-.}-.WB WB .| fz fz .| WB |-.}-.1-.1-.1-.1-.1-.1-.1-.Y{ *  [-.2-.~=.*  $-.$-.$-.$-.$-.$-.$-.$-.$-.$-.v| &< 8: *< 0: a: E~ z  A  `. F  9. n+ %+ U+ U+ D@ /# ~@ E@ (# S# <$ <$ <$ <$ <$ <$ <$ G$ 9% |% ;& A% R% _& 1* eD R- R- R- R- (] '= K& y& dv Ey <p `k ]k .p <{ E~ ]! %-.&-.~-.                                                                                                                                                                                                                                                                                                                                                                                                                                                                                                                                                                                                                                                                                                                                                                                                                                                                                                {-.Rp E~ R{ 2g Pi {o <x uz Ey <= rn R- R- R- --.@- 3-.1& a& N% r% |%  % E$ <$ <$ <$ <$ <$ <$ <$ <$ <$ <$ S# (# E@ E@ !@ r+ ~+ -+ #+ 9. D  `. z  L< w_ 0: *< 9[ 0[ v| v| q=.PQ PQ PQ PQ PQ PQ PQ PQ PQ PQ 4-.j[ M1 5-.6-.6-.6-.6-.6-.6-.6-.6-.6-.7-.5-.8-.gX PQ PQ PQ PQ PQ PQ PQ PQ ,-.~#.9-.PQ PQ PQ PQ PQ PQ (-.bP 0-.[-.k@.[m ZO PQ PQ PQ PQ ",
"$-.$-.$-.$-.$-.$-.$-.$-.$-.$-.$-.$-.$-.$-.$-.%3 @3 wB L' q~ q~ q~ q~ q~ q~ q~ q~ q~ a-.-! 4$ 4$ 4$ 4$ 4$ 4$ 4$ 4$ 4$  < m# Y# Y# b-.H% $-.$-.$-.$-.$-.$-.$-.$-.$-.v| &< 8: *< 0: a: E~ z  A  `. F  9. n+ %+ U+ U+ D@ /# ~@ E@ (# S# <$ <$ <$ <$ <$ <$ <$ G$ 9% |% p% A% R% /& 1* Aj R- R- R- R- (] a= q* X& lF Ey <p Jq ]k 0) <{ E~ ]! %-.&-.~-.                                                                                                                                                                                                                                                                                                                                                                                                                                                                                                                                                                                                                                                                                                                                                                                                                                                                                                {-.Rp E~ E~ t4 {m {o <x ,z wx <= :F S- R- R- ]s pF 3-.1& !& @* r% |% .% D$ <$ <$ <$ <$ <$ <$ <$ <$ <$ <$ S# (# E@ E@ !@ r+ ~+ -+ #+ 9. D  `. z  L< w_ 0: *< 9[ 0[ v| v| q=.PQ PQ PQ PQ PQ PQ PQ PQ PQ PQ PQ PQ PQ PQ PQ PQ PQ PQ c-.PQ PQ PQ PQ PQ PQ PQ PQ PQ PQ PQ PQ PQ PQ PQ PQ PQ PQ PQ PQ PQ PQ PQ PQ PQ PQ ZO d-.PQ PQ PQ PQ PQ PQ PQ PQ ",
"$-.$-.$-.$-.$-.$-.$-.$-.$-.$-.$-.H% }-.)E !q q~ q~ q~ q~ q~ q~ q~ q~ q~ q~ q~ q~ ;# e-.4$ 4$ 4$ 4$ 4$ 4$ 4$ 4$ 4$ 4$ 4$ 4$ U< Y# Y# f-.$-.$-.$-.$-.$-.g-.h-.v' j3 i-.&< 8: *< 0: a: E~ z  A  `. F  9. n+ %+ U+ U+ D@ /# ~@ E@ (# S# <$ <$ <$ <$ <$ <$ <$ G$ @% |% p% A% R% ^& HF eD R- R- R- R- +F ,= j-.Y& lF wx <p Jq ]k ;8 <{ E~ ]! %-.&-.~-.                                                                                                                                                                                                                                                                                                                                                                                                                                                                                                                                                                                                                                                                                                                                                                                                                                                                                                {-.Rp E~ E~ 5f Jh {o @y Ey GE _F :F S- R- R- ]s pF }* w& !& @* ;& |% Y$ <$ <$ <$ <$ <$ <$ <$ <$ <$ <$ <$ S# (# E@ E@ !@ r+ ~+ -+ #+ 9. D  `. z  L< w_ 0: *< 9[ 0[ k-.k-.q=.PQ PQ PQ PQ PQ PQ PQ PQ PQ PQ PQ PQ PQ PQ PQ PQ PQ PQ PQ PQ PQ PQ PQ PQ PQ PQ PQ PQ PQ PQ PQ PQ PQ PQ PQ PQ PQ PQ PQ PQ PQ PQ PQ PQ PQ PQ PQ PQ PQ PQ PQ PQ PQ PQ PQ ",
"$-.$-.$-.$-.$-.$-.$-.H% }-.wB L' q~ q~ q~ q~ q~ q~ q~ q~ NH l-.l-.l-.l-.l-.l-.-! m-.m-.n-.4$ 4$ 4$ 4$ 4$ 4$ 4$ 4$ 4$ 4$ o-.Y# Y# Y# Y# p-.$-.$-.$-.$-.&4 &4 &4 &4 q-.&< 8: *< 0: a: E~ z  A  `. F  9. n+ %+ U+ U+ D@ /# ~@ E@ (# S# <$ <$ <$ <$ <$ <$ <$ G$  % |% p% A% R% ^& }* eD R- R- R- R- +F r-.$' Y& Q% 'x Yo J7 ]k ;8 <{ E~ ]! %-.&-.~-.                                                                                                                                                                                                                                                                                                                                                                                                                                                                                                                                                                                                                                                                                                                                                                                                                                                                                                {-.Rp E~ E~ 5f Jh {o @y wx ev _F :F S- R- R- ]s .- <* &' )& @* ;& |% Y$ <$ <$ <$ <$ <$ <$ <$ <$ <$ <$ <$ S# (# E@ E@ !@ r+ ~+ -+ #+ 9. D  `. z  L< w_ 0: *< 9[ 0[ k-.s-.q=.PQ PQ PQ PQ PQ PQ PQ PQ PQ PQ PQ PQ PQ PQ PQ PQ PQ PQ PQ PQ PQ PQ PQ PQ PQ PQ PQ PQ PQ PQ PQ PQ PQ PQ PQ PQ PQ PQ PQ PQ PQ PQ PQ PQ PQ PQ PQ PQ PQ PQ PQ PQ PQ PQ PQ ",
"$-.,-.[-.t-.WB .| !q q~ q~ q~ q~ q~ q~ q~ q~ q~ q~ q~ q~ u-.v-.v-.v-.v-.v-.v-.v-.v-.v-.v-.v-.u-.w-.x-.y-.z-.=~ A-.!2 N) Y# Y# Y# Y# Y# 2-.$-.$-.$-.$-.&4 &4 &4 &4 s-.M< 8: *< 0: a: E~ z  A  `. F  9. n+ %+ U+ U+ D@ /# ~@ E@ (# S# <$ <$ <$ <$ <$ <$ <$ F$  % |% p% *' Q% ^& }* eD R- S- R- R- +F r-.$' 6& JI GE Yo J7 ^j rs <{ E~ ]! %-.&-.~-.                                                                                                                                                                                                                                                                                                                                                                                                                                                                                                                                                                                                                                                                                                                                                                                                                                                                                                {-.Rp E~ E~ Gj Jh {o @y wx Vu _F :F S- R- R- ]s .- <* [& )& @* ;& |% Y$ <$ <$ <$ <$ <$ <$ <$ <$ <$ <$ <$ S# (# E@ E@ !@ r+ ~+ -+ #+ 9. D  `. z  L< w_ 0: *< 9[ 0[ [{ B-.q=.PQ PQ PQ PQ PQ PQ PQ PQ PQ PQ PQ PQ PQ PQ PQ PQ PQ PQ PQ PQ PQ PQ PQ PQ PQ PQ PQ PQ PQ PQ PQ PQ PQ PQ PQ PQ PQ PQ PQ PQ PQ PQ PQ PQ PQ PQ PQ PQ PQ PQ PQ PQ PQ PQ PQ ",
"q~ q~ q~ q~ q~ q~ q~ q~ q~ q~ q~ q~ q~ q~ q~ q~ q~ q~ q~ C-.l-.l-.C-.0' D-.D-.D-.D-.D-.D-.D-.D-.U7 U7 U7 U7 U7 !' Y# Y# Y# Y# Y# Y# Y# E-.$-.$-.$-.$-.*z &4 &4 *4 F-.M< 8: *< 0: a: E~ z  A  `. F  9. n+ %+ U+ U+ D@ /# ~@ E@ (# S# <$ <$ <$ <$ <$ <$ <$ F$  % |% p% *' Q% t& I* eD R- R- R- R- +F b= E& 3B FE GE Yo J7 ^j rs <{ E~ ]! %-.&-.~-.                                                                                                                                                                                                                                                                                                                                                                                                                                                                                                                                                                                                                                                                                                                                                                                                                                                                                                {-.6H E~ E~ b) k' {o @y wx Kn G-.'A S- S- R- ]s .- <* }& b& M% p% |% Y$ <$ <$ <$ <$ <$ <$ <$ <$ <$ <$ <$ S# (# E@ E@ !@ r+ ~+ -+ #+ 9. D  `. z  L< w_ 0: *< 9[ 0[ s-.H-.T3 j@ ZO PQ PQ PQ PQ PQ PQ PQ PQ PQ PQ PQ PQ PQ PQ PQ PQ PQ PQ PQ PQ PQ PQ PQ PQ PQ RP gX gX gX gX gX gX gX gX O| PQ PQ PQ PQ PQ PQ PQ PQ PQ PQ PQ PQ PQ PQ PQ I-..y <+ ",
"q~ q~ q~ q~ q~ q~ q~ q~ q~ q~ q~ q~ q~ q~ q~ q~ q~ q~ q~ q~ 1H J-.D-.D-.D-.D-.D-.D-.D-.D-.D-.TA U7 U7 U7 U7 U7 T< Y# Y# Y# Y# Y# Y# Y# K-.$-.$-.$-.$-.w#.j3 *4 &P L-.0[ 8: *< 0: a: E~ z  A  `. F  9. n+ %+ U+ U+ D@ /# ~@ E@ (# S# <$ <$ <$ <$ <$ <$ <$ F$  % j% p% y% P% {& [* Aj R- S- R- R- n- c= EH 4& FE GE qn J7 ^j rs <{ E~ ]! %-.&-.~-.                                                                                                                                                                                                                                                                                                                                                                                                                                                                                                                                                                                                                                                                                                                                                                                                                                                                                                M-.6H E~ E~ b) k' Sn !v jE *t K> 'A S- R- R- ]s .- <* [& b& M% o% [% Y$ <$ <$ <$ <$ <$ <$ <$ <$ <$ <$ <$ S# (# E@ E@ !@ r+ ~+ -+ #+ 9. D  `. z  L< w_ 0: *< 9[ 0[ N-.O-.jx e[ e[ e[ /m pl ,x v+.I-.d-.PQ PQ PQ PQ PQ PQ PQ PQ PQ PQ PQ PQ PQ PQ ~o 8r ii >4 PC PC PC PC PC PC PC PC PC z` P-.P-.P-.P-.m1 PQ PQ PQ PQ PQ PQ PQ PQ :Z <+ z+ z+ z+ ",
"q~ q~ q~ q~ q~ q~ q~ q~ q~ q~ q~ q~ q~ q~ q~ q~ q~ q~ 1H J-.D-.D-.D-.D-.D-.D-.D-.D-.D-.D-.D-.CH U7 U7 U7 U7 U7 T< Y# Y# Y# Y# Y# Y# Y# Y# $-.$-.$-.$-.$-.w#.j3 &4 Q-.v| 8: *< 0: a: E~ z  A  `. F  9. n+ %+ U+ U+ D@ /# ~@ E@ (# S# <$ <$ <$ <$ <$ <$ <$ F$ .% j% o% z% P% {& <* eD R- S- R- R- (} ;= D& 3& jJ Vu <x J7 Pi 5f <{ E~ ]! %-.&-.~-.                                                                                                                                                                                                                                                                                                                                                                                                                                                                                                                                                                                                                                                                                                                                                                                                                                                                                                M-.6H E~ E~ b) k' =n  8 ev *t K> 'A S- S- S- ]s v- H* _& ,& Y, o% <% -% <$ <$ <$ <$ <$ <$ <$ <$ <$ <$ <$ S# (# E@ E@ !@ r+ ~+ -+ #+ 9. D  `. z  L< w_ 0: *< 9[ 0[ R-.O-.S-.kg e[ e[ e[ e[ e[ e[ e[ e[ ;4 kg |` |` L1 7@.7@.7@.-W {..{..PY ox np T-.4J U-.U-.U-.U-.U-.U-.U-.U-.U-.U-.U-.U-.U-.U-.U-.U-.U-.6y PQ PQ PQ PQ PQ :Z yy z+ z+ z+ z+ z+ ",
"q~ q~ q~ q~ q~ q~ q~ q~ q~ q~ q~ q~ q~ q~ q~ q~ iH J-.D-.D-.D-.D-.D-.D-.D-.D-.D-.D-.D-.D-.TA U7 U7 U7 U7 U7 U7 !' Y# Y# Y# Y# Y# Y# Y# Y# p-.$-.$-.$-.$-.$-.$-.k@.V-.k-.8: *< 0: a: E~ z  A  `. F  9. n+ %+ U+ U+ D@ /# ~@ E@ (# S# <$ <$ <$ <$ <$ <$ <$ F$ .% j% o% z% i, k, <* eD R- S- S- R- (} ;= U& 2& !E _D <x )x Pi 5f <{ E~ ]! %-.&-.~-.                                                                                                                                                                                                                                                                                                                                                                                                                                                                                                                                                                                                                                                                                                                                                                                                                                                                                                M-.6H E~ E~ Xa k' =n  8 ev gq K> 'A S- S- R- ]s W-.:* _& ,& Y, o% <% -% <$ <$ <$ <$ <$ <$ <$ <$ <$ <$ <$ S# (# E@ E@ !@ r+ ~+ -+ #+ 9. D  `. z  L< w_ 0: *< 9[ 0[ C) X-.1Q YS 46 33 e[ e[ e[ l# %7 Hm Hm Hm Hm Hm Hm Hm Hm Hm Hm Hm Hm Hm Hm EB T-.Y-.U-.U-.U-.U-.U-.U-.U-.U-.U-.U-.U-.U-.U-.U-.U-.U-.U-.2Y C= *. p@ p@ *. ZB z+ z+ z+ z+ z+ z+ ",
"q~ q~ q~ q~ q~ q~ q~ q~ q~ q~ q~ q~ q~ q~ q~ 0' D-.D-.D-.D-.D-.D-.D-.D-.D-.D-.D-.D-.D-.D-.sG U7 U7 U7 U7 U7 U7 !' Y# Y# Y# Y# Y# Y# Y# Y# =2 $-.$-.$-.$-.$-.$-.$-.Z-.s-.8: *< 0: a: E~ z  A  `. F  9. n+ %+ U+ U+ D@ /# ~@ E@ (# S# <$ <$ <$ <$ <$ <$ <$ E$ .% j% 7% z% i, !& `-.eD R- S- S- R- (} d= C& JJ !E _D <x {o z7 t4 <{ E~ ]! %-.&-.~-.                                                                                                                                                                                                                                                                                                                                                                                                                                                                                                                                                                                                                                                                                                                                                                                                                                                                                                M-.6H E~ E~ X@ nh =n  8 ev gq K> 'A S- S- R- 6j w- :* (& S% A% o% <% X$ <$ <$ <$ <$ <$ <$ <$ <$ <$ <$ <$ S# (# E@ E@ !@ r+ ~+ -+ #+ 9. D  `. z  L< w_ 0: *< 9[ 0[ C)  ;..;.YS YS Hm US S< Hm Hm Hm Hm Hm Hm Hm Hm Hm Hm Hm Hm Hm Hm Hm Hm Hm }! T-.+;.U-.U-.U-.U-.U-.U-.U-.U-.U-.U-.U-.U-.U-.U-.U-.U-.U-.$Z @;.@;.*. p@ p@ p@ *. ZB z+ z+ z+ z+ ",
"q~ q~ q~ q~ q~ q~ iH q~ q~ q~ q~ q~ q~ 1H D-.D-.D-.D-.D-.D-.D-.D-.D-.D-.D-.D-.D-.D-.D-.CH U7 U7 U7 U7 U7 U7 U7 !' Y# Y# Y# Y# Y# Y# Y# Y# 5-.$-.$-.$-.$-.$-.$-.$-.gp B-.8: *< 0: a: E~ z  A  `. F  9. n+ %+ U+ U+ D@ /# ~@ E@ (# S# <$ <$ <$ <$ <$ <$ <$ E$ Z$ [% 7% z% +y !& <* eD R- S- S- R- (} }V B& w& DD _D %8 {o z7 b) <{ E~ ]! %-.&-.~-.                                                                                                                                                                                                                                                                                                                                                                                                                                                                                                                                                                                                                                                                                                                                                                                                                                                                                                M-.6H E~ E~ A7 p$ =n  8 Vu gq #;.'A S- S- S- ]s w- F* /& T% A% 7% <% X$ <$ <$ <$ <$ <$ <$ <$ <$ <$ <$ <$ S# (# E@ E@ !@ r+ ~+ -+ #+ 9. D  `. z  L< w_ 0: *< 9[ 0[ C) $;..;.YS %;.&;.T-.T-.T-.}! Hm Hm Hm Hm Hm Hm Hm Hm Hm Hm Hm Hm Hm uU 'i T-.T-.U-.U-.U-.U-.U-.%Z %Z %Z %Z %Z %Z %Z %t U-.U-.U-.U-.U-.Gq @;.@;.p@ p@ p@ p@ p@ p@ *. z+ z+ z+ ",
"q~ q~ q~ q~ q~ D-.D-.n] q~ q~ q~ q~ 0' D-.D-.D-.D-.D-.D-.D-.D-.D-.D-.D-.D-.D-.D-.D-.%C U7 U7 U7 U7 U7 U7 U7 U7 !' Y# Y# Y# Y# Y# Y# Y# Y# 7-.$-.$-.$-.$-.$-.$-.$-.gp Q-.s_ *< 0: a: E~ z  A  `. F  9. n+ %+ U+ U+ D@ /# ~@ E@ (# S# <$ <$ <$ <$ <$ <$ <$ E$ Y$ <% 7% f& N% )& H* eD R- S- R- R- nd -= A& v& fD ED %8 {o z7 Xa <{ E~ ]! %-.&-.~-.                                                                                                                                                                                                                                                                                                                                                                                                                                                                                                                                                                                                                                                                                                                                                                                                                                                                                                M-.wt E~ E~ 5c p$ =n  8 _D <p 5| 'A S- S- S- ]s w- R& ^& T% y% 7% <% X$ <$ <$ <$ <$ <$ <$ <$ <$ <$ <$ <$ S# (# E@ E@ !@ r+ ~+ -+ #+ 9. D  `. z  L< w_ 0: *< 9[ 0[ C) HJ dD YS *;.%;.=;.-;.T-.T-.;;.>;.Hm Hm Hm Hm Hm Hm Hm  | >;.,;.T-.T-.T-.T-.T-.}Z ';..n @;.@;.@;.@;.@;.@;.@;.@;.@;.@;.@;.@;.@;.@;.@;.@;.0 .C= p@ p@ p@ p@ p@ p@ p@ *. z+ z+ ",
"q~ q~ q~ q~ J-.D-.D-.D-.J-.iH iH J-.D-.D-.D-.D-.D-.D-.D-.D-.D-.D-.D-.D-.D-.D-.D-.+3 U7 U7 U7 U7 U7 U7 U7 U7 U7 !' Y# Y# Y# Y# Y# Y# Y# Y# );.$-.!;.~;.$-.$-.$-.$-.gp V-.{;.*< 0: a: E~ z  A  `. F  9. n+ %+ U+ U+ D@ /# ~@ E@ (# S# <$ <$ <$ <$ <$ <$ <$ D$ -% <% 7% v% N% )& F* eD R- S- S- S- nd -= W& v& fD @s %8 {o z7 X@ <{ E~ ]! %-.&-.~-.                                                                                                                                                                                                                                                                                                                                                                                                                                                                                                                                                                                                                                                                                                                                                                                                                                                                                                M-.wt E~ E~ 5c p$ Lm .7 _D <p 5| 'A S- S- S- ]s `= R& ^& c& y% 7% <% ;% <$ <$ <$ <$ <$ <$ <$ <$ <$ <$ <$ S# (# E@ E@ !@ r+ ~+ -+ #+ 9. D  `. z  L< w_ 0: *< 9[ 0[ R-.$r ];.YS ~q %;.%;.^;./;.T-.T-.T-.T-.Si uU Hm Hm Hm }! T-.T-.T-.T-.T-.T-.T-.,;.@;.@;.@;.@;.@;.@;.@;.@;.@;.@;.@;.@;.@;.@;.@;.@;.@;.@;.0 .*. p@ p@ p@ p@ p@ p@ p@ p@ p@ -* z+ ",
"q~ q~ 8' D-.D-.D-.D-.D-.D-.D-.D-.D-.D-.D-.D-.D-.D-.D-.D-.D-.D-.D-.D-.D-.D-.D-.D-.U7 U7 U7 U7 U7 U7 U7 U7 U7 U7 7' Y# Y# Y# Y# Y# Y# Y# Y# {2 $-.$-.(;._;.:;.:;.:;.gp <;.F-.*< 0: a: E~ z  A  `. F  9. n+ %+ U+ U+ D@ /# ~@ E@ (# S# <$ <$ <$ <$ <$ <$ <$ D$ -% <% 7% u% h, U% F* eD R- S- S- S- <- == z& [& fD @s !v Rn z7 A7 <{ E~ ]! %-.&-.~-.                                                                                                                                                                                                                                                                                                                                                                                                                                                                                                                                                                                                                                                                                                                                                                                                                                                                                                M-.wt E~ E~ k+ p$ 8m .7 *t ,q 5| As S- S- S- ]s [;.Q& t& c& };.m% i% ;% &$ <$ <$ <$ <$ <$ <$ <$ <$ <$ <$ S# (# E@ E@ !@ r+ ~+ -+ #+ 9. D  `. z  L< w_ 0: *< 9[ 0[ R-.$r ];.YS sB |;.%;.%;.%;.1;.T-.T-.T-.T-.T-.T-.2;.;;.T-.T-.T-.3;.4;.5;.6;.7;.%7 p@ *. C= *..nC 0 .@;.@;.@;.@;.@;.@;.@;.@;.@;.@;.@;.K .*. p@ p@ p@ p@ p@ p@ p@ p@ p@ p@ /+ z+ ",
"D-.D-.D-.D-.D-.D-.D-.fJ fz %C -6 sG sG U7 U7 U7 U7 sG -6 %C fJ D-.D-.D-.D-.D-.CH U7 U7 U7 U7 U7 U7 U7 U7 U7 U7 ,8 Y# Y# Y# Y# Y# Y# Y# Y# {2 $-.$-.8;.p-.k#.W#.W#.$r <;.9;.8: 0: a: E~ z  A  `. F  9. n+ %+ U+ U+ D@ /# ~@ E@ (# S# <$ <$ <$ <$ <$ <$ <$ <$ X$ <% 7% v% @* U% F* Aj R- S- S- S- <- *= s* [& SC gq !v Rn {m A7 <{ E~ ]! %-.&-.~-.                                                                                                                                                                                                                                                                                                                                                                                                                                                                                                                                                                                                                                                                                                                                                                                                                                                                                                M-.wt E~ E~ Z. p$ 8m R6 ED ,q 5| As S- S- S- ]s {, P& {& c& };.m% :% I$ &$ <$ <$ <$ <$ <$ <$ <$ <$ <$ <$ S# (# E@ E@ !@ r+ ~+ -+ #+ 9. D  `. z  L< w_ 0: *< 9[ 0[ N-.$r 0;.C= C= CT a;.%;.%;.4;.T-.T-.T-.T-.T-.T-.T-.T-.T-.b;.c;.%;.%;.a;.s. p@ p@ p@ p@ p@ p@ p@ p@ p@ C= -* K .@;.@;.@;.@;.@;.@;.nC p@ p@ p@ p@ p@ p@ p@ p@ p@ p@ p@ p@ z+ z+ ",
"D-.fJ +3 %C sG U7 U7 U7 U7 U7 U7 U7 U7 U7 U7 U7 U7 U7 U7 U7 U7 U7 .| fJ D-.D-.U7 U7 U7 U7 U7 U7 U7 U7 U7 U7 U7 ,8 Y# Y# Y# Y# Y# Y# Y# Y# {2 $-.$-.d;.p-.^#.W#.W#.$r <;.O-.m[ 0: a: E~ z  A  `. F  9. n+ %+ U+ U+ D@ /# ~@ E@ (# S# <$ <$ <$ <$ <$ <$ <$ <$ X$ <% 7% u% @* ,& F* Aj R- S- S- S- <- z, y& 9& SC gq  8 Sn {m X@ <{ E~ ]! %-.&-.~-.                                                                                                                                                                                                                                                                                                                                                                                                                                                                                                                                                                                                                                                                                                                                                                                                                                                                                                M-.wt E~ E~ Z. Pa 8m R6 @s qn 5| As S- S- S- ]s {, O& {& R% z% m% :% I$ &$ <$ <$ <$ <$ <$ <$ <$ <$ <$ <$ S# (# E@ E@ !@ r+ ~+ -+ #+ 9. D  `. z  L< w_ 0: *< 9[ 0[ R-.$r S-.p@ p0 l} ZB %;.%;.+D T-.T-.T-.T-.T-.T-.T-.e;.f;.%;.%;.g;.s. p@ p@ p@ p@ p@ p@ p@ =. 1# 1# Q7 p@ p@ p@ p@ C= *..<C 0 .*..p@ p@ p@ p@ p@ p@ p@ p@ p@ p@ p@ p@ ZB z+ z+ ",
"U7 U7 U7 U7 U7 U7 U7 U7 U7 U7 U7 U7 U7 U7 U7 U7 U7 U7 U7 U7 U7 U7 U7 U7 TA TA U7 U7 U7 U7 U7 U7 U7 U7 U7 U7 U7 Lh Y# Y# Y# Y# Y# Y# Y# Y# {2 $-.$-.$-.Yi p-.h;.W#.$r <;.i;.{;.0: a: E~ z  A  `. F  9. n+ %+ U+ U+ D@ /# ~@ E@ (# S# <$ <$ <$ <$ <$ <$ <$ <$ X$ <% 3% t% M% ,& j;.Aj R- S- S- S- <- z, X& _& sC gq =' =n {m A7 <{ E~ ]! %-.&-.~-.                                                                                                                                                                                                                                                                                                                                                                                                                                                                                                                                                                                                                                                                                                                                                                                                                                                                                                M-.wt E~ E~ Z. Pa 8m R6 @s $I 6= As S- S- S- ]s X= O& a& R% z% 3% &% ;% &$ <$ <$ <$ <$ <$ <$ <$ <$ <$ <$ S# (# E@ E@ !@ r+ ~+ -+ #+ 9. D  `. z  L< w_ 0: *< 9[ 0[ N-.$r ^p l} l} l} l} D+ %;.c;.T-.T-.T-.T-.T-.-;.k;.%;.%;._m 3T p@ p@ p@ p@ p@ p@ p@ p@ p0 l} l} l} l} l} Q7 p@ p@ p@ p@ p@ p@ p@ p@ p@ p@ p@ p@ p@ p@ p@ p@ p@ p@ C= z+ z+ z+ ",
"U7 U7 U7 U7 U7 U7 U7 U7 U7 U7 U7 U7 U7 U7 U7 U7 U7 U7 U7 U7 U7 U7 U7 U7 CH TA CH -6 U7 U7 U7 U7 U7 U7 U7 U7 U7 CH Y# Y# Y# Y# Y# Y# Y# Y# 7-.$-.$-.$-.5# p-.l;.m;.$r <;.$r B) 0: a: E~ z  A  `. F  9. n+ %+ U+ U+ D@ /# ~@ E@ (# S# <$ <$ <$ <$ <$ <$ <$ <$ ;% <% 2% s% M% S% -L Aj R- S- S- S- <- e= Y& (& IB pA =' =n {m A7 <{ E~ ]! %-.&-.~-.                                                                                                                                                                                                                                                                                                                                                                                                                                                                                                                                                                                                                                                                                                                                                                                                                                                                                                M-.>u E~ E~ <{ 0) 8m R6 gq %8 KB As S- S- S- ]s X= N& a& P% f& 3% &% ;% <$ <$ <$ <$ <$ <$ <$ <$ <$ <$ <$ S# (# E@ E@ !@ r+ ~+ -+ #+ 9. D  `. z  L< w_ 0: *< 9[ 0[ N-.$r ^p l} l} l} l} l} )I %;.e;.T-.T-.e;.k;.^;.%;.6;.3T p@ p@ p@ p@ p@ p@ p@ p@ p@ p0 l} l} l} l} l} l} l} l} =. p@ p@ p@ p@ p@ p@ p@ p@ p@ p@ p@ p@ p@ p@ p@ p@ z+ z+ z+ z+ ",
"U7 U7 U7 U7 U7 U7 U7 U7 U7 U7 U7 U7 U7 U7 U7 U7 U7 U7 U7 U7 U7 U7 U7 U7 U7 4C D-.D-.-6 U7 U7 U7 U7 U7 U7 U7 U7 CH Y# Y# Y# Y# Y# Y# Y# Y# 7-.$-.$-.$-.!-.p-.p-.n;.$r <;.$r o;.d) a: E~ z  A  `. F  9. n+ %+ U+ U+ D@ /# ~@ E@ (# S# <$ <$ <$ <$ <$ <$ <$ <$ ;% <% 2% s% M% T% Q& HB R- S- S- S- =A e= 7& ^& IB pA .7 =n Jh 5c R{ E~ ]! %-.&-.~-.                                                                                                                                                                                                                                                                                                                                                                                                                                                                                                                                                                                                                                                                                                                                                                                                                                                                                                p;.>u E~ E~ X. 0) 8m `k gq !v 4~ As S- S- S- ]s W= N& a& P% v% 2% &% ;% <$ <$ <$ <$ <$ <$ <$ <$ <$ <$ <$ S# (# E@ E@ !@ r+ ~+ -+ #+ 9. D  `. z  L< w_ 0: *< 9[ 0[ N-.$r ^p l} l} l} l} l} l} &;.%;.%;.%;.%;.%;.%;.q;.p@ p@ p@ p@ p@ p@ p@ p@ p@ O7 l} l} l} l} l} l} l} l} l} l} l} p0 =. p@ p@ p@ p@ p@ p@ p@ p@ p@ p@ p@ p@ p@ I# z+ z+ z+ z+ ",
"U7 U7 U7 U7 U7 U7 U7 U7 U7 U7 U7 U7 U7 U7 U7 U7 U7 U7 U7 U7 U7 U7 U7 U7 U7 -6 D-.D-.fz U7 U7 U7 U7 U7 U7 pG r;.CH Y# Y# Y# Y# Y# Y# Y# Y# 5-.$-.$-.$-.$-.p-.p-.n;.s;.<;.$r 9;.t_ a: E~ z  A  `. F  9. n+ %+ U+ U+ D@ /# ~@ E@ (# S# <$ <$ <$ <$ <$ <$ <$ <$ ;% <% 2% s% A% c& Q& HB R- S- S- S- =A 2B 6& t& 4B <p .7 =n Jh q2 E~ E~ ]! %-.&-.~-.                                                                                                                                                                                                                                                                                                                                                                                                                                                                                                                                                                                                                                                                                                                                                                                                                                                                                                p;.>u E~ E~ <{ 0) $g Jq gq %8 4~ As S- S- S- ]s W= N& !& P% v% 2% &% I$ <$ <$ <$ <$ <$ <$ <$ <$ <$ <$ <$ S# (# E@ E@ !@ r+ ~+ -+ #+ 9. D  `. z  L< w_ 0: *< 9[ 0[ N-.$r ^p l} l} l} l} l} l} p0 |..%;.%;.%;.%;.t;.p@ p@ p@ p@ p@ p@ p@ p@ =. p0 l} l} l} l} l} l} l} l} l} l} l} l} l} l} 1# p@ p@ p@ p@ p@ p@ p@ p@ p@ p@ p@ p@ z+ z+ z+ z+ z+ ",
"q. -6 U7 U7 U7 U7 U7 U7 U7 U7 U7 U7 U7 U7 U7 U7 U7 U7 U7 U7 U7 U7 U7 U7 U7 U7 CH D-.fJ U7 U7 U7 U7 hH r;.r;.r;.lA Y# Y# Y# Y# Y# Y# Y# Y# =2 $-.$-.$-.$-.u;.+g n;.nJ <;.$r O-.U( a: E~ z  A  `. F  9. n+ %+ U+ U+ D@ /# ~@ E@ (# S# <$ <$ <$ <$ <$ <$ <$ <$ ;% <% 2% r% A% R% Q& Aj R- S- S- S- =A oA 5& t& 4B <p .7 =n Jh k+ E~ E~ ]! %-.&-.~-.                                                                                                                                                                                                                                                                                                                                                                                                                                                                                                                                                                                                                                                                                                                                                                                                                                                                                                p;.>u E~ E~ L2 0) $g Jq pA .7 4~ As S- S- S- 6j v;.^V b& P% u% 2% &% H$ <$ <$ <$ <$ <$ <$ <$ <$ <$ <$ <$ S# (# E@ E@ !@ r+ ~+ -+ #+ 9. D  `. z  L< w_ 0: *< 9[ 0[ N-.$r ^p l} l} l} l} l} l} l} /+ w;.%;.%;.To p@ =. =. p@ p@ p@ p@ p@ =. l} l} l} l} l} l} l} l} l} l} l} l} l} l} l} l} l} p0 p@ p@ p@ p@ p@ p@ p@ p@ p@ p@ I# z+ z+ z+ z+ z+ ",
"=} =} b% U7 U7 U7 U7 U7 U7 U7 U7 U7 U7 U7 U7 U7 U7 U7 U7 U7 U7 U7 U7 U7 U7 U7 U7 -6 +3 U7 U7 U7 pG r;.r;.r;.r;.x;.Y# Y# Y# Y# Y# Y# Y# Y# [-.$-.$-.$-.$-.u;.y;.n;.nJ <;.$r O-.C) a: E~ z  A  `. F  9. n+ %+ U+ U+ D@ /# ~@ E@ (# S# <$ <$ <$ <$ <$ <$ <$ <$ H$ :% 2% r% A% R% VA ml R- S- S- S- =A oA 4& t& 4I <p R6 Lm Jh k+ E~ E~ ]! %-.&-.~-.                                                                                                                                                                                                                                                                                                                                                                                                                                                                                                                                                                                                                                                                                                                                                                                                                                                                                                p;.>u E~ E~ E~ ;8 ]k J7 pA =' KB As S- R- S- ]s z;.M& U% P% u% l% $% H$ <$ <$ <$ <$ <$ <$ <$ <$ <$ <$ <$ S# (# E@ E@ !@ r+ ~+ -+ #+ 9. D  `. z  L< w_ 0: *< 9[ 0[ N-.$r ^p l} l} l} l} l} l} l} l} s .%;.w;.1# l} l} l} l} p0 p@ p@ p@ l} l} l} l} l} l} l} l} l} l} l} l} l} l} l} l} l} l} l} l} p@ p@ p@ p@ p@ p@ p@ p@ *. z+ z+ z+ z+ z+ z+ ",
"=} =} =} =} -6 U7 U7 U7 U7 U7 U7 U7 U7 U7 U7 U7 U7 U7 U7 U7 U7 U7 U7 U7 U7 U7 U7 U7 U7 U7 Q| UG r;.r;.r;.r;.r;.r;.Y# Y# Y# Y# Y# Y# Y# Y# [-.$-.$-.$-.$-.b< n;.n;.nJ <;.$r A;.B;.0: E~ z  A  `. F  9. n+ %+ U+ U+ D@ /# ~@ E@ (# S# <$ <$ <$ <$ <$ <$ <$ <$ H$ &% 2% r% A% R% O& ml R- S- S- R- =A oA 2& ~& WA YG R6 8m Jh Z. E~ E~ ]! %-.&-.~-.                                                                                                                                                                                                                                                                                                                                                                                                                                                                                                                                                                                                                                                                                                                                                                                                                                                                                                p;.>u E~ E~ E~ 5f ]k J7 pA .7 4~ As S- S- R- ]s v;.u= U% N% t% l% $% G$ <$ <$ <$ <$ <$ <$ <$ <$ <$ <$ <$ S# (# E@ E@ !@ r+ ~+ -+ #+ 9. D  `. z  L< w_ 0: *< 9[ 0[ N-.$r ^p l} l} l} l} l} l} l} l} l} D+ s .l} l} l} l} l} l} 1# p@ 1# l} l} l} l} l} l} l} l} l} l} l} l} l} l} l} l} l} l} l} l} 1# p@ p@ p@ p@ p@ p@ p@ -* z+ z+ z+ z+ z+ z+ ",
"=} =} =} =} =} s; U7 U7 U7 U7 U7 U7 U7 U7 U7 U7 U7 U7 U7 U7 U7 U7 U7 U7 U7 U7 U7 U7 U7 lA r;.r;.r;.r;.r;.r;.r;.r;.%  Y# Y# Y# Y# Y# Y# Y# [-.$-.$-.$-.$-.j2 n;.n;.nJ <;.$r A;.C;.}) E~ z  A  `. F  9. n+ %+ U+ U+ D@ /# ~@ E@ (# S# <$ <$ <$ <$ <$ <$ <$ &$ H$ &% 2% s% A% R% O& Aj R- S- R- R- =A D;.1& a& uz Yo `k 8m Jh Z. E~ E~ ]! %-.&-.~-.                                                                                                                                                                                                                                                                                                                                                                                                                                                                                                                                                                                                                                                                                                                                                                                                                                                                                                p;.Ne E~ E~ E~ 5f ]k J7 <p R6 4~ As S- S- R- ]s v;.m, S% N% t% l% $% G$ <$ <$ <$ <$ <$ <$ <$ <$ <$ <$ <$ S# (# E@ E@ !@ r+ ~+ -+ #+ 9. D  `. z  L< w_ 0: *< 9[ 0[ N-.$r ^p l} l} l} l} l} l} l} l} l} l} l} l} l} l} l} l} l} l} 1# l} l} l} l} l} l} l} l} l} l} l} l} l} l} l} l} l} l} l} l} l} l} =. p@ p@ p@ p@ *. -* z+ z+ z+ z+ z+ z+ z+ ",
"=} =} =} =} =} =} -6 U7 U7 U7 U7 U7 U7 U7 U7 U7 U7 U7 U7 U7 U7 U7 U7 U7 U7 U7 U7 U7 |@ r;.r;.r;.r;.r;.r;.r;.r;.r;.b-.Y# Y# Y# Y# Y# Y# Y# $-.$-.$-.$-.$-.n;.n;.n;.E;.<;.$r A;.F;.G;.E~ z  A  `. F  9. n+ %+ U+ U+ D@ /# ~@ E@ (# S# <$ <$ <$ <$ <$ <$ <$ &$ H$ &% k% q% A% R% O& Aj R- S- R- R- o- tz w& a& uz qn Jq 8m Jh Z. E~ E~ ]! %-.&-.~-.                                                                                                                                                                                                                                                                                                                                                                                                                                                                                                                                                                                                                                                                                                                                                                                                                                                                                                p;.Ne E~ E~ E~ 5f ^j )x <p $* 9y As R- S- S- ]s z;.K& S% N% s% l% *% G$ <$ <$ <$ <$ <$ <$ <$ <$ <$ <$ <$ S# (# E@ E@ !@ r+ ~+ -+ #+ 9. D  `. z  L< w_ 0: *< 9[ 0[ N-.H;.^p l} l} l} l} l} l} l} l} l} l} l} l} l} l} l} l} l} l} l} l} l} l} l} l} l} l} l} l} l} l} l} l} l} l} l} l} l} l} l} l} l} p0 p@ p@ p@ p@ /+ z+ z+ z+ z+ z+ z+ z+ z+ ",
"=} =} =} =} =} =} =} U7 U7 U7 U7 U7 U7 U7 U7 U7 U7 U7 U7 U7 U7 U7 U7 U7 U7 U7 Q| x;.r;.r;.r;.r;.r;.r;.r;.r;.r;.r;.b-.Y# Y# Y# Y# Y# Y# Y# $-.$-.$-.$-.H% n;.n;.n;.E;.<;.$r A;.I;.B;.w_ z  A  `. F  9. n+ %+ U+ U+ D@ /# ~@ E@ (# S# <$ <$ <$ <$ <$ <$ <$ <$ H$ %% k% p% y% P% ^V Aj R- S- R- R- :- tz v& )& ,z <x J7 8m k' X. E~ E~ ]! %-.&-.~-.                                                                                                                                                                                                                                                                                                                                                                                                                                                                                                                                                                                                                                                                                                                                                                                                                                                                                                p;.Ne E~ E~ _) t4 ^j )x Yo J7 &y As S- S- S- ]s W= S& c& N% s% |% *% F$ <$ <$ <$ <$ <$ <$ <$ <$ <$ <$ <$ S# (# E@ E@ !@ r+ ~+ -+ #+ 9. D  `. z  L< w_ 0: *< 9[ 0[ N-.H;.^p l} l} l} l} l} l} l} l} l} l} l} l} l} l} l} l} l} l} l} l} l} l} l} l} l} l} l} l} l} l} l} l} l} l} l} l} l} l} l} l} l} l} p0 p@ p@ p@ *. z+ z+ z+ z+ z+ z+ z+ z+ ",
"=} =} =} =} =} =} =} %* U7 U7 U7 U7 U7 U7 U7 U7 U7 U7 U7 U7 U7 U7 U7 U7 U7 U7 r;.r;.r;.r;.r;.r;.r;.r;.r;.r;.r;.r;.x. Y# Y# Y# Y# Y# Y# Y# $-.$-.$-.$-.P( n;.n;.n;.E;.<;.$r A;.I;.J;.|) z  A  `. F  9. n+ %+ U+ U+ D@ /# ~@ E@ (# S# <$ <$ <$ <$ <$ <$ <$ <$ G$ $% |% o% z% P% ^V Aj R- S- S- S- :- f= |& b& wx <x J7 $g p$ X. E~ E~ ]! %-.&-.~-.                                                                                                                                                                                                                                                                                                                                                                                                                                                                                                                                                                                                                                                                                                                                                                                                                                                                                                p;.Ne E~ E~ _) od ^j )x Yo ]i &y As S- S- S- ]s W= q* R% h, s% |% *% G$ <$ <$ <$ <$ <$ <$ <$ <$ <$ <$ <$ S# (# E@ E@ !@ r+ ~+ -+ #+ 9. D  `. z  L< w_ 0: *< 9[ 0[ N-.H;.^p l} l} l} l} l} l} l} l} l} l} l} l} l} l} l} l} l} l} l} l} l} l} l} l} l} l} l} l} l} l} l} l} l} l} l} l} l} l} l} l} l} l} l} l} =. p@ p@ ,' z+ z+ z+ z+ z+ z+ z+ ",
"=} =} =} =} =} =} =} q. U7 U7 U7 U7 U7 U7 U7 U7 U7 U7 U7 U7 U7 U7 U7 U7 U7 U7 UG r;.r;.r;.r;.r;.r;.r;.r;.r;.r;.r;.UA %  Y# Y# Y# Y# Y# K;.$-.$-.$-.$-.L;.n;.n;.M;.nJ <;.$r A;.I;.J;.T: z  A  `. F  9. n+ %+ U+ U+ D@ /# ~@ E@ (# S# <$ <$ <$ <$ <$ <$ <$ <$ G$ 9% |% o% z% P% M& Aj R- S- S- S- :- f= [& b& wx @y J7 $g p$ <{ E~ E~ ]! %-.&-.~-.                                                                                                                                                                                                                                                                                                                                                                                                                                                                                                                                                                                                                                                                                                                                                                                                                                                                                                p;.Ne E~ E~ E~ Xa Pi {o <x {o &y N;.R- S- S- ]s W= I& R% M% r% |% +% G$ <$ <$ <$ <$ <$ <$ <$ <$ <$ <$ <$ S# (# E@ E@ !@ r+ ~+ -+ #+ 9. D  `. z  L< w_ 0: *< 9[ 0[ N-.H;.^p l} l} l} l} l} l} l} l} l} l} l} l} l} l} l} l} l} l} l} l} l} l} l} l} l} l} l} l} l} l} l} l} l} l} l} l} l} l} l} l} l} l} l} l} l} Q7 p@ p@ ZB z+ z+ z+ z+ z+ z+ ",
"=} =} =} =} =} =} =} =} U7 U7 U7 U7 U7 U7 U7 U7 U7 U7 U7 U7 U7 U7 U7 U7 U7 U7 x;.r;.r;.r;.r;.r;.r;.r;.r;.r;.r;.r;.r;.r;.O;.Y# Y# Y# Y# P;.$-.$-.$-.$-.Q;.n;.n;.V3 nJ <;.$r A;.I;.F;.D) x  A  `. F  9. n+ %+ U+ U+ D@ /# ~@ E@ (# S# <$ <$ <$ <$ <$ <$ <$ <$ G$ 9% |% p% z% P% M& Aj Q- S- S- S- :- #= <& vx wx %8 ]i $g .p R{ E~ E~ ]! %-.&-.~-.                                                                                                                                                                                                                                                                                                                                                                                                                                                                                                                                                                                                                                                                                                                                                                                                                                                                                                p;.Ne E~ E~ E~ b) z7 {o <x {o &y As R- S- S- ]s W= H& Q% M% r% |% +% F$ <$ <$ <$ <$ <$ <$ <$ <$ <$ <$ <$ S# (# E@ E@ !@ r+ ~+ -+ #+ 9. D  `. z  L< w_ 0: *< 9[ 0[ N-.H;.^p l} l} l} l} l} l} l} l} l} l} l} l} l} l} l} l} l} l} l} l} l} l} l} l} l} l} l} l} l} l} l} l} l} l} l} l} l} l} l} l} l} l} l} l} l} l} p@ p@ p@ z+ z+ z+ z+ z+ z+ ",
"=} =} =} =} =} =} =} =} U7 U7 U7 U7 U7 U7 U7 U7 U7 U7 U7 U7 U7 U7 U7 U7 U7 U7 x;.r;.r;.r;.r;.r;.r;.r;.r;.r;.r;.{: R;.S;.r;.T;.Y# Y# Y# }-.$-.$-.$-.$-.U;.M;..5 V;.nJ <;.$r A;.I;.F;.DZ x  A  `. F  9. n+ %+ U+ U+ D@ /# ~@ E@ (# S# <$ <$ <$ <$ <$ <$ <$ <$ F$ +% |% p% z% N% m, Aj Q- S- S- S- W;.ux _& ,& wx %8 )x $g .p R{ E~ E~ ]! %-.&-.~-.                                                                                                                                                                                                                                                                                                                                                                                                                                                                                                                                                                                                                                                                                                                                                                                                                                                                                                X;.Ne E~ E~ E~ Xa z7 Ng <x Rn 6e As R- R- S- ]s W= H& n' M% p% |% +% F$ <$ <$ <$ <$ <$ <$ <$ <$ <$ <$ <$ S# (# E@ E@ !@ r+ ~+ -+ #+ 9. D  `. z  L< w_ 0: *< 9[ 0[ N-.H;.^p l} l} l} l} l} l} l} l} l} l} l} l} l} l} l} l} l} l} l} l} l} l} l} l} l} l} l} l} l} l} l} l} l} l} l} l} l} l} l} l} l} l} l} l} l} l} p@ p@ p@ I# z+ z+ z+ z+ z+ ",
"=} =} =} =} =} =} =} b% U7 U7 U7 U7 U7 U7 U7 U7 U7 U7 U7 U7 U7 U7 U7 U7 U7 U7 x;.r;.r;.r;.r;.r;.r;.r;.r;.r;.r;.Y;.Z;.Z;.:P P@ Y# Y# `;.*  $-.$-.$-.$-. >..>.V;.V;.nJ <;.$r A;.I;.F;.DZ w  A  `. F  9. n+ %+ U+ U+ D@ /# ~@ E@ (# S# <$ <$ <$ <$ <$ <$ <$ <$ F$ +% |% n% f& N% m, Aj Q- R- S- S- W;.ux _& ,& 'x !v {o ll 0) L< E~ E~ ]! %-.&-.~-.                                                                                                                                                                                                                                                                                                                                                                                                                                                                                                                                                                                                                                                                                                                                                                                                                                                                                                X;.Ne E~ E~ E~ Xa z7 Ng <x ed &y +>.R- R- R- --.W= $' P% M% p% |%  % F$ <$ <$ <$ <$ <$ <$ <$ <$ <$ <$ <$ S# (# E@ E@ !@ r+ ~+ -+ #+ 9. D  `. z  L< w_ 0: *< 9[ 0[ N-.H;.^p l} l} l} l} l} l} l} l} l} l} l} l} l} l} l} l} l} l} l} l} l} l} l} l} l} l} l} l} l} l} l} l} l} l} l} l} l} l} l} l} l} l} l} l} l} <+ p@ p@ p@ p@ z+ z+ z+ z+ z+ ",
"=} =} =} =} =} =} =} -6 U7 U7 U7 U7 U7 U7 U7 U7 U7 U7 U7 U7 U7 U7 U7 U7 U7 U7 x;.r;.r;.r;.r;.r;.r;.r;.r;.r;.F( Z;.Z;.Z;.Z;.Q@ r@ Y# 6z $-.$-.$-.$-.$-.V;.V;.V;.V;.nJ <;.$r A;.I;.F;.DZ @>.z  `. F  9. n+ %+ U+ U+ D@ /# ~@ E@ (# S# <$ <$ <$ <$ <$ <$ <$ <$ F$  % [% 7% v% N% m, Aj Q- R- S- R- W;.vw (& dv GE !v {o ]k ;8 x  E~ E~ ]! %-.&-.~-.                                                                                                                                                                                                                                                                                                                                                                                                                                                                                                                                                                                                                                                                                                                                                                                                                                                                                                X;.Ne E~ E~ E~ A7 k' Sn %8 =n 6e As R- R- R- ]s :u $' P% ~* p% |% Y$ D$ <$ <$ <$ <$ <$ <$ <$ <$ <$ <$ <$ S# (# E@ E@ !@ r+ ~+ -+ #+ 9. D  `. z  L< w_ 0: *< 9[ 0[ #>.H;.^p l} l} l} l} l} l} l} l} l} l} l} l} l} l} l} l} l} l} l} l} l} l} l} l} l} l} l} l} l} l} l} l} l} l} l} l} l} l} l} l} l} l} l} l} l} 1# p@ p@ p@ p@ /+ z+ z+ z+ z+ ",
"=} =} =} =} =} =} =} U7 U7 U7 U7 U7 U7 U7 U7 U7 U7 U7 U7 U7 U7 U7 U7 U7 U7 U7 r;.r;.r;.r;.r;.r;.r;.r;.r;.r;.G% Z;.Z;.Z;.Z;.$>.cA %>.*  $-.$-.$-.$-.$-.V;.V;.V;.V;.nJ <;.$r A;.I;.F;.&>.q  y  `. F  9. n+ %+ U+ U+ D@ /# ~@ E@ (# S# <$ <$ <$ <$ <$ <$ <$ <$ F$  % [% 7% v% N% K& eh Q- R- R- R- W;.vw ^& dv ev  8 {o ]k 5f <{ E~ E~ ]! %-.&-.~-.                                                                                                                                                                                                                                                                                                                                                                                                                                                                                                                                                                                                                                                                                                                                                                                                                                                                                                X;.Ne E~ E~ E~ 5c nh Sn %8 =n 6e As R- R- R- Oh K= E& l' A% p% j% Y$ <$ <$ <$ <$ <$ <$ <$ <$ <$ <$ <$ <$ S# (# E@ E@ !@ r+ ~+ -+ #+ 9. D  `. z  L< w_ 0: *< 9[ 0[ #>.H;.^p l} l} l} l} l} l} l} l} l} l} l} l} l} l} l} l} l} l} l} l} l} l} l} l} l} l} l} l} l} l} l} l} l} l} l} l} l} l} l} l} l} l} l} l} l} =. p@ p@ p@ p@ C= z+ z+ z+ z+ ",
"=} =} =} =} =} =} %* U7 U7 U7 U7 U7 U7 U7 U7 U7 U7 U7 U7 U7 U7 U7 U7 U7 U7 Q| r;.r;.r;.r;.r;.r;.r;.r;.r;.r;.Y;.Z;.Z;.Z;.$>.*>.=>.=>.$-.$-.$-.$-.$-.->.V;.V;.V;.V;.nJ <;.$r A;.I;.F;.4E cZ y  `. F  9. n+ %+ U+ U+ D@ /# ~@ E@ (# S# <$ <$ <$ <$ <$ <$ <$ <$ F$ .% [% 7% u% s& K& Aj Q- R- R- R- ,n += ^& Uu ev  8 {o ^j t4 <{ E~ E~ ]! %-.&-.~-.                                                                                                                                                                                                                                                                                                                                                                                                                                                                                                                                                                                                                                                                                                                                                                                                                                                                                                X;.Ne E~ E~ E~ 5c nh =n !v Lm &y As R- R- R- ]s K= E& N% A% p% j% Y$ <$ <$ <$ <$ <$ <$ <$ <$ <$ <$ <$ <$ S# (# E@ E@ !@ r+ ~+ -+ #+ 9. D  `. z  L< w_ 0: *< 9[ 0[ #>.H;.^p l} l} l} l} l} l} l} l} l} l} l} l} l} l} l} l} l} l} l} l} l} l} l} l} l} l} l} l} l} l} l} l} l} l} l} l} l} l} l} l} l} l} l} l} l} O7 p@ p@ p@ p@ *. z+ z+ z+ z+ ",
"=} =} =} =} =} =} U7 U7 U7 U7 U7 U7 U7 U7 U7 U7 U7 U7 U7 U7 U7 U7 U7 U7 U7 *3 r;.r;.r;.r;.r;.r;.r;.r;.r;.{: Z;.Z;.Z;.;>.>>.=>.=>.=>.$-.$-.$-.$-.$-.,>.V;.V;.V;.V;.nJ <;.$r A;.I;.F;.4E l  R{ `. F  9. n+ %+ U+ U+ D@ /# ~@ E@ (# S# <$ <$ <$ <$ <$ <$ <$ <$ F$ .% <% 7% u% M% K& eh Q- R- R- R- ,n += t& Uu ev  8 {o ^j b) <{ E~ E~ ]! %-.&-.~-.                                                                                                                                                                                                                                                                                                                                                                                                                                                                                                                                                                                                                                                                                                                                                                                                                                                                                                X;.5e E~ E~ E~ q2 p$ =n  8 8m 8= As R- R- R- '>.y- E& N% A% p% j% Y$ <$ <$ <$ <$ <$ <$ <$ <$ <$ <$ <$ <$ S# (# E@ E@ !@ r+ ~+ -+ #+ 9. D  `. z  L< w_ 0: *< 9[ 0[ #>.<;.^p l} l} l} l} l} l} l} l} l} l} l} l} l} l} l} l} l} l} l} l} l} l} l} l} l} l} l} l} l} l} l} l} l} l} l} l} l} l} l} l} l} l} l} l} l} p@ p@ p@ p@ p@ C= z+ z+ z+ z+ ",
"=} =} =} =} =} b% U7 U7 U7 U7 U7 U7 U7 U7 U7 U7 U7 U7 U7 U7 U7 U7 U7 U7 U7 ;. r;.r;.r;.r;.r;.r;.r;.r;.r;.)>.Z;.Z;.+3 =>.=>.=>.=>.=>.$-.$-.$-.$-.$-.,>.V;.V;.V;.V;.gp <;.$r A;.I;.F;.4E om t  Y. F  9. n+ %+ U+ U+ D@ /# ~@ E@ (# S# <$ <$ <$ <$ <$ <$ <$ <$ F$ Y$ <% 5% t% M% S& eh Q- R- R- R- ,n .= {& lF Vu  8 Rn ^j b) <{ E~ E~ ]! %-.&-.~-.                                                                                                                                                                                                                                                                                                                                                                                                                                                                                                                                                                                                                                                                                                                                                                                                                                                                                                !>.s#.E~ E~ E~ q2 p$ =n  8 8m 8= As R- R- R- Oh V= EH N% A% n% j% -% <$ <$ <$ <$ <$ <$ <$ <$ <$ <$ <$ <$ S# (# E@ E@ !@ r+ ~+ -+ #+ 9. D  `. z  L< w_ 0: *< 9[ 0[ #>.<;.^p l} l} l} l} l} l} l} l} l} l} l} l} l} l} l} l} l} l} l} l} l} l} l} l} l} l} l} l} l} l} l} l} l} l} l} l} l} l} l} l} l} l} l} l} p0 p@ p@ p@ p@ p@ z+ z+ z+ z+ z+ ",
"=} =} =} =} =} -6 U7 U7 U7 U7 U7 U7 U7 U7 U7 U7 U7 U7 U7 U7 U7 U7 U7 U7 U7 r;.r;.r;.r;.r;.r;.r;.r;.r;.r;.~>.{i zy =>.=>.=>.=>.=>.=>.w#.$-.$-.$-.$-.,>.V;.V;.V;.V;.<;.<;.$r A;.I;.F;.4E om p  Y. F  9. n+ %+ U+ U+ D@ /# ~@ E@ (# S# <$ <$ <$ <$ <$ <$ <$ <$ D$ Y$ <% 5% t% M% q* eh h; R- R- R- ,n .= {& Q% *t .7 Sn Pi X@ <{ E~ E~ ]! %-.&-.~-.                                                                                                                                                                                                                                                                                                                                                                                                                                                                                                                                                                                                                                                                                                                                                                                                                                                                                                !>.s#.E~ E~ E~ q2 Pa ng =' 8m 8= As R- R- R- Oh U= [' Y% B% n% j% -% <$ <$ <$ <$ <$ <$ <$ <$ <$ <$ <$ <$ S# (# E@ E@ !@ r+ ~+ -+ #+ 9. D  `. z  L< w_ 0: *< 9[ 0[ #>.<;.^p l} l} l} l} l} l} l} l} l} l} l} l} l} l} l} l} l} l} l} l} l} l} l} l} l} l} l} l} l} l} l} l} l} l} l} l} l} l} l} l} l} l} l} l} Q7 p@ p@ p@ p@ I# z+ z+ z+ z+ z+ ",
"=} =} =} =} =} U7 U7 U7 U7 U7 U7 U7 U7 U7 U7 U7 U7 U7 U7 U7 U7 U7 U7 U7 U7 hH r;.r;.r;.r;.r;.r;.r;.r;.r;.{>.=>.=>.=>.=>.=>.=>.=>.=>.!;.$-.$-.$-.$-.,>.V;.V;.V;.V;.<;.<;.$r A;.I;.F;.4E om k  W. F  9. n+ %+ U+ U+ D@ /# ~@ E@ (# S# <$ <$ <$ <$ <$ <$ <$ <$ <$ =% <% 5% s% M% I& eh h; R- R- R- :p kV a& n' *t R6 =n z7 X@ <{ E~ E~ ]! %-.&-.~-.                                                                                                                                                                                                                                                                                                                                                                                                                                                                                                                                                                                                                                                                                                                                                                                                                                                                                                !>.s#.E~ E~ E~ Z. Pa 8m .7 $g 8= As R- R- R- '>.U= yN M% y% 7% <% ;% <$ <$ <$ <$ <$ <$ <$ <$ <$ <$ <$ <$ S# (# E@ E@ !@ r+ ~+ -+ #+ 9. D  `. z  L< w_ 0: *< 9[ 0[ #>.<;.^p l} l} l} l} l} l} l} l} l} l} l} l} l} l} l} l} l} l} l} l} l} l} l} l} l} l} l} l} l} l} l} l} l} l} l} l} l} l} l} l} l} <+ <+ l} O7 p@ p@ p@ *. z+ z+ z+ z+ z+ z+ ",
"=} =} =} =} =} U7 U7 U7 U7 U7 U7 U7 U7 U7 U7 U7 U7 U7 U7 U7 U7 U7 U7 U7 U7 U7 U7 pG r;.r;.r;.r;.r;.r;.n# =>.=>.=>.=>.=>.=>.=>.=>.5@.]>.$-.$-.$-.$-.,>.V;.V;.V;.V;.<;.<;.$r A;.I;.F;.4E om k  U. @+ 9. n+ %+ U+ U+ D@ /# ~@ E@ (# S# <$ <$ <$ <$ <$ <$ <$ <$ <$ =% <% 5% s% ~* I& eh h; R- R- R- _- i= !& P% *t R6 =n z7 A7 x  E~ E~ ]! %-.&-.~-.                                                                                                                                                                                                                                                                                                                                                                                                                                                                                                                                                                                                                                                                                                                                                                                                                                                                                                !>.s#.E~ E~ E~ Z. Pa 8m .7 ll 8= As R- R- R- ]s K= ^>.M% y% 7% <% ;% <$ <$ <$ <$ <$ <$ <$ <$ <$ <$ <$ <$ S# (# E@ E@ !@ r+ ~+ -+ #+ 9. D  `. z  L< w_ 0: *< 9[ 0[ #>.<;.^p l} l} l} l} l} l} 1# Q7 p0 l} l} l} l} l} l} l} l} l} l} l} l} l} l} l} l} l} l} l} l} l} l} l} l} l} l} l} l} l} p0 =. p@ p@ p@ p@ p@ p@ p@ p@ z+ z+ z+ z+ z+ z+ z+ ",
"=} =} =} =} =} U7 U7 U7 U7 U7 U7 U7 U7 U7 U7 U7 U7 U7 U7 U7 U7 U7 U7 U7 U7 U7 U7 U7 Q| |@ |@ pG r;./>.=>.=>.=>.=>.=>.=>.=>.=>.(>._>.:>.$-.$-.$-.$-.,>.V;.V;.V;.V;.<;.<;.$r A;.I;.F;.4E om k  Q. l+ 9. n+ %+ U+ U+ D@ /# ~@ E@ (# S# <$ <$ <$ <$ <$ <$ <$ <$ <$ ;% <% 3% s% >& I& eh $; R- R- R- _-  = !& O% -) R6 =n z7 A7 x  E~ E~ ]! %-.&-.~-.                                                                                                                                                                                                                                                                                                                                                                                                                                                                                                                                                                                                                                                                                                                                                                                                                                                                                                !>.s#.E~ E~ E~ X. Pa 8m R6 ]k 6e As R- R- R- ]s K= <>.8H z% 7% <% ;% <$ <$ <$ <$ <$ <$ <$ <$ <$ <$ <$ <$ S# (# E@ E@ !@ r+ ~+ -+ #+ 9. D  `. z  L< w_ 0: *< 9[ 0[ #>.<;.^p l} l} l} l} l} l} 1# p@ p@ p@ =. 1# l} l} l} l} l} l} l} l} l} l} l} l} l} l} l} l} l} l} l} l} l} l} l} l} l} =. p@ p@ p@ p@ p@ p@ p@ p@ p@ -* z+ z+ z+ z+ z+ z+ z+ ",
"=} =} =} =} =} U7 U7 U7 U7 U7 U7 U7 U7 U7 U7 U7 U7 U7 U7 U7 U7 U7 U7 U7 U7 U7 U7 U7 U7 U7 U7 lA r;.&@.=>.=>.=>.=>.=>.=>.[>.}>.|>.1>.2>.$-.$-.$-.$-.5{ V;.V;.V;.V;.<;.<;.$r A;.I;.F;.4E om k  }. m+ 9. n+ %+ U+ U+ D@ /# ~@ E@ (# S# <$ <$ <$ <$ <$ <$ <$ <$ <$ ;% i% 2% r% y% YU `f $; R- R- R- (-  = b& l' @s R6 Lm {m 5c E~ E~ E~ ]! %-.&-.~-.                                                                                                                                                                                                                                                                                                                                                                                                                                                                                                                                                                                                                                                                                                                                                                                                                                                                                                !>.s#.E~ E~ E~ <{ .p 8m `k lr 6e mr Q- R- R- ]s <, 3>.f=.v% 7% i% G$ T# <$ <$ <$ <$ <$ <$ <$ <$ <$ <$ <$ S# (# E@ E@ !@ r+ ~+ -+ #+ 9. D  `. z  L< w_ 0: *< 9[ 0[ B-.<;.^p l} l} l} l} l} l} 1# p@ p@ p@ p@ p@ p@ =. p0 l} l} l} l} l} l} l} l} l} l} l} l} l} l} l} l} l} l} l} l} l} l} Q7 O7 p@ p@ p@ p@ p@ p@ p@ /+ z+ z+ z+ z+ z+ z+ z+ z+ ",
"=} =} =} =} =} %* U7 U7 U7 U7 U7 U7 U7 U7 U7 U7 U7 U7 U7 U7 U7 U7 U7 U7 U7 U7 Q| m| &7 &7 &7 4>.UH =>.=>.=>.=>.=>.5@.5>.6>.7>.1>.1>.1>.$-.$-.$-.$-.$-.8>.9>.V;.V;.<;.<;.$r A;.I;.F;.4E om k  j  j+ 9. n+ %+ U+ U+ D@ /# ~@ E@ (# S# <$ <$ <$ <$ <$ <$ <$ <$ <$ I$ i% 2% p% k=.YU `f $; R- R- R- (-  = b& l' gq ,7 Lm Jh q2 E~ E~ E~ ]! %-.&-.~-.                                                                                                                                                                                                                                                                                                                                                                                                                                                                                                                                                                                                                                                                                                                                                                                                                                                                                                !>.s#.E~ E~ E~ d_ .p $g `k z7 6e +p Q- R- R- Oh <, 3>.7` 0>.m% &% I$ &$ <$ <$ <$ <$ <$ <$ <$ <$ <$ <$ <$ S# (# E@ E@ !@ r+ ~+ -+ #+ 9. D  `. z  L< w_ 0: *< 9[ 0[ B-.<;.^p l} l} l} l} l} l} 1# p@ p@ p@ p@ p@ p@ p@ p@ p@ Q7 l} l} l} l} l} l} l} l} l} l} l} l} l} l} l} l} l} l} l} l} l} l} l} O7 p@ p@ p@ p@ p@ z+ z+ z+ z+ z+ z+ z+ z+ z+ ",
"=} =} =} =} =} =} s; U7 U7 U7 U7 U7 U7 U7 U7 U7 U7 U7 U7 U7 U7 U7 U7 U7 xB %P =>.=>.=>.=>.=>.=>.=>.=>.=>.=>.=>.a>.b>.c>.d>.1>.1>.1>.e>.l;.$-.$-.$-.$-.f>.g>.o@.V;.<;.<;.$r A;.I;.F;.4E om k  m  h>.++ n+ %+ U+ U+ D@ /# ~@ E@ (# S# <$ <$ <$ <$ <$ <$ <$ <$ <$ H$ i% 2% p% i>.I& `f $; R- R- R- (- j= U% N% gq J7 8m k' Z. E~ E~ E~ ]! %-.&-.~-.                                                                                                                                                                                                                                                                                                                                                                                                                                                                                                                                                                                                                                                                                                                                                                                                                                                                                                j>.s#.E~ E~ E~ R{ 0) $g Jq z7 6e +p Q- R- Q- lh S= k>.8n wx 3% &% I$ <$ <$ <$ <$ <$ <$ <$ <$ <$ <$ <$ <$ S# (# E@ E@ !@ r+ ~+ -+ #+ 9. D  `. z  L< w_ 0: *< 9[ 0[ B-.<;.^p l} l} l} l} l} l} =. p@ p@ p@ p@ p@ p@ p@ p@ p@ p@ p@ Q7 l} l} l} l} l} l} l} l} p0 l} l} l} l} l} l} l} l} l} l} l} l} =. p@ p@ p@ p@ p@ z+ z+ z+ z+ z+ z+ z+ z+ z+ ",
"=} =} =} =} =} =} =} q. -6 U7 U7 U7 U7 U7 U7 U7 U7 U7 U7 U7 U7 U7 Q| 8r =>.=>.=>.=>.=>.=>.=>.=>.=>.=>.=>.%>.l>.6>.c>.m>.1>.1>.1>.n>.n>.o>.$-.$-.$-.$-.h&.g>.p>.V;.<;.<;.$r A;.I;.F;.4E om k  m  8+ l+ n+ %+ U+ U+ D@ /# ~@ E@ (# S# <$ <$ <$ <$ <$ <$ <$ <$ T# F$ &% 1% p% i>.YU Pe $; R- R- R- _- `* S% s& gq J7 8m nh Z. E~ E~ E~ ]! %-.&-.~-.                                                                                                                                                                                                                                                                                                                                                                                                                                                                                                                                                                                                                                                                                                                                                                                                                                                                                                j>.s#.E~ E~ E~ L< ;8 ]k J7 Jh 6e +p Q- Q- Q- lh S= q>.pH r>.2% $% G$ <$ <$ <$ <$ <$ <$ <$ <$ <$ <$ <$ <$ S# (# E@ E@ !@ r+ ~+ -+ #+ 9. D  `. z  L< w_ 0: *< 9[ 0[ B-.gp ^p l} l} l} l} l} p0 p@ p@ p@ p@ p@ p@ p@ p@ p@ p@ p@ p@ p@ p@ Q7 l} l} l} 1# =. p@ p@ =. l} l} l} l} l} l} l} l} l} l} l} p@ p@ p@ p@ p@ p@ z+ z+ z+ z+ z+ z+ z+ z+ z+ ",
"=} =} =} =} =} =} =} =} =} q. -6 U7 U7 U7 U7 U7 U7 U7 U7 U7 U7 U7 s>.=>.=>.=>.=>.=>.=>.=>.=>.=>.=>.=>.t>.u>.v>.6>.m>.1>.1>.1>.1>.n>.n>.o>.$-.$-.$-.$-.i[ g>.w>.V;.<;.<;.$r A;.I;.F;.4E om k  m  |. j+ n+ %+ U+ U+ D@ /# ~@ E@ (# S# <$ <$ <$ <$ <$ <$ <$ <$ <$ F$ &% 1% p% 5I $' fq $; Q- Q- R- (- Z* T% s& hD J7 8m nh Y. E~ E~ E~ ]! %-.&-.~-.                                                                                                                                                                                                                                                                                                                                                                                                                                                                                                                                                                                                                                                                                                                                                                                                                                                                                                j>.s#.E~ E~ E~ E~ ;8 ]k J7 Jh Up +p h; Q- Q- lh S= q>.pH x>. & 9% F$ <$ <$ <$ <$ <$ <$ <$ <$ <$ <$ <$ <$ S# (# E@ E@ !@ r+ ~+ -+ #+ 9. D  `. z  L< w_ 0: *< 9[ 0[ y>.<;.z>.l} l} 1# Q7 =. p@ p@ p@ p@ p@ p@ p@ p@ p@ p@ p@ p@ p@ p@ p@ p@ p@ p@ p@ p@ p@ p@ p@ p@ p@ 1# l} l} l} l} l} l} l} l} =. p@ p@ p@ p@ p@ p@ -* z+ z+ z+ z+ z+ z+ z+ z+ ",
"=} =} =} =} =} =} =} =} =} =} =} s; U7 U7 U7 U7 U7 U7 U7 U7 U7 A>.=>.=>.=>.=>.=>.=>.=>.=>.=>.=>.=>.B>.u>.u>.C>.6>.1>.1>.1>.1>.1>.n>.n>.o>.$-.$-.$-.$-.g>.g>.w>.V;.<;.<;.$r A;.I;.F;.4E om k  m  D>.h+ 9. $+ =+ R  D@ /# ~@ E@ (# S# <$ <$ <$ <$ <$ <$ <$ <$ <$ G$ %% k% p% wx $' fq k; Q- Q- Q- (- Z* T% d& <p J7 8m k' Z. E~ E~ E~ ]! %-.&-.~-.                                                                                                                                                                                                                                                                                                                                                                                                                                                                                                                                                                                                                                                                                                                                                                                                                                                                                                j>.s#.E~ E~ E~ E~ rs ]k J7 k' Up +p Q- Q- Q- lh T= q>.qH E>.vH *% F$ <$ <$ <$ <$ <$ <$ <$ <$ <$ <$ <$ <$ S# (# E@ E@ !@ r+ ~+ -+ #+ 9. D  `. z  L< w_ 0: *< 9[ 0[ #>.gp F>.l} l} p@ p@ p@ p@ p@ p@ p@ p@ p@ p@ p@ p@ p@ p@ p@ p@ p@ p@ p@ p@ p@ p@ p@ p@ p@ p@ p@ p@ p@ =. l} l} l} l} l} p0 O7 p@ p@ p@ p@ p@ p@ p@ /+ z+ z+ z+ z+ z+ z+ z+ z+ ",
"=} =} =} =} =} =} =} =} =} =} =} +& U7 U7 U7 U7 U7 U7 U7 U7 U7 s>.=>.=>.=>.=>.=>.=>.=>.=>.=>.=>.=>.G>.u>.u>.H>.6>.I>.1>.1>.1>.1>.J>.n>.o>.$-.$-.$-.$-.g>.g>.{' V;.gp <;.$r A;.I;.F;.4E om k  m  |. d+ k+ Hl 4) 9m =+ /# ~@ E@ (# S# <$ <$ <$ <$ <$ <$ <$ <$ <$ G$ $% k% 7% r>.G& Xm %; Q- Q- Q- :p Z* c& d& <p J7 8m k' <{ E~ E~ E~ ]! %-.&-.~-.                                                                                                                                                                                                                                                                                                                                                                                                                                                                                                                                                                                                                                                                                                                                                                                                                                                                                                j>.s#.E~ E~ E~ _) t4 ]k ]i nh &y +p h; Q- Q- `- S= q>.0Z K>.<p  % E$ <$ <$ <$ <$ <$ <$ <$ <$ <$ <$ <$ <$ S# (# E@ E@ !@ r+ ~+ -+ #+ 9. D  `. z  L< w_ 0: *< 9[ 0[ #>.nJ L>.l} l} Q7 p@ p@ p@ p@ p@ p@ p@ p@ p@ p@ p@ p@ p@ p@ p@ p@ p@ p@ p@ p@ p@ p@ p@ p@ p@ p@ p@ p@ p@ p@ 1# p0 Q7 p@ p@ p@ p@ p@ p@ p@ p@ p@ p@ I# z+ z+ z+ z+ z+ z+ z+ z+ ",
"=} =} =} =} =} =} =} =} =} =} s; U7 U7 U7 U7 U7 U7 U7 U7 U7 U7 8r =>.=>.=>.=>.=>.=>.=>.=>.=>.=>.=>.n# u>.u>.M>.6>.N>.1>.1>.1>.1>.J>.n>.o>.$-.$-.$-.$-.P-.g>.g>.V;.HJ <;.$r A;.I;.F;.4E om k  m  |. a+ 0+ M. g  g  O>.@/ ~@ E@ (# S# <$ <$ <$ <$ <$ <$ <$ <$ <$ F$ 9% k% 7% P>.G& Xm %; Q- Q- Q- :p Z* R% fD <p J7 8m nh E~ E~ E~ E~ ]! Q>.R>.S>.                                                                                                                                                                                                                                                                                                                                                                                                                                                                                                                                                                                                                                                                                                                                                                                                                                                                                                T>.2) E~ E~ E~ _) t4 ^j )x p$ 6e +p h; Q- Q- mg S= U>.0Z K>.=L /n x= <$ <$ <$ <$ <$ <$ <$ <$ <$ <$ <$ <$ S# (# E@ E@ !@ r+ ~+ -+ #+ 9. D  `. z  L< w_ 0: *< 9[ 0[ #>.nJ am l} l} l} p@ p@ p@ p@ p@ p@ p@ p@ p@ p@ p@ p@ p@ p@ p@ p@ p@ p@ p@ p@ p@ p@ C= /+ /+ I# I# C= *. *. p@ p@ p@ p@ p@ p@ p@ p@ p@ p@ p@ p@ p@ C= z+ z+ z+ z+ z+ z+ z+ z+ ",
"=} =} =} =} =} =} =} =} =} b% U7 U7 U7 U7 U7 U7 U7 U7 U7 U7 U7 Q| &z =>.=>.=>.=>.=>.=>.=>.=>.=>.B>.V>.u>.u>.u>.W>.X>.1>.1>.1>.1>.J>.n>.o>.$-.$-.$-.$-.Y>.g>.g>.t3 Z>.<;.$r A;.I;.F;.4E om k  m  |. 0+ 0+ M. K. g  V@ DK u5 E@ (# S# <$ <$ <$ <$ <$ <$ <$ <$ <$ F$ +% k% 7% `>.Co Xm %; Q- Q- Q- :p Z* .* >& <p {o ll .p E~ E~ E~ E~ ]!  ,..,.+,.                                                                                                                                                                                                                                                                                                                                                                                                                                                                                                                                                                                                                                                                                                                                                                                                                                                                                                I=.t#.E~ E~ E~ _) Xa z7 {o Pa Up +p h; h; Q- lh S= @,.6n K>.WX n; <$ <$ <$ <$ <$ <$ <$ <$ <$ <$ <$ <$ <$ S# (# E@ E@ !@ r+ ~+ -+ #+ 9. D  `. z  L< w_ 0: *< 9[ 0[ #>.nJ am n7 l} l} l} =. p@ p@ p@ p@ p@ p@ p@ p@ p@ p@ p@ p@ p@ p@ p@ p@ p@ p@ C= z+ z+ z+ z+ z+ z+ z+ z+ z+ <C /+ ZB C= *. p@ p@ p@ p@ p@ p@ p@ p@ *. z+ z+ z+ z+ z+ z+ z+ z+ ",
"=} =} =} =} =} =} =} =} =} U7 U7 U7 U7 Q| )E #D #D *3 U7 U7 U7 U7 #,.B>.=>.=>.=>.=>.=>.=>.s>.56 U7 $,.u>.u>.u>.C>.%,.1>.1>.1>.1>.&,.n>.o>.$-.$-.$-.$-.*,.g>.g>.=,.nJ <;.$r A;.I;.F;.4E om k  m  |. 0+ 0+ M. K. g  V@ a  Nm E@ (# S# <$ <$ <$ <$ <$ <$ <$ <$ <$ E$ Y$ |% 7% -,.E& Do %; Q- Q- Q- :p Y* P% >& Yo {o ll 0) E~ E~ E~ E~ ]!  ,.;,.>,.                                                                                                                                                                                                                                                                                                                                                                                                                                                                                                                                                                                                                                                                                                                                                                                                                                                                                                J=.t#.E~ E~ E~ _) Xa z7 {o c$ 6e rn $; h; h; mg S= ,,.6n n=.',.`' <$ <$ <$ <$ <$ <$ <$ <$ <$ <$ <$ <$ <$ S# (# E@ E@ !@ r+ ~+ -+ #+ 9. D  `. z  L< w_ 0: *< 9[ 0[ #>.nJ am ~> l} l} l} l} p0 O7 p@ p@ p@ p@ p@ p@ p@ p@ p@ p@ p@ p@ p@ ,' /+ z+ z+ z+ z+ z+ z+ CT <C l& :C #Z #Z #Z CT z+ z+ z+ /+ I# *. p@ p@ p@ p@ *. z+ z+ z+ z+ z+ z+ z+ z+ ",
"=} =} =} =} =} =} =} =} %* U7 U7 U7 *3 (D (D (D (D (D (D #D Q| U7 U7 U7 4>.&7 &7 &7 4>.Q| U7 U7 #D u>.u>.u>.u>.),.c>.1>.1>.1>.1>.!,.n>.o>.$-.$-.$-.$-.$-.~,.{,.i2 gp <;.$r A;.I;.F;.4E om k  m  |. 0+ 0+ M. K. g  V@ 8  O# ~@ (# S# <$ <$ <$ <$ <$ <$ <$ <$ <$ <$ X$ }% 4% x>.E& ],.%; h; h; h; (- Y* P% >& qn {o ]k ;8 E~ E~ E~ E~ ]!  ,.;,.>,.                                                                                                                                                                                                                                                                                                                                                                                                                                                                                                                                                                                                                                                                                                                                                                                                                                                                                                J=.t#.E~ E~ E~ _) X@ Jh {o c$ 6e rn $; h; h; `- K= ,,.6n n=.^,.L$ %$ <$ <$ <$ <$ <$ <$ <$ <$ <$ <$ <$ <$ S# (# E@ E@ !@ r+ ~+ -+ #+ 9. D  `. z  L< w_ 0: *< 9[ 0[ #>.gp am /,.l} l} l} l} l} l} p@ p@ p@ p@ p@ p@ p@ p@ p@ p@ p@ C= z+ z+ z+ z+ z+ z+ z+ (,.#Z #Z #Z #Z #Z #Z #Z #Z <C z+ z+ z+ z+ z+ z+ /+ *. p@ p@ *. z+ z+ z+ z+ z+ z+ z+ z+ ",
"=} =} =} =} =} =} =} =} U7 U7 U7 U7 (D (D (D (D (D (D (D rG $,.rG _,.)E )E )E )E )E )E )E rG :,.u>.u>.u>.u>.u>.:,.6>.<,.1>.1>.1>.!,.n>.o>.$-.$-.$-.$-.$-.[,.},.},.<;.<;.$r A;.I;.F;.4E om k  m  |. 0+ 0+ M. K. g  V@ 8  4  67 (# S# <$ <$ <$ <$ <$ <$ <$ <$ <$ <$ ;% [% -) |,.E& Xm z; h; h; h; _- Y* P% A% qn {o lr u# E~ E~ E~ E~ ]!  ,.;,.>,.                                                                                                                                                                                                                                                                                                                                                                                                                                                                                                                                                                                                                                                                                                                                                                                                                                                                                                J=.t#.E~ E~ E~ kl A7 k' {o 0) 6e rn $; $; h; `- T= ,,.6n p=.^,.:V =$ <$ <$ <$ <$ <$ <$ <$ <$ <$ <$ <$ <$ S# (# E@ E@ !@ r+ ~+ -+ #+ 9. D  `. z  L< w_ 0: *< 9[ 0[ #>.gp am F% l} l} l} l} l} l} p@ p@ p@ p@ p@ p@ p@ p@ p@ *. -* z+ z+ z+ z+ z+ z+ <C #Z #Z #Z #Z #Z #Z #Z #Z #Z #Z z+ z+ z+ z+ z+ z+ z+ z+ z+ ZB C= z+ z+ z+ z+ z+ z+ z+ z+ z+ ",
"=} =} =} =} =} =} =} $# U7 U7 U7 *3 (D (D (D (D (D (D :,.u>.u>.u>.u>.u>.u>.u>.u>.u>.u>.u>.u>.u>.u>.u>.u>.u>.u>.u>.v>.1,.1>.1>.1>.2,.n>.o>.$-.$-.$-.$-.$-.3,.},.},.gp <;.$r A;.I;.F;.4E om k  m  |. 0+ 0+ M. K. g  V@ 8  4  u5 (# S# <$ <$ <$ <$ <$ <$ <$ <$ <$ <$ ;% <% gq 4,.E& %N z; h; h; h; _- Y* i, y% qn {o z7 Xa E~ E~ E~ E~ ]!  ,.5,.6,.                                                                                                                                                                                                                                                                                                                                                                                                                                                                                                                                                                                                                                                                                                                                                                                                                                                                                                7,.1) E~ E~ E~ E~ q2 k' Rn rs 8= rn $; $; $; `- S= 8,.E>.p=.9,.mK /% <$ <$ <$ <$ <$ <$ <$ <$ <$ <$ <$ <$ S# (# E@ E@ !@ r+ ~+ -+ #+ 9. D  `. z  L< w_ 0: *< 9[ 0[ #>.<;.am F% l} l} l} l} l} l} p@ p@ p@ p@ p@ p@ p@ p@ C= z+ z+ z+ <C <C 0,.0,.:C #Z #Z #Z #Z #Z }n a,..n #Z #Z Z} z+ z+ z+ z+ z+ z+ z+ z+ z+ z+ z+ z+ z+ z+ z+ z+ z+ z+ z+ z+ ",
"=} =} =} =} =} =} =} +& U7 U7 U7 #D (D (D (D (D (D :,.u>.u>.u>.u>.u>.u>.u>.u>.u>.u>.u>.u>.u>.u>.u>.u>.u>.u>.u>.u>.b,.%,.1>.1>.1>.e>.n>.o>.$-.$-.$-.$-.$-.c,.},.},.gp <;.$r A;.I;.F;.4E om k  m  |. 0+ 0+ M. K. g  V@ 8  _. 2g (# S# <$ <$ <$ <$ <$ <$ <$ <$ <$ <$ I$ <% <p |,.E& Xm o> $; $; $; _- X* N% y% qn {o z7 A7 E~ E~ E~ E~ ]!  ,.5,.6,.                                                                                                                                                                                                                                                                                                                                                                                                                                                                                                                                                                                                                                                                                                                                                                                                                                                                                                7,.1) E~ E~ E~ E~ Z. p$ d,.5f 8= rn A; $; $; Y- S= e,.K>.f,.9,.g,.C$ <$ <$ <$ <$ <$ <$ <$ <$ <$ <$ <$ <$ S# (# E@ E@ !@ r+ ~+ -+ #+ 9. D  `. z  L< w_ 0: *< 9[ 0[ #>.<;.am /,.l} l} l} l} l} l} p@ p@ p@ p@ p@ p@ p@ *. z+ z+ Z} #Z #Z #Z #Z #Z #Z #Z #Z #Z .n h,.h,.h,.i,.}n :C z+ z+ z+ z+ z+ z+ z+ z+ z+ z+ z+ z+ z+ z+ z+ z+ z+ z+ z+ z+ z+ ",
"=} =} =} =} =} =} q. U7 U7 U7 Q| (D (D (D (D (D (D u>.u>.u>.u>.u>.u>.u>.u>.u>.u>.u>.u>.u>.u>.u>.u>.u>.u>.u>.u>.u>.j,.6>.1>.1>.1>.e>.n>.o>.$-.$-.$-.$-.$-.c,.},.7{ gp <;.$r A;.I;.F;.4E om k  m  |. 0+ 0+ M. K. g  V@ 8  _. 5f (# S# <$ <$ <$ <$ <$ <$ <$ <$ <$ <$ G$ $) =L |,.E& Xm o> $; $; $; _- X* N% y% @y Sn z7 5c E~ E~ E~ E~ ]!  ,.5,.6,.                                                                                                                                                                                                                                                                                                                                                                                                                                                                                                                                                                                                                                                                                                                                                                                                                                                                                                7,.-8 E~ E~ E~ E~ <{ Pa {o 2g 8= nm A; $; $; `- S= e,.K>.f,.K6 g,.0) y# <$ <$ <$ <$ <$ <$ <$ <$ <$ <$ <$ S# (# E@ E@ !@ r+ ~+ -+ #+ 9. D  `. z  L< w_ 0: *< 9[ 0[ #>.<;.am n7 l} l} l} l} l} <+ p@ p@ p@ p@ p@ p@ p@ /+ z+ CT #Z #Z #Z #Z #Z #Z #Z #Z #Z #Z k,.h,.h,.h,.h,.a,.z+ z+ z+ z+ z+ z+ z+ z+ z+ z+ z+ z+ z+ z+ z+ z+ z+ z+ z+ z+ z+ z+ ",
"=} =} =} =} =} =} %* U7 U7 U7 )E (D (D (D (D (D rG u>.u>.u>.u>.u>.u>.u>.u>.u>.u>.u>.u>.u>.u>.u>.u>.u>.u>.u>.u>.u>.u>.6>.l,.1>.1>.e>.n>.o>.$-.$-.$-.$-.$-.c,.aU E7 gp <;.$r A;.I;.F;.4E om k  m  |. 0+ 0+ M. K. g  V@ 8  _. 7) (# S# <$ <$ <$ <$ <$ <$ <$ <$ <$ <$ F$ $) yw E>.D& Xm o> $; $; $; _- X* N% w% %8 =n {m k+ E~ E~ E~ E~ ]!  ,.5,.m,.                                                                                                                                                                                                                                                                                                                                                                                                                                                                                                                                                                                                                                                                                                                                                                                                                                                                                                7,.-8 E~ E~ E~ E~ <{ 0) =n 5f 8= nm %; $; $; `- S= e,.K>.f,.K6 g,.@! =$ <$ <$ <$ <$ <$ <$ <$ <$ <$ <$ <$ S# (# E@ E@ !@ r+ ~+ -+ #+ 9. D  `. z  L< w_ 0: *< 9[ 0[ #>.<;.am l} l} l} l} l} l} 1# p@ p@ p@ p@ p@ p@ p@ I# z+ <C #Z #Z #Z #Z #Z #Z #Z #Z #Z .n i,.h,.h,.h,.n,.z+ z+ z+ z+ z+ z+ z+ z+ z+ z+ z+ z+ z+ z+ z+ z+ z+ z+ z+ z+ z+ z+ z+ ",
"=} =} =} =} =} =} U7 U7 U7 U7 (D (D (D (D (D (D (D BH u>.u>.u>.u>.u>.u>.u>.u>.u>.u>.u>.u>.u>.u>.u>.u>.u>.u>.u>.u>.u>.o,.7>.1>.1>.2>.n>.1T $-.$-.$-.$-.$-.c,.p,.E7 <;.<;.$r A;.I;.F;.4E om k  m  |. 0+ 0+ M. K. g  V@ 8  _. 1^ (# S# <$ <$ <$ <$ <$ <$ <$ <$ <$ <$ tp %% WX E>.^* Xm o> $; $; $; ,n 'n h, w% %8 =n Jh Z. E~ E~ E~ E~ ]!  ,.5,.q,.                                                                                                                                                                                                                                                                                                                                                                                                                                                                                                                                                                                                                                                                                                                                                                                                                                                                                                7,.-8 E~ E~ E~ E~ R{ 0) =n od 8= Il %; A; A; md S= e,.n=.f,.25 g,.V$ C# <$ <$ <$ <$ <$ <$ <$ <$ <$ <$ <$ S# (# E@ E@ !@ r+ ~+ -+ #+ 9. D  `. z  L< w_ 0: *< 9[ 0[ #>.<;.]1 l} l} l} l} l} l} =. p@ p@ p@ p@ p@ p@ p@ ZB z+ z+ #Z #Z #Z #Z #Z #Z #Z #Z #Z r,.h,.h,.h,.s,.z+ z+ z+ z+ z+ z+ z+ z+ z+ z+ z+ z+ z+ z+ z+ z+ z+ z+ z+ z+ z+ z+ z+ z+ ",
"=} =} =} =} =} =} U7 U7 U7 *3 (D (D (D (D (D (D (D (D u>.u>.u>.u>.u>.u>.u>.u>.u>.u>.u>.u>.u>.u>.u>.u>.u>.u>.u>.u>.u>.b,.t,.1>.1>.1>.n>.$-.$-.$-.$-.$-.$-.c,.p,.E7 <;.<;.$r A;.I;.F;.4E om k  m  |. 0+ 0+ M. K. g  V@ 8  7  Nm (# S# <$ <$ <$ <$ <$ <$ <$ <$ <$ <$ tp +) u,.v,.U& (n o> $; $; $; ,n 'n M% v% %8 =n Jh <{ E~ E~ E~ E~ ]!  ,.5,.q,.                                                                                                                                                                                                                                                                                                                                                                                                                                                                                                                                                                                                                                                                                                                                                                                                                                                                                                7,.-8 E~ E~ E~ E~ E~ 0) =n b) 8= Il %; A; A; md S= e,.p=.w,.25 g,.B$ /% <$ <$ <$ <$ <$ <$ <$ <$ <$ <$ <$ S# (# E@ E@ !@ r+ ~+ -+ #+ 9. D  `. z  L< w_ 0: *< 9[ 0[ #>.<;.^p l} l} l} l} l} p0 p@ p@ p@ p@ p@ p@ p@ p@ z+ z+ z+ 1R #Z #Z #Z #Z #Z #Z #Z #Z x,.h,.h,.i,.(,.z+ z+ z+ z+ z+ z+ z+ z+ z+ z+ z+ z+ z+ z+ z+ z+ z+ z+ z+ z+ z+ z+ z+ z+ ",
"=} =} =} =} =} q. U7 U7 U7 *3 (D (D (D (D (D (D (D (D rG u>.u>.u>.u>.u>.u>.u>.u>.u>.u>.u>.u>.u>.u>.u>.u>.u>.u>.u>.u>.j,.6>.I>.1>.1>.n>.$-.$-.$-.$-.$-.$-.c,.y,.E7 <;.<;.$r A;.I;.F;.4E om k  m  |. 0+ 0+ M. K. g  V@ 8  7  Rp (# S# <$ <$ <$ <$ <$ <$ <$ <$ <$ <$ F$ .) z,.v,.[' Xm *; A; A; $; :- 'n M% v% %8 =n k' <{ E~ E~ E~ E~ ]!  ,.A,.B,.                                                                                                                                                                                                                                                                                                                                                                                                                                                                                                                                                                                                                                                                                                                                                                                                                                                                                                L=.-8 E~ E~ E~ E~ _) 5f Lm b) =i nm %; %; %; X- S= C,.p=.w,.mm g,.B$ /% <$ <$ <$ <$ <$ <$ <$ <$ <$ <$ <$ S# (# E@ E@ !@ r+ ~+ -+ #+ 9. D  `. z  L< w_ 0: *< 9[ 0[ #>.<;.^p l} l} l} l} l} p@ p@ p@ p@ p@ p@ p@ p@ ZB z+ z+ z+ 1R #Z #Z #Z #Z #Z #Z #Z Kp h,.h,.h,.Zx z+ z+ z+ z+ z+ z+ z+ z+ z+ z+ z+ z+ z+ z+ z+ z+ z+ z+ z+ z+ z+ z+ z+ z+ z+ ",
"=} =} =} =} =} =} U7 U7 U7 U7 (D (D (D (D (D (D (D (D (D D,.u>.u>.u>.u>.u>.u>.u>.u>.u>.u>.u>.rH :,.u>.u>.u>.u>.u>.u>.u>.6>.E,.1>.1>.n>.$-.$-.$-.$-.$-.$-.F,._^ E7 <;.<;.$r A;.I;.F;.4E om k  m  |. 0+ 0+ M. K. g  V@ 8  7  Q# (# S# <$ <$ <$ <$ <$ <$ <$ <$ <$ <$ F$ Zo G,.v,.U& %N *; %; %; A; :- H,.~* Ym %8 Lm nh E~ E~ E~ E~ E~ ]!  ,.A,.B,.                                                                                                                                                                                                                                                                                                                                                                                                                                                                                                                                                                                                                                                                                                                                                                                                                                                                                                I,.-8 E~ E~ E~ E~ _) t4 8m b) =i nm %; %; %; md S= C,.p=.w,.lm 5+ V$ C# <$ <$ <$ <$ <$ <$ <$ <$ <$ <$ <$ S# (# E@ E@ !@ r+ ~+ -+ #+ 9. D  `. z  L< w_ 0: *< 9[ 0[ #>.<;.^p l} l} l} p0 p@ p@ p@ p@ p@ p@ p@ p@ ZB z+ z+ z+ CT #Z #Z #Z #Z #Z #Z #Z #Z s,.h,.h,.h,.(,.z+ z+ z+ z+ z+ z+ z+ z+ z+ z+ z+ z+ z+ z+ z+ z+ z+ z+ z+ z+ z+ z+ z+ z+ z+ ",
"=} =} =} =} =} =} U7 U7 U7 U7 #D (D (D (D (D (D (D (D (D (D :,.u>.u>.u>.u>.u>.u>.u>.u>.J,.(D (D (D J,.u>.u>.u>.u>.u>.u>.v>.K,.1>.1>.L,.$-.$-.$-.$-.$-.$-.$-.M,.E7 gp <;.$r A;.I;.F;.4E om k  m  |. 0+ 0+ M. K. g  V@ 8  7  Q# (# S# <$ <$ <$ <$ <$ <$ <$ <$ <$ <$ F$ N,.G,.O,.U& %N =; %; %; %; :- W* ~* Ym  8 8m Pa E~ E~ E~ E~ E~ ]!  ,.A,.B,.                                                                                                                                                                                                                                                                                                                                                                                                                                                                                                                                                                                                                                                                                                                                                                                                                                                                                                I,.-8 E~ E~ E~ E~ _) t4 8m b) =i nm %; %; %; X- S= C,.p=.3=.!x 5+ w; =$ <$ <$ <$ <$ <$ <$ <$ <$ <$ <$ <$ S# (# E@ E@ !@ r+ ~+ -+ #+ 9. D  `. z  L< w_ 0: *< 9[ 0[ B-.<;.^p l} l} p0 p@ p@ p@ p@ p@ p@ p@ C= z+ z+ z+ z+ CT #Z #Z #Z #Z #Z #Z #Z #Z #Z P,.h,.h,.#& z+ z+ z+ z+ z+ z+ z+ z+ z+ z+ z+ z+ z+ z+ z+ z+ z+ z+ z+ z+ z+ z+ z+ z+ z+ z+ ",
"=} =} =} =} =} =} -6 U7 U7 U7 Q| (D (D (D (D (D (D (D (D (D rG u>.u>.u>.u>.u>.u>.u>.u>.(D (D (D (D (D :,.u>.u>.u>.u>.u>.C>.c>.1>.1>.Q,.$-.$-.$-.$-.$-.$-.$-.R,.E7 gp <;.$r A;.I;.F;.4E om k  m  |. 0+ 0+ M. K. g  V@ 8  7  Om (# S# <$ <$ <$ <$ <$ <$ <$ <$ <$ <$ D$ Ph 9,.O,.r* Km =; %; %; %; :- W* A% s% =' $g .p E~ E~ E~ E~ E~ ]!  ,.S,.B,.                                                                                                                                                                                                                                                                                                                                                                                                                                                                                                                                                                                                                                                                                                                                                                                                                                                                                                I,.-8 E~ E~ E~ E~ _) b) ll X@ fd nm %; %; %; X- S= C,.f,.3=.!x 5+ B$ /% <$ <$ <$ <$ <$ <$ <$ <$ <$ <$ <$ S# (# E@ E@ !@ r+ ~+ -+ #+ 9. D  `. z  L< w_ 0: *< 9[ 0[ #>.<;.^p l} l} p@ p@ p@ p@ p@ p@ ,' z+ z+ z+ z+ z+ (,.#Z #Z #Z #Z #Z #Z #Z #Z #Z #Z h,.i,.a,.#Z z+ z+ z+ z+ z+ z+ z+ z+ z+ z+ z+ z+ z+ z+ z+ z+ z+ z+ z+ z+ z+ z+ z+ z+ z+ z+ ",
"=} =} =} =} =} =} $# U7 U7 U7 U7 (D (D (D (D (D (D (D (D (D (D J,.u>.u>.u>.u>.u>.u>.VG (D (D (D (D (D $,.u>.u>.u>.u>.u>.T,.6>.I>.1>.U,.$-.$-.$-.$-.$-.$-.$-.R,.E7 gp <;.$r A;.I;.F;.4E om k  m  |. 0+ 0+ M. K. g  V@ 8  7  Om S! S# <$ <$ <$ <$ <$ <$ <$ <$ <$ <$ D$ Ng G,.O,.sO }m y; %; %; %; :- W* A% s% =' ]k ;8 E~ E~ E~ E~ E~ ]!  ,.S,.B,.                                                                                                                                                                                                                                                                                                                                                                                                                                                                                                                                                                                                                                                                                                                                                                                                                                                                                                I,.-8 E~ E~ E~ E~ _) Xa ]k 9m 8= Il %; %; %; X- V,.W,.f,.3=./Z 5+ [  @! C# y# %$ <$ <$ <$ <$ <$ <$ <$ <$ S# (# E@ E@ !@ r+ ~+ -+ #+ 9. D  `. z  L< w_ 0: *< 9[ 0[ y>.<;.^p l} =. p@ p@ p@ p@ p@ /+ z+ z+ z+ z+ <C :C #Z #Z #Z #Z #Z #Z #Z #Z #Z #Z Kp X,.Kp #Z #Z z+ z+ z+ z+ z+ z+ z+ z+ z+ z+ z+ z+ z+ z+ z+ z+ z+ z+ z+ z+ z+ z+ z+ z+ z+ z+ ",
"=} =} =} =} =} =} q. U7 U7 U7 U7 Q| (D (D (D (D (D (D (D (D (D rG u>.u>.u>.u>.u>.u>.(D (D (D (D (D (D (D :,.u>.u>.u>.u>.Y,.6>.Z,.1>.iN $-.$-.$-.$-.$-.$-.`,. '..'.gp <;.$r A;.I;.F;.4E om k  m  |. 0+ 0+ M. K. g  V@ 8  7  O# c@ S# <$ <$ <$ <$ <$ <$ <$ <$ <$ <$ D$ k..+'.@'.r* Rl y; %; %; %; :- W* *' s% v4 ]k t4 E~ E~ E~ E~ E~ ]!  ,.S,.#'.                                                                                                                                                                                                                                                                                                                                                                                                                                                                                                                                                                                                                                                                                                                                                                                                                                                                                                I,.-8 E~ E~ E~ E~ a: A7 ^j 9m 8= Il z; %; %; X- V,.$'.w,.z,.bK 5+ [  [  :  V$ p$ /% g# <$ <$ <$ <$ <$ <$ S# (# E@ E@ !@ r+ ~+ -+ #+ 9. D  `. z  L< w_ 0: *< 9[ 0[ y>.<;.^p p0 p@ p@ p@ p@ p@ -* z+ z+ z+ CT :C #Z #Z #Z #Z #Z #Z #Z #Z #Z #Z #Z #Z .n .n #Z #Z #Z (,.z+ z+ z+ z+ z+ z+ z+ z+ z+ z+ z+ z+ z+ z+ z+ z+ z+ z+ z+ z+ z+ z+ z+ z+ z+ ",
"=} =} =} =} =} =} =} +& U7 U7 U7 U7 Q| )E #D (D (D (D (D (D (D (D :,.u>.u>.u>.u>.rH (D (D (D (D (D (D (D :,.u>.u>.u>.u>.M>.6>.X>.1>.*#.$-.$-.$-.$-.$-.g-. '. '.r+.gp <;.$r A;.I;.F;.4E om k  m  |. 0+ 0+ M. K. g  V@ 8  7  4  c@ S# <$ <$ <$ <$ <$ <$ <$ <$ <$ <$ y# _n 9,.gH sO Rl y; %; %; %; :- W* y% !8 R6 ^j od E~ E~ E~ E~ E~ ]! %'.&'.#'.                                                                                                                                                                                                                                                                                                                                                                                                                                                                                                                                                                                                                                                                                                                                                                                                                                                                                                   *'.E~ E~ E~ E~ E~ A7 z7 4) 6e Il z; %; %; X- S= 0q w,.z,.(Z [  [  [  [  [  :  :  '* r& y# <$ <$ <$ <$ S# (# E@ E@ !@ r+ ~+ -+ #+ ++ `. `. z  L< w_ 0: *< 9[ 0[ y>.<;.^p =. p@ p@ p@ p@ -* z+ z+ z+ CT #Z #Z #Z #Z #Z #Z #Z #Z #Z #Z #Z #Z #Z #Z #Z #Z #Z #Z #Z :C z+ z+ z+ z+ z+ z+ z+ z+ z+ z+ z+ z+ z+ z+ z+ z+ z+ z+ z+ z+ z+ z+ z+ z+ z+ ",
"=} =} =} =} =} =} =} %* U7 U7 U7 U7 U7 U7 U7 #D (D (D (D (D (D (D VG u>.u>.u>.u>.u>.:,.$,.(D (D (D (D (D J,.u>.u>.u>.u>.u>.6>.%,.1>.='.$-.$-.$-.$-.$-.-'. '. '. '.;'.<;.$r A;.I;.F;.4E om k  m  |. 0+ 0+ M. K. g  V@ 8  7  4  c@ S# <$ <$ <$ <$ <$ <$ <$ <$ <$ <$ y# f .9,.gH B& Rl y; %; %; %; :- W* z% p% `k ^j Xa E~ E~ E~ E~ E~ ]! %'.>'.#'.                                                                                                                                                                                                                                                                                                                                                                                                                                                                                                                                                                                                                                                                                                                                                                                                                                                                                                   *'.E~ E~ E~ E~ E~ q2 z7 ,'.6e eD *; z; o> X- ''.0q w,.z,.(Z [  [  [  [  [  [  [  [  :  r& y# <$ <$ <$ S# (# E@ E@ !@ r+ ~+ -+ a@ g+ BK `. z  L< w_ 0: *< 9[ 0[ B-.<;.^p p@ p@ p@ p@ /+ z+ z+ z+ z+ Z} #Z #Z #Z #Z #Z #Z #Z #Z #Z #Z #Z #Z #Z #Z #Z #Z #Z #Z #Z #Z <C z+ z+ z+ z+ z+ z+ z+ z+ z+ z+ z+ z+ z+ z+ z+ z+ z+ z+ z+ z+ z+ z+ z+ z+ ",
"=} =} =} =} =} =} =} b% U7 U7 U7 U7 U7 U7 U7 #D (D (D (D (D (D (D rG u>.u>.u>.u>.u>.u>.u>.VG (D (D (D (D VG u>.u>.u>.u>.u>.6>.t,.)'.!'.$-.$-.$-.$-.Xo  '. '. '. '.~'.<;.$r A;.I;.F;.4E om k  m  |. 0+ 0+ M. K. g  V@ 8  7  4  {@ S# <$ <$ <$ <$ <$ <$ <$ <$ <$ <$ g# :V 9,.gH B& Zk y; %; %; %; :- V* z% p% `k z7 A7 E~ E~ E~ E~ E~ ]! %'.>'.#'.                                                                                                                                                                                                                                                                                                                                                                                                                                                                                                                                                                                                                                                                                                                                                                                                                                                                                                   *'.E~ E~ E~ E~ E~ q2 {m ,'.6e Aj *; z; z; X- {'.]'.3=.aZ bZ [  [  [  [  [  [  [  [  [  :  C# <$ <$ <$ S# (# E@ E@ !@ r+ ~+ -+ a@ N. }. Y. z  L< w_ 0: *< 9[ 0[ B-.<;.^'.p@ p@ p@ *. z+ z+ z+ z+ z+ #Z #Z #Z #Z #Z #Z #Z #Z #Z #Z #Z #Z lC /1 #Z #Z #Z #Z #Z #Z #Z #Z z+ z+ z+ z+ z+ z+ z+ z+ z+ z+ z+ z+ z+ z+ z+ z+ z+ z+ z+ z+ z+ z+ z+ z+ ",
"=} =} =} =} =} =} =} q. U7 U7 U7 U7 U7 U7 Q| (D (D (D (D (D (D (D (D u>.u>.u>.u>.u>.u>.u>.u>.$,.(D (D (D (D u>.u>.u>.u>.u>.o,.6>. '.$-.$-.$-.$-.w#./'. '. '. '. '.~'.<;.$r A;.I;.F;.4E om k  m  |. 0+ 0+ M. K. g  V@ 8  7  b# TH S# <$ <$ <$ <$ <$ <$ <$ <$ <$ <$  # /&.9,.gH r* 6j P- z; z; o> :- V* w% p% `k z7 5c E~ E~ E~ E~ E~ ]! %'.>'.#'.                                                                                                                                                                                                                                                                                                                                                                                                                                                                                                                                                                                                                                                                                                                                                                                                                                                                                                   *'.E~ E~ E~ E~ E~ q2 k' Qk 6e (j *; &; &; ('.{'.]'.z,.G,.bZ [  [  [  [  [  [  [  [  [  [  3! y# <$ <$ S# (# E@ E@ !@ r+ ~+ -+ Hl 0+ j  W. z  L< w_ 0: *< 9[ v| Q-.<;.^'.p@ p@ p@ z+ z+ z+ z+ z+ z+ #Z #Z #Z #Z #Z #Z #Z #Z #Z #Z #Z sZ _'._'.:'.#Z #Z #Z #Z #Z #Z #Z :C CT z+ z+ z+ z+ z+ z+ z+ z+ z+ z+ z+ z+ z+ z+ z+ z+ z+ z+ z+ z+ z+ z+ ",
"=} =} =} =} =} =} =} q. U7 U7 U7 U7 U7 U7 #D (D (D (D (D (D (D (D (D :,.u>.u>.u>.u>.u>.u>.u>.:,.(D (D (D (D VG u>.u>.u>.u>.<'.['.&. $-.$-.$-.$-.K@  '. '. '. '. '.~'.<;.$r A;.I;.F;.4E om k  m  |. 0+ 0+ M. K. g  V@ 8  7  4  TH S# <$ <$ <$ <$ <$ <$ <$ <$ <$ <$  # }'.K6 gH sO 6j -; &; z; o> :- U* v% p% `k z7 k+ E~ E~ E~ E~ E~ ]! %'.>'.#'.                                                                                                                                                                                                                                                                                                                                                                                                                                                                                                                                                                                                                                                                                                                                                                                                                                                                                                   *'.E~ E~ E~ E~ E~ Z. k' k+ 6e (j *; &; &; ('.{'.]'.z,.G,.|'.[  [  [  [  [  [  [  [  [  [  V$ y# <$ <$ S# (# E@ E@ !@ r+ ~+ $+ 1'.0+ j  V. z  L< w_ 0: *< 9[ k-.<;.<;.^'.p@ p@ C= z+ z+ z+ z+ z+ z+ #Z #Z #Z #Z #Z #Z #Z #Z #Z #Z #Z 2'._'._'._'.2'.#Z #Z #Z #Z #Z #Z #Z #Z :C :C 1R <C z+ z+ z+ z+ z+ z+ z+ z+ z+ z+ z+ z+ z+ z+ z+ z+ z+ z+ ",
"=} =} =} =} =} b% -6 U7 U7 U7 U7 U7 U7 #D (D (D (D (D (D (D (D (D (D J,.u>.u>.u>.u>.u>.u>.u>.u>.(D (D (D (D (D :,.u>.u>.3'.4'.4'.5'.;P $-.$-.Xo  '. '. '. '. '. '.~'.<;.$r A;.I;.F;.4E om k  m  |. 0+ 0+ M. K. g  V@ 8  7  4  [# S# <$ <$ <$ <$ <$ <$ <$ <$ <$ <$ =$ :M K6 WX B& 6j -; &; &; o> :- U* v% Fj ]i k' Z. E~ E~ E~ E~ E~ ]! %'.>'.#'.                                                                                                                                                                                                                                                                                                                                                                                                                                                                                                                                                                                                                                                                                                                                                                                                                                                                                                   *'.E~ E~ E~ E~ E~ z  Pa j+ /j Aj *; *; *; ('.{'.]'.z,.9,.g,.3  [  [  [  [  [  [  [  [  [  :  g# <$ <$ S# (# E@ E@ !@ r+ ~+ $+ 0@ 0+ 4. U. z  L< w_ 0: *< M< B-.6'.<;.^'.p@ *. z+ z+ z+ z+ z+ z+ z+ #Z #Z #Z #Z #Z #Z #Z #Z #Z #Z lC _'._'._'._'._'..n #Z #Z #Z #Z #Z #Z #Z #Z #Z #Z #Z (,.z+ z+ z+ z+ z+ z+ z+ z+ z+ z+ z+ z+ z+ z+ z+ z+ z+ ",
"=} =} b% -6 U7 U7 U7 U7 U7 U7 U7 U7 *3 (D (D (D (D (D (D (D (D (D (D (D (D VG BH u>.u>.u>.u>.VG (D (D (D (D (D (D :,.u>.7'.4'.4'. '.;P g-.8'. '. '. '. '. '. '. '.~'.<;.$r A;.I;.F;.4E om k  m  |. 0+ 0+ M. K. g  V@ 8  7  4  c$ S# <$ <$ <$ <$ <$ <$ <$ <$ <$ <$ =$ 5+ 25 o=.A& 6j -; *; *; *; :- U* u% 7% ]i k' <{ E~ E~ E~ E~ E~ ]! %'.>'.#'.                                                                                                                                                                                                                                                                                                                                                                                                                                                                                                                                                                                                                                                                                                                                                                                                                                                                                                   u  E~ E~ E~ E~ E~ <{ Pa j+ /j (j *; *; *; W- {'.9'.aZ *8 g,.[  [  [  [  [  [  [  [  [  [  G.  # <$ <$ S# (# E@ E@ !@ r+ ~+ #+ 0'.0+ j  S. <{ L< w_ 0: Ln &< Q-.;'.<;.^'.*. -* z+ z+ z+ z+ z+ z+ z+ #Z #Z #Z #Z #Z #Z #Z #Z #Z sZ _'._'._'._'._'._'._'.#Z #Z #Z #Z #Z #Z #Z #Z #Z #Z #Z #Z (,.z+ z+ z+ z+ z+ z+ z+ z+ z+ z+ z+ z+ z+ z+ z+ z+ ",
"%* U7 U7 U7 U7 U7 U7 U7 U7 U7 U7 U7 )E (D (D (D (D (D (D (D (D (D (D (D (D (D (D (D (D (D (D (D (D (D (D (D (D (D (D :,.7'.4'.4'. '. '. '. '. '. '. '. '. '. '. '.~'.<;.$r A;.I;.F;.4E om k  m  |. 0+ 0+ M. K. g  V@ 8  7  b# b$ S# <$ <$ <$ <$ <$ <$ <$ <$ <$ <$ C# 5+ lm o=.A& `i -; *; *; *; :- mh u% 7% ]i k' R{ E~ E~ E~ E~ E~ ]! %'.>'.#'.                                                                                                                                                                                                                                                                                                                                                                                                                                                                                                                                                                                                                                                                                                                                                                                                                                                                                                   xK E~ E~ E~ E~ E~ E~ .p j+ 8= (j y; *; *; W- V,.Qo aZ K6 5+ [  [  [  [  [  [  [  [  [  [  [  C# <$ <$ S# (# E@ E@ !@ r+ ~+ e< M. 0+ j  h` x  L< w_ 0: TG k-.V-.;'.<;.yf z+ z+ z+ z+ z+ z+ z+ z+ z+ #Z #Z #Z #Z #Z #Z #Z #Z i1 _'._'._'._'._'._'._'._'./1 #Z #Z #Z #Z #Z #Z #Z #Z #Z #Z #Z #Z Z} 0,.l& <C z+ z+ z+ z+ z+ z+ z+ z+ z+ z+ z+ z+ ",
"U7 U7 U7 U7 U7 U7 U7 U7 U7 U7 U7 U7 U7 )E (D (D (D (D (D (D (D (D (D (D (D (D (D (D (D (D (D (D (D (D (D (D (D (D (D (D a'.4'.4'. '. '. '. '. '. '. '. '. '. '. '.~'.<;.$r A;.I;.F;.4E om k  m  |. 0+ 0+ M. K. g  V@ 8  7  _. a$ +# <$ <$ <$ <$ <$ <$ y# g#  # =$ C$ _  !x o=.@p `i -; *; *; *; :- mh t% 7% ]i p$ E~ E~ E~ E~ E~ E~ ]! %'.>'.#'.                                                                                                                                                                                                                                                                                                                                                                                                                                                                                                                                                                                                                                                                                                                                                                                                                                                                                                   xK E~ E~ E~ E~ E~ E~ ;8 X. 8= eh y; *; *; W- b'.9'.aZ 25 5+ [  [  [  [  [  [  [  [  [  [  [  h% %$ <$ S# (# E@ E@ !@ r+ R  Qk M. 0+ j  Q. x  L< w_ 0: c'.d'.gp ;'.<;.S-.z+ z+ z+ z+ z+ z+ z+ z+ z+ :C #Z #Z #Z #Z #Z #Z i1 _'._'._'._'._'._'._'._'._'.:'.#Z #Z #Z #Z #Z #Z #Z #Z #Z #Z #Z #Z #Z #Z #Z #Z #Z 0,.z+ z+ z+ z+ z+ z+ z+ z+ z+ z+ ",
"U7 U7 U7 U7 U7 U7 U7 U7 U7 U7 U7 U7 U7 U7 U7 )E (D (D (D (D (D (D (D (D (D (D (D (D (D (D (D (D (D (D (D (D (D (D (D (D @@ 4'.4'. '. '. '. '. '. '. '. '. '. '. '.~'.<;.$r A;.I;.F;.4E om k  m  |. 0+ 0+ M. K. g  V@ 8  7  =@ 1  (# <$ <$ <$ <$ %$ =$ K% r& w; V$ '* _  bK e'.kh Oh -; *; *; *; :- mh t% 5% Ph Pa E~ E~ E~ E~ E~ E~ ]! %'.>'.#'.                                                                                                                                                                                                                                                                                                                                                                                                                                                                                                                                                                                                                                                                                                                                                                                                                                                                                                   xK E~ E~ E~ E~ E~ E~ ;8 W. 8= eh y; =; =; W- b'.Qo aZ lm :M [  [  [  [  [  [  [  [  [  [  [  K% y# <$ S# (# E@ E@ !@ r+ *+ Rk M. 0+ j  P. x  L< w_ 0: m[ f'.<;.;'.<;.S-.z+ z+ z+ z+ z+ z+ z+ z+ z+ :C #Z #Z #Z #Z #Z /1 _'._'._'._'._'._'._'._'._'._'._'.#Z #Z #Z #Z #Z #Z #Z #Z #Z #Z #Z #Z #Z #Z #Z #Z #Z #Z #Z <C z+ z+ z+ z+ z+ z+ z+ z+ ",
"U7 U7 U7 U7 U7 U7 U7 U7 U7 U7 U7 U7 U7 U7 U7 U7 U7 Q| )E #D (D (D (D (D (D (D (D (D (D (D (D (D (D (D (D (D (D (D (D (D (D g'.4'. '. '. '. '. '. '. '. '. '. '. '.~'.<;.$r A;.I;.F;.4E om k  m  |. 0+ 0+ M. K. g  V@ 8  7  =@ 2  c@ <$ <$ <$ y# K% B$ [  [  [  [  [  [  bZ e'.@p lh ;; y; *; *; o- mh r% 4% {o ;8 E~ E~ E~ E~ E~ E~ ]! %'.>'.#'.                                                                                                                                                                                                                                                                                                                                                                                                                                                                                                                                                                                                                                                                                                                                                                                                                                                                                                   xK E~ E~ E~ E~ E~ _) t4 V. 8= eh P- y; =; W- S= Qo 9,.~t 5+ [  [  [  [  [  [  [  [  [  [  G. C$ y# <$ S# (# E@ E@ !@ r+ T+ -@ M. 0+ j  O. x  L< w_ d) h'.<;.<;.;'.<;.S-.z+ z+ z+ z+ z+ z+ z+ z+ Z} #Z #Z #Z #Z #Z #Z _'._'._'._'._'._'._'._'._'._'._'._'.sZ #Z #Z #Z #Z #Z #Z #Z #Z #Z #Z #Z #Z #Z #Z #Z #Z #Z #Z #Z <C z+ z+ z+ z+ z+ z+ z+ ",
"U7 U7 U7 U7 U7 U7 U7 U7 U7 U7 U7 U7 U7 U7 U7 U7 U7 U7 U7 U7 U7 Q| Q| )E #D (D (D (D (D (D (D (D (D (D (D (D (D (D (D (D (D i'.4'. '. '. '. '. '. '. '. '. '. '. '.~'.<;.$r A;.I;.F;.4E om k  m  |. 0+ 0+ M. K. g  V@ 8  7  =@ 1  Pa y# y# C# w; [  [  [  [  [  [  [  [  j'.e'.@p lh ;; =; y; y; o- mh r% 4% =n t4 E~ E~ E~ E~ E~ E~ ]! %'.>'.#'.                                                                                                                                                                                                                                                                                                                                                                                                                                                                                                                                                                                                                                                                                                                                                                                                                                                                                                   xK E~ E~ E~ E~ E~ _) t4 w  8= eh P- y; y; W- V,.Qo 9,.YD 5+ [  [  [  [  [  [  [  [  [  [  G. p$ y# <$ S# (# E@ E@ !@ V+ X@ M. M. 0+ j  j  R{ L< w_ 7: o;.<;.<;.;'.<;.;o z+ z+ z+ z+ z+ z+ l& #Z #Z #Z #Z #Z #Z #Z #Z _'._'._'._'._'._'._'._'._'._'._'._'.lC #Z #Z #Z #Z #Z #Z #Z #Z #Z #Z #Z #Z #Z #Z #Z #Z #Z #Z #Z #Z z+ z+ z+ z+ z+ z+ z+ ",
"U7 U7 U7 U7 U7 U7 U7 U7 U7 U7 U7 U7 U7 U7 U7 U7 U7 U7 U7 U7 U7 U7 U7 U7 U7 U7 Q| )E (D (D (D (D (D (D (D (D (D (D (D (D (D k'.4'. '. '. '. '. '. '. '. '.F3  '. '.~'.<;.$r A;.I;.F;.4E om k  m  |. 0+ 0+ M. K. g  V@ 8  7  =@ 3  kK h% C$ B$ [  [  [  [  [  [  [  [  [  :M l'.W& mg e; y; =; =; =A U* r% 2% ng A7 E~ E~ E~ E~ E~ E~ ]! %'.>'.#'.                                                                                                                                                                                                                                                                                                                                                                                                                                                                                                                                                                                                                                                                                                                                                                                                                                                                                                   _M E~ E~ E~ E~ E~ _) Xa X( 8= xf ;> P- y; i; V,.m'.9,./Z 5+ [  [  [  [  [  [  [  [  [  [  [  3! y# <$ S# (# E@ E@ !@ V  {# -@ M. 0+ j  2. v  L< %! n'.A;.V-.<;.;'.<;.o'.z+ z+ z+ z+ <C :C #Z #Z #Z #Z #Z #Z #Z #Z #Z _'._'._'._'._'._'._'._'._'._'._'._'.:'.#Z #Z #Z #Z #Z #Z #Z #Z #Z #Z #Z #Z #Z #Z #Z #Z #Z #Z #Z #Z CT z+ z+ z+ z+ z+ z+ ",
"U7 U7 U7 U7 U7 U7 U7 U7 U7 U7 U7 U7 U7 U7 U7 U7 U7 U7 U7 U7 U7 U7 U7 U7 U7 U7 U7 U7 U7 #D (D (D (D (D (D (D (D (D (D (D (D #  p'.q'. '. '. '. '. '. '.r'.s'. '. '.~'.<;.$r A;.I;.F;.4E om k  m  |. 0+ 0+ M. K. g  V@ 8  7  =@ 3  3  [  :  [  [  [  [  [  [  [  [  [  [  5+ l'.]* mg e; y; y; y; <- V* p%  & 8m q2 E~ E~ E~ E~ E~ E~ ]! %'.>'.#'.                                                                                                                                                                                                                                                                                                                                                                                                                                                                                                                                                                                                                                                                                                                                                                                                                                                                                                   _M E~ E~ E~ E~ E~ E~ X@ Oe 6e [g -; P- P- i; S= m'.9,.(Z 9$ [  [  [  [  [  [  [  [  [  [  [  X, g# <$ S# (# E@ E@ !@ u# B@ -@ M. 0+ j  m  r  E~ V( C;.A;.V-.<;.;'.~'.o'.z+ z+ z+ z+ :C #Z #Z #Z #Z #Z #Z #Z #Z #Z #Z _'._'._'._'._'._'._'._'._'._'._'._'._'.#Z #Z #Z #Z #Z #Z #Z #Z #Z #Z #Z #Z #Z #Z #Z #Z #Z #Z #Z #Z <C z+ z+ z+ z+ z+ z+ ",
"U7 U7 U7 U7 U7 U7 U7 U7 U7 U7 U7 U7 U7 U7 U7 U7 U7 U7 U7 U7 U7 U7 U7 U7 U7 U7 U7 U7 U7 U7 *3 (D (D (D (D (D (D (D (D (D (D 4G p'.t'. '. '. '. '. '.u'.s'.s'. '. '.~'.<;.$r A;.I;.F;.4E om k  m  |. 0+ 0+ M. K. g  V@ 8  7  =@ 3  3  [  [  [  [  [  [  [  [  [  [  [  [  [  $8 ]* `- e; P- y; y; =A n= p%  & Jt Z. E~ E~ E~ E~ E~ E~ ]! %'.>'.#'.                                                                                                                                                                                                                                                                                                                                                                                                                                                                                                                                                                                                                                                                                                                                                                                                                                                                                                   _M E~ E~ E~ E~ E~ E~ A7 8: 6e [g -; ;> ;> V- S= Qo 9,.bZ [  [  [  [  [  [  [  [  [  [  [  [  B$  # <$ S# (# E@ E@ !@ @/ g  -@ M. 0+ j  m  cZ v'.&>.I;.A;.V-.<;.;'.~'.o'.z+ z+ z+ z+ :C #Z #Z #Z #Z #Z #Z #Z #Z #Z sZ _'._'._'._'._'._'._'._'._'._'._'._'._'.sZ #Z #Z #Z #Z #Z #Z #Z #Z #Z #Z #Z #Z #Z #Z #Z #Z #Z #Z #Z CT z+ z+ z+ z+ z+ z+ ",
"U7 U7 U7 U7 U7 U7 U7 U7 U7 U7 U7 U7 U7 U7 U7 U7 U7 $# %* -6 U7 U7 U7 U7 U7 U7 U7 U7 U7 U7 U7 *3 (D (D (D (D (D (D (D (D (D 4G p'.w'. '. '. '. '. '.r'.s'.s'.&.  '.~'.<;.$r A;.I;.F;.4E om k  m  |. 0+ 0+ M. K. g  V@ 8  7  =@ 3  3  [  [  [  [  [  [  [  [  [  [  [  [  5+ /6 QH `- >; P- P- P- <- o= o%  & Jt <{ E~ E~ E~ E~ E~ E~ ]! %'.>'.#'.                                                                                                                                                                                                                                                                                                                                                                                                                                                                                                                                                                                                                                                                                                                                                                                                                                                                                                   _M E~ E~ E~ E~ E~ E~ q2 &< 6e [g -; ;> ;> U- x'.Qo *8 bZ [  [  [  [  [  [  [  [  [  [  [  [  9$ nV <$ S# (# E@ E@ V  y'.g  -@ M. 0+ j  m  om lZ 4E I;.A;.V-.<;.;'.~'.o'.z+ z+ z+ z+ Z} #Z #Z #Z #Z #Z #Z #Z #Z #Z 2'._'._'._'._'._'._'._'._'._'._'._'._'._'.M6 #Z #Z #Z #Z #Z #Z #Z #Z #Z #Z #Z #Z #Z #Z #Z #Z Z} z+ z+ z+ z+ z+ z+ z+ z+ z+ ",
"U7 U7 U7 U7 U7 U7 U7 U7 U7 U7 U7 U7 U7 U7 U7 U7 $# =} =} =} =} %* U7 U7 U7 U7 U7 U7 U7 U7 U7 U7 Q| #D (D (D (D (D (D (D (D 4G p'.p'.q'. '. '. '. '.z'.s'.s'.z'. '.~'.<;.$r A;.I;.F;.4E om k  m  |. 0+ 0+ M. K. g  V@ 8  7  =@ 3  3  [  [  [  [  [  [  [  [  [  [  [  [  5+ XA QH `- >; ;> -; -; Af o= n%  & 4f E~ E~ E~ E~ E~ E~ E~ ]! %'.>'.#'.                                                                                                                                                                                                                                                                                                                                                                                                                                                                                                                                                                                                                                                                                                                                                                                                                                                                                                   _M E~ E~ E~ E~ E~ E~ Z. A'.8= xf -; -; -; U- x'.`G K6 |'.[  [  [  [  [  [  [  [  [  [  [  [  [  w; g# S# (# E@ ~@ b) 8  g  -@ M. 0+ j  m  om lZ 4E I;.A;.V-.<;.;'.~'.o'.z+ z+ z+ z+ CT #Z #Z #Z #Z #Z #Z #Z #Z :'._'._'._'._'._'._'._'._'._'._'._'._'._'._'._'.i1 #Z #Z #Z #Z #Z #Z #Z #Z #Z #Z #Z #Z #Z #Z #Z z+ z+ z+ z+ z+ z+ z+ z+ z+ z+ ",
"U7 U7 U7 U7 U7 U7 U7 U7 U7 U7 U7 U7 U7 U7 U7 $# =} =} =} =} =} =} =} %* U7 U7 U7 U7 U7 U7 U7 U7 U7 U7 )E (D (D (D (D (D (D 4G p'.p'.B'. '. '. '. '.z'.s'.s'.s'.C'.~'.<;.$r A;.I;.F;.4E om k  m  |. 0+ 0+ M. K. g  V@ 8  7  =@ 3  3  [  [  [  [  [  [  [  [  [  [  [  [  5+ >A y& `- >; -; ;> -; Af o= 7% j% h% _) E~ E~ E~ E~ E~ E~ ]! %'.>'.#'.                                                                                                                                                                                                                                                                                                                                                                                                                                                                                                                                                                                                                                                                                                                                                                                                                                                                                                   _M E~ E~ E~ E~ E~ E~ Y. D'.8= xf -; -; -; T- x'.`G 25 :M [  [  [  [  [  [  [  [  [  [  [  [  [  [  C$ f# S# v# )+ DK 9  g  -@ M. 0+ j  m  om lZ 4E I;.A;.V-.<;.;'.~'.o'.z+ z+ z+ z+ z+ 1R #Z #Z #Z #Z sZ :'._'._'._'._'._'._'._'._'._'._'._'._'._'._'._'._'._'._'.2'.M6 sZ #Z #Z #Z #Z #Z #Z #Z #Z #Z #Z #Z #Z Z} CT z+ z+ z+ z+ z+ z+ z+ z+ ",
"U7 U7 U7 U7 U7 U7 U7 U7 U7 U7 U7 U7 U7 U7 $# =} =} =} =} =} =} =} =} =} q. +& U7 U7 U7 U7 U7 U7 U7 U7 U7 Q| #D (D (D (D (D 4G p'.p'.E'. '. '. '. '.F'.s'.s'.s'.s'.~'.<;.$r A;.I;.F;.4E om k  m  |. 0+ 0+ M. K. g  V@ 8  7  =@ 3  3  [  [  [  [  [  [  [  [  [  [  [  [  :  ,5 y& `- ,; -; -; -; Af G'.7% <% 9e E~ E~ E~ E~ E~ E~ E~ ]! %'.>'.#'.                                                                                                                                                                                                                                                                                                                                                                                                                                                                                                                                                                                                                                                                                                                                                                                                                                                                                                   _M E~ E~ E~ E~ E~ E~ <{ H'.6e [g ;; -; -; T- S= `G lm 5+ [  [  [  [  [  [  [  [  [  [  [  [  [  [  :  b$ 0) 5f Q# a  8  g  -@ M. 0+ j  m  om lZ 4E I;.A;.V-.<;.;'.~'.o'.z+ z+ z+ z+ z+ z+ :C #Z #Z #Z #Z 2'._'._'._'._'._'._'._'._'._'._'._'._'._'._'._'._'._'._'._'._'._'.2'./1 #Z #Z #Z #Z #Z #Z #Z #Z #Z #Z #Z #Z :C CT z+ z+ z+ z+ z+ z+ ",
"U7 U7 U7 U7 U7 U7 U7 U7 U7 U7 U7 U7 U7 s; =} =} =} =} =} =} =} =} =} =} =} =} $# U7 U7 U7 U7 U7 U7 U7 U7 U7 U7 )E (D (D (D 4G p'.p'.p'. '. '. '. '.I'.s'.s'.s'.s'.~'.<;.$r A;.I;.F;.4E om k  m  |. 0+ 0+ M. K. g  V@ 8  7  =@ 3  3  [  [  [  [  [  [  [  [  [  [  [  [  G. tJ Z,  ; ,; -; -; -; <- o= 7% $) M8 E~ E~ E~ E~ E~ E~ E~ ]! %'.>'.#'.                                                                                                                                                                                                                                                                                                                                                                                                                                                                                                                                                                                                                                                                                                                                                                                                                                                                                                   _M E~ E~ E~ E~ E~ E~ E~ J'.6e Pe e; ;; ;; T- S= `G bK 5+ [  [  [  [  [  [  [  [  [  [  [  [  [  [  [  3  3  b# 7  a  8  g  -@ M. 0+ j  m  om lZ 4E I;.A;.V-.<;.;'.~'.o'.z+ z+ z+ z+ z+ z+ z+ :C #Z #Z #Z #Z _'._'._'._'._'._'._'._'._'._'._'._'._'._'._'._'._'._'._'._'._'._'._'._'.lC #Z #Z #Z #Z #Z #Z #Z #Z #Z #Z #Z #Z z+ z+ z+ z+ z+ z+ ",
"U7 U7 U7 U7 U7 U7 U7 U7 U7 U7 U7 U7 s; =} =} =} =} =} =} =} =} =} =} =} =} =} =} =} q. %* s; U7 U7 U7 U7 U7 U7 U7 *3 (D (D 4G p'.p'.p'.K'. '. '. '. '.s'.s'.s'.s'.~'.<;.$r A;.I;.F;.4E om k  m  |. 0+ 0+ M. K. g  V@ 8  7  =@ 3  3  [  [  [  [  [  [  [  [  [  [  [  [  [  /&.Z, md ,; -; -; -; <- o= 4% $) h6 E~ E~ E~ E~ E~ E~ E~ ]! %'.>'.#'.                                                                                                                                                                                                                                                                                                                                                                                                                                                                                                                                                                                                                                                                                                                                                                                                                                                                                                   _M E~ E~ E~ E~ E~ E~ E~ L'.6e 7e e; ;; e; S- S= `G M'.5+ [  [  [  [  [  [  [  [  [  [  [  [  [  [  [  3  3  _. _. a  8  g  -@ M. 0+ j  m  om lZ 4E I;.A;.V-.<;.;'.~'.o'.z+ z+ z+ z+ z+ z+ z+ z+ :C #Z #Z #Z i1 _'._'._'._'._'._'._'._'._'._'._'._'._'._'._'._'._'._'._'._'._'._'._'._'./1 #Z #Z #Z #Z #Z #Z #Z #Z #Z #Z #Z CT z+ z+ z+ z+ z+ ",
"U7 U7 U7 U7 U7 U7 U7 U7 U7 U7 U7 -6 =} =} =} =} =} =} =} =} =} =} =} =} =} =} =} =} =} =} =} q. U7 U7 U7 U7 U7 U7 U7 Q| #D U7 N'.p'.p'.O'. '. '. '. '.P'.s'.s'.s'.~'.<;.$r A;.I;.F;.4E om k  m  |. 0+ 0+ M. K. g  V@ 8  7  =@ 3  3  [  [  [  [  [  [  [  [  [  [  [  [  [  eK y& md ,; -; -; -; [- S* 2% _% M7 E~ E~ E~ E~ E~ E~ E~ ]! %'.>'.#'.                                                                                                                                                                                                                                                                                                                                                                                                                                                                                                                                                                                                                                                                                                                                                                                                                                                                                                   _M E~ E~ E~ E~ E~ E~ _) Q'.6e 7e e; ;; e; S- S= `G g,.[  [  [  [  [  [  [  [  [  [  [  [  [  [  [  [  3  3  _. _. a  8  g  -@ M. 0+ j  m  om lZ 4E I;.A;.V-.<;.;'.~'.o'.z+ z+ z+ z+ z+ z+ z+ z+ z+ l& #Z #Z #Z #Z M6 _'._'._'._'._'._'._'._'._'._'._'._'._'._'._'._'._'._'._'._'._'._'.2'.#Z #Z #Z #Z #Z #Z #Z #Z #Z #Z #Z <C z+ z+ z+ z+ z+ ",
"U7 U7 U7 U7 U7 U7 U7 U7 U7 U7 +& =} =} =} =} =} =} =} =} =} =} =} =} =} =} =} =} =} =} =} =} =} -6 U7 U7 U7 U7 U7 U7 U7 $# =} >4 R'.S'.T'.XP c4  '. '.F'.s'.s'.s'.~'.<;.$r A;.I;.F;.4E om k  m  |. 0+ 0+ M. K. g  V@ 8  7  =@ 3  3  [  [  [  [  [  [  [  [  [  [  [  [  [  hK y& X- '; ;; ;; f; }- S* 2% +) e< E~ E~ E~ E~ E~ E~ E~ ]! %'.>'.#'.                                                                                                                                                                                                                                                                                                                                                                                                                                                                                                                                                                                                                                                                                                                                                                                                                                                                                                   _M E~ E~ E~ E~ E~ E~ _) U'.6e Do e; e; e; R- S= V'.[  [  [  [  [  [  [  [  [  [  [  [  [  [  [  [  [  3  3  _. _. a  8  g  -@ M. 0+ j  m  om lZ 4E I;.A;.V-.<;.;'.~'.o'.z+ z+ z+ z+ z+ z+ z+ z+ z+ z+ l& #Z #Z #Z #Z #Z sZ _'._'._'._'._'._'._'._'._'._'._'._'._'._'._'._'._'._'._'._'._'.i1 #Z #Z #Z #Z #Z #Z #Z #Z #Z #Z 0,.z+ z+ z+ z+ z+ ",
"U7 U7 U7 U7 U7 U7 U7 U7 U7 U7 q. =} =} =} =} =} =} =} =} =} =} =} =} =} =} =} =} =} =} =} =} =} q. U7 U7 U7 U7 U7 U7 s; =}  g g-.g-.W'.T'.&4 g-.k@ ow X'.Y'.Ri Ri ~'.<;.$r A;.I;.F;.4E om k  m  |. 0+ 0+ M. K. g  V@ 8  7  =@ 3  3  [  [  [  [  [  [  [  [  [  [  [  [  [  V$ t* X- x> ;; ;; ;; }- S* 2% 9% 2^ E~ E~ E~ E~ E~ E~ E~ ]! %'.>'.#'.                                                                                                                                                                                                                                                                                                                                                                                                                                                                                                                                                                                                                                                                                                                                                                                                                                                                                                   f&.E~ E~ E~ E~ E~ E~ E~ Z'.6e 7e e; e; e; R- `'. ).[  [  [  [  [  [  [  [  [  [  [  [  [  [  [  [  [  3  3  _. _. a  8  g  -@ M. 0+ j  m  om lZ 4E I;.A;.V-.<;.;'.~'.o'.z+ z+ z+ z+ z+ z+ z+ z+ z+ CT #Z #Z #Z #Z #Z #Z #Z _'._'._'._'._'._'._'._'._'._'._'._'._'._'._'._'._'._'._'._'._'.lC #Z #Z #Z #Z #Z #Z #Z #Z #Z #Z #Z (,.z+ z+ z+ z+ ",
"-6 U7 U7 U7 U7 U7 U7 U7 U7 $# =} =} =} =} =} =} =} =} =} =} =} =} =} =} =} =} =} =} =} =} =} =} =} $# U7 U7 U7 U7 s; =}  g ;P g-.g-..).T'.&4 g-.g-.g-.F'.+).+).+).~'.<;.$r A;.I;.F;.4E om k  m  |. 0+ 0+ M. K. g  V@ 8  7  =@ 3  3  [  [  [  [  [  [  [  [  [  [  [  [  [  V$ 7& j; d; e; ;; e; }- S* 2% l0 D  E~ E~ E~ E~ E~ E~ E~ ]! %'.>'.#'.                                                                                                                                                                                                                                                                                                                                                                                                                                                                                                                                                                                                                                                                                                                                                                                                                                                                                                   f&.E~ E~ E~ E~ E~ E~ E~ @).8= 6R >; e; e; +; `'.%o 3  [  [  [  [  [  [  [  [  [  [  [  [  [  [  [  [  3  3  _. _. a  8  g  -@ M. 0+ j  m  om lZ 4E I;.A;.V-.<;.;'.~'.o'.z+ z+ z+ z+ z+ z+ z+ z+ (,.#Z #Z #Z #Z #Z #Z #Z #Z _'._'._'._'._'._'._'._'._'._'._'._'._'._'._'._'._'._'._'._'._'._'.#Z #Z #Z #Z #Z #Z #Z #Z #Z #Z #Z #Z Z} CT z+ z+ ",
"=} +& U7 U7 U7 U7 U7 U7 -6 =} =} =} =} =} =} B+ #).}! }! }! >;. | wo =} =} =} =} =} =} =} =} =} =} =} $# U7 -6 q. =}  g ;P g-.g-.g-.T'.T'.&4 g-.g-.g-. P m3 m3 m3 ~'.<;.$r A;.I;.F;.4E om k  m  |. 0+ 0+ M. K. g  V@ 8  7  =@ 3  3  [  [  [  [  [  [  [  [  [  [  [  [  [  hK 5& BU x> e; e; e; }- o, k%  % `. E~ E~ E~ E~ E~ E~ E~ ]! %'.>'.#'.                                                                                                                                                                                                                                                                                                                                                                                                                                                                                                                                                                                                                                                                                                                                                                                                                                                                                                   /7 E~ E~ E~ E~ E~ E~ E~ $).8= %N ,; >; e; Q- `'.%)./$ [  [  [  [  [  [  [  [  [  [  [  [  [  [  [  [  3  3  _. _. a  8  g  -@ M. 0+ j  m  om lZ 4E I;.A;.V-.<;.;'.~'.A= z+ z+ z+ z+ z+ z+ z+ Z} #Z #Z #Z #Z #Z #Z #Z #Z lC _'._'._'._'._'._'._'._'._'._'._'._'._'._'._'._'._'._'._'._'._'._'.M6 #Z #Z #Z #Z #Z #Z #Z #Z #Z #Z #Z #Z #Z :C (,.",
"=} =} %* U7 U7 U7 U7 U7 q. =} =} =} =} p} >;.}! }! }! }! }! }! }! }! &).wo =} =} =} =} =} =} =} =} =} =} =} =} =} um ;P g-.g-.g-.g-.T'.T'.&4 g-.g-.g-.g-.g-.g-.g-.~'.<;.$r A;.I;.F;.4E om k  m  |. 0+ 0+ M. K. g  V@ 8  7  =@ 3  3  [  [  [  [  [  [  [  [  [  [  [  [  [  _&.Z& BU x> e; e; e; }- o, |% -% `. E~ E~ E~ E~ E~ E~ E~ ]! %'.>'.#'.                                                                                                                                                                                                                                                                                                                                                                                                                                                                                                                                                                                                                                                                                                                                                                                                                                                                                                   /7 E~ E~ E~ E~ E~ E~ E~ *).fd %N ,; >; >; Q- `'.=).3  [  [  [  [  [  [  [  [  [  [  [  [  [  [  [  [  3  3  _. _. a  8  g  -@ M. 0+ j  m  om lZ 4E I;.A;.V-.<;.;'.~'.G+ -).z+ z+ z+ z+ z+ :C #Z #Z #Z #Z #Z #Z #Z #Z /1 _'._'._'._'._'._'._'._'._'._'._'._'._'._'._'._'._'._'._'._'._'._'._'._'._'.:'.:'.lC #Z #Z #Z #Z #Z #Z #Z #Z #Z #Z #Z ",
"=} =} =} =} b% %* $# q. =} =} =} =} p} }! }! }! }! }! }! }! }! }! }! }! }! p} =} =} =} =} =} =} =} =} =} =} =! sx g-.g-.g-.g-.g-.g-.T'.&t g-.g-.g-.g-.g-.g-.g-.g-.~'.<;.$r A;.I;.F;.4E om k  m  |. 0+ 0+ M. K. g  V@ 8  7  =@ 3  3  [  [  [  [  [  [  [  [  [  [  [  [  [  V$ Z& j; ); >; e; e; n- o, <% W$ `. E~ E~ E~ E~ E~ E~ E~ ]! %'.>'.#'.                                                                                                                                                                                                                                                                                                                                                                                                                                                                                                                                                                                                                                                                                                                                                                                                                                                                                                   /7 E~ E~ E~ E~ E~ E~ E~ ;).3H fq ,; ,; ,; Q- `'.>).3  [  [  [  [  [  [  [  [  [  [  [  [  [  [  [  [  3  3  _. _. a  8  g  -@ M. 0+ j  m  om lZ 4E I;.A;.V-.<;.;'.~'.G+ ,).z+ z+ z+ z+ :C #Z #Z #Z #Z #Z #Z #Z i1 :'._'._'._'._'._'._'._'._'._'._'._'._'._'._'._'._'._'._'._'._'._'._'._'._'._'._'._'._'._'._'.2'.lC /1 sZ #Z #Z #Z #Z #Z #Z ",
"=} =} =} =} =} =} =} =} =} =} =} wo }! }! }! }! }! }! }! }! }! }! }! }! }! }! wo =} =} =} =} =} =} =} =} um  P g-.g-.g-.g-.g-.g-.g-.T'.>x g-.g-.g-.g-.g-.g-.g-.g-.~'.<;.$r A;.I;.F;.4E om k  m  |. 0+ 0+ M. K. g  V@ 8  7  =@ 3  3  [  [  [  [  [  [  [  [  [  [  [  [  [  B$ |f W- ); >; >; >; n- o, &% e1 `. E~ E~ E~ E~ E~ E~ E~ ]! %'.>'.#'.                                                                                                                                                                                                                                                                                                                                                                                                                                                                                                                                                                                                                                                                                                                                                                                                                                                                                                   /7 E~ E~ E~ E~ E~ E~ E~ ').7= Zk x> ,; ,; h; )).!).5  [  [  [  [  [  [  [  [  [  [  [  [  [  [  [  [  3  3  _. _. a  8  g  -@ M. 0+ j  m  om lZ 4E I;.A;.V-.<;.;'.~'.Jp ,).z+ $5 $5 i1 ~).HO {).]).~).lC M6 2'._'._'._'._'._'._'._'._'._'._'._'._'._'._'._'._'._'._'._'._'._'._'._'._'._'._'._'._'._'._'._'._'._'._'._'._'._'.2'.lC #Z #Z #Z ",
"=} =} =} =} =} =} =} =} =} =} =} (m }! }! }! }! }! }! }! }! }! }! }! }! }! }! p} =} =} =} =} =} =! Y . P g-.g-.g-.g-.g-.g-.g-.g-.g-.|R g-.g-.g-.g-.g-.g-.g-.g-.g-.~'.<;.$r A;.I;.F;.4E om k  m  |. 0+ 0+ M. K. g  V@ 8  7  =@ 3  3  [  [  [  [  [  [  [  [  [  [  [  [  [  B$ |f U- C; ,; >; >; n- o, &% W' `. E~ E~ E~ E~ E~ E~ E~ ]! %'.>'.#'.                                                                                                                                                                                                                                                                                                                                                                                                                                                                                                                                                                                                                                                                                                                                                                                                                                                                                                   /7 E~ E~ E~ E~ E~ E~ E~ ^)./).().x> ,; ,; #; x'._).5  [  [  [  [  [  [  [  [  [  [  [  [  [  [  [  [  3  3  _. _. a  8  g  -@ M. 0+ j  m  om lZ 4E I;.A;.V-.<;.;'.~'.:).`..`..`..`..`..`..`..>+.<).<).[).iR }).|)._'._'._'._'._'._'._'._'._'._'._'._'._'._'._'._'._'._'._'._'._'._'._'._'._'._'._'._'.SZ RU RU RU RU RU RU D6 _'._'._'.i1 #Z ",
"=} =} =}  g T7 T7 T7 T7 T7 T7 =# }! }! }! }! }! }! }! }! }! }! }! }! }! }! }! p} =! T7 ;n 1).,4 g-.g-.g-.g-.g-.g-.g-.g-.g-.g-.g-.g-.g-.g-.g-.g-.g-.g-.g-.g-.g-.g-.~'.<;.$r A;.I;.F;.4E om k  m  |. 0+ 0+ M. K. g  V@ 8  7  =@ 3  3  [  [  [  [  [  [  [  [  [  [  [  [  [  B$ 5& f; b; ,; ,; ,; }- o, 9% (# `. E~ E~ E~ E~ E~ E~ E~ ]! %'.>'.#'.                                                                                                                                                                                                                                                                                                                                                                                                                                                                                                                                                                                                                                                                                                                                                                                                                                                                                                   /7 E~ E~ E~ E~ E~ E~ E~ 2).3).4).,; ,; ,; @; b#.5)._. [  [  [  [  [  [  [  [  [  [  [  [  [  [  [  [  3  3  _. _. a  8  g  -@ M. 0+ j  m  om lZ 4E I;.A;.V-.<;.;'.~'.6).hi hi 7).f4 f4 8).8).8).8).8).8).8).8).8).9).0).H+.a).b)._'._'._'._'._'._'._'._'._'._'._'._'.72 72 72 72 72 72 72 72 *x .t c).(@ (@ (@ (@ (@ (@ (@ (@ (@ (@ (@ (@ c@.",
"g-.g-.g-.g-.g-.g-.g-.g-.g-.g-.g-.g-.g-.g-.g-.g-.g-.g-.h-.pp pp pp pp pp pp pp h-.g-.g-.g-.g-.g-.g-.g-.g-.g-.g-.g-.g-.g-.g-.g-.g-.g-.g-.g-.g-.g-.g-.g-.g-.g-.g-.g-.~'.<;.$r A;.I;.F;.4E om k  m  |. 0+ 0+ M. K. g  V@ 8  7  =@ 3  3  [  [  [  [  [  [  [  [  [  [  [  [  [  B$ s* r> *> q> ,; ,; }- d).Z$ ~@ `. E~ E~ E~ E~ E~ E~ E~ ]! %'.>'.#'.                                                                                                                                                                                                                                                                                                                                                                                                                                                                                                                                                                                                                                                                                                                                                                                                                                                                                                   /7 E~ E~ E~ E~ E~ E~ E~ e).f).g).,; '; '; @; Y= h)._. [  [  [  [  [  [  [  [  [  [  [  [  [  [  [  [  3  3  _. _. a  8  g  -@ M. 0+ j  m  om lZ 4E I;.A;.V-.<;.;'.~'.i).8).8).8).8).8).8).8).8).8).8).8).8).8).8).8).8).8).8).8).8).8).8).8).8).8).8).8).8). y j).j).j).j).j).j).j).j).j).j).j).j).j).j).j).j).j).j).j).j).j).j).j).j).j).j).",
"g-.g-.g-.g-.g-.g-.g-.g-.g-.g-.g-.g-.g-.g-.g-.g-.g-.g-.g-.g-.g-.g-.g-.g-.g-.g-.g-.g-.g-.g-.g-.g-.g-.g-.g-.g-.g-.g-.g-.g-.g-.g-.g-.g-.g-.g-.g-.g-.g-.g-.g-.g-.g-.g-.~'.<;.$r A;.I;.F;.4E om k  m  |. 0+ 0+ M. K. g  V@ 8  7  =@ 3  3  [  [  [  [  [  [  [  [  [  [  [  [  [  B$ C& k).l).c; c; c; m- m).G$ R# `. E~ E~ E~ E~ E~ E~ E~ ]! %'.>'.#'.                                                                                                                                                                                                                                                                                                                                                                                                                                                                                                                                                                                                                                                                                                                                                                                                                                                                                                   /7 E~ E~ E~ E~ E~ E~ E~ n).o).p).[> '; '; #; q).=)._. [  [  [  [  [  [  [  [  [  [  [  [  [  [  [  [  3  3  _. _. a  8  g  -@ M. 0+ j  m  om lZ 4E I;.A;.V-.<;.;'.~'.i).8).8).8).8).8).8).8).8).8).8).8).8).8).8).8).8).8).8).8).8).8).8).8).8).8).8).8).8).r).j).j).j).j).[4 l@ l@ l@ l@ s).j).j).j).j).j).j).j).j).j).j).j).j).j).j).j).j).",
"g-.g-.g-.g-.g-.g-.g-.g-.g-.g-.g-.g-.g-.g-.g-.g-.g-.g-.g-.g-.g-.g-.g-.g-.g-.g-.g-.g-.g-.g-.g-.g-.g-.g-.g-.(;.(;.(;.gX g-.g-.g-.g-.g-.g-.g-.g-.g-.g-.g-.g-.g-.g-.g-.~'.<;.$r A;.I;.F;.4E om k  m  |. 0+ 0+ M. K. g  V@ 8  7  =@ 3  3  [  [  [  [  [  [  [  [  [  [  [  [  [  B$ I, t).'H u).q- ^- v).1[ <$ E@ `. E~ E~ E~ E~ E~ E~ E~ ]! %'.>'.#'.                                                                                                                                                                                                                                                                                                                                                                                                                                                                                                                                                                                                                                                                                                                                                                                                                                                                                                   /7 E~ E~ E~ E~ E~ E~ E~ w).x).y).z).D; (; A).B).EF _. [  [  [  [  [  [  [  [  [  [  [  [  [  [  [  [  3  3  _. _. a  8  g  -@ M. 0+ j  m  om lZ 4E I;.A;.V-.<;.;'.~'.i).8).8).8).8).8).8).8).8).8).8).8).8).8).8).8).8).8).8).8).8).8).8).8).8).8).8).8).8).C).Zv Zv D).E).E).E).E).F).F).F).F).F).F).F).G).H).I).Q< d4 j).j).j).j).j).j).j).",
"g-.g-.g-.g-.g-.g-.g-.g-.g-.g-.g-.g-.g-.g-.g-.g-.g-.g-.g-.g-.g-.k@.M1 g-.g-.g-.g-.t-.;} ;} ;} iz J).K).L).M).N).N).O).P).Q).Q' R).R).R).R).S).N( N( N( R).R).R).R).~'.<;.$r A;.I;.F;.4E om k  m  |. 0+ 0+ M. K. g  V@ 8  7  =@ 3  3  [  [  [  [  [  [  [  [  [  [  [  [  [  B$ =% T).U).P& R& R& V& V).<$ E@ `. E~ E~ E~ E~ E~ w_ _) W).X). -.Y).                                                                                                                                                                                                                                                                                                                                                                                                                                                                                                                                                                                                                                                                                                                                                                                                                                                                                                   M2 8! E~ E~ E~ E~ E~ E~ Z).`). !..!.nd (} +!.@!.#!.5  [  [  [  [  [  [  [  [  [  [  [  [  [  [  [  [  3  3  _. _. a  8  g  -@ M. 0+ j  m  om lZ 4E I;.A;.V-.<;.;'.~'.i).8).8).8).8).8).8).8).8).8).8).8).8).8).8).8).8).8).$!.%!.&!.*!.*!.*!.*!.*!.*!.*!.*!.&!.=!.-!.;!.;!.;!.;!.;!.;!.;!.;!.;!.;!.;!.;!.>!.,!.'!.'!.'!.'!.'!.)!.!!.Wv j).j).",
"g-.g-.g-.g-.g-.g-.g-.g-.g-.g-.g-.g-.g-.g-.g-.g-.g-.g-.g-.g-.g-.K+ ~!.~!.{!.'8 i$.N( ]!.R).R).R).R).R).R).R).R).R).R).R).R).R).R).j/ '8 ^!.~!.~!.~!.~!.~!.~!.^!.{!.~'.<;.$r A;.I;.F;.4E om k  m  |. 0+ 0+ M. K. g  V@ 8  7  =@ 3  3  [  [  [  [  [  [  [  [  [  [  [  [  [  B$ y# E@ E$ <% l% l% |% Z$ <$ S# ,@ *+ G  /!.(!._!.:!.5I <!.x=.[!.}!.                                                                                                                                                                                                                                                                                                                                                                                                                                                                                                                                                                                                                                                                                                                                                                                                                                                                                                   1g |!._) E~ E~ E~ E~ E~ L2 <$ B( }w h, 1!.6N *% :  [  [  [  [  [  [  [  [  [  [  [  [  [  [  [  [  [  3  3  _. _. a  8  g  -@ M. 0+ j  m  om lZ 4E I;.A;.V-.<;.;'.~'.2!.8).8).8).8).8).8).8).8).8).8).8).8).8).8).8).8).8).3!.;!.%!.4!.*!.*!.*!.*!.5!.6!.7!.;!.;!.;!.;!.;!.;!.;!.;!.;!.;!.;!.;!.8!.8!.9!.0!.a!.X,.GP '!.'!.'!.'!.'!.l} b!.j).",
"2{ 2{ 2{ 2{ 2{ 2{ 2{ 2{ 2{ 2{ 2{ 2{ Bo BT BT s>.g-.g-.g-.g-.g-.~!.~!.~!.~!.~!.~!.~!.~!.~!.~!.~!.~!.~!.c!.c!.c!.c!.c!.c!.d!.e!.f!.^!.~!.~!.~!.~!.~!.~!.~!.~!.~!.~!.~'.<;.$r A;.I;.F;.4E om k  m  |. 0+ 0+ h  M. g  V@ 8  7  =@ 3  3  [  [  [  [  [  [  [  [  [  [  [  [  [  B$ y# <$ F$ <% n% p% }% X$ F$ 89 =% n% g!.h!.i!.j!.k!.l!.m!.n!.o!.p!.                                                                                                                                                                                                                                                                                                                                                                                                                                                                                                                                                                                                                                                                                                                                                                                                                                                                                                   q!.lT ,u r!.E~ E~ E~ E~ 7. ]# S# <$ I$ X$ S# K% [  [  [  [  [  [  [  [  [  [  [  [  [  [  [  [  [  [  3  3  _. _. a  8  g  -@ M. 0+ j  m  om lZ 4E I;.A;.V-.<;.;'.s!.)o t!.u!.8).8).8).8).8).8).8).8).8).8).8).8).8).8).8).8).9z ;!.;!.v!.w!.w!.x!.;!.;!.;!.;!.;!.;!.;!.;!.;!.;!.;!.y!.z!.A!.B!.B!.B!.B!.B!.B!.C!.D!.l& $n E!.E!.{5 l} l} N| ",
"2{ 2{ 2{ 2{ 2{ 2{ 2{ 2{ 2{ 2{ 2{ 2{ 2{ 2{ 2{ BT g-.g-.g-.g-.g-.F!.~!.~!.~!.~!.~!.~!.~!.~!.~!.~!.~!.~!.~!.~!.~!.~!.~!.~!.~!.~!.~!.~!.'3 w$ w$ w$ w$ w$ w$ w$ w$ w$ $r  ;.I;.I;.4E lZ om k  h  G!.H!.I!.J!.K!.L!.M!.N!.O!.+! P!.Q!.R!.S!.3+ T!.T!.T!.z$ U!.V!.W!.X!.W!.W!.Y!.Z!.D$ F$ F$ (% 7% r% :% x= I$ G~ t% `!. ~..~.+~.@~.#~.$~.$~.$~.$~.                                                                                                                                                                                                                                                                                                                                                                                                                                                                                                                                                                                                                                                                                                                                                                                                                                                                                                      %~.&~.*~.=~.Z  ;7 E~ E~ 8. ]# <$ <$ <$ <$ %$ h% [  [  [  [  [  [  [  [  [  [  [  [  [  [  [  [  [  [  3  3  _. _. a  8  g  -@ M. 0+ j  m  om lZ 4E I;.A;.V-.<;.gp <;.tZ lU -~.;~.8).8).8).8).8).8).8).8).8).8).8).8).8).8).8).>~.;!.;!.;!.;!.y!.,~.&u l} l} l} l} l} l} l} l} l} l} l} l} l} l} l} (| , ., .l} l} l} l} l} l} l} l} l} l} l} ",
"2{ 2{ 2{ 2{ 2{ 2{ 2{ 2{ 2{ 2{ 2{ 2{ 2{ 2{ 2{ 2{ g-.g-.g-.g-.g-.'~.~!.~!.~!.~!.~!.~!.~!.~!.~!.~!.~!.~!.~!.~!.~!.'3 )~.`&.`&.`&.`&.`&.`&.`&.`&.`&.`&.`&.`&.`&.`&.`&.!~.~~.~~.~~.{~.]~.^~./~.(~._~.:~.<~.[~.[~.}~.{2 |~.O+ 1~.2~.3~.f% f% f% }~.4~.5~.5~.6~.7~.8~.9~.0~.a~.KL KL #% h] +~ X! vz o% b~.                                                                                                                                                                                                                                                                                                                                                                                                                                                                                                                                                                                                                                                                                                                                                                                                                                                                                                                                                $~.c~.d~.e~.f~.A7 X. <{ m! /# <$ <$ <$ <$ %$ K% [  [  [  [  [  [  [  [  [  [  [  [  [  [  [  [  [  [  3  3  _. 7  a  8  g  -@ M. 0+ j  m  om lZ 4E I;.A;.<;.gp g~.h~.2Z lU lU lU t!.u!.8).8).8).8).8).8).8).8).8).8).8).8).8).8).i~.;!.;!.j~.l} l} l} l} l} l} l} l} l} l} l} l} l} l} l} l} l} l} l} l} l} l} l} l} l} l} l} l} l} l} l} l} ",
"2{ 2{ 2{ 2{ 2{ 2{ 2{ 2{ 2{ 2{ 2{ 2{ 2{ 2{ 2{ 2{ g-.g-.g-.g-.g-.k~.~!.~!.~!.~!.~!.~!.~!.~!.~!.~!.~!.~!.~!.~!.~!.5&.`&.`&.`&.`&.`&.`&.`&.`&.`&.`&.`&.`&.`&.`&.`&.`&.Z$.l~.Z$.Z$.Z$.Z$.Z$.M,.M,.M,.=&.p_ m~.f' n~.n~.n~.n~.n~.n~.n~.n~.n~.n~.n~.n~.n~.n~.n~.n~.n~.o~.6: n~.n~.n~.                                                                                                                                                                                                                                                                                                                                                                                                                                                                                                                                                                                                                                                                                                                                                                                                                                                                                                                                                                                       x  x  7. ]# <$ <$ <$ <$ y# K% :  :  :  :  :  :  :  :  :  :  :  :  :  :  :  :  :  :  0&.1  O# (. 7+ b  W@ `Z -@ N. }. j  k  p~.DZ C;.O-.V-.Z-.hh q~.r~.lU lU lU lU -~.;~.8).8).8).8).8).8).8).8).8).8).8).8).8).s~.;!.t~.l} l} l} l} l} l} l} l} l} l} l} l} l} l} l} l} l} l} l} l} l} l} l} l} l} l} l} l} l} l} l} l} l} ",
"2{ 2{ 2{ 2{ 2{ 2{ 2{ 2{ 2{ 2{ 2{ 2{ 2{ 2{ 2{ 2{ g-.g-.g-.g-.g-.k@.~!.~!.~!.~!.~!.~!.~!.~!.~!.~!.~!.~!.~!.~!.u~.`&.`&.`&.`&.`&.`&.`&.`&.`&.`&.`&.`&.`&.`&.`&.`&.`&.`&.`&.`&.`&.`&.`&.`&.`&.`&.`&.`&.`&.v~.w~.w~.w~.w~.w~.w~.w~.w~.w~.w~.w~.w~.w~.w~.w~.w~.w~.w~.w~.w~.w~.w~.w~.                                                                                                                                                                                                                                                                                                                                                                                                                                                                                                                                                                                                                                                                                                                                                                                                                                                                                                                                                                                             7. r+ z# y# y# y# y# =$ C$ C$ C$ Jh Jh lr xH xH xH xH xH xH xH K% K% K% K% K% [# c$ 2g $$ x~.d# 4) !$.3) i+ 2) uK U. u  r  V( y~.z~.d'.A~.So lU lU lU lU lU lU lU t!.B~.8).8).8).8).8).8).8).8).8).8).8).-!.C~.(| l} l} l} l} l} l} l} l} l} l} l} l} l} l} l} l} l} l} l} l} l} l} l} l} l} l} l} l} l} l} l} l} l} "};
