/* XPM */
static char * door_3_xpm[] = {
"512 512 9481 3",
"   	c #FF00FF",
".  	c #675C58",
"+  	c #6A5E5A",
"@  	c #72655F",
"#  	c #736660",
"$  	c #7A6D65",
"%  	c #786B64",
"&  	c #5A5050",
"*  	c #362E2F",
"=  	c #453D3D",
"-  	c #665B57",
";  	c #837166",
">  	c #816F64",
",  	c #7B695E",
"'  	c #79675C",
")  	c #77645A",
"!  	c #766359",
"~  	c #736157",
"{  	c #716056",
"]  	c #6F5E55",
"^  	c #6A5A52",
"/  	c #3D3935",
"(  	c #212727",
"_  	c #212829",
":  	c #222728",
"<  	c #212728",
"[  	c #222627",
"}  	c #202728",
"|  	c #202727",
"1  	c #202627",
"2  	c #1F2627",
"3  	c #202526",
"4  	c #212526",
"5  	c #1F2425",
"6  	c #1F2324",
"7  	c #1E2224",
"8  	c #1E2324",
"9  	c #1E2325",
"0  	c #1D2326",
"a  	c #1D2124",
"b  	c #1D2223",
"c  	c #1C2121",
"d  	c #1B1F21",
"e  	c #1A1F20",
"f  	c #1A1E1F",
"g  	c #191E1F",
"h  	c #191E1E",
"i  	c #191F20",
"j  	c #191F21",
"k  	c #192021",
"l  	c #192022",
"m  	c #192123",
"n  	c #192223",
"o  	c #192224",
"p  	c #192324",
"q  	c #192325",
"r  	c #192326",
"s  	c #192427",
"t  	c #192428",
"u  	c #192528",
"v  	c #192529",
"w  	c #19262A",
"x  	c #1A262A",
"y  	c #1A272A",
"z  	c #1A272B",
"A  	c #1B272B",
"B  	c #1B282C",
"C  	c #1B272C",
"D  	c #1B282D",
"E  	c #1C282D",
"F  	c #1C282C",
"G  	c #1C272D",
"H  	c #1C292D",
"I  	c #1C292F",
"J  	c #1C292E",
"K  	c #1D282E",
"L  	c #1D292E",
"M  	c #1D2A2F",
"N  	c #1E2A30",
"O  	c #1F2930",
"P  	c #1F2A30",
"Q  	c #1D2A2E",
"R  	c #1E2B2E",
"S  	c #1E2A2F",
"T  	c #1D292F",
"U  	c #1D2A30",
"V  	c #1E2A2E",
"W  	c #232F31",
"X  	c #4C4C4B",
"Y  	c #6D6460",
"Z  	c #6F6560",
"`  	c #7D736E",
" . 	c #9E948D",
".. 	c #A89D96",
"+. 	c #8D837F",
"@. 	c #3C3739",
"#. 	c #423C3E",
"$. 	c #68615D",
"%. 	c #665F5B",
"&. 	c #625A56",
"*. 	c #685D58",
"=. 	c #756861",
"-. 	c #726660",
";. 	c #4E4545",
">. 	c #5E5553",
",. 	c #7A685D",
"'. 	c #6E5D54",
"). 	c #574C45",
"!. 	c #323230",
"~. 	c #222727",
"{. 	c #212628",
"]. 	c #212627",
"^. 	c #202628",
"/. 	c #1F2527",
"(. 	c #1F2526",
"_. 	c #1F2426",
":. 	c #1E2425",
"<. 	c #1F2225",
"[. 	c #1D2225",
"}. 	c #1C2124",
"|. 	c #1C2122",
"1. 	c #1B2021",
"2. 	c #1B1F20",
"3. 	c #1A1F1F",
"4. 	c #1A1E1E",
"5. 	c #1A1F21",
"6. 	c #1A2122",
"7. 	c #192327",
"8. 	c #192628",
"9. 	c #192629",
"0. 	c #1B282B",
"a. 	c #1B282E",
"b. 	c #1C282F",
"c. 	c #1B2830",
"d. 	c #1C2A30",
"e. 	c #1D2930",
"f. 	c #1D2931",
"g. 	c #1D2B30",
"h. 	c #1E2B30",
"i. 	c #1D2A31",
"j. 	c #1F2A2F",
"k. 	c #1E2C2F",
"l. 	c #494848",
"m. 	c #6E6460",
"n. 	c #6E6560",
"o. 	c #766C68",
"p. 	c #7E746F",
"q. 	c #9B908A",
"r. 	c #9A908A",
"s. 	c #5A5452",
"t. 	c #645C58",
"u. 	c #71645E",
"v. 	c #786B63",
"w. 	c #574E4D",
"x. 	c #5C5352",
"y. 	c #78665B",
"z. 	c #6D5C53",
"A. 	c #433C39",
"B. 	c #282B2B",
"C. 	c #222828",
"D. 	c #222628",
"E. 	c #222829",
"F. 	c #222729",
"G. 	c #1E2526",
"H. 	c #202527",
"I. 	c #1D2224",
"J. 	c #1D2123",
"K. 	c #1C2123",
"L. 	c #1B2122",
"M. 	c #1A2020",
"N. 	c #1A1E20",
"O. 	c #1A2021",
"P. 	c #1A2022",
"Q. 	c #1A2123",
"R. 	c #1A2223",
"S. 	c #1A2224",
"T. 	c #1A2225",
"U. 	c #1A2325",
"V. 	c #1A2426",
"W. 	c #1A2427",
"X. 	c #1A2527",
"Y. 	c #1A2528",
"Z. 	c #1A2628",
"`. 	c #1A2629",
" + 	c #1A2529",
".+ 	c #1B262B",
"++ 	c #1B272A",
"@+ 	c #1B262A",
"#+ 	c #1B292D",
"$+ 	c #1C292C",
"%+ 	c #1C2A2D",
"&+ 	c #1C2A2C",
"*+ 	c #1D292D",
"=+ 	c #1D2A2D",
"-+ 	c #1C2A2E",
";+ 	c #1E2A31",
">+ 	c #1E2B31",
",+ 	c #1F2B30",
"'+ 	c #1F2B31",
")+ 	c #202B31",
"!+ 	c #1F2C30",
"~+ 	c #1E2B2F",
"{+ 	c #434444",
"]+ 	c #645E5B",
"^+ 	c #69625F",
"/+ 	c #6B635F",
"(+ 	c #706661",
"_+ 	c #756B67",
":+ 	c #474242",
"<+ 	c #645D59",
"[+ 	c #6E625D",
"}+ 	c #584E4E",
"|+ 	c #827065",
"1+ 	c #685950",
"2+ 	c #383533",
"3+ 	c #232729",
"4+ 	c #232728",
"5+ 	c #212729",
"6+ 	c #1E2426",
"7+ 	c #1B2022",
"8+ 	c #1C2022",
"9+ 	c #1B2020",
"0+ 	c #1B1F1F",
"a+ 	c #1B2223",
"b+ 	c #1B2324",
"c+ 	c #1B2325",
"d+ 	c #1B2426",
"e+ 	c #1B2527",
"f+ 	c #1B2528",
"g+ 	c #1B2629",
"h+ 	c #1B2529",
"i+ 	c #1B292C",
"j+ 	c #1B2A2D",
"k+ 	c #1D2B31",
"l+ 	c #1E2C31",
"m+ 	c #1E2C30",
"n+ 	c #1F2B32",
"o+ 	c #1F2C31",
"p+ 	c #1E2B32",
"q+ 	c #1F2A31",
"r+ 	c #1F2C32",
"s+ 	c #303638",
"t+ 	c #53504F",
"u+ 	c #6C6460",
"v+ 	c #746A66",
"w+ 	c #736964",
"x+ 	c #736965",
"y+ 	c #786E6A",
"z+ 	c #908580",
"A+ 	c #403A3C",
"B+ 	c #605A57",
"C+ 	c #6D615C",
"D+ 	c #746761",
"E+ 	c #514748",
"F+ 	c #7D6D63",
"G+ 	c #746258",
"H+ 	c #715F56",
"I+ 	c #534943",
"J+ 	c #2E2F2E",
"K+ 	c #1F2325",
"L+ 	c #1B2123",
"M+ 	c #1B2427",
"N+ 	c #1B2A2C",
"O+ 	c #1D292C",
"P+ 	c #1D2B2E",
"Q+ 	c #1D2B2F",
"R+ 	c #1E2C32",
"S+ 	c #202B32",
"T+ 	c #202C32",
"U+ 	c #202D32",
"V+ 	c #474647",
"W+ 	c #726863",
"X+ 	c #645C5A",
"Y+ 	c #5A5555",
"Z+ 	c #6B605B",
"`+ 	c #78655B",
" @ 	c #76645A",
".@ 	c #6B5B53",
"+@ 	c #3D3936",
"@@ 	c #25292A",
"#@ 	c #1E2525",
"$@ 	c #1C2223",
"%@ 	c #1D2222",
"&@ 	c #1B2121",
"*@ 	c #1C2A2F",
"=@ 	c #1E2D32",
"-@ 	c #1E2D31",
";@ 	c #1F2D31",
">@ 	c #202D31",
",@ 	c #202C31",
"'@ 	c #212C31",
")@ 	c #414243",
"!@ 	c #665F5D",
"~@ 	c #6A625F",
"{@ 	c #716762",
"]@ 	c #4C4849",
"^@ 	c #84817E",
"/@ 	c #695E59",
"(@ 	c #766963",
"_@ 	c #564D4D",
":@ 	c #7A6A62",
"<@ 	c #79665C",
"[@ 	c #756258",
"}@ 	c #726056",
"|@ 	c #64564E",
"1@ 	c #313130",
"2@ 	c #222629",
"3@ 	c #1C2021",
"4@ 	c #1C2324",
"5@ 	c #1C272A",
"6@ 	c #1C2B2F",
"7@ 	c #1F2D32",
"8@ 	c #202E32",
"9@ 	c #212D32",
"0@ 	c #202D33",
"a@ 	c #212C32",
"b@ 	c #33393C",
"c@ 	c #565352",
"d@ 	c #403B3C",
"e@ 	c #352F31",
"f@ 	c #342E30",
"g@ 	c #353032",
"h@ 	c #3B3638",
"i@ 	c #848180",
"j@ 	c #817C7A",
"k@ 	c #67605C",
"l@ 	c #796C64",
"m@ 	c #7B6E66",
"n@ 	c #8E8077",
"o@ 	c #554B4B",
"p@ 	c #4C4343",
"q@ 	c #72645D",
"r@ 	c #6C5B53",
"s@ 	c #4F4641",
"t@ 	c #292C2C",
"u@ 	c #212828",
"v@ 	c #1D2122",
"w@ 	c #1D2324",
"x@ 	c #1D272A",
"y@ 	c #1D2C2F",
"z@ 	c #1F2E32",
"A@ 	c #202E33",
"B@ 	c #212E33",
"C@ 	c #212C33",
"D@ 	c #232F34",
"E@ 	c #454646",
"F@ 	c #393335",
"G@ 	c #3D383A",
"H@ 	c #93918F",
"I@ 	c #787370",
"J@ 	c #71645F",
"K@ 	c #776A63",
"L@ 	c #85786F",
"M@ 	c #8F8178",
"N@ 	c #695E5A",
"O@ 	c #483F3F",
"P@ 	c #695A51",
"Q@ 	c #363432",
"R@ 	c #22282A",
"S@ 	c #1F2628",
"T@ 	c #1D2323",
"U@ 	c #1D2728",
"V@ 	c #202E31",
"W@ 	c #212E32",
"X@ 	c #1F2D33",
"Y@ 	c #1F2E33",
"Z@ 	c #212F33",
"`@ 	c #202F34",
" # 	c #202C30",
".# 	c #3E4142",
"+# 	c #6B635E",
"@# 	c #726864",
"## 	c #3E393A",
"$# 	c #665E5A",
"%# 	c #635B57",
"&# 	c #70635E",
"*# 	c #7A6E67",
"=# 	c #403738",
"-# 	c #6E615B",
";# 	c #726157",
"># 	c #705F55",
",# 	c #61544C",
"'# 	c #2B2D2D",
")# 	c #1D2526",
"!# 	c #1D2C30",
"~# 	c #1D2D30",
"{# 	c #202F33",
"]# 	c #212E34",
"^# 	c #212F34",
"/# 	c #202E34",
"(# 	c #212C30",
"_# 	c #202C2F",
":# 	c #1E2D30",
"<# 	c #353B3C",
"[# 	c #605955",
"}# 	c #3A3436",
"|# 	c #655E5A",
"1# 	c #6E625C",
"2# 	c #7D7067",
"3# 	c #8D7F76",
"4# 	c #383031",
"5# 	c #846F63",
"6# 	c #826D61",
"7# 	c #7D695E",
"8# 	c #746259",
"9# 	c #4E4540",
"0# 	c #272A2B",
"a# 	c #212527",
"b# 	c #202626",
"c# 	c #1F2626",
"d# 	c #1E2424",
"e# 	c #1E2628",
"f# 	c #203033",
"g# 	c #213033",
"h# 	c #263034",
"i# 	c #494847",
"j# 	c #6E645F",
"k# 	c #817E7D",
"l# 	c #878380",
"m# 	c #655D59",
"n# 	c #7F726A",
"o# 	c #594F4C",
"p# 	c #5A5150",
"q# 	c #836E62",
"r# 	c #877165",
"s# 	c #7C695E",
"t# 	c #383633",
"u# 	c #1F2424",
"v# 	c #1E292B",
"w# 	c #1F2D30",
"x# 	c #1F2F33",
"y# 	c #1F2F32",
"z# 	c #1F2E34",
"A# 	c #213034",
"B# 	c #213035",
"C# 	c #202F35",
"D# 	c #222F33",
"E# 	c #3F4040",
"F# 	c #6C635E",
"G# 	c #716763",
"H# 	c #5E5A5A",
"I# 	c #8D8A88",
"J# 	c #6A625E",
"K# 	c #766962",
"L# 	c #7B6F68",
"M# 	c #544B4A",
"N# 	c #857064",
"O# 	c #2D2E2D",
"P# 	c #232929",
"Q# 	c #1F2B2F",
"R# 	c #1F2E31",
"S# 	c #203034",
"T# 	c #203035",
"U# 	c #212D31",
"V# 	c #373A3C",
"W# 	c #625B57",
"X# 	c #3F393B",
"Y# 	c #6C645F",
"Z# 	c #6D645F",
"`# 	c #796C65",
" $ 	c #615755",
".$ 	c #7D6B60",
"+$ 	c #7C6A5F",
"@$ 	c #7F6D62",
"#$ 	c #705F56",
"$$ 	c #7E6A5F",
"%$ 	c #544A44",
"&$ 	c #262A2A",
"*$ 	c #1F282A",
"=$ 	c #222F34",
"-$ 	c #283235",
";$ 	c #4A4948",
">$ 	c #6D635F",
",$ 	c #878482",
"'$ 	c #6C635F",
")$ 	c #746760",
"!$ 	c #4C4341",
"~$ 	c #423A3A",
"{$ 	c #7E6C61",
"]$ 	c #836D62",
"^$ 	c #353432",
"/$ 	c #212726",
"($ 	c #202528",
"_$ 	c #213135",
":$ 	c #203135",
"<$ 	c #213134",
"[$ 	c #203134",
"}$ 	c #212F35",
"|$ 	c #3C3E40",
"1$ 	c #6C625E",
"2$ 	c #656160",
"3$ 	c #69625D",
"4$ 	c #867870",
"5$ 	c #675C57",
"6$ 	c #3D3536",
"7$ 	c #6F5D55",
"8$ 	c #66584F",
"9$ 	c #2B2D2E",
"0$ 	c #202828",
"a$ 	c #202829",
"b$ 	c #202A2C",
"c$ 	c #202B2D",
"d$ 	c #202D30",
"e$ 	c #20292B",
"f$ 	c #20282A",
"g$ 	c #34393B",
"h$ 	c #4C4645",
"i$ 	c #81746D",
"j$ 	c #6A5A50",
"k$ 	c #66574F",
"l$ 	c #453F3B",
"m$ 	c #272B2B",
"n$ 	c #212B2D",
"o$ 	c #212E31",
"p$ 	c #223134",
"q$ 	c #283337",
"r$ 	c #4D4B4A",
"s$ 	c #544E4C",
"t$ 	c #8C7E75",
"u$ 	c #8A7C74",
"v$ 	c #7F6E63",
"w$ 	c #705E55",
"x$ 	c #62544C",
"y$ 	c #313230",
"z$ 	c #262A2B",
"A$ 	c #21282A",
"B$ 	c #212B2E",
"C$ 	c #223135",
"D$ 	c #223235",
"E$ 	c #223236",
"F$ 	c #233236",
"G$ 	c #233336",
"H$ 	c #233337",
"I$ 	c #223035",
"J$ 	c #223034",
"K$ 	c #232F33",
"L$ 	c #3B3E3E",
"M$ 	c #6B625D",
"N$ 	c #5B5452",
"O$ 	c #73665F",
"P$ 	c #675B56",
"Q$ 	c #6C5C52",
"R$ 	c #68594F",
"S$ 	c #584C46",
"T$ 	c #272C2B",
"U$ 	c #232A29",
"V$ 	c #232829",
"W$ 	c #21292A",
"X$ 	c #212C2E",
"Y$ 	c #243336",
"Z$ 	c #243437",
"`$ 	c #253437",
" % 	c #253438",
".% 	c #253538",
"+% 	c #263438",
"@% 	c #263538",
"#% 	c #263639",
"$% 	c #263539",
"%% 	c #273539",
"&% 	c #27363A",
"*% 	c #28363A",
"=% 	c #28373A",
"-% 	c #243438",
";% 	c #31373A",
">% 	c #82756B",
",% 	c #8E8076",
"'% 	c #413838",
")% 	c #6B5B51",
"!% 	c #61534A",
"~% 	c #443E39",
"{% 	c #242A2A",
"]% 	c #212A2A",
"^% 	c #212D30",
"/% 	c #243337",
"(% 	c #273639",
"_% 	c #27373A",
":% 	c #28373B",
"<% 	c #29383B",
"[% 	c #29383C",
"}% 	c #29393C",
"|% 	c #2A393C",
"1% 	c #2A3A3D",
"2% 	c #2B3A3D",
"3% 	c #2B3A3E",
"4% 	c #2C3A3D",
"5% 	c #2C3A3E",
"6% 	c #2C3B3E",
"7% 	c #283336",
"8% 	c #514E4C",
"9% 	c #7B6E65",
"0% 	c #84766C",
"a% 	c #746157",
"b% 	c #5B4F47",
"c% 	c #30302F",
"d% 	c #212D2F",
"e% 	c #27353A",
"f% 	c #29373B",
"g% 	c #2A393D",
"h% 	c #2B393D",
"i% 	c #2B3B3E",
"j% 	c #2C3B3F",
"k% 	c #2C3C3F",
"l% 	c #2D3C3F",
"m% 	c #2D3C40",
"n% 	c #2D3D40",
"o% 	c #2E3D40",
"p% 	c #2E3E41",
"q% 	c #2F3E41",
"r% 	c #2F3F41",
"s% 	c #303F41",
"t% 	c #303F42",
"u% 	c #2F3F42",
"v% 	c #304043",
"w% 	c #303F43",
"x% 	c #233034",
"y% 	c #3A3D3E",
"z% 	c #69615C",
"A% 	c #393334",
"B% 	c #605956",
"C% 	c #7E7168",
"D% 	c #3A3232",
"E% 	c #67584E",
"F% 	c #524841",
"G% 	c #222929",
"H% 	c #304144",
"I% 	c #314144",
"J% 	c #324144",
"K% 	c #324245",
"L% 	c #334345",
"M% 	c #334346",
"N% 	c #344446",
"O% 	c #334446",
"P% 	c #344447",
"Q% 	c #354548",
"R% 	c #344548",
"S% 	c #354649",
"T% 	c #354549",
"U% 	c #354448",
"V% 	c #324145",
"W% 	c #2B393C",
"X% 	c #2F373A",
"Y% 	c #625B59",
"Z% 	c #7E7672",
"`% 	c #807369",
" & 	c #473D3B",
".& 	c #5F5249",
"+& 	c #413B37",
"@& 	c #212929",
"#& 	c #212F32",
"$& 	c #2E3E40",
"%& 	c #314043",
"&& 	c #314044",
"*& 	c #354648",
"=& 	c #364649",
"-& 	c #354749",
";& 	c #364749",
">& 	c #36474A",
",& 	c #37474A",
"'& 	c #37484B",
")& 	c #37494C",
"!& 	c #38494C",
"~& 	c #384A4C",
"{& 	c #394A4C",
"]& 	c #394A4D",
"^& 	c #394B4E",
"/& 	c #3A4C4E",
"(& 	c #3A4C4F",
"_& 	c #3B4D50",
":& 	c #3C4D50",
"<& 	c #3C4E50",
"[& 	c #3C4F51",
"}& 	c #3D4F51",
"|& 	c #3D4F52",
"1& 	c #3C4E51",
"2& 	c #3B4C50",
"3& 	c #37474B",
"4& 	c #344547",
"5& 	c #324345",
"6& 	c #2A3337",
"7& 	c #56524F",
"8& 	c #857B76",
"9& 	c #7E7671",
"0& 	c #807873",
"a& 	c #6E6763",
"b& 	c #83756B",
"c& 	c #7A675D",
"d& 	c #756359",
"e& 	c #574C44",
"f& 	c #2C2D2C",
"g& 	c #212A2C",
"h& 	c #324244",
"i& 	c #36484B",
"j& 	c #38484B",
"k& 	c #394B4D",
"l& 	c #3A4B4E",
"m& 	c #3B4C4F",
"n& 	c #3B4D4F",
"o& 	c #3B4E50",
"p& 	c #3E5053",
"q& 	c #3E5153",
"r& 	c #3F5154",
"s& 	c #3F5255",
"t& 	c #405355",
"u& 	c #405456",
"v& 	c #415456",
"w& 	c #415457",
"x& 	c #425557",
"y& 	c #425558",
"z& 	c #425658",
"A& 	c #425659",
"B& 	c #435659",
"C& 	c #435759",
"D& 	c #43575A",
"E& 	c #44585A",
"F& 	c #44585B",
"G& 	c #45595B",
"H& 	c #45595C",
"I& 	c #46595C",
"J& 	c #465A5C",
"K& 	c #465B5D",
"L& 	c #475B5E",
"M& 	c #475B5D",
"N& 	c #45585B",
"O& 	c #44575A",
"P& 	c #3F5153",
"Q& 	c #3E5052",
"R& 	c #3D5052",
"S& 	c #3B4C4E",
"T& 	c #37494B",
"U& 	c #324246",
"V& 	c #314244",
"W& 	c #253539",
"X& 	c #253135",
"Y& 	c #3C3F40",
"Z& 	c #685F5B",
"`& 	c #7B716D",
" * 	c #887E79",
".* 	c #474141",
"+* 	c #6B6460",
"@* 	c #67574E",
"#* 	c #4E443E",
"$* 	c #212A2D",
"%* 	c #26363A",
"&* 	c #2F3E42",
"** 	c #314143",
"=* 	c #3A4B4D",
"-* 	c #3E5154",
";* 	c #3F5254",
">* 	c #415557",
",* 	c #45595A",
"'* 	c #455A5B",
")* 	c #465A5D",
"!* 	c #475C5E",
"~* 	c #485D5F",
"{* 	c #495D60",
"]* 	c #495E60",
"^* 	c #4A5F61",
"/* 	c #4A5F62",
"(* 	c #4B6062",
"_* 	c #4B6163",
":* 	c #4C6164",
"<* 	c #4C6264",
"[* 	c #4D6365",
"}* 	c #4E6466",
"|* 	c #4E6567",
"1* 	c #4F6567",
"2* 	c #4F6668",
"3* 	c #506668",
"4* 	c #506769",
"5* 	c #516769",
"6* 	c #51686A",
"7* 	c #52686A",
"8* 	c #52696B",
"9* 	c #526A6B",
"0* 	c #536A6C",
"a* 	c #536A6D",
"b* 	c #536B6D",
"c* 	c #506669",
"d* 	c #4E6467",
"e* 	c #4C6163",
"f* 	c #415356",
"g* 	c #405356",
"h* 	c #3F5355",
"i* 	c #3E5254",
"j* 	c #3D5053",
"k* 	c #3A4A4D",
"l* 	c #233035",
"m* 	c #817772",
"n* 	c #6E6561",
"o* 	c #7A726D",
"p* 	c #5C4F49",
"q* 	c #5C4F47",
"r* 	c #3B3734",
"s* 	c #212A2B",
"t* 	c #455A5C",
"u* 	c #485C5E",
"v* 	c #485D5E",
"w* 	c #485C5F",
"x* 	c #495D5F",
"y* 	c #4A5E60",
"z* 	c #4A5F60",
"A* 	c #4D6264",
"B* 	c #4E6365",
"C* 	c #4E6366",
"D* 	c #4F6566",
"E* 	c #52696A",
"F* 	c #53696B",
"G* 	c #546B6D",
"H* 	c #556C6E",
"I* 	c #566D6F",
"J* 	c #566E6F",
"K* 	c #576F70",
"L* 	c #576F71",
"M* 	c #587072",
"N* 	c #597173",
"O* 	c #597273",
"P* 	c #5A7274",
"Q* 	c #5A7375",
"R* 	c #5B7475",
"S* 	c #5C7576",
"T* 	c #5C7577",
"U* 	c #5D7677",
"V* 	c #5E7678",
"W* 	c #5E7779",
"X* 	c #5F787A",
"Y* 	c #60797B",
"Z* 	c #607A7B",
"`* 	c #617B7C",
" = 	c #617B7D",
".= 	c #627C7E",
"+= 	c #637D7F",
"@= 	c #637E80",
"#= 	c #647F80",
"$= 	c #647F81",
"%= 	c #658082",
"&= 	c #658182",
"*= 	c #668183",
"== 	c #668284",
"-= 	c #678385",
";= 	c #688485",
">= 	c #698586",
",= 	c #698587",
"'= 	c #698687",
")= 	c #6A8688",
"!= 	c #6B8789",
"~= 	c #6B8889",
"{= 	c #6B888A",
"]= 	c #6C888A",
"^= 	c #6C898A",
"/= 	c #6C898B",
"(= 	c #6C8A8B",
"_= 	c #688486",
":= 	c #688385",
"<= 	c #678284",
"[= 	c #657F81",
"}= 	c #5E7679",
"|= 	c #5B7476",
"1= 	c #5B7375",
"2= 	c #587173",
"3= 	c #577072",
"4= 	c #566E70",
"5= 	c #506768",
"6= 	c #4D6364",
"7= 	c #374A4C",
"8= 	c #223136",
"9= 	c #243135",
"0= 	c #253134",
"a= 	c #2B3438",
"b= 	c #595451",
"c= 	c #776F6A",
"d= 	c #69625E",
"e= 	c #60514B",
"f= 	c #6C5B52",
"g= 	c #534841",
"h= 	c #282B2A",
"i= 	c #7E9FA0",
"j= 	c #7D9F9F",
"k= 	c #7D9E9F",
"l= 	c #7D9E9E",
"m= 	c #7D9D9F",
"n= 	c #7E9E9F",
"o= 	c #7E9F9F",
"p= 	c #7F9FA1",
"q= 	c #7FA0A1",
"r= 	c #80A0A1",
"s= 	c #80A1A1",
"t= 	c #81A1A1",
"u= 	c #80A1A2",
"v= 	c #80A1A3",
"w= 	c #81A2A3",
"x= 	c #81A3A3",
"y= 	c #82A3A4",
"z= 	c #82A3A5",
"A= 	c #83A4A5",
"B= 	c #83A5A6",
"C= 	c #84A5A6",
"D= 	c #84A6A7",
"E= 	c #85A7A7",
"F= 	c #85A7A8",
"G= 	c #85A8A9",
"H= 	c #86A9A9",
"I= 	c #87A9AA",
"J= 	c #88AAAB",
"K= 	c #88ABAC",
"L= 	c #89ACAD",
"M= 	c #89ACAE",
"N= 	c #8AADAE",
"O= 	c #8BAEAE",
"P= 	c #8BAEAF",
"Q= 	c #8BAFB0",
"R= 	c #8CB0B0",
"S= 	c #8CB0B1",
"T= 	c #8DB0B2",
"U= 	c #8DB1B2",
"V= 	c #8EB2B3",
"W= 	c #8EB3B4",
"X= 	c #8FB3B5",
"Y= 	c #8FB4B5",
"Z= 	c #8FB5B5",
"`= 	c #90B5B6",
" - 	c #91B6B7",
".- 	c #91B6B8",
"+- 	c #92B7B9",
"@- 	c #93B8B9",
"#- 	c #93B9BA",
"$- 	c #94BABB",
"%- 	c #94BBBB",
"&- 	c #95BBBC",
"*- 	c #95BBBD",
"=- 	c #95BCBD",
"-- 	c #96BCBD",
";- 	c #96BDBE",
">- 	c #97BDBE",
",- 	c #97BDBF",
"'- 	c #97BEBF",
")- 	c #98BEC0",
"!- 	c #97BEC0",
"~- 	c #93B8BA",
"{- 	c #92B8B9",
"]- 	c #92B7B8",
"^- 	c #91B7B7",
"/- 	c #90B4B5",
"(- 	c #8FB3B4",
"_- 	c #8DB0B1",
":- 	c #8AAEAF",
"<- 	c #8AADAD",
"[- 	c #89ABAC",
"}- 	c #87AAAA",
"|- 	c #86A9AA",
"1- 	c #83A5A5",
"2- 	c #82A4A5",
"3- 	c #7E9EA0",
"4- 	c #688586",
"5- 	c #243335",
"6- 	c #243234",
"7- 	c #273336",
"8- 	c #3D4041",
"9- 	c #867C77",
"0- 	c #433D3D",
"a- 	c #7D6F67",
"b- 	c #86786E",
"c- 	c #64554E",
"d- 	c #65564D",
"e- 	c #49413C",
"f- 	c #2E3D41",
"g- 	c #637E7F",
"h- 	c #A8D2D2",
"i- 	c #A7D2D2",
"j- 	c #A7D0D1",
"k- 	c #A6D0D0",
"l- 	c #A6CFCF",
"m- 	c #A5CFCF",
"n- 	c #A5CECF",
"o- 	c #A5CECE",
"p- 	c #A4CDCD",
"q- 	c #A3CDCD",
"r- 	c #A3CCCD",
"s- 	c #A3CCCC",
"t- 	c #A4CCCC",
"u- 	c #A4CECE",
"v- 	c #A6CFD0",
"w- 	c #A7D0D0",
"x- 	c #A7D1D1",
"y- 	c #A8D1D2",
"z- 	c #A9D3D3",
"A- 	c #A9D3D4",
"B- 	c #AAD4D4",
"C- 	c #AAD4D5",
"D- 	c #ABD5D5",
"E- 	c #ABD6D6",
"F- 	c #ACD6D7",
"G- 	c #ACD7D8",
"H- 	c #ADD8D8",
"I- 	c #ADD8D9",
"J- 	c #AED9DA",
"K- 	c #AFDADA",
"L- 	c #AFDADB",
"M- 	c #B0DBDC",
"N- 	c #B0DCDD",
"O- 	c #B1DCDD",
"P- 	c #B2DDDE",
"Q- 	c #B2DEDF",
"R- 	c #B3DFE0",
"S- 	c #B3E0E1",
"T- 	c #B3E1E1",
"U- 	c #B4E1E2",
"V- 	c #B4E2E3",
"W- 	c #B5E3E3",
"X- 	c #B5E3E4",
"Y- 	c #B6E4E5",
"Z- 	c #B7E5E5",
"`- 	c #B7E6E6",
" ; 	c #B8E6E7",
".; 	c #B8E7E7",
"+; 	c #B8E7E8",
"@; 	c #B8E8E8",
"#; 	c #B6E3E4",
"$; 	c #B2DFE0",
"%; 	c #B2DEDE",
"&; 	c #B1DDDE",
"*; 	c #B0DCDC",
"=; 	c #AFDBDB",
"-; 	c #AEDADA",
";; 	c #ACD7D7",
">; 	c #ABD7D7",
",; 	c #A9D2D3",
"'; 	c #A8D1D1",
"); 	c #A4CDCE",
"!; 	c #A8D3D3",
"~; 	c #A8D2D3",
"{; 	c #8BAFAF",
"]; 	c #213235",
"^; 	c #253336",
"/; 	c #263235",
"(; 	c #2F3739",
"_; 	c #635C58",
":; 	c #69615E",
"<; 	c #58514F",
"[; 	c #7F7168",
"}; 	c #6E5C54",
"|; 	c #5D5049",
"1; 	c #21292B",
"2; 	c #324346",
"3; 	c #AAD5D5",
"4; 	c #AAD3D4",
"5; 	c #A9D2D2",
"6; 	c #ADD7D8",
"7; 	c #B3E0E0",
"8; 	c #B4E1E1",
"9; 	c #B6E4E4",
"0; 	c #B7E5E6",
"a; 	c #B9E7E8",
"b; 	c #BAE9E9",
"c; 	c #BAEAEA",
"d; 	c #BBEBEB",
"e; 	c #BCECEC",
"f; 	c #BDEDED",
"g; 	c #BDEEEF",
"h; 	c #BFF0F0",
"i; 	c #C0F1F1",
"j; 	c #C1F2F2",
"k; 	c #C2F3F3",
"l; 	c #C2F4F4",
"m; 	c #C3F6F6",
"n; 	c #C4F7F7",
"o; 	c #C4F8F8",
"p; 	c #C4F6F6",
"q; 	c #BFF1F1",
"r; 	c #BEEFEF",
"s; 	c #BAE9EA",
"t; 	c #B9E9E9",
"u; 	c #B7E6E7",
"v; 	c #B5E2E3",
"w; 	c #B4E2E2",
"x; 	c #AFDBDC",
"y; 	c #ABD5D6",
"z; 	c #ABD6D7",
"A; 	c #8EB2B2",
"B; 	c #2A383B",
"C; 	c #233234",
"D; 	c #253335",
"E; 	c #2D3538",
"F; 	c #6D6461",
"G; 	c #615B57",
"H; 	c #82746A",
"I; 	c #87796F",
"J; 	c #91837A",
"K; 	c #514742",
"L; 	c #26292A",
"M; 	c #212E30",
"N; 	c #658081",
"O; 	c #ACD6D6",
"P; 	c #AED8D9",
"Q; 	c #B2DFDF",
"R; 	c #B5E2E2",
"S; 	c #B8E6E6",
"T; 	c #B9E7E7",
"U; 	c #B9E8E8",
"V; 	c #BDEEEE",
"W; 	c #C0F2F2",
"X; 	c #C0F1F2",
"Y; 	c #BFEFEF",
"Z; 	c #AEDADB",
"`; 	c #ADD9D9",
" > 	c #A9D4D4",
".> 	c #253235",
"+> 	c #253236",
"@> 	c #283437",
"#> 	c #3D4141",
"$> 	c #665E5C",
"%> 	c #423C3C",
"&> 	c #897B71",
"*> 	c #92837A",
"=> 	c #9E8E84",
"-> 	c #887A72",
";> 	c #685951",
">> 	c #47403B",
",> 	c #314145",
"'> 	c #AED9D9",
")> 	c #A9D3D2",
"!> 	c #ADD7D7",
"~> 	c #B1DDDD",
"{> 	c #B1DEDE",
"]> 	c #B4E0E0",
"^> 	c #B6E5E5",
"/> 	c #B7E5E4",
"(> 	c #A8D2D1",
"_> 	c #243136",
":> 	c #263336",
"<> 	c #2E3639",
"[> 	c #615A56",
"}> 	c #5C5453",
"|> 	c #81736A",
"1> 	c #9E8D83",
"2> 	c #9F8E84",
"3> 	c #5A4E48",
"4> 	c #45585A",
"5> 	c #6A8687",
"6> 	c #6A8787",
"7> 	c #6A8788",
"8> 	c #6B8788",
"9> 	c #6B8888",
"0> 	c #6C8889",
"a> 	c #6C8989",
"b> 	c #6D898B",
"c> 	c #6D8A8B",
"d> 	c #6E8A8B",
"e> 	c #6E8B8C",
"f> 	c #6E8B8D",
"g> 	c #6F8C8D",
"h> 	c #6F8D8D",
"i> 	c #708D8E",
"j> 	c #708E8F",
"k> 	c #718E8F",
"l> 	c #718F8F",
"m> 	c #718F90",
"n> 	c #728F91",
"o> 	c #729091",
"p> 	c #729092",
"q> 	c #739192",
"r> 	c #739193",
"s> 	c #749293",
"t> 	c #749394",
"u> 	c #759395",
"v> 	c #759495",
"w> 	c #769596",
"x> 	c #769597",
"y> 	c #789698",
"z> 	c #789799",
"A> 	c #799899",
"B> 	c #79989A",
"C> 	c #7A999A",
"D> 	c #7A9A9B",
"E> 	c #7B9B9C",
"F> 	c #7B9B9D",
"G> 	c #7C9C9D",
"H> 	c #7C9D9E",
"I> 	c #7FA0A2",
"J> 	c #80A0A2",
"K> 	c #81A1A3",
"L> 	c #81A3A4",
"M> 	c #84A7A8",
"N> 	c #85A7A9",
"O> 	c #86A8AA",
"P> 	c #87A9AB",
"Q> 	c #86A9AB",
"R> 	c #85A8AA",
"S> 	c #84A5A7",
"T> 	c #81A2A4",
"U> 	c #7D9D9E",
"V> 	c #7A999B",
"W> 	c #789798",
"X> 	c #759394",
"Y> 	c #749393",
"Z> 	c #739293",
"`> 	c #728F90",
" , 	c #6D898A",
"., 	c #6B8688",
"+, 	c #6A8587",
"@, 	c #698688",
"#, 	c #587172",
"$, 	c #233237",
"%, 	c #293338",
"&, 	c #7A706C",
"*, 	c #877D78",
"=, 	c #93847B",
"-, 	c #7F716A",
";, 	c #534A44",
">, 	c #212C2F",
",, 	c #314245",
"', 	c #334347",
"), 	c #334447",
"!, 	c #344649",
"~, 	c #36484A",
"{, 	c #405255",
"], 	c #445759",
"^, 	c #546B6E",
"/, 	c #546C6E",
"(, 	c #556D6F",
"_, 	c #577071",
":, 	c #587073",
"<, 	c #597073",
"[, 	c #5B7576",
"}, 	c #5C7677",
"|, 	c #5D7678",
"1, 	c #5D7778",
"2, 	c #5E787A",
"3, 	c #5F787B",
"4, 	c #5F797B",
"5, 	c #607A7C",
"6, 	c #607A7D",
"7, 	c #5F7A7C",
"8, 	c #5F797C",
"9, 	c #5E777A",
"0, 	c #5D7679",
"a, 	c #546C6F",
"b, 	c #384A4D",
"c, 	c #344549",
"d, 	c #304044",
"e, 	c #2F3F43",
"f, 	c #2E3F42",
"g, 	c #2D3D41",
"h, 	c #2B3B3F",
"i, 	c #26373B",
"j, 	c #223137",
"k, 	c #3F4242",
"l, 	c #98887F",
"m, 	c #6D605B",
"n, 	c #7B685D",
"o, 	c #6C5D54",
"p, 	c #554C47",
"q, 	c #304143",
"r, 	c #37484A",
"s, 	c #38494B",
"t, 	c #435658",
"u, 	c #4A5E61",
"v, 	c #4D6265",
"w, 	c #4D6466",
"x, 	c #4D6366",
"y, 	c #495E61",
"z, 	c #3D4E51",
"A, 	c #304042",
"B, 	c #273437",
"C, 	c #2D383A",
"D, 	c #5E5855",
"E, 	c #605754",
"F, 	c #69615D",
"G, 	c #706660",
"H, 	c #736862",
"I, 	c #756963",
"J, 	c #746862",
"K, 	c #504644",
"L, 	c #7D6A5F",
"M, 	c #7E6C62",
"N, 	c #706259",
"O, 	c #3D3A37",
"P, 	c #2A383C",
"Q, 	c #3C4D51",
"R, 	c #3E4F53",
"S, 	c #425456",
"T, 	c #415558",
"U, 	c #3D4F53",
"V, 	c #243237",
"W, 	c #263337",
"X, 	c #283538",
"Y, 	c #585451",
"Z, 	c #7C6C65",
"`, 	c #8D776C",
" ' 	c #726761",
".' 	c #756A63",
"+' 	c #766A63",
"@' 	c #746962",
"#' 	c #716661",
"$' 	c #83756C",
"%' 	c #9C8C82",
"&' 	c #4A403F",
"*' 	c #3E3534",
"=' 	c #79665B",
"-' 	c #8F7B6F",
";' 	c #947F73",
">' 	c #5E534D",
",' 	c #28383B",
"'' 	c #334245",
")' 	c #344346",
"!' 	c #39494C",
"~' 	c #263437",
"{' 	c #645C59",
"]' 	c #7C6F68",
"^' 	c #8F786D",
"/' 	c #7F6B62",
"(' 	c #584B48",
"_' 	c #453C3B",
":' 	c #3B3536",
"<' 	c #887A70",
"[' 	c #9D8C82",
"}' 	c #463C3A",
"|' 	c #7A675C",
"1' 	c #76655B",
"2' 	c #8A766B",
"3' 	c #968175",
"4' 	c #958175",
"5' 	c #857368",
"6' 	c #46403C",
"7' 	c #213236",
"8' 	c #334246",
"9' 	c #253338",
"0' 	c #2E383A",
"a' 	c #5B5653",
"b' 	c #746963",
"c' 	c #B5A191",
"d' 	c #74625B",
"e' 	c #716761",
"f' 	c #85776D",
"g' 	c #94847B",
"h' 	c #7B685E",
"i' 	c #837065",
"j' 	c #937E72",
"k' 	c #574C46",
"l' 	c #223033",
"m' 	c #233134",
"n' 	c #243134",
"o' 	c #243235",
"p' 	c #263436",
"q' 	c #273438",
"r' 	c #273538",
"s' 	c #283639",
"t' 	c #293639",
"u' 	c #29363A",
"v' 	c #29373A",
"w' 	c #2A373B",
"x' 	c #2B3A3C",
"y' 	c #2C3A3C",
"z' 	c #283638",
"A' 	c #233033",
"B' 	c #253436",
"C' 	c #293538",
"D' 	c #575350",
"E' 	c #928379",
"F' 	c #BAA595",
"G' 	c #5D504C",
"H' 	c #918580",
"I' 	c #807269",
"J' 	c #82746D",
"K' 	c #77655B",
"L' 	c #867267",
"M' 	c #423C39",
"N' 	c #182427",
"O' 	c #162123",
"P' 	c #162122",
"Q' 	c #162022",
"R' 	c #152022",
"S' 	c #172122",
"T' 	c #172123",
"U' 	c #172224",
"V' 	c #182224",
"W' 	c #1B2526",
"X' 	c #1C2628",
"Y' 	c #1D2628",
"Z' 	c #1D2729",
"`' 	c #1E2729",
" ) 	c #1E272A",
".) 	c #1E282A",
"+) 	c #1F292A",
"@) 	c #1F292B",
"#) 	c #202A2D",
"$) 	c #222B2D",
"%) 	c #1E292A",
"&) 	c #1B292B",
"*) 	c #223335",
"=) 	c #4A4949",
"-) 	c #B19E8F",
";) 	c #78655E",
">) 	c #6C6361",
",) 	c #978B86",
"') 	c #786C65",
")) 	c #776B63",
"!) 	c #8A7C72",
"~) 	c #726560",
"{) 	c #5A4C47",
"]) 	c #61534B",
"^) 	c #373432",
"/) 	c #172425",
"() 	c #131D1D",
"_) 	c #131B1C",
":) 	c #111819",
"<) 	c #101718",
"[) 	c #101819",
"}) 	c #12191A",
"|) 	c #11181A",
"1) 	c #131A1B",
"2) 	c #141B1C",
"3) 	c #141B1D",
"4) 	c #151C1D",
"5) 	c #161D1E",
"6) 	c #171E1F",
"7) 	c #181F20",
"8) 	c #151D1E",
"9) 	c #141C1D",
"0) 	c #11191A",
"a) 	c #131E1E",
"b) 	c #333B3C",
"c) 	c #5A5552",
"d) 	c #4D4546",
"e) 	c #8B807B",
"f) 	c #7E7169",
"g) 	c #7A6D66",
"h) 	c #615552",
"i) 	c #5B4D48",
"j) 	c #46403B",
"k) 	c #192527",
"l) 	c #141E1E",
"m) 	c #121A1A",
"n) 	c #121A1B",
"o) 	c #141F1F",
"p) 	c #253337",
"q) 	c #2A3539",
"r) 	c #555250",
"s) 	c #786D67",
"t) 	c #938782",
"u) 	c #7D7169",
"v) 	c #8A7B72",
"w) 	c #675750",
"x) 	c #6E5D53",
"y) 	c #3A3633",
"z) 	c #141D1D",
"A) 	c #172222",
"B) 	c #213136",
"C) 	c #273338",
"D) 	c #4C4B4A",
"E) 	c #69605C",
"F) 	c #82756D",
"G) 	c #B9A494",
"H) 	c #8A746A",
"I) 	c #877C79",
"J) 	c #756962",
"K) 	c #786C64",
"L) 	c #8B7C72",
"M) 	c #564B45",
"N) 	c #192627",
"O) 	c #151F1F",
"P) 	c #121C1C",
"Q) 	c #233135",
"R) 	c #243236",
"S) 	c #353C3D",
"T) 	c #B49F8F",
"U) 	c #8C766B",
"V) 	c #826C63",
"W) 	c #806B62",
"X) 	c #6D6361",
"Y) 	c #786E69",
"Z) 	c #806D62",
"`) 	c #1A282A",
" ! 	c #152021",
".! 	c #111919",
"+! 	c #121B1B",
"@! 	c #172323",
"#! 	c #524F4D",
"$! 	c #B39E8F",
"%! 	c #8E776C",
"&! 	c #816C63",
"*! 	c #534B4B",
"=! 	c #817671",
"-! 	c #8F7F75",
";! 	c #7C695F",
">! 	c #8A766C",
",! 	c #89756B",
"'! 	c #7F6C61",
")! 	c #343331",
"!! 	c #182526",
"~! 	c #4A4A49",
"{! 	c #6A615D",
"]! 	c #A89284",
"^! 	c #877167",
"/! 	c #403A3B",
"(! 	c #887D78",
"_! 	c #82746B",
":! 	c #97877D",
"<! 	c #4D4241",
"[! 	c #483E3D",
"}! 	c #493E3D",
"|! 	c #7A675E",
"1! 	c #524742",
"2! 	c #2B2D2C",
"3! 	c #152121",
"4! 	c #1E2E31",
"5! 	c #373E3F",
"6! 	c #5B5552",
"7! 	c #A08A7D",
"8! 	c #554947",
"9! 	c #4F4342",
"0! 	c #6D5D53",
"a! 	c #393534",
"b! 	c #121B1C",
"c! 	c #504E4C",
"d! 	c #947E72",
"e! 	c #857A76",
"f! 	c #958984",
"g! 	c #85776E",
"h! 	c #6F605A",
"i! 	c #77665F",
"j! 	c #7E6B60",
"k! 	c #685850",
"l! 	c #182325",
"m! 	c #1C282B",
"n! 	c #202E30",
"o! 	c #202F32",
"p! 	c #141E1D",
"q! 	c #151F20",
"r! 	c #1A2729",
"s! 	c #867167",
"t! 	c #716764",
"u! 	c #81736B",
"v! 	c #80726A",
"w! 	c #83756D",
"x! 	c #75665F",
"y! 	c #5F514D",
"z! 	c #877369",
"A! 	c #514741",
"B! 	c #182426",
"C! 	c #1F2D2F",
"D! 	c #304247",
"E! 	c #273234",
"F! 	c #273134",
"G! 	c #273335",
"H! 	c #273436",
"I! 	c #27383B",
"J! 	c #27383C",
"K! 	c #27393D",
"L! 	c #273A3E",
"M! 	c #273235",
"N! 	c #273233",
"O! 	c #273A3D",
"P! 	c #2A3D41",
"Q! 	c #27383D",
"R! 	c #151E1F",
"S! 	c #152020",
"T! 	c #675F5A",
"U! 	c #786D66",
"V! 	c #756A64",
"W! 	c #736963",
"X! 	c #726762",
"Y! 	c #A28C80",
"Z! 	c #836E64",
"`! 	c #6F6562",
" ~ 	c #7C6F67",
".~ 	c #7E7068",
"+~ 	c #76665F",
"@~ 	c #493F3E",
"#~ 	c #7B6961",
"$~ 	c #836F65",
"%~ 	c #6B5B52",
"&~ 	c #353331",
"*~ 	c #34484D",
"=~ 	c #324146",
"-~ 	c #2A3234",
";~ 	c #282F30",
">~ 	c #282E2F",
",~ 	c #282F2F",
"'~ 	c #282F31",
")~ 	c #283032",
"!~ 	c #283233",
"~~ 	c #283234",
"{~ 	c #283335",
"]~ 	c #283436",
"^~ 	c #283537",
"/~ 	c #28383C",
"(~ 	c #28393D",
"_~ 	c #283A3E",
":~ 	c #283031",
"<~ 	c #282E30",
"[~ 	c #283132",
"}~ 	c #283539",
"|~ 	c #283739",
"1~ 	c #28393C",
"2~ 	c #283A3D",
"3~ 	c #293B3F",
"4~ 	c #1C292A",
"5~ 	c #141D1E",
"6~ 	c #2D383B",
"7~ 	c #55524F",
"8~ 	c #8F796F",
"9~ 	c #826D64",
"0~ 	c #6A605D",
"a~ 	c #574B49",
"b~ 	c #4C4140",
"c~ 	c #3B3332",
"d~ 	c #3C3533",
"e~ 	c #65564E",
"f~ 	c #1F2525",
"g~ 	c #1B282A",
"h~ 	c #1E2C2E",
"i~ 	c #34494F",
"j~ 	c #36484D",
"k~ 	c #283030",
"l~ 	c #283133",
"m~ 	c #1B2627",
"n~ 	c #4B4B49",
"o~ 	c #776C65",
"p~ 	c #7F7169",
"q~ 	c #6F6660",
"r~ 	c #7B6F67",
"s~ 	c #95847B",
"t~ 	c #413938",
"u~ 	c #3A3332",
"v~ 	c #806E65",
"w~ 	c #1F2427",
"x~ 	c #1F2327",
"y~ 	c #1B2829",
"z~ 	c #314449",
"A~ 	c #394D54",
"B~ 	c #293234",
"C~ 	c #283134",
"D~ 	c #232D2E",
"E~ 	c #192424",
"F~ 	c #162223",
"G~ 	c #3F4141",
"H~ 	c #6A625C",
"I~ 	c #796D67",
"J~ 	c #937D71",
"K~ 	c #7C6860",
"L~ 	c #736861",
"M~ 	c #82746C",
"N~ 	c #3B3433",
"O~ 	c #493F3D",
"P~ 	c #867369",
"Q~ 	c #1D2325",
"R~ 	c #1E2223",
"S~ 	c #1E2323",
"T~ 	c #1A2627",
"U~ 	c #2C3E43",
"V~ 	c #384C51",
"W~ 	c #2A3334",
"X~ 	c #28383A",
"Y~ 	c #28393E",
"Z~ 	c #28383D",
"`~ 	c #282D2F",
" { 	c #272E2F",
".{ 	c #182223",
"+{ 	c #172223",
"@{ 	c #2D363A",
"#{ 	c #53504E",
"${ 	c #796D66",
"%{ 	c #9D8375",
"&{ 	c #6C5B56",
"*{ 	c #7A706B",
"={ 	c #796D65",
"-{ 	c #97867D",
";{ 	c #4B403F",
">{ 	c #76655D",
",{ 	c #7F6C63",
"'{ 	c #584A44",
"){ 	c #836F66",
"!{ 	c #64554D",
"~{ 	c #2A2B2C",
"{{ 	c #212426",
"]{ 	c #1F2326",
"^{ 	c #1F272A",
"/{ 	c #131D1C",
"({ 	c #2B3E43",
"_{ 	c #374B50",
":{ 	c #2C3537",
"<{ 	c #293031",
"[{ 	c #293030",
"}{ 	c #292F30",
"|{ 	c #292E2F",
"1{ 	c #292F2F",
"2{ 	c #292F31",
"3{ 	c #293032",
"4{ 	c #293133",
"5{ 	c #293335",
"6{ 	c #293537",
"7{ 	c #29393D",
"8{ 	c #293A3E",
"9{ 	c #293B3E",
"0{ 	c #293638",
"a{ 	c #293436",
"b{ 	c #293336",
"c{ 	c #293235",
"d{ 	c #293334",
"e{ 	c #293437",
"f{ 	c #293A3D",
"g{ 	c #484847",
"h{ 	c #9E8476",
"i{ 	c #6A5A55",
"j{ 	c #3E3738",
"k{ 	c #857A75",
"l{ 	c #4C423F",
"m{ 	c #50423D",
"n{ 	c #51433E",
"o{ 	c #7B6960",
"p{ 	c #867268",
"q{ 	c #564A44",
"r{ 	c #28292A",
"s{ 	c #232527",
"t{ 	c #202324",
"u{ 	c #1E2124",
"v{ 	c #1C2023",
"w{ 	c #1C2020",
"x{ 	c #1C2224",
"y{ 	c #1D2425",
"z{ 	c #1E282B",
"A{ 	c #162121",
"B{ 	c #152122",
"C{ 	c #2D3F43",
"D{ 	c #3B4442",
"E{ 	c #383C38",
"F{ 	c #373B38",
"G{ 	c #363B38",
"H{ 	c #373B37",
"I{ 	c #373B36",
"J{ 	c #373C39",
"K{ 	c #373E3A",
"L{ 	c #373E3C",
"M{ 	c #373F3D",
"N{ 	c #37413E",
"O{ 	c #364240",
"P{ 	c #374241",
"Q{ 	c #374342",
"R{ 	c #374443",
"S{ 	c #374543",
"T{ 	c #374544",
"U{ 	c #384744",
"V{ 	c #3A4745",
"W{ 	c #3A4746",
"X{ 	c #3A4846",
"Y{ 	c #3A4744",
"Z{ 	c #3A4643",
"`{ 	c #3A4642",
" ] 	c #3A4542",
".] 	c #3A4441",
"+] 	c #3A4440",
"@] 	c #3A4340",
"#] 	c #3A433F",
"$] 	c #3A423F",
"%] 	c #3A423E",
"&] 	c #3A423D",
"*] 	c #3A413D",
"=] 	c #3A4341",
"-] 	c #3A4442",
";] 	c #3A4543",
">] 	c #3A413C",
",] 	c #3A403C",
"'] 	c #3A403B",
")] 	c #3A403A",
"!] 	c #3A3F3A",
"~] 	c #3A3E3A",
"{] 	c #383D39",
"]] 	c #2C3331",
"^] 	c #3D4241",
"/] 	c #6D645E",
"(] 	c #786C66",
"_] 	c #776A64",
":] 	c #8E7B70",
"<] 	c #A28778",
"[] 	c #846F65",
"}] 	c #635551",
"|] 	c #9B8B81",
"1] 	c #594A44",
"2] 	c #705E57",
"3] 	c #6A5950",
"4] 	c #443C38",
"5] 	c #272728",
"6] 	c #202224",
"7] 	c #1B1E20",
"8] 	c #304040",
"9] 	c #54615B",
"0] 	c #666B5C",
"a] 	c #666551",
"b] 	c #666451",
"c] 	c #656451",
"d] 	c #656551",
"e] 	c #666552",
"f] 	c #666653",
"g] 	c #656653",
"h] 	c #656754",
"i] 	c #656756",
"j] 	c #656957",
"k] 	c #666A58",
"l] 	c #686D5A",
"m] 	c #6A6E5B",
"n] 	c #6A6F5C",
"o] 	c #6A6E5C",
"p] 	c #6A6E5D",
"q] 	c #6A6F5D",
"r] 	c #6A6E5A",
"s] 	c #6A6D5A",
"t] 	c #6A6C5A",
"u] 	c #6A6C59",
"v] 	c #6B6C59",
"w] 	c #6B6D59",
"x] 	c #6A6D59",
"y] 	c #6A6B59",
"z] 	c #6A6C58",
"A] 	c #6A6B58",
"B] 	c #6A6B57",
"C] 	c #6A6C57",
"D] 	c #6A6B56",
"E] 	c #6A6A56",
"F] 	c #696955",
"G] 	c #636351",
"H] 	c #41453A",
"I] 	c #1F2624",
"J] 	c #2C3739",
"K] 	c #524F4C",
"L] 	c #887268",
"M] 	c #363032",
"N] 	c #454041",
"O] 	c #97877E",
"P] 	c #72635D",
"Q] 	c #473D3C",
"R] 	c #645651",
"S] 	c #6F5E56",
"T] 	c #63534C",
"U] 	c #826F65",
"V] 	c #34302E",
"W] 	c #202023",
"X] 	c #191D1F",
"Y] 	c #1B2225",
"Z] 	c #1B2327",
"`] 	c #1B2628",
" ^ 	c #283738",
".^ 	c #636F63",
"+^ 	c #929578",
"@^ 	c #A59D75",
"#^ 	c #A29A72",
"$^ 	c #9E9670",
"%^ 	c #9B946E",
"&^ 	c #9B936E",
"*^ 	c #9C936E",
"=^ 	c #9C946E",
"-^ 	c #9E9770",
";^ 	c #A29A73",
">^ 	c #A49C74",
",^ 	c #A59D74",
"'^ 	c #A49D74",
")^ 	c #A49C73",
"!^ 	c #A39B72",
"~^ 	c #A29971",
"{^ 	c #A19971",
"]^ 	c #A19A72",
"^^ 	c #A29B74",
"/^ 	c #A39D76",
"(^ 	c #A49E76",
"_^ 	c #A49E77",
":^ 	c #A59E77",
"<^ 	c #A49D76",
"[^ 	c #A09A74",
"}^ 	c #9D9772",
"|^ 	c #9C9772",
"1^ 	c #9F9974",
"2^ 	c #A7A078",
"3^ 	c #A8A179",
"4^ 	c #A7A079",
"5^ 	c #9E9873",
"6^ 	c #9E9973",
"7^ 	c #9E9974",
"8^ 	c #9E9874",
"9^ 	c #9F9A74",
"0^ 	c #A39D77",
"a^ 	c #A8A279",
"b^ 	c #A7A179",
"c^ 	c #A59F77",
"d^ 	c #A39C76",
"e^ 	c #A19B75",
"f^ 	c #ABA57C",
"g^ 	c #ABA57B",
"h^ 	c #A9A37A",
"i^ 	c #A59F78",
"j^ 	c #A09B75",
"k^ 	c #9D9873",
"l^ 	c #9C9873",
"m^ 	c #9C9773",
"n^ 	c #A49F77",
"o^ 	c #A7A178",
"p^ 	c #A6A178",
"q^ 	c #A6A278",
"r^ 	c #A6A078",
"s^ 	c #A7A177",
"t^ 	c #A6A177",
"u^ 	c #A5A077",
"v^ 	c #A5A076",
"w^ 	c #A59F76",
"x^ 	c #A59E76",
"y^ 	c #A29C75",
"z^ 	c #888465",
"A^ 	c #494B3D",
"B^ 	c #1A2322",
"C^ 	c #141E1F",
"D^ 	c #213133",
"E^ 	c #72665F",
"F^ 	c #9D8476",
"G^ 	c #8B756A",
"H^ 	c #605350",
"I^ 	c #3A3334",
"J^ 	c #423D3E",
"K^ 	c #494344",
"L^ 	c #96867C",
"M^ 	c #786963",
"N^ 	c #423938",
"O^ 	c #473E3B",
"P^ 	c #574943",
"Q^ 	c #4F443E",
"R^ 	c #191F22",
"S^ 	c #172021",
"T^ 	c #192024",
"U^ 	c #192225",
"V^ 	c #192526",
"W^ 	c #1E2C2D",
"X^ 	c #5D6B61",
"Y^ 	c #999B7B",
"Z^ 	c #B7AD7B",
"`^ 	c #B5AB7A",
" / 	c #AAA072",
"./ 	c #978E67",
"+/ 	c #8B825E",
"@/ 	c #89805D",
"#/ 	c #8A815E",
"$/ 	c #89815D",
"%/ 	c #8E8560",
"&/ 	c #9D936A",
"*/ 	c #AEA475",
"=/ 	c #B8AD7C",
"-/ 	c #B9AD7C",
";/ 	c #B7AC7B",
">/ 	c #B7AD7C",
",/ 	c #B6AB7A",
"'/ 	c #B3A777",
")/ 	c #AEA375",
"!/ 	c #ABA074",
"~/ 	c #AA9F73",
"{/ 	c #A99F73",
"]/ 	c #A99E73",
"^/ 	c #A89D72",
"// 	c #9F966D",
"(/ 	c #908762",
"_/ 	c #827B59",
":/ 	c #7E7857",
"</ 	c #7E7858",
"[/ 	c #7F7858",
"}/ 	c #7F7958",
"|/ 	c #807A58",
"1/ 	c #8D8660",
"2/ 	c #A49A6E",
"3/ 	c #B7AB7A",
"4/ 	c #B7AC7A",
"5/ 	c #B0A676",
"6/ 	c #A1976D",
"7/ 	c #877F5C",
"8/ 	c #88805D",
"9/ 	c #87805D",
"0/ 	c #877F5D",
"a/ 	c #88805E",
"b/ 	c #908862",
"c/ 	c #A2986D",
"d/ 	c #B2A778",
"e/ 	c #B6AB7B",
"f/ 	c #B5AA79",
"g/ 	c #ACA274",
"h/ 	c #A0966C",
"i/ 	c #998F68",
"j/ 	c #9F966C",
"k/ 	c #C8BC87",
"l/ 	c #C7BB86",
"m/ 	c #BCB17E",
"n/ 	c #B6AC7A",
"o/ 	c #B3A979",
"p/ 	c #A79D71",
"q/ 	c #938A65",
"r/ 	c #867E5C",
"s/ 	c #837B5A",
"t/ 	c #817A59",
"u/ 	c #817958",
"v/ 	c #807858",
"w/ 	c #807958",
"x/ 	c #807959",
"y/ 	c #80795A",
"z/ 	c #7F7959",
"A/ 	c #847D5B",
"B/ 	c #958C66",
"C/ 	c #A99F72",
"D/ 	c #B3A978",
"E/ 	c #B4AA79",
"F/ 	c #B2A979",
"G/ 	c #B2A878",
"H/ 	c #B1A878",
"I/ 	c #B2A677",
"J/ 	c #AFA576",
"K/ 	c #AFA476",
"L/ 	c #AEA476",
"M/ 	c #ADA375",
"N/ 	c #ACA175",
"O/ 	c #ABA075",
"P/ 	c #AAA075",
"Q/ 	c #A99F75",
"R/ 	c #A99F74",
"S/ 	c #A99E74",
"T/ 	c #A49B71",
"U/ 	c #7B775A",
"V/ 	c #3D4035",
"W/ 	c #131F1F",
"X/ 	c #5E5550",
"Y/ 	c #6F635D",
"Z/ 	c #937B6F",
"`/ 	c #3F3738",
" ( 	c #4B4545",
".( 	c #8E7F76",
"+( 	c #8A7B73",
"@( 	c #857268",
"#( 	c #62524C",
"$( 	c #695851",
"%( 	c #7C685E",
"&( 	c #816E62",
"*( 	c #282929",
"=( 	c #172023",
"-( 	c #182123",
";( 	c #172124",
">( 	c #172226",
",( 	c #4B5E59",
"'( 	c #7D836C",
")( 	c #958E66",
"!( 	c #968D62",
"~( 	c #89805B",
"{( 	c #6E684A",
"]( 	c #524E39",
"^( 	c #45402F",
"/( 	c #423E2E",
"(( 	c #433F2F",
"_( 	c #433F2E",
":( 	c #464230",
"<( 	c #56513A",
"[( 	c #746D4D",
"}( 	c #8D855E",
"|( 	c #999065",
"1( 	c #999066",
"2( 	c #988F65",
"3( 	c #988F64",
"4( 	c #968D63",
"5( 	c #918960",
"6( 	c #8A825D",
"7( 	c #837B59",
"8( 	c #7F7758",
"9( 	c #7E7758",
"0( 	c #7F7757",
"a( 	c #7E7657",
"b( 	c #776F52",
"c( 	c #645E45",
"d( 	c #4B4634",
"e( 	c #3B3728",
"f( 	c #373426",
"g( 	c #383527",
"h( 	c #393627",
"i( 	c #3A3628",
"j( 	c #423F2E",
"k( 	c #5D583F",
"l( 	c #807855",
"m( 	c #938A61",
"n( 	c #978F64",
"o( 	c #989064",
"p( 	c #999064",
"q( 	c #938A60",
"r( 	c #7F7754",
"s( 	c #625C42",
"t( 	c #4B4633",
"u( 	c #423D2D",
"v( 	c #433E2D",
"w( 	c #433E2E",
"x( 	c #433E2F",
"y( 	c #4A4533",
"z( 	c #5F5A41",
"A( 	c #7E7754",
"B( 	c #938B62",
"C( 	c #998F65",
"D( 	c #8B845C",
"E( 	c #77704F",
"F( 	c #666045",
"G( 	c #686247",
"H( 	c #8C835F",
"I( 	c #B3A87A",
"J( 	c #BAAF7D",
"K( 	c #A69C6E",
"L( 	c #958D63",
"M( 	c #8A825C",
"N( 	c #70694B",
"O( 	c #504C38",
"P( 	c #413D2D",
"Q( 	c #3E3A2A",
"R( 	c #3C3829",
"S( 	c #3C3728",
"T( 	c #3B3628",
"U( 	c #3A3627",
"V( 	c #3B3729",
"W( 	c #3B3829",
"X( 	c #3C382A",
"Y( 	c #4A4633",
"Z( 	c #6A6447",
"`( 	c #877F59",
" _ 	c #958D62",
"._ 	c #968E63",
"+_ 	c #948D62",
"@_ 	c #948C61",
"#_ 	c #938B61",
"$_ 	c #928A61",
"%_ 	c #928961",
"&_ 	c #908860",
"*_ 	c #8F875F",
"=_ 	c #8E865F",
"-_ 	c #8E855F",
";_ 	c #8C845E",
">_ 	c #8A815D",
",_ 	c #857D5B",
"'_ 	c #847B5A",
")_ 	c #797254",
"!_ 	c #50503F",
"~_ 	c #242C28",
"{_ 	c #162021",
"]_ 	c #1F3033",
"^_ 	c #1F2F31",
"/_ 	c #243034",
"(_ 	c #2F3030",
"__ 	c #6D625B",
":_ 	c #A58B7C",
"<_ 	c #947C70",
"[_ 	c #3B3537",
"}_ 	c #554E4D",
"|_ 	c #685E5B",
"1_ 	c #928682",
"2_ 	c #7A6E66",
"3_ 	c #8C7D74",
"4_ 	c #6B5C55",
"5_ 	c #52433E",
"6_ 	c #5D4D47",
"7_ 	c #88746A",
"8_ 	c #78635A",
"9_ 	c #998376",
"0_ 	c #9A8477",
"a_ 	c #857165",
"b_ 	c #172022",
"c_ 	c #151F22",
"d_ 	c #162023",
"e_ 	c #162124",
"f_ 	c #172225",
"g_ 	c #172326",
"h_ 	c #1A2728",
"i_ 	c #415455",
"j_ 	c #767C67",
"k_ 	c #8F8B64",
"l_ 	c #90885F",
"m_ 	c #807955",
"n_ 	c #635D42",
"o_ 	c #2D2A21",
"p_ 	c #2C2921",
"q_ 	c #2D2B22",
"r_ 	c #2D2B21",
"s_ 	c #323025",
"t_ 	c #474331",
"u_ 	c #6B6547",
"v_ 	c #888059",
"w_ 	c #928A60",
"x_ 	c #8D865E",
"y_ 	c #857D5A",
"z_ 	c #7C7556",
"A_ 	c #787155",
"B_ 	c #777054",
"C_ 	c #777154",
"D_ 	c #787154",
"E_ 	c #756E52",
"F_ 	c #6C664C",
"G_ 	c #59533E",
"H_ 	c #3D392C",
"I_ 	c #27251D",
"J_ 	c #211F19",
"K_ 	c #211F1A",
"L_ 	c #221F1A",
"M_ 	c #22201A",
"N_ 	c #23221B",
"O_ 	c #24221C",
"P_ 	c #25241D",
"Q_ 	c #29261E",
"R_ 	c #2E2A21",
"S_ 	c #3B372A",
"T_ 	c #59543C",
"U_ 	c #7A7351",
"V_ 	c #8C845D",
"W_ 	c #918961",
"X_ 	c #928B61",
"Y_ 	c #76704E",
"Z_ 	c #545139",
"`_ 	c #373427",
" : 	c #2B2920",
".: 	c #2E2B21",
"+: 	c #2F2C22",
"@: 	c #393629",
"#: 	c #544F39",
"$: 	c #777050",
"%: 	c #8F865F",
"&: 	c #847D58",
"*: 	c #6D684B",
"=: 	c #5B5640",
"-: 	c #696349",
";: 	c #988F68",
">: 	c #B0A577",
",: 	c #837B57",
"': 	c #676145",
"): 	c #464231",
"!: 	c #302D24",
"~: 	c #2E2B22",
"{: 	c #2D2920",
"]: 	c #2C2820",
"^: 	c #2B281F",
"/: 	c #2C2920",
"(: 	c #2C2A21",
"_: 	c #2D2A22",
":: 	c #312E23",
"<: 	c #44402F",
"[: 	c #645F44",
"}: 	c #807A56",
"|: 	c #8F885F",
"1: 	c #918A60",
"2: 	c #8B835D",
"3: 	c #867F5B",
"4: 	c #7A7453",
"5: 	c #5B5740",
"6: 	c #32342B",
"7: 	c #182121",
"8: 	c #151F1E",
"9: 	c #1F2C33",
"0: 	c #74685F",
"a: 	c #BAA08E",
"b: 	c #967E71",
"c: 	c #3E383A",
"d: 	c #595150",
"e: 	c #494444",
"f: 	c #605857",
"g: 	c #85776F",
"h: 	c #95847C",
"i: 	c #544540",
"j: 	c #564742",
"k: 	c #7E6960",
"l: 	c #846F64",
"m: 	c #867266",
"n: 	c #35484B",
"o: 	c #6F7665",
"p: 	c #8C8866",
"q: 	c #7D7653",
"r: 	c #615C42",
"s: 	c #312E24",
"t: 	c #393529",
"u: 	c #4D4936",
"v: 	c #6C6749",
"w: 	c #87805A",
"x: 	c #948C62",
"y: 	c #8F8760",
"z: 	c #7B7356",
"A: 	c #7A7256",
"B: 	c #776F53",
"C: 	c #6B644B",
"D: 	c #55503C",
"E: 	c #3C392B",
"F: 	c #29271F",
"G: 	c #24221B",
"H: 	c #25231C",
"I: 	c #26241D",
"J: 	c #2A2720",
"K: 	c #2E2C23",
"L: 	c #322F24",
"M: 	c #423D2E",
"N: 	c #615B42",
"O: 	c #807956",
"P: 	c #908760",
"Q: 	c #948C63",
"R: 	c #88815B",
"S: 	c #736D4D",
"T: 	c #55513A",
"U: 	c #393729",
"V: 	c #2E2C22",
"W: 	c #2F2D23",
"X: 	c #333025",
"Y: 	c #3F3C2D",
"Z: 	c #59543D",
"`: 	c #777150",
" < 	c #968D64",
".< 	c #817A58",
"+< 	c #6D664B",
"@< 	c #676147",
"#< 	c #867D5C",
"$< 	c #9C926A",
"%< 	c #655F44",
"&< 	c #464131",
"*< 	c #302D23",
"=< 	c #363226",
"-< 	c #4C4734",
";< 	c #6C6648",
">< 	c #867E59",
",< 	c #938C62",
"'< 	c #918860",
")< 	c #847D59",
"!< 	c #6A6548",
"~< 	c #4B4734",
"{< 	c #312F26",
"]< 	c #202623",
"^< 	c #172121",
"/< 	c #172325",
"(< 	c #182428",
"_< 	c #182326",
":< 	c #182122",
"<< 	c #8D7B70",
"[< 	c #C2A794",
"}< 	c #9A8173",
"|< 	c #675F5B",
"1< 	c #83746C",
"2< 	c #3D3534",
"3< 	c #79645B",
"4< 	c #877367",
"5< 	c #686E5D",
"6< 	c #8A8766",
"7< 	c #8C845F",
"8< 	c #5A553D",
"9< 	c #3E3B2C",
"0< 	c #302E23",
"a< 	c #534E39",
"b< 	c #746E4E",
"c< 	c #887F5C",
"d< 	c #7E7658",
"e< 	c #797155",
"f< 	c #776F54",
"g< 	c #6A634B",
"h< 	c #514B3A",
"i< 	c #363327",
"j< 	c #26231C",
"k< 	c #26241C",
"l< 	c #28261F",
"m< 	c #2A281F",
"n< 	c #322F23",
"o< 	c #635C43",
"p< 	c #948B62",
"q< 	c #6C6649",
"r< 	c #4D4A36",
"s< 	c #363427",
"t< 	c #302E24",
"u< 	c #413D2E",
"v< 	c #7E7855",
"w< 	c #908960",
"x< 	c #938B63",
"y< 	c #928A62",
"z< 	c #8E8760",
"A< 	c #857E5A",
"B< 	c #7E7755",
"C< 	c #8C835E",
"D< 	c #827A57",
"E< 	c #625C43",
"F< 	c #403C2D",
"G< 	c #322E24",
"H< 	c #2F2C23",
"I< 	c #4B4834",
"J< 	c #89815B",
"K< 	c #666145",
"L< 	c #494532",
"M< 	c #353226",
"N< 	c #302C23",
"O< 	c #2D2C24",
"P< 	c #232724",
"Q< 	c #151E1E",
"R< 	c #182225",
"S< 	c #151F21",
"T< 	c #A08A7C",
"U< 	c #C3A895",
"V< 	c #7A665F",
"W< 	c #433D3F",
"X< 	c #4B4645",
"Y< 	c #776B64",
"Z< 	c #7D7068",
"`< 	c #908179",
" [ 	c #847066",
".[ 	c #7B665D",
"+[ 	c #877269",
"@[ 	c #826F64",
"#[ 	c #223032",
"$[ 	c #5D6658",
"%[ 	c #858363",
"&[ 	c #89825E",
"*[ 	c #756E4F",
"=[ 	c #55503B",
"-[ 	c #312F25",
";[ 	c #3A372A",
">[ 	c #544F3A",
",[ 	c #766F4F",
"'[ 	c #847C5B",
")[ 	c #7C7457",
"![ 	c #756D52",
"~[ 	c #69624A",
"{[ 	c #514C39",
"][ 	c #343126",
"^[ 	c #27241D",
"/[ 	c #28251D",
"([ 	c #28261E",
"_[ 	c #2A2820",
":[ 	c #625B42",
"<[ 	c #867F5A",
"[[ 	c #6A6448",
"}[ 	c #484433",
"|[ 	c #322F25",
"1[ 	c #3F3B2D",
"2[ 	c #5F5941",
"3[ 	c #968E64",
"4[ 	c #89825D",
"5[ 	c #8A835D",
"6[ 	c #8C835D",
"7[ 	c #7C7553",
"8[ 	c #5D573E",
"9[ 	c #4A4634",
"0[ 	c #7F7855",
"a[ 	c #312D24",
"b[ 	c #2D2D25",
"c[ 	c #212724",
"d[ 	c #152023",
"e[ 	c #A58E7E",
"f[ 	c #A18677",
"g[ 	c #78655D",
"h[ 	c #4E4847",
"i[ 	c #5D5552",
"j[ 	c #7E726A",
"k[ 	c #665B58",
"l[ 	c #655A57",
"m[ 	c #514745",
"n[ 	c #423A38",
"o[ 	c #847167",
"p[ 	c #8B776D",
"q[ 	c #161F21",
"r[ 	c #202C2C",
"s[ 	c #57645A",
"t[ 	c #808265",
"u[ 	c #847E5B",
"v[ 	c #6F694A",
"w[ 	c #514C37",
"x[ 	c #373428",
"y[ 	c #2E2B23",
"z[ 	c #58543C",
"A[ 	c #787250",
"B[ 	c #958D64",
"C[ 	c #787053",
"D[ 	c #635C46",
"E[ 	c #4C4736",
"F[ 	c #333125",
"G[ 	c #29261F",
"H[ 	c #2A271F",
"I[ 	c #2B2820",
"J[ 	c #363328",
"K[ 	c #494533",
"L[ 	c #686146",
"M[ 	c #847C57",
"N[ 	c #827B57",
"O[ 	c #696447",
"P[ 	c #5F5940",
"Q[ 	c #7E7654",
"R[ 	c #918A61",
"S[ 	c #908861",
"T[ 	c #8B835E",
"U[ 	c #857D59",
"V[ 	c #746D4E",
"W[ 	c #56503A",
"X[ 	c #3A3629",
"Y[ 	c #706B4C",
"Z[ 	c #8B835C",
"`[ 	c #7A7252",
" } 	c #5E5840",
".} 	c #312E25",
"+} 	c #2B2C25",
"@} 	c #90796E",
"#} 	c #4A4444",
"$} 	c #4F4947",
"%} 	c #534C4A",
"&} 	c #7D7670",
"*} 	c #79716B",
"=} 	c #6F6661",
"-} 	c #70645F",
";} 	c #4E4543",
">} 	c #413937",
",} 	c #6A5B53",
"'} 	c #716259",
")} 	c #95847A",
"!} 	c #8D7A70",
"~} 	c #7A685F",
"{} 	c #182527",
"]} 	c #131D1E",
"^} 	c #1C2625",
"/} 	c #4B5A53",
"(} 	c #7D8268",
"_} 	c #827E5B",
":} 	c #696446",
"<} 	c #343125",
"[} 	c #5C573F",
"}} 	c #837C58",
"|} 	c #655F46",
"1} 	c #464132",
"2} 	c #29271E",
"3} 	c #2B291F",
"4} 	c #2C2A20",
"5} 	c #2D2A20",
"6} 	c #383428",
"7} 	c #4F4A37",
"8} 	c #6E674A",
"9} 	c #877F5A",
"0} 	c #8E875E",
"a} 	c #605B42",
"b} 	c #43402F",
"c} 	c #2C2A22",
"d} 	c #474332",
"e} 	c #817956",
"f} 	c #696247",
"g} 	c #3C382B",
"h} 	c #57523B",
"i} 	c #554F3A",
"j} 	c #3A362A",
"k} 	c #292B25",
"l} 	c #1C2524",
"m} 	c #957D70",
"n} 	c #635C59",
"o} 	c #87807A",
"p} 	c #8B847E",
"q} 	c #8A837D",
"r} 	c #716863",
"s} 	c #6C615D",
"t} 	c #5E5552",
"u} 	c #5F5553",
"v} 	c #625855",
"w} 	c #453D3B",
"x} 	c #564843",
"y} 	c #5F504A",
"z} 	c #86746A",
"A} 	c #63554E",
"B} 	c #1A2524",
"C} 	c #414F4A",
"D} 	c #737A66",
"E} 	c #817C5B",
"F} 	c #686347",
"G} 	c #322E25",
"H} 	c #3D3A2C",
"I} 	c #6B6548",
"J} 	c #2F2D22",
"K} 	c #504C37",
"L} 	c #716B4C",
"M} 	c #8E865E",
"N} 	c #7C7552",
"O} 	c #5B563F",
"P} 	c #3B382B",
"Q} 	c #686246",
"R} 	c #645E44",
"S} 	c #454030",
"T} 	c #3C392A",
"U} 	c #7B7352",
"V} 	c #938A62",
"W} 	c #514C38",
"X} 	c #353126",
"Y} 	c #2F2D24",
"Z} 	c #272A25",
"`} 	c #1A2424",
" | 	c #BEA390",
".| 	c #9B8174",
"+| 	c #494343",
"@| 	c #6F6864",
"#| 	c #827A74",
"$| 	c #736A65",
"%| 	c #766A64",
"&| 	c #6D625D",
"*| 	c #514B4A",
"=| 	c #4E4848",
"-| 	c #504949",
";| 	c #5E5452",
">| 	c #3F3837",
",| 	c #665952",
"'| 	c #1A2525",
")| 	c #6A7262",
"!| 	c #7C7757",
"~| 	c #655F45",
"{| 	c #454130",
"]| 	c #413E2E",
"^| 	c #5D5840",
"/| 	c #8F875E",
"(| 	c #6D674A",
"_| 	c #4E4A36",
":| 	c #6F6A4C",
"<| 	c #89825C",
"[| 	c #8E875F",
"}| 	c #8A835C",
"|| 	c #59533C",
"1| 	c #28251E",
"2| 	c #332F25",
"3| 	c #635D43",
"4| 	c #3D392B",
"5| 	c #58533C",
"6| 	c #7A7352",
"7| 	c #958C62",
"8| 	c #706A4B",
"9| 	c #2F2B23",
"0| 	c #252925",
"a| 	c #182324",
"b| 	c #1B2224",
"c| 	c #B59A89",
"d| 	c #79655E",
"e| 	c #4C4745",
"f| 	c #534D4A",
"g| 	c #67605D",
"h| 	c #88807A",
"i| 	c #544D4C",
"j| 	c #5D5352",
"k| 	c #685A52",
"l| 	c #928076",
"m| 	c #544943",
"n| 	c #333F3E",
"o| 	c #616C61",
"p| 	c #777356",
"q| 	c #3F3B2C",
"r| 	c #474432",
"s| 	c #55503A",
"t| 	c #726C4C",
"u| 	c #89825B",
"v| 	c #837C57",
"w| 	c #8A835E",
"x| 	c #716B4D",
"y| 	c #363227",
"z| 	c #312E22",
"A| 	c #4C4834",
"B| 	c #6F694B",
"C| 	c #797150",
"D| 	c #5E583F",
"E| 	c #2E2D24",
"F| 	c #232825",
"G| 	c #AC9181",
"H| 	c #917A6E",
"I| 	c #826D65",
"J| 	c #595351",
"K| 	c #665C58",
"L| 	c #4B4444",
"M| 	c #403938",
"N| 	c #76665D",
"O| 	c #938278",
"P| 	c #534843",
"Q| 	c #574B45",
"R| 	c #5F5049",
"S| 	c #4E413D",
"T| 	c #2B3736",
"U| 	c #566056",
"V| 	c #727155",
"W| 	c #57533D",
"X| 	c #625D42",
"Y| 	c #7D7754",
"Z| 	c #5E5940",
"`| 	c #58533B",
" 1 	c #797251",
".1 	c #8B845D",
"+1 	c #777051",
"@1 	c #87805C",
"#1 	c #918963",
"$1 	c #918962",
"%1 	c #6D6749",
"&1 	c #4C4835",
"*1 	c #2F2C21",
"=1 	c #4A4632",
"-1 	c #8D855D",
";1 	c #39362A",
">1 	c #605C41",
",1 	c #847E58",
"'1 	c #2E2D25",
")1 	c #A4897A",
"!1 	c #5F524F",
"~1 	c #373133",
"{1 	c #464142",
"]1 	c #554F4D",
"^1 	c #322C2E",
"/1 	c #4D4644",
"(1 	c #6A605B",
"_1 	c #484242",
":1 	c #453F3F",
"<1 	c #403A39",
"[1 	c #3D3635",
"}1 	c #544742",
"|1 	c #6E5F56",
"11 	c #918076",
"21 	c #918077",
"31 	c #4D423E",
"41 	c #4E433E",
"51 	c #493D39",
"61 	c #493D3A",
"71 	c #3B312F",
"81 	c #372D2C",
"91 	c #302727",
"01 	c #232F2E",
"a1 	c #4D574D",
"b1 	c #6C6E57",
"c1 	c #54503C",
"d1 	c #444030",
"e1 	c #827B56",
"f1 	c #3E392C",
"g1 	c #383528",
"h1 	c #545039",
"i1 	c #6A6449",
"j1 	c #7E7757",
"k1 	c #9C936A",
"l1 	c #A2996D",
"m1 	c #867F59",
"n1 	c #696347",
"o1 	c #484432",
"p1 	c #8D845D",
"q1 	c #373429",
"r1 	c #3F3C2C",
"s1 	c #605A40",
"t1 	c #807A55",
"u1 	c #656044",
"v1 	c #444130",
"w1 	c #2D2D26",
"x1 	c #1E2725",
"y1 	c #9E8878",
"z1 	c #3D3839",
"A1 	c #484343",
"B1 	c #534D4B",
"C1 	c #6C6562",
"D1 	c #726B68",
"E1 	c #312B2D",
"F1 	c #443D3C",
"G1 	c #625956",
"H1 	c #6B615B",
"I1 	c #5E5450",
"J1 	c #4C4441",
"K1 	c #403837",
"L1 	c #504540",
"M1 	c #64564F",
"N1 	c #3D3634",
"O1 	c #3C3432",
"P1 	c #1C2726",
"Q1 	c #464F44",
"R1 	c #666C59",
"S1 	c #514D3A",
"T1 	c #5B553E",
"U1 	c #3E392B",
"V1 	c #56513B",
"W1 	c #8C855C",
"X1 	c #90895F",
"Y1 	c #736D4E",
"Z1 	c #686248",
"`1 	c #88815D",
" 2 	c #9D946A",
".2 	c #9B9267",
"+2 	c #25231B",
"@2 	c #474330",
"#2 	c #716A4B",
"$2 	c #726C4D",
"%2 	c #514D38",
"&2 	c #393528",
"*2 	c #5E5A40",
"=2 	c #2A2C25",
"-2 	c #202827",
";2 	c #172324",
">2 	c #968072",
",2 	c #5D504D",
"'2 	c #494443",
")2 	c #716A67",
"!2 	c #4F4949",
"~2 	c #383133",
"{2 	c #514947",
"]2 	c #48403E",
"^2 	c #63564F",
"/2 	c #88786F",
"(2 	c #85766E",
"_2 	c #514744",
":2 	c #383130",
"<2 	c #434F48",
"[2 	c #5F675A",
"}2 	c #514E3B",
"|2 	c #615C41",
"12 	c #978F63",
"22 	c #8C855D",
"32 	c #787251",
"42 	c #393628",
"52 	c #57533B",
"62 	c #7B7452",
"72 	c #8D865D",
"82 	c #6B664A",
"92 	c #8D8560",
"02 	c #9D956A",
"a2 	c #999166",
"b2 	c #847E59",
"c2 	c #676246",
"d2 	c #27251C",
"e2 	c #44402E",
"f2 	c #6A6546",
"g2 	c #978E64",
"h2 	c #88815A",
"i2 	c #4B4735",
"j2 	c #312F24",
"k2 	c #403D2D",
"l2 	c #7E7854",
"m2 	c #605A41",
"n2 	c #3E3E32",
"o2 	c #262D29",
"p2 	c #162020",
"q2 	c #957E70",
"r2 	c #5B4F4C",
"s2 	c #595353",
"t2 	c #615A59",
"u2 	c #3D3738",
"v2 	c #3E3838",
"w2 	c #4B4342",
"x2 	c #5A524F",
"y2 	c #5E5652",
"z2 	c #47403F",
"A2 	c #473E3C",
"B2 	c #312828",
"C2 	c #433835",
"D2 	c #332A2A",
"E2 	c #372E2E",
"F2 	c #393030",
"G2 	c #3B3231",
"H2 	c #3D3433",
"I2 	c #3D4C49",
"J2 	c #556057",
"K2 	c #4C4A3A",
"L2 	c #474231",
"M2 	c #3B382A",
"N2 	c #7A7451",
"O2 	c #696448",
"P2 	c #7B7454",
"Q2 	c #978F66",
"R2 	c #9E956A",
"S2 	c #978F65",
"T2 	c #343026",
"U2 	c #89825A",
"V2 	c #857E58",
"W2 	c #4C4735",
"X2 	c #635E43",
"Y2 	c #87815A",
"Z2 	c #8A845D",
"`2 	c #797352",
" 3 	c #413C2D",
".3 	c #585843",
"+3 	c #2B312C",
"@3 	c #B59C8A",
"#3 	c #AC9180",
"$3 	c #594C49",
"%3 	c #635D5B",
"&3 	c #6A6461",
"*3 	c #4D4848",
"=3 	c #443F3F",
"-3 	c #352F30",
";3 	c #443C3A",
">3 	c #5D534F",
",3 	c #72635E",
"'3 	c #74655F",
")3 	c #776962",
"!3 	c #7B6D66",
"~3 	c #796B65",
"{3 	c #80726B",
"]3 	c #3F3836",
"^3 	c #4A413D",
"/3 	c #5A4E49",
"(3 	c #72625A",
"_3 	c #8D796D",
":3 	c #6F5F58",
"<3 	c #182425",
"[3 	c #4E5D5A",
"}3 	c #454539",
"|3 	c #6E6849",
"13 	c #88805A",
"23 	c #6D6649",
"33 	c #4F4A36",
"43 	c #3E3A2C",
"53 	c #8E8662",
"63 	c #A39A6E",
"73 	c #9E966A",
"83 	c #958E63",
"93 	c #5B563E",
"03 	c #4F4A35",
"a3 	c #756E4E",
"b3 	c #817955",
"c3 	c #666044",
"d3 	c #7C7655",
"e3 	c #9C9269",
"f3 	c #A59B6E",
"g3 	c #9A9266",
"h3 	c #7D7753",
"i3 	c #50513F",
"j3 	c #1E2929",
"k3 	c #B79D8B",
"l3 	c #D7B9A3",
"m3 	c #A98D7E",
"n3 	c #A18778",
"o3 	c #4B413F",
"p3 	c #635C5B",
"q3 	c #68625F",
"r3 	c #504B4B",
"s3 	c #5F5653",
"t3 	c #534A47",
"u3 	c #6D605C",
"v3 	c #857770",
"w3 	c #8A7B74",
"x3 	c #7B6E68",
"y3 	c #4E4441",
"z3 	c #625650",
"A3 	c #71635B",
"B3 	c #87756A",
"C3 	c #544844",
"D3 	c #304243",
"E3 	c #465451",
"F3 	c #43473E",
"G3 	c #343025",
"H3 	c #4C4935",
"I3 	c #706B4B",
"J3 	c #8A835B",
"K3 	c #403B2C",
"L3 	c #615B41",
"M3 	c #817B57",
"N3 	c #6A644A",
"O3 	c #9B926B",
"P3 	c #A9A073",
"Q3 	c #9D9569",
"R3 	c #7B7553",
"S3 	c #59553D",
"T3 	c #24231C",
"U3 	c #4C4733",
"V3 	c #857D57",
"W3 	c #6C674A",
"X3 	c #5A553E",
"Y3 	c #726C4F",
"Z3 	c #999068",
"`3 	c #978E63",
" 4 	c #777354",
".4 	c #3D4036",
"+4 	c #152224",
"@4 	c #D8BAA4",
"#4 	c #D1B49F",
"$4 	c #A58A7B",
"%4 	c #433E3F",
"&4 	c #746A64",
"*4 	c #534B48",
"=4 	c #584E49",
"-4 	c #675A53",
";4 	c #75675E",
">4 	c #796A61",
",4 	c #7A6A61",
"'4 	c #8B786C",
")4 	c #75665E",
"!4 	c #212F30",
"~4 	c #3B4743",
"{4 	c #3F443C",
"]4 	c #4F4936",
"^4 	c #8A845C",
"/4 	c #847D57",
"(4 	c #605B41",
"_4 	c #7F7955",
":4 	c #938C61",
"<4 	c #8B825C",
"[4 	c #8A825B",
"}4 	c #746D51",
"|4 	c #A2986F",
"14 	c #9B9367",
"24 	c #8D855C",
"34 	c #766F4E",
"44 	c #23211B",
"54 	c #4E4B36",
"64 	c #726D4C",
"74 	c #948B61",
"84 	c #958C61",
"94 	c #8E865D",
"04 	c #4A4532",
"a4 	c #6B6447",
"b4 	c #857D58",
"c4 	c #8C855E",
"d4 	c #857F59",
"e4 	c #7C7754",
"f4 	c #6D684A",
"g4 	c #59553E",
"h4 	c #524E3A",
"i4 	c #6F684C",
"j4 	c #9C9367",
"k4 	c #4F4B37",
"l4 	c #383529",
"m4 	c #333026",
"n4 	c #817A55",
"o4 	c #817C59",
"p4 	c #4C4E3F",
"q4 	c #1E2A2A",
"r4 	c #C6A996",
"s4 	c #867067",
"t4 	c #3A3536",
"u4 	c #5E5654",
"v4 	c #685E5A",
"w4 	c #494242",
"x4 	c #5E5555",
"y4 	c #675F5D",
"z4 	c #433C3D",
"A4 	c #595050",
"B4 	c #6F6563",
"C4 	c #6C615F",
"D4 	c #655A58",
"E4 	c #877872",
"F4 	c #7E716A",
"G4 	c #756863",
"H4 	c #6F645E",
"I4 	c #524A47",
"J4 	c #473F3D",
"K4 	c #423B39",
"L4 	c #3E3736",
"M4 	c #4F4643",
"N4 	c #695F5A",
"O4 	c #887C75",
"P4 	c #988B83",
"Q4 	c #9E9188",
"R4 	c #998C83",
"S4 	c #7B6C63",
"T4 	c #827166",
"U4 	c #89776B",
"V4 	c #827167",
"W4 	c #837268",
"X4 	c #564945",
"Y4 	c #192626",
"Z4 	c #313C3A",
"`4 	c #393D37",
" 5 	c #333127",
".5 	c #7B7552",
"+5 	c #5F5B40",
"@5 	c #353227",
"#5 	c #817A56",
"$5 	c #7A7452",
"%5 	c #6A6547",
"&5 	c #686346",
"*5 	c #615C43",
"=5 	c #8A805E",
"-5 	c #A69B70",
";5 	c #A69C6F",
">5 	c #8A815B",
",5 	c #70694A",
"'5 	c #504B36",
")5 	c #26251D",
"!5 	c #22211A",
"~5 	c #88815C",
"{5 	c #88805B",
"]5 	c #88805C",
"^5 	c #89815C",
"/5 	c #7C7653",
"(5 	c #777251",
"_5 	c #726D4E",
":5 	c #6E694B",
"<5 	c #666246",
"[5 	c #615D43",
"}5 	c #5A563E",
"|5 	c #534F3A",
"15 	c #998F64",
"25 	c #837D5A",
"35 	c #505343",
"45 	c #232E2E",
"55 	c #162326",
"65 	c #1C2B2E",
"75 	c #B09686",
"85 	c #75635B",
"95 	c #443F40",
"05 	c #5E5653",
"a5 	c #3E3737",
"b5 	c #8A7F7B",
"c5 	c #908581",
"d5 	c #877C78",
"e5 	c #5B524E",
"f5 	c #6B5F58",
"g5 	c #7E6F66",
"h5 	c #9A8C83",
"i5 	c #453B39",
"j5 	c #78665D",
"k5 	c #313E3D",
"l5 	c #3B413A",
"m5 	c #37362C",
"n5 	c #343127",
"o5 	c #343227",
"p5 	c #333126",
"q5 	c #716A4C",
"r5 	c #706A4C",
"s5 	c #787151",
"t5 	c #7D7654",
"u5 	c #827C57",
"v5 	c #90865F",
"w5 	c #90875F",
"x5 	c #5D5740",
"y5 	c #3E3B2D",
"z5 	c #655E44",
"A5 	c #8E855E",
"B5 	c #7B7453",
"C5 	c #656045",
"D5 	c #55523C",
"E5 	c #54503B",
"F5 	c #7F7856",
"G5 	c #928862",
"H5 	c #998F66",
"I5 	c #958C63",
"J5 	c #6F684A",
"K5 	c #4F4935",
"L5 	c #27261E",
"M5 	c #363326",
"N5 	c #827A59",
"O5 	c #7F7857",
"P5 	c #7F7756",
"Q5 	c #7D7656",
"R5 	c #7B7556",
"S5 	c #7B7455",
"T5 	c #7E7756",
"U5 	c #847C59",
"V5 	c #87805B",
"W5 	c #54503A",
"X5 	c #4D4835",
"Y5 	c #686447",
"Z5 	c #656145",
"`5 	c #625D43",
" 6 	c #5E5A41",
".6 	c #5B573F",
"+6 	c #625D44",
"@6 	c #6C664A",
"#6 	c #5D5940",
"$6 	c #807856",
"%6 	c #7D7756",
"&6 	c #4D5040",
"*6 	c #222D2E",
"=6 	c #172529",
"-6 	c #9D8477",
";6 	c #3C3637",
">6 	c #3C393A",
",6 	c #3A3637",
"'6 	c #413B3C",
")6 	c #8E837F",
"!6 	c #847975",
"~6 	c #796F6B",
"{6 	c #746A67",
"]6 	c #665D59",
"^6 	c #5C524E",
"/6 	c #75675F",
"(6 	c #93857C",
"_6 	c #685A53",
":6 	c #4A3F3C",
"<6 	c #7C6A60",
"[6 	c #324243",
"}6 	c #464E47",
"|6 	c #494839",
"16 	c #484332",
"26 	c #6B6549",
"36 	c #57523C",
"46 	c #736B4D",
"56 	c #756D4E",
"66 	c #756C4E",
"76 	c #726A4C",
"86 	c #514B38",
"96 	c #474232",
"06 	c #494433",
"a6 	c #524C38",
"b6 	c #645D43",
"c6 	c #746C4E",
"d6 	c #59543E",
"e6 	c #767050",
"f6 	c #797252",
"g6 	c #766F50",
"h6 	c #59533D",
"i6 	c #4A4534",
"j6 	c #484232",
"k6 	c #423E2F",
"l6 	c #6E684B",
"m6 	c #726B4D",
"n6 	c #6D674B",
"o6 	c #686249",
"p6 	c #676149",
"q6 	c #676148",
"r6 	c #686149",
"s6 	c #6B644A",
"t6 	c #6E674B",
"u6 	c #6F684B",
"v6 	c #5E5941",
"w6 	c #57513C",
"x6 	c #6C6549",
"y6 	c #736C4D",
"z6 	c #746C4D",
"A6 	c #676146",
"B6 	c #5F5B42",
"C6 	c #56513C",
"D6 	c #5A543D",
"E6 	c #504B37",
"F6 	c #766D4F",
"G6 	c #766E4E",
"H6 	c #656148",
"I6 	c #404439",
"J6 	c #1F2B2D",
"K6 	c #18262B",
"L6 	c #B39A89",
"M6 	c #D2B5A0",
"N6 	c #413B3D",
"O6 	c #706761",
"P6 	c #5C534F",
"Q6 	c #6B5E58",
"R6 	c #998B82",
"S6 	c #7A6B62",
"T6 	c #70635B",
"U6 	c #695C56",
"V6 	c #76675F",
"W6 	c #74655D",
"X6 	c #60524C",
"Y6 	c #4E413F",
"Z6 	c #4B3E3C",
"`6 	c #6A5A53",
" 7 	c #3D4C4A",
".7 	c #4D4E40",
"+7 	c #534E3A",
"@7 	c #554F3B",
"#7 	c #544F3B",
"$7 	c #57513D",
"%7 	c #57523D",
"&7 	c #55513B",
"*7 	c #56503B",
"=7 	c #58533D",
"-7 	c #524D3A",
";7 	c #534D3A",
">7 	c #58523D",
",7 	c #56503C",
"'7 	c #4D4B3A",
")7 	c #333932",
"!7 	c #1D2A2C",
"~7 	c #19272B",
"{7 	c #1A282B",
"]7 	c #2D2A2C",
"^7 	c #49403F",
"/7 	c #625550",
"(7 	c #8E796D",
"_7 	c #8A7469",
":7 	c #5F5853",
"<7 	c #665D5B",
"[7 	c #625752",
"}7 	c #71635C",
"|7 	c #6A5D57",
"17 	c #70625B",
"27 	c #5F514B",
"37 	c #544643",
"47 	c #493C3B",
"57 	c #233437",
"67 	c #2C4044",
"77 	c #363E39",
"87 	c #464638",
"97 	c #4E4B3B",
"07 	c #4F4C3C",
"a7 	c #4F4D3C",
"b7 	c #4E4C3C",
"c7 	c #4E4C3B",
"d7 	c #4F4D3B",
"e7 	c #4F4C3B",
"f7 	c #4E4B3C",
"g7 	c #4F4B3C",
"h7 	c #4F4D3A",
"i7 	c #4E4D3B",
"j7 	c #4F4C3A",
"k7 	c #4E4C3A",
"l7 	c #454638",
"m7 	c #2F3731",
"n7 	c #3E3839",
"o7 	c #443E3F",
"p7 	c #464040",
"q7 	c #524B4A",
"r7 	c #615955",
"s7 	c #59514E",
"t7 	c #3C3636",
"u7 	c #322D2E",
"v7 	c #8A827E",
"w7 	c #655D58",
"x7 	c #615855",
"y7 	c #6C5E58",
"z7 	c #2F454B",
"A7 	c #2A3534",
"B7 	c #373F3B",
"C7 	c #3C433D",
"D7 	c #3D433D",
"E7 	c #3D443D",
"F7 	c #3D443E",
"G7 	c #3D423D",
"H7 	c #3D423C",
"I7 	c #3D433C",
"J7 	c #3D423B",
"K7 	c #3D423A",
"L7 	c #3C4239",
"M7 	c #3C4139",
"N7 	c #3D4139",
"O7 	c #3D413A",
"P7 	c #3D433B",
"Q7 	c #3E443C",
"R7 	c #3E433C",
"S7 	c #3E433D",
"T7 	c #3E433E",
"U7 	c #3E443B",
"V7 	c #3E433B",
"W7 	c #3D4239",
"X7 	c #3D4138",
"Y7 	c #3C4138",
"Z7 	c #3C4038",
"`7 	c #3C4037",
" 8 	c #3D4038",
".8 	c #363D36",
"+8 	c #283331",
"@8 	c #141F20",
"#8 	c #433D3E",
"$8 	c #3F393A",
"%8 	c #383334",
"&8 	c #312C2E",
"*8 	c #302B2D",
"=8 	c #332F31",
"-8 	c #655954",
";8 	c #817066",
">8 	c #9A8678",
",8 	c #A18B7C",
"'8 	c #978375",
")8 	c #8B796E",
"!8 	c #7C6C62",
"~8 	c #564844",
"{8 	c #2C4045",
"]8 	c #1F3034",
"^8 	c #2B3A3B",
"/8 	c #2B3A3A",
"(8 	c #2B393A",
"_8 	c #2B383A",
":8 	c #2B393B",
"<8 	c #2B373A",
"[8 	c #2B3739",
"}8 	c #2B3638",
"|8 	c #2B3637",
"18 	c #2B3537",
"28 	c #2B3536",
"38 	c #2A3637",
"48 	c #2A3737",
"58 	c #2A3738",
"68 	c #2A3739",
"78 	c #2B3839",
"88 	c #2B383B",
"98 	c #2C3B3D",
"08 	c #2C393C",
"a8 	c #2B3738",
"b8 	c #2A3536",
"c8 	c #2A3435",
"d8 	c #2A3233",
"e8 	c #2A3232",
"f8 	c #2A3132",
"g8 	c #2B3232",
"h8 	c #273132",
"i8 	c #202D2F",
"j8 	c #373334",
"k8 	c #413A3B",
"l8 	c #3B3435",
"m8 	c #383234",
"n8 	c #332E30",
"o8 	c #383536",
"p8 	c #464243",
"q8 	c #605651",
"r8 	c #72645C",
"s8 	c #6D6059",
"t8 	c #6D5F58",
"u8 	c #807065",
"v8 	c #8A776A",
"w8 	c #8C796B",
"x8 	c #958172",
"y8 	c #A89181",
"z8 	c #62534D",
"A8 	c #79675E",
"B8 	c #223234",
"C8 	c #283435",
"D8 	c #283334",
"E8 	c #283438",
"F8 	c #283439",
"G8 	c #293A3F",
"H8 	c #273032",
"I8 	c #273031",
"J8 	c #272F30",
"K8 	c #272F2F",
"L8 	c #262E2F",
"M8 	c #202C2E",
"N8 	c #625957",
"O8 	c #746966",
"P8 	c #716664",
"Q8 	c #706562",
"R8 	c #6A605E",
"S8 	c #655C5A",
"T8 	c #564D4C",
"U8 	c #484142",
"V8 	c #322D2F",
"W8 	c #3A3738",
"X8 	c #635B56",
"Y8 	c #73655D",
"Z8 	c #9D8878",
"`8 	c #705F57",
" 9 	c #25373B",
".9 	c #19272A",
"+9 	c #222E31",
"@9 	c #263032",
"#9 	c #28393B",
"$9 	c #283131",
"%9 	c #202C2D",
"&9 	c #243439",
"*9 	c #7F7772",
"=9 	c #978D86",
"-9 	c #887F7A",
";9 	c #817874",
">9 	c #665E59",
",9 	c #675B55",
"'9 	c #6B5E57",
")9 	c #74665E",
"!9 	c #7E6E64",
"~9 	c #89776A",
"{9 	c #867568",
"]9 	c #8F7C6E",
"^9 	c #5B4E4A",
"/9 	c #61544F",
"(9 	c #263031",
"_9 	c #29383A",
":9 	c #233235",
"<9 	c #716966",
"[9 	c #908781",
"}9 	c #918881",
"|9 	c #776860",
"19 	c #786960",
"29 	c #857367",
"39 	c #A68F7F",
"49 	c #4A3D3B",
"59 	c #30464B",
"69 	c #293536",
"79 	c #293B3D",
"89 	c #625C5B",
"99 	c #746C6A",
"09 	c #766E6C",
"a9 	c #8C837D",
"b9 	c #8A807B",
"c9 	c #343032",
"d9 	c #6F625A",
"e9 	c #8E7B6C",
"f9 	c #947F72",
"g9 	c #3F3535",
"h9 	c #60534E",
"i9 	c #25373A",
"j9 	c #344B51",
"k9 	c #293132",
"l9 	c #2A3C40",
"m9 	c #5D5856",
"n9 	c #7F7672",
"o9 	c #847B77",
"p9 	c #827975",
"q9 	c #7C7370",
"r9 	c #353133",
"s9 	c #685F5A",
"t9 	c #5F5550",
"u9 	c #685B55",
"v9 	c #6E6059",
"w9 	c #8B796B",
"x9 	c #9F897A",
"y9 	c #6E5D56",
"z9 	c #3B3233",
"A9 	c #473B3A",
"B9 	c #2F4348",
"C9 	c #2D3F42",
"D9 	c #263234",
"E9 	c #293C40",
"F9 	c #293539",
"G9 	c #5B5756",
"H9 	c #6F6866",
"I9 	c #706868",
"J9 	c #443F41",
"K9 	c #7D6D64",
"L9 	c #A28C7C",
"M9 	c #9A8275",
"N9 	c #433838",
"O9 	c #1D2C2D",
"P9 	c #2A3C41",
"Q9 	c #263133",
"R9 	c #1F2C2F",
"S9 	c #29393E",
"T9 	c #25363A",
"U9 	c #6C6664",
"V9 	c #706967",
"W9 	c #706968",
"X9 	c #595354",
"Y9 	c #393537",
"Z9 	c #605753",
"`9 	c #74665F",
" 0 	c #86756A",
".0 	c #8D7B6F",
"+0 	c #90786D",
"@0 	c #3C3334",
"#0 	c #453939",
"$0 	c #2C3F43",
"%0 	c #293738",
"&0 	c #252E2F",
"*0 	c #736B69",
"=0 	c #645E5F",
"-0 	c #6C625D",
";0 	c #98897E",
">0 	c #97887D",
",0 	c #83746A",
"'0 	c #807066",
")0 	c #88766B",
"!0 	c #8C7A6E",
"~0 	c #998577",
"{0 	c #886F67",
"]0 	c #584845",
"^0 	c #433837",
"/0 	c #182323",
"(0 	c #2A3B3F",
"_0 	c #262F31",
":0 	c #8D8582",
"<0 	c #867D7A",
"[0 	c #857C79",
"}0 	c #8A817E",
"|0 	c #8E8683",
"10 	c #867F7C",
"20 	c #615854",
"30 	c #7C706A",
"40 	c #A09085",
"50 	c #96857A",
"60 	c #A48E7F",
"70 	c #856C64",
"80 	c #262F30",
"90 	c #293232",
"00 	c #252F30",
"a0 	c #162222",
"b0 	c #6D6765",
"c0 	c #78706D",
"d0 	c #837A76",
"e0 	c #918986",
"f0 	c #807773",
"g0 	c #6A625D",
"h0 	c #5D5451",
"i0 	c #948377",
"j0 	c #938073",
"k0 	c #A48C7D",
"l0 	c #403636",
"m0 	c #2C3F44",
"n0 	c #2B3F44",
"o0 	c #262F32",
"p0 	c #726B69",
"q0 	c #766D6B",
"r0 	c #7F7673",
"s0 	c #877F7B",
"t0 	c #9F887A",
"u0 	c #3F3536",
"v0 	c #1C2B2D",
"w0 	c #222D30",
"x0 	c #26373A",
"y0 	c #1E2D2F",
"z0 	c #736C6A",
"A0 	c #7B736F",
"B0 	c #5E5551",
"C0 	c #938175",
"D0 	c #222D31",
"E0 	c #263132",
"F0 	c #293B40",
"G0 	c #8B827F",
"H0 	c #9F8F84",
"I0 	c #9F8F83",
"J0 	c #907D71",
"K0 	c #2A3D42",
"L0 	c #293B41",
"M0 	c #29383D",
"N0 	c #25353A",
"O0 	c #293A40",
"P0 	c #233338",
"Q0 	c #544F4D",
"R0 	c #6B6563",
"S0 	c #6D6560",
"T0 	c #5D5450",
"U0 	c #99897F",
"V0 	c #918074",
"W0 	c #5F524D",
"X0 	c #283B3F",
"Y0 	c #26353A",
"Z0 	c #243338",
"`0 	c #655D5A",
" a 	c #89817E",
".a 	c #6F655F",
"+a 	c #82736A",
"@a 	c #A18A7C",
"#a 	c #574B48",
"$a 	c #1D2C2E",
"%a 	c #283A3F",
"&a 	c #26373C",
"*a 	c #68615F",
"=a 	c #6E6866",
"-a 	c #726A68",
";a 	c #776F6D",
">a 	c #7B7370",
",a 	c #3B3839",
"'a 	c #68605B",
")a 	c #645C57",
"!a 	c #6E635E",
"~a 	c #807168",
"{a 	c #293C41",
"]a 	c #26383D",
"^a 	c #2A3B40",
"/a 	c #2A3A3F",
"(a 	c #141F1E",
"_a 	c #514C4A",
":a 	c #6E6765",
"<a 	c #5F595A",
"[a 	c #655C58",
"}a 	c #9A8679",
"|a 	c #846D64",
"1a 	c #4D4240",
"2a 	c #2A3B41",
"3a 	c #27363B",
"4a 	c #4F4C4A",
"5a 	c #5E5956",
"6a 	c #615B58",
"7a 	c #605A5B",
"8a 	c #5F5858",
"9a 	c #998578",
"0a 	c #8B776B",
"aa 	c #27393C",
"ba 	c #283B40",
"ca 	c #28363B",
"da 	c #27373C",
"ea 	c #625B58",
"fa 	c #585252",
"ga 	c #5C5657",
"ha 	c #675E5A",
"ia 	c #695F5B",
"ja 	c #433939",
"ka 	c #243538",
"la 	c #192426",
"ma 	c #696260",
"na 	c #6D6664",
"oa 	c #6A605C",
"pa 	c #8D7B71",
"qa 	c #403737",
"ra 	c #5F5956",
"sa 	c #534C4C",
"ta 	c #363234",
"ua 	c #87776D",
"va 	c #80716B",
"wa 	c #182222",
"xa 	c #222E30",
"ya 	c #27393E",
"za 	c #293A41",
"Aa 	c #1B2729",
"Ba 	c #635B58",
"Ca 	c #665F5C",
"Da 	c #67605E",
"Ea 	c #655E5B",
"Fa 	c #696360",
"Ga 	c #7A726F",
"Ha 	c #605854",
"Ia 	c #6B615C",
"Ja 	c #7E7069",
"Ka 	c #243032",
"La 	c #243539",
"Ma 	c #25383B",
"Na 	c #24383A",
"Oa 	c #24373A",
"Pa 	c #24383B",
"Qa 	c #26383C",
"Ra 	c #26393D",
"Sa 	c #27393F",
"Ta 	c #283B3E",
"Ua 	c #273030",
"Va 	c #272F31",
"Wa 	c #273133",
"Xa 	c #273439",
"Ya 	c #1C2626",
"Za 	c #1C282A",
"`a 	c #716660",
" b 	c #8B7A70",
".b 	c #554A45",
"+b 	c #19282B",
"@b 	c #223437",
"#b 	c #233638",
"$b 	c #223638",
"%b 	c #223639",
"&b 	c #233639",
"*b 	c #233739",
"=b 	c #23373A",
"-b 	c #23373B",
";b 	c #24373B",
">b 	c #243639",
",b 	c #233538",
"'b 	c #272E30",
")b 	c #242E30",
"!b 	c #243033",
"~b 	c #243233",
"{b 	c #243133",
"]b 	c #233539",
"^b 	c #233438",
"/b 	c #273334",
"(b 	c #1F2829",
"_b 	c #1D292B",
":b 	c #4D4A48",
"<b 	c #6D635E",
"[b 	c #A69080",
"}b 	c #8C7C73",
"|b 	c #1C292B",
"1b 	c #1A292D",
"2b 	c #1D2E31",
"3b 	c #203235",
"4b 	c #223538",
"5b 	c #223637",
"6b 	c #213637",
"7b 	c #223738",
"8b 	c #233738",
"9b 	c #213435",
"0b 	c #1F3032",
"ab 	c #223337",
"bb 	c #222D2F",
"cb 	c #223537",
"db 	c #233537",
"eb 	c #223436",
"fb 	c #233436",
"gb 	c #213437",
"hb 	c #213436",
"ib 	c #203335",
"jb 	c #1C2C2E",
"kb 	c #1A292B",
"lb 	c #1F2828",
"mb 	c #1E2A2C",
"nb 	c #4C4947",
"ob 	c #5B5654",
"pb 	c #5C5755",
"qb 	c #5D5855",
"rb 	c #68615E",
"sb 	c #756D6B",
"tb 	c #635A57",
"ub 	c #968478",
"vb 	c #8D7D74",
"wb 	c #4C413F",
"xb 	c #243031",
"yb 	c #1F3134",
"zb 	c #213336",
"Ab 	c #213536",
"Bb 	c #203334",
"Cb 	c #1D2F30",
"Db 	c #2A3C42",
"Eb 	c #222C2E",
"Fb 	c #1B2B2D",
"Gb 	c #213538",
"Hb 	c #213537",
"Ib 	c #1F3133",
"Jb 	c #1D2D2F",
"Kb 	c #4B4847",
"Lb 	c #595452",
"Mb 	c #5F5A57",
"Nb 	c #645D5A",
"Ob 	c #5E5757",
"Pb 	c #988478",
"Qb 	c #718E90",
"Rb 	c #668283",
"Sb 	c #1D2B2D",
"Tb 	c #252F31",
"Ub 	c #223739",
"Vb 	c #203436",
"Wb 	c #1E3133",
"Xb 	c #1C2D30",
"Yb 	c #1A292C",
"Zb 	c #19282A",
"`b 	c #1A2A2C",
" c 	c #1C2D2F",
".c 	c #2D3C3E",
"+c 	c #485E60",
"@c 	c #2C3D40",
"#c 	c #5C5754",
"$c 	c #756C6A",
"%c 	c #383436",
"&c 	c #605959",
"*c 	c #453B3B",
"=c 	c #9DC5C5",
"-c 	c #252E31",
";c 	c #2A4045",
">c 	c #2E464A",
",c 	c #2F484C",
"'c 	c #30484C",
")c 	c #30484D",
"!c 	c #2F474C",
"~c 	c #2B4146",
"{c 	c #253A3D",
"]c 	c #1D2F31",
"^c 	c #1B2B2E",
"/c 	c #203435",
"(c 	c #213335",
"_c 	c #1F3234",
":c 	c #1E3033",
"<c 	c #24353A",
"[c 	c #1D282A",
"}c 	c #405354",
"|c 	c #80A2A3",
"1c 	c #3C5052",
"2c 	c #635B5A",
"3c 	c #6A615C",
"4c 	c #5F5652",
"5c 	c #504543",
"6c 	c #3D3434",
"7c 	c #95BABB",
"8c 	c #9AC2C2",
"9c 	c #627C7F",
"0c 	c #252F32",
"ac 	c #2F4349",
"bc 	c #3F5C65",
"cc 	c #45656E",
"dc 	c #45656D",
"ec 	c #45646D",
"fc 	c #45646C",
"gc 	c #46656D",
"hc 	c #46656E",
"ic 	c #44636C",
"jc 	c #3A555C",
"kc 	c #2B4045",
"lc 	c #203336",
"mc 	c #25393C",
"nc 	c #263D3F",
"oc 	c #273D40",
"pc 	c #273C3F",
"qc 	c #273B3F",
"rc 	c #263B3E",
"sc 	c #263B3F",
"tc 	c #263A3E",
"uc 	c #263A3D",
"vc 	c #25383C",
"wc 	c #25363B",
"xc 	c #1B2728",
"yc 	c #1A2526",
"zc 	c #516768",
"Ac 	c #89ADAD",
"Bc 	c #4A6062",
"Cc 	c #615A57",
"Dc 	c #363233",
"Ec 	c #726661",
"Fc 	c #9AC1C2",
"Gc 	c #627D7E",
"Hc 	c #1B2424",
"Ic 	c #253031",
"Jc 	c #272E2E",
"Kc 	c #364C52",
"Lc 	c #4B6B75",
"Mc 	c #517480",
"Nc 	c #51757F",
"Oc 	c #51747F",
"Pc 	c #51747E",
"Qc 	c #51737E",
"Rc 	c #51737F",
"Sc 	c #527480",
"Tc 	c #537681",
"Uc 	c #44616A",
"Vc 	c #30464C",
"Wc 	c #344E54",
"Xc 	c #3C5960",
"Yc 	c #3E5B62",
"Zc 	c #3D5A61",
"`c 	c #3D5960",
" d 	c #3D5860",
".d 	c #3C585F",
"+d 	c #395259",
"@d 	c #30454A",
"#d 	c #516869",
"$d 	c #98BFC0",
"%d 	c #1E2E32",
"&d 	c #423F3F",
"*d 	c #9AC1C1",
"=d 	c #627D7F",
"-d 	c #233032",
";d 	c #324347",
">d 	c #3E565D",
",d 	c #425B64",
"'d 	c #435C64",
")d 	c #435C63",
"!d 	c #425C63",
"~d 	c #425B63",
"{d 	c #435E66",
"]d 	c #446069",
"^d 	c #45616B",
"/d 	c #45626C",
"(d 	c #46636D",
"_d 	c #45626B",
":d 	c #3D565E",
"<d 	c #2E4248",
"[d 	c #2B3C42",
"}d 	c #182528",
"|d 	c #1A282C",
"1d 	c #2C4147",
"2d 	c #43616A",
"3d 	c #50727D",
"4d 	c #537680",
"5d 	c #52747F",
"6d 	c #3B555D",
"7d 	c #2B3D42",
"8d 	c #98BEBF",
"9d 	c #8AAFAF",
"0d 	c #5A5553",
"ad 	c #6A6361",
"bd 	c #625955",
"cd 	c #95BABA",
"dd 	c #2A3336",
"ed 	c #2D3A3D",
"fd 	c #2D393C",
"gd 	c #2E3A3C",
"hd 	c #2E3B3D",
"id 	c #2F3C40",
"jd 	c #2F3D41",
"kd 	c #31454C",
"ld 	c #32474E",
"md 	c #32484E",
"nd 	c #32484D",
"od 	c #33484E",
"pd 	c #223336",
"qd 	c #425E67",
"rd 	c #4E6E79",
"sd 	c #4F717B",
"td 	c #4F707B",
"ud 	c #4F717C",
"vd 	c #4A6872",
"wd 	c #3B545C",
"xd 	c #2D4046",
"yd 	c #2B3E42",
"zd 	c #2D4146",
"Ad 	c #2C3E42",
"Bd 	c #2B3D41",
"Cd 	c #2A3C3F",
"Dd 	c #2A393B",
"Ed 	c #1C2729",
"Fd 	c #526869",
"Gd 	c #68605E",
"Hd 	c #86776F",
"Id 	c #554A47",
"Jd 	c #2A3A3E",
"Kd 	c #272D2E",
"Ld 	c #272C2D",
"Md 	c #272D2D",
"Nd 	c #2B3D43",
"Od 	c #2C3D42",
"Pd 	c #2C3D43",
"Qd 	c #293C3F",
"Rd 	c #182629",
"Sd 	c #354C53",
"Td 	c #3D575F",
"Ud 	c #3F5961",
"Vd 	c #3E5961",
"Wd 	c #3E5960",
"Xd 	c #3E5861",
"Yd 	c #33494F",
"Zd 	c #1D292A",
"`d 	c #1C2728",
" e 	c #AAD5D4",
".e 	c #595350",
"+e 	c #6A5D58",
"@e 	c #2B3B3D",
"#e 	c #94BABA",
"$e 	c #99C1C1",
"%e 	c #253234",
"&e 	c #282E2E",
"*e 	c #282D2E",
"=e 	c #2A3638",
"-e 	c #2B3C41",
";e 	c #2D3F44",
">e 	c #192729",
",e 	c #2F4449",
"'e 	c #2F4448",
")e 	c #2F4248",
"!e 	c #98BFBF",
"~e 	c #645B57",
"{e 	c #69605B",
"]e 	c #453B3A",
"^e 	c #263334",
"/e 	c #262F2F",
"(e 	c #293739",
"_e 	c #293134",
":e 	c #2A3436",
"<e 	c #2C3D41",
"[e 	c #2D4045",
"}e 	c #2C3E44",
"|e 	c #6D6564",
"1e 	c #7D6F68",
"2e 	c #99C0C1",
"3e 	c #627E7F",
"4e 	c #2A3639",
"5e 	c #2B3C40",
"6e 	c #2C3F45",
"7e 	c #1F2A2C",
"8e 	c #655E5D",
"9e 	c #5F5754",
"0e 	c #80716A",
"ae 	c #94B9BA",
"be 	c #9AC0C1",
"ce 	c #263335",
"de 	c #1F2C2E",
"ee 	c #2A3D40",
"fe 	c #564F4F",
"ge 	c #373435",
"he 	c #8F7F76",
"ie 	c #81726B",
"je 	c #514642",
"ke 	c #9AC0C0",
"le 	c #4C6364",
"me 	c #97887E",
"ne 	c #95867C",
"oe 	c #887970",
"pe 	c #564B46",
"qe 	c #99C0C0",
"re 	c #2B383C",
"se 	c #1F2B2E",
"te 	c #575250",
"ue 	c #797270",
"ve 	c #504B49",
"we 	c #98897F",
"xe 	c #5D514B",
"ye 	c #94B9B9",
"ze 	c #262E30",
"Ae 	c #2A3538",
"Be 	c #97BEBE",
"Ce 	c #56514F",
"De 	c #7E7776",
"Ee 	c #6F645F",
"Fe 	c #796E69",
"Ge 	c #635751",
"He 	c #232F30",
"Ie 	c #1F2A2D",
"Je 	c #252D2E",
"Ke 	c #2A373A",
"Le 	c #1D282B",
"Me 	c #585351",
"Ne 	c #66605E",
"Oe 	c #847D7C",
"Pe 	c #706560",
"Qe 	c #7A6F6A",
"Re 	c #7F7570",
"Se 	c #867B74",
"Te 	c #4F4543",
"Ue 	c #6A5E59",
"Ve 	c #93B9B9",
"We 	c #2B3B40",
"Xe 	c #67615F",
"Ye 	c #888180",
"Ze 	c #595455",
"`e 	c #635A56",
" f 	c #7C726D",
".f 	c #92847B",
"+f 	c #8D8078",
"@f 	c #7F7670",
"#f 	c #90837B",
"$f 	c #4C4243",
"%f 	c #423839",
"&f 	c #99BFC0",
"*f 	c #232E30",
"=f 	c #222E2F",
"-f 	c #888281",
";f 	c #686262",
">f 	c #796F6A",
",f 	c #726965",
"'f 	c #96887E",
")f 	c #857B74",
"!f 	c #9A8F88",
"~f 	c #C1B5AC",
"{f 	c #3D3435",
"]f 	c #736863",
"^f 	c #2A3B3E",
"/f 	c #7C7675",
"(f 	c #756A66",
"_f 	c #776D69",
":f 	c #80746D",
"<f 	c #90837A",
"[f 	c #817771",
"}f 	c #827972",
"|f 	c #8B8079",
"1f 	c #BAAEA5",
"2f 	c #C3B7AE",
"3f 	c #483E3F",
"4f 	c #2A383D",
"5f 	c #8AAEAE",
"6f 	c #706763",
"7f 	c #7A716C",
"8f 	c #6B625E",
"9f 	c #958981",
"0f 	c #A4988F",
"af 	c #2E3C40",
"bf 	c #1E292C",
"cf 	c #1C2629",
"df 	c #4A4745",
"ef 	c #605B58",
"ff 	c #857E7D",
"gf 	c #7E7775",
"hf 	c #7B726D",
"if 	c #7C726E",
"jf 	c #8A8079",
"kf 	c #978B83",
"lf 	c #998C84",
"mf 	c #96877E",
"nf 	c #3F3637",
"of 	c #2B3E44",
"pf 	c #2A393E",
"qf 	c #1F292C",
"rf 	c #1C2526",
"sf 	c #494644",
"tf 	c #BEB1A9",
"uf 	c #9D938C",
"vf 	c #605655",
"wf 	c #42393A",
"xf 	c #6B605C",
"yf 	c #2F3D40",
"zf 	c #2B3C43",
"Af 	c #2C3F46",
"Bf 	c #1C2527",
"Cf 	c #5B5553",
"Df 	c #4A4443",
"Ef 	c #857B75",
"Ff 	c #8D827B",
"Gf 	c #92867E",
"Hf 	c #B8ACA3",
"If 	c #453B3C",
"Jf 	c #5E5451",
"Kf 	c #242F31",
"Lf 	c #262D2E",
"Mf 	c #292E30",
"Nf 	c #172426",
"Of 	c #423D3D",
"Pf 	c #514A48",
"Qf 	c #968A82",
"Rf 	c #514746",
"Sf 	c #92B8B8",
"Tf 	c #637F80",
"Uf 	c #413B3B",
"Vf 	c #4E4746",
"Wf 	c #5B5350",
"Xf 	c #7B716C",
"Yf 	c #7D746E",
"Zf 	c #897E77",
"`f 	c #B5A9A0",
" g 	c #3E3536",
".g 	c #93B7B8",
"+g 	c #252E30",
"@g 	c #2A3A3C",
"#g 	c #413C3C",
"$g 	c #574F4D",
"%g 	c #756C67",
"&g 	c #90847D",
"*g 	c #B1A69D",
"=g 	c #493F40",
"-g 	c #373031",
";g 	c #647E80",
">g 	c #1F2728",
",g 	c #526969",
"'g 	c #96BDBD",
")g 	c #706866",
"!g 	c #514B48",
"~g 	c #5D5551",
"{g 	c #504948",
"]g 	c #564E4C",
"^g 	c #776E69",
"/g 	c #928781",
"(g 	c #B9AEA5",
"_g 	c #4A4041",
":g 	c #293435",
"<g 	c #1C2829",
"[g 	c #212D2E",
"}g 	c #A7D2D1",
"|g 	c #2D3B3F",
"1g 	c #191D1E",
"2g 	c #182022",
"3g 	c #605958",
"4g 	c #4B4544",
"5g 	c #5C5552",
"6g 	c #5D5653",
"7g 	c #625A55",
"8g 	c #57504D",
"9g 	c #4C4544",
"0g 	c #605855",
"ag 	c #7B736E",
"bg 	c #4B4142",
"cg 	c #253133",
"dg 	c #19282C",
"eg 	c #263033",
"fg 	c #2A373C",
"gg 	c #233031",
"hg 	c #1E2B2D",
"ig 	c #615C59",
"jg 	c #453F40",
"kg 	c #3B3636",
"lg 	c #5A5350",
"mg 	c #4C4644",
"ng 	c #726964",
"og 	c #746D68",
"pg 	c #3B3334",
"qg 	c #647E81",
"rg 	c #273033",
"sg 	c #20292A",
"tg 	c #1F2729",
"ug 	c #978D85",
"vg 	c #524C4A",
"wg 	c #59524E",
"xg 	c #4B4443",
"yg 	c #58514E",
"zg 	c #706966",
"Ag 	c #A49B95",
"Bg 	c #827974",
"Cg 	c #92B7B7",
"Dg 	c #736C68",
"Eg 	c #9C9189",
"Fg 	c #5F5854",
"Gg 	c #4D4746",
"Hg 	c #59524F",
"Ig 	c #6F6865",
"Jg 	c #7D746F",
"Kg 	c #887F79",
"Lg 	c #3A3335",
"Mg 	c #988D85",
"Ng 	c #5C5451",
"Og 	c #6E6865",
"Pg 	c #98BEBE",
"Qg 	c #657F80",
"Rg 	c #625B5A",
"Sg 	c #68605C",
"Tg 	c #6F6966",
"Ug 	c #766F6A",
"Vg 	c #948B85",
"Wg 	c #4D4344",
"Xg 	c #2A3839",
"Yg 	c #253233",
"Zg 	c #253132",
"`g 	c #4E6566",
" h 	c #1A2326",
".h 	c #605A58",
"+h 	c #786F6C",
"@h 	c #847873",
"#h 	c #756E6A",
"$h 	c #534949",
"%h 	c #4B4243",
"&h 	c #2A383A",
"*h 	c #2F3738",
"=h 	c #30393A",
"-h 	c #313A3B",
";h 	c #323A3C",
">h 	c #323B3C",
",h 	c #333C3D",
"'h 	c #333D3E",
")h 	c #343D3E",
"!h 	c #353E3F",
"~h 	c #363F3F",
"{h 	c #363F40",
"]h 	c #373F40",
"^h 	c #383F40",
"/h 	c #374041",
"(h 	c #384041",
"_h 	c #2F3839",
":h 	c #79716E",
"<h 	c #79706D",
"[h 	c #817672",
"}h 	c #877B75",
"|h 	c #716B67",
"1h 	c #938A84",
"2h 	c #96BBBD",
"3h 	c #404F51",
"4h 	c #697A7A",
"5h 	c #7B8B8B",
"6h 	c #7B8C8C",
"7h 	c #7C8C8C",
"8h 	c #7C8D8D",
"9h 	c #7D8E8D",
"0h 	c #7D8E8E",
"ah 	c #7D8D8D",
"bh 	c #7E8E8E",
"ch 	c #7E8F8F",
"dh 	c #7F8F8F",
"eh 	c #7F908F",
"fh 	c #7F9090",
"gh 	c #6A7B7B",
"hh 	c #3C494A",
"ih 	c #132023",
"jh 	c #66605D",
"kh 	c #968C85",
"lh 	c #847B75",
"mh 	c #A39A94",
"nh 	c #867D77",
"oh 	c #5F5554",
"ph 	c #92B6B7",
"qh 	c #293233",
"rh 	c #506061",
"sh 	c #798B8C",
"th 	c #859697",
"uh 	c #879898",
"vh 	c #879999",
"wh 	c #87999A",
"xh 	c #889999",
"yh 	c #869897",
"zh 	c #869898",
"Ah 	c #869797",
"Bh 	c #859797",
"Ch 	c #859796",
"Dh 	c #829394",
"Eh 	c #78898A",
"Fh 	c #4B595A",
"Gh 	c #142124",
"Hh 	c #6D6663",
"Ih 	c #938982",
"Jh 	c #978B84",
"Kh 	c #5B5451",
"Lh 	c #68605A",
"Mh 	c #887D76",
"Nh 	c #675F5C",
"Oh 	c #837A74",
"Ph 	c #625856",
"Qh 	c #433B3C",
"Rh 	c #222F30",
"Sh 	c #53696A",
"Th 	c #435255",
"Uh 	c #637475",
"Vh 	c #6B7C7D",
"Wh 	c #687777",
"Xh 	c #687778",
"Yh 	c #697778",
"Zh 	c #697878",
"`h 	c #697879",
" i 	c #687878",
".i 	c #677676",
"+i 	c #708182",
"@i 	c #536264",
"#i 	c #8B827C",
"$i 	c #9B9088",
"%i 	c #887C76",
"&i 	c #7D736D",
"*i 	c #8C817A",
"=i 	c #706A67",
"-i 	c #8E857F",
";i 	c #B0A69F",
">i 	c #675E5B",
",i 	c #41393B",
"'i 	c #383233",
")i 	c #233133",
"!i 	c #324043",
"~i 	c #59696B",
"{i 	c #6D7E7F",
"]i 	c #617070",
"^i 	c #5C6A6B",
"/i 	c #5D6A6B",
"(i 	c #5D6A6C",
"_i 	c #5D6B6C",
":i 	c #677778",
"<i 	c #5F6F70",
"[i 	c #3A4849",
"}i 	c #141F22",
"|i 	c #655F5C",
"1i 	c #857C77",
"2i 	c #484241",
"3i 	c #5E5753",
"4i 	c #706762",
"5i 	c #92867F",
"6i 	c #8C807A",
"7i 	c #BCB2AB",
"8i 	c #807772",
"9i 	c #675D5A",
"0i 	c #92B6B6",
"ai 	c #253032",
"bi 	c #96BCBC",
"ci 	c #8AACAD",
"di 	c #455457",
"ei 	c #657677",
"fi 	c #6B7B7C",
"gi 	c #5D6C6C",
"hi 	c #5F6D6E",
"ii 	c #606F70",
"ji 	c #606E70",
"ki 	c #606E6F",
"li 	c #5F6E6F",
"mi 	c #5F6D6F",
"ni 	c #617071",
"oi 	c #4D5C5D",
"pi 	c #111E21",
"qi 	c #7F7773",
"ri 	c #91857E",
"si 	c #6D655F",
"ti 	c #7A706A",
"ui 	c #857B77",
"vi 	c #362F31",
"wi 	c #92B7B6",
"xi 	c #2C393B",
"yi 	c #1F2B2C",
"zi 	c #232E31",
"Ai 	c #506567",
"Bi 	c #576869",
"Ci 	c #6B7C7C",
"Di 	c #637172",
"Ei 	c #576465",
"Fi 	c #465152",
"Gi 	c #424C4D",
"Hi 	c #424D4D",
"Ii 	c #434D4D",
"Ji 	c #434D4E",
"Ki 	c #434E4F",
"Li 	c #434F4F",
"Mi 	c #444F4F",
"Ni 	c #444F50",
"Oi 	c #505D5D",
"Pi 	c #5B696A",
"Qi 	c #59696A",
"Ri 	c #534E4C",
"Si 	c #776C67",
"Ti 	c #857A74",
"Ui 	c #483F40",
"Vi 	c #98BDBE",
"Wi 	c #2C3A3B",
"Xi 	c #1B2425",
"Yi 	c #263134",
"Zi 	c #3D4D50",
"`i 	c #617273",
" j 	c #6A7A7A",
".j 	c #4F5B5B",
"+j 	c #000000",
"@j 	c #010100",
"#j 	c #020101",
"$j 	c #030202",
"%j 	c #040403",
"&j 	c #050605",
"*j 	c #060707",
"=j 	c #070808",
"-j 	c #070909",
";j 	c #080909",
">j 	c #080A0A",
",j 	c #090C0B",
"'j 	c #0B0C0C",
")j 	c #0B0E0E",
"!j 	c #0C0F0F",
"~j 	c #0F1211",
"{j 	c #303838",
"]j 	c #556262",
"^j 	c #677879",
"/j 	c #495758",
"(j 	c #131E22",
"_j 	c #847B76",
":j 	c #988E86",
"<j 	c #7B6F6A",
"[j 	c #3D3637",
"}j 	c #443D3D",
"|j 	c #668081",
"1j 	c #273435",
"2j 	c #212E2F",
"3j 	c #253033",
"4j 	c #536A6A",
"5j 	c #546466",
"6j 	c #637374",
"7j 	c #5B6869",
"8j 	c #465151",
"9j 	c #050606",
"0j 	c #000100",
"aj 	c #020202",
"bj 	c #030302",
"cj 	c #040303",
"dj 	c #050503",
"ej 	c #050504",
"fj 	c #030303",
"gj 	c #020201",
"hj 	c #0C0E0E",
"ij 	c #4E5A5B",
"jj 	c #6F8081",
"kj 	c #5B6A6C",
"lj 	c #5F5A58",
"mj 	c #625C5A",
"nj 	c #77706C",
"oj 	c #877E79",
"pj 	c #453F3E",
"qj 	c #796D68",
"rj 	c #8E827B",
"sj 	c #7C726C",
"tj 	c #4F4646",
"uj 	c #262D2F",
"vj 	c #2B3B41",
"wj 	c #89ADAE",
"xj 	c #38474A",
"yj 	c #637575",
"zj 	c #6A7B7C",
"Aj 	c #566263",
"Bj 	c #374040",
"Cj 	c #060605",
"Dj 	c #090907",
"Ej 	c #0B0A08",
"Fj 	c #0C0B09",
"Gj 	c #0D0C0A",
"Hj 	c #0C0C09",
"Ij 	c #090807",
"Jj 	c #010101",
"Kj 	c #596667",
"Lj 	c #6A7A7B",
"Mj 	c #344042",
"Nj 	c #615C5A",
"Oj 	c #625D5B",
"Pj 	c #766B65",
"Qj 	c #8B7F79",
"Rj 	c #554D4C",
"Sj 	c #2B3F43",
"Tj 	c #2C3C42",
"Uj 	c #6C7D7E",
"Vj 	c #677677",
"Wj 	c #5E6C6D",
"Xj 	c #4F5B5C",
"Yj 	c #080807",
"Zj 	c #0C0B0A",
"`j 	c #0E0E0B",
" k 	c #100F0D",
".k 	c #11100E",
"+k 	c #12110E",
"@k 	c #13120F",
"#k 	c #14130F",
"$k 	c #14120F",
"%k 	c #11100D",
"&k 	c #0F0E0C",
"*k 	c #0E0D0B",
"=k 	c #0A0907",
"-k 	c #070604",
";k 	c #2E3536",
">k 	c #525E5F",
",k 	c #627272",
"'k 	c #4A585A",
")k 	c #121E20",
"!k 	c #5F5753",
"~k 	c #8F847D",
"{k 	c #776D67",
"]k 	c #665E5B",
"^k 	c #668082",
"/k 	c #2D3A3C",
"(k 	c #1B2525",
"_k 	c #2B373B",
":k 	c #8AACAE",
"<k 	c #556B6D",
"[k 	c #677779",
"}k 	c #6E7F80",
"|k 	c #627172",
"1k 	c #485353",
"2k 	c #111312",
"3k 	c #110F0D",
"4k 	c #151310",
"5k 	c #161411",
"6k 	c #171613",
"7k 	c #1B1915",
"8k 	c #1D1B16",
"9k 	c #1E1D17",
"0k 	c #1F1D18",
"ak 	c #1E1C17",
"bk 	c #191713",
"ck 	c #161511",
"dk 	c #141310",
"ek 	c #0F0F0C",
"fk 	c #0D0D0A",
"gk 	c #191D1D",
"hk 	c #4E5B5B",
"ik 	c #69797A",
"jk 	c #5A696A",
"kk 	c #645E5C",
"lk 	c #7C7470",
"mk 	c #78706C",
"nk 	c #534E4D",
"ok 	c #494341",
"pk 	c #857973",
"qk 	c #7B736D",
"rk 	c #7B726C",
"sk 	c #91B6B6",
"tk 	c #2D3B3C",
"uk 	c #2B393E",
"vk 	c #627879",
"wk 	c #697B7C",
"xk 	c #687879",
"yk 	c #5F6D6D",
"zk 	c #566363",
"Ak 	c #3B4342",
"Bk 	c #131210",
"Ck 	c #1A1814",
"Dk 	c #1E1C18",
"Ek 	c #201E1A",
"Fk 	c #2A2821",
"Gk 	c #2E2B24",
"Hk 	c #2C2922",
"Ik 	c #2D2B23",
"Jk 	c #2D2A23",
"Kk 	c #2B2922",
"Lk 	c #292620",
"Mk 	c #26241E",
"Nk 	c #22201B",
"Ok 	c #1D1C17",
"Pk 	c #191815",
"Qk 	c #151412",
"Rk 	c #12110F",
"Sk 	c #090908",
"Tk 	c #4B5758",
"Uk 	c #657475",
"Vk 	c #576667",
"Wk 	c #6A6462",
"Xk 	c #80746E",
"Yk 	c #887D77",
"Zk 	c #746C68",
"`k 	c #90B6B6",
" l 	c #96BBBC",
".l 	c #687E7F",
"+l 	c #667576",
"@l 	c #5D6B6B",
"#l 	c #4C5655",
"$l 	c #242725",
"%l 	c #1B1A15",
"&l 	c #45402D",
"*l 	c #494331",
"=l 	c #56503D",
"-l 	c #5A553F",
";l 	c #544E39",
">l 	c #504A36",
",l 	c #4B4631",
"'l 	c #47412D",
")l 	c #433D2A",
"!l 	c #403A27",
"~l 	c #3C3723",
"{l 	c #262319",
"]l 	c #161410",
"^l 	c #0A0807",
"/l 	c #3C4546",
"(l 	c #5C696A",
"_l 	c #495556",
":l 	c #494745",
"<l 	c #756E6B",
"[l 	c #574E4C",
"}l 	c #7E736D",
"|l 	c #8C8079",
"1l 	c #7E7571",
"2l 	c #8D847F",
"3l 	c #8F8681",
"4l 	c #89807C",
"5l 	c #5D5655",
"6l 	c #363133",
"7l 	c #3F3C3D",
"8l 	c #2D3B3D",
"9l 	c #283536",
"0l 	c #536A6B",
"al 	c #5C7071",
"bl 	c #586566",
"cl 	c #5B6767",
"dl 	c #424A49",
"el 	c #181612",
"fl 	c #3C372B",
"gl 	c #6B6344",
"hl 	c #9A8E5E",
"il 	c #A29563",
"jl 	c #A59968",
"kl 	c #AA9E6D",
"ll 	c #B1A471",
"ml 	c #B7AC76",
"nl 	c #BAB079",
"ol 	c #BAAF78",
"pl 	c #B7AB75",
"ql 	c #B4A670",
"rl 	c #AFA16C",
"sl 	c #AA9D67",
"tl 	c #A69862",
"ul 	c #A2955F",
"vl 	c #A0925C",
"wl 	c #9A8D57",
"xl 	c #5E5637",
"yl 	c #262419",
"zl 	c #11110E",
"Al 	c #0F0E0B",
"Bl 	c #2B3132",
"Cl 	c #495555",
"Dl 	c #645F5D",
"El 	c #504B4A",
"Fl 	c #7F756E",
"Gl 	c #80766F",
"Hl 	c #837972",
"Il 	c #8A7F78",
"Jl 	c #79706C",
"Kl 	c #8E8580",
"Ll 	c #7F7671",
"Ml 	c #726B66",
"Nl 	c #373335",
"Ol 	c #393638",
"Pl 	c #96BBBB",
"Ql 	c #5A6E6F",
"Rl 	c #556161",
"Sl 	c #383E3D",
"Tl 	c #110E0A",
"Ul 	c #1A1914",
"Vl 	c #474130",
"Wl 	c #887E55",
"Xl 	c #CABA79",
"Yl 	c #D2C17E",
"Zl 	c #D5C483",
"`l 	c #DACA88",
" m 	c #E4D28F",
".m 	c #F1E097",
"+m 	c #F6E59B",
"@m 	c #F5E49A",
"#m 	c #F1E096",
"$m 	c #ECD990",
"%m 	c #E6D48B",
"&m 	c #E2D086",
"*m 	c #DFCC81",
"=m 	c #DECA7E",
"-m 	c #DCC97C",
";m 	c #D6C377",
">m 	c #817649",
",m 	c #322E1F",
"'m 	c #11100F",
")m 	c #1F2323",
"!m 	c #4C5859",
"~m 	c #5C6A6A",
"{m 	c #4E4948",
"]m 	c #746964",
"^m 	c #7B716B",
"/m 	c #887F7B",
"(m 	c #8B817C",
"_m 	c #383537",
":m 	c #2E3C3D",
"<m 	c #263233",
"[m 	c #95BBBB",
"}m 	c #535F5F",
"|m 	c #343A39",
"1m 	c #100D0A",
"2m 	c #1B1815",
"3m 	c #25231D",
"4m 	c #8A7F55",
"5m 	c #CBBA79",
"6m 	c #D2C07E",
"7m 	c #D6C583",
"8m 	c #DBCA88",
"9m 	c #E1D08D",
"0m 	c #EFDD94",
"am 	c #F5E397",
"bm 	c #F4E297",
"cm 	c #F1DE93",
"dm 	c #ECDA8F",
"em 	c #E8D68B",
"fm 	c #E5D386",
"gm 	c #E3D082",
"hm 	c #E1CE80",
"im 	c #E1CE7E",
"jm 	c #DAC779",
"km 	c #83784A",
"lm 	c #332E1F",
"mm 	c #100F0E",
"nm 	c #100F0C",
"om 	c #4C5758",
"pm 	c #524F4E",
"qm 	c #6B6562",
"rm 	c #504947",
"sm 	c #746B67",
"tm 	c #8F8580",
"um 	c #877E77",
"vm 	c #5F5757",
"wm 	c #90B5B5",
"xm 	c #AAD3D3",
"ym 	c #678283",
"zm 	c #202B2E",
"Am 	c #2A3E42",
"Bm 	c #525F5F",
"Cm 	c #323938",
"Dm 	c #0D0B07",
"Em 	c #181613",
"Fm 	c #23211C",
"Gm 	c #776F4B",
"Hm 	c #AC9E69",
"Im 	c #B2A36C",
"Jm 	c #B7A971",
"Km 	c #BBAD74",
"Lm 	c #BEB077",
"Mm 	c #C4B87A",
"Nm 	c #C7BC7C",
"Om 	c #C5BA7A",
"Pm 	c #C3B777",
"Qm 	c #C0B474",
"Rm 	c #BEB171",
"Sm 	c #BCAF6E",
"Tm 	c #BAAE6C",
"Um 	c #B9AC6A",
"Vm 	c #B3A665",
"Wm 	c #6A643E",
"Xm 	c #29271A",
"Ym 	c #0E0C0A",
"Zm 	c #1B1E1E",
"`m 	c #534F4E",
" n 	c #7C7471",
".n 	c #353031",
"+n 	c #6F6662",
"@n 	c #7E756F",
"#n 	c #827A76",
"$n 	c #A9D4D3",
"%n 	c #2E3C3E",
"&n 	c #2A3E43",
"*n 	c #5A6F6F",
"=n 	c #515E5E",
"-n 	c #303737",
";n 	c #090704",
">n 	c #151410",
",n 	c #201F1A",
"'n 	c #625B3F",
")n 	c #665F42",
"!n 	c #6B6345",
"~n 	c #6E6647",
"{n 	c #6D6746",
"]n 	c #6C6846",
"^n 	c #6C6845",
"/n 	c #6C6744",
"(n 	c #6B6643",
"_n 	c #696441",
":n 	c #66613E",
"<n 	c #635E3B",
"[n 	c #615B38",
"}n 	c #5D5735",
"|n 	c #373421",
"1n 	c #181711",
"2n 	c #080706",
"3n 	c #1A1D1D",
"4n 	c #5E5957",
"5n 	c #6E6764",
"6n 	c #585352",
"7n 	c #6E6661",
"8n 	c #786F6B",
"9n 	c #97BDBD",
"0n 	c #293637",
"an 	c #515D5E",
"bn 	c #2E3636",
"cn 	c #020000",
"dn 	c #2C2923",
"en 	c #292723",
"fn 	c #2C2B25",
"gn 	c #2F2C27",
"hn 	c #312E28",
"in 	c #2C2924",
"jn 	c #201E1C",
"kn 	c #1B1919",
"ln 	c #1F1F1B",
"mn 	c #25271E",
"nn 	c #282C20",
"on 	c #292D21",
"pn 	c #272B1F",
"qn 	c #22251C",
"rn 	c #1A1E17",
"sn 	c #101311",
"tn 	c #000209",
"un 	c #090809",
"vn 	c #0B0A09",
"wn 	c #070605",
"xn 	c #191D1C",
"yn 	c #776F68",
"zn 	c #736B66",
"An 	c #9B928E",
"Bn 	c #91B5B5",
"Cn 	c #98BDBD",
"Dn 	c #2F3C3E",
"En 	c #5B6F6F",
"Fn 	c #2E3635",
"Gn 	c #080806",
"Hn 	c #181713",
"In 	c #25221D",
"Jn 	c #2E2C24",
"Kn 	c #302D25",
"Ln 	c #1E1E17",
"Mn 	c #25261C",
"Nn 	c #2A2D1F",
"On 	c #2E3222",
"Pn 	c #303422",
"Qn 	c #2F3322",
"Rn 	c #2B2F1F",
"Sn 	c #262A1C",
"Tn 	c #202218",
"Un 	c #171912",
"Vn 	c #0C0C08",
"Wn 	c #050404",
"Xn 	c #191C1C",
"Yn 	c #706862",
"Zn 	c #534C49",
"`n 	c #8B817D",
" o 	c #A99F9A",
".o 	c #678384",
"+o 	c #243132",
"@o 	c #546B6B",
"#o 	c #181712",
"$o 	c #2A2822",
"%o 	c #22211F",
"&o 	c #24221F",
"*o 	c #23201C",
"=o 	c #1C1E15",
"-o 	c #23251A",
";o 	c #292D1D",
">o 	c #2E3421",
",o 	c #313723",
"'o 	c #303722",
")o 	c #2C321F",
"!o 	c #262B1B",
"~o 	c #1E2216",
"{o 	c #171A12",
"]o 	c #0B0C07",
"^o 	c #423F3E",
"/o 	c #4A4442",
"(o 	c #4D4745",
"_o 	c #797069",
":o 	c #817773",
"<o 	c #4F4A49",
"[o 	c #B4AAA4",
"}o 	c #90B5B4",
"|o 	c #2F3D3F",
"1o 	c #5B6F70",
"2o 	c #625A35",
"3o 	c #A1955A",
"4o 	c #534D34",
"5o 	c #353124",
"6o 	c #83794C",
"7o 	c #7D764A",
"8o 	c #433F2A",
"9o 	c #141412",
"0o 	c #181A12",
"ao 	c #171812",
"bo 	c #252A1B",
"co 	c #2A311F",
"do 	c #2B311E",
"eo 	c #24291A",
"fo 	c #1A1D14",
"go 	c #0F0E0D",
"ho 	c #020005",
"io 	c #0A0A07",
"jo 	c #020302",
"ko 	c #292728",
"lo 	c #2F2A2B",
"mo 	c #373233",
"no 	c #464140",
"oo 	c #524D4B",
"po 	c #393436",
"qo 	c #474343",
"ro 	c #625A57",
"so 	c #5C5553",
"to 	c #928985",
"uo 	c #90B4B4",
"vo 	c #1A272C",
"wo 	c #8A7E4B",
"xo 	c #E0CE7D",
"yo 	c #6E6643",
"zo 	c #413C29",
"Ao 	c #BDAE6C",
"Bo 	c #B4A96A",
"Co 	c #5E5937",
"Do 	c #06090C",
"Eo 	c #252B19",
"Fo 	c #4E5E34",
"Go 	c #627641",
"Ho 	c #647A43",
"Io 	c #687E46",
"Jo 	c #697F46",
"Ko 	c #657A44",
"Lo 	c #617541",
"Mo 	c #5E723E",
"No 	c #5C703E",
"Oo 	c #27301A",
"Po 	c #312C2C",
"Qo 	c #484240",
"Ro 	c #363132",
"So 	c #413C3D",
"To 	c #3D3739",
"Uo 	c #403A3A",
"Vo 	c #6F6761",
"Wo 	c #453E3E",
"Xo 	c #4E4745",
"Yo 	c #4F4846",
"Zo 	c #1E2A2B",
"`o 	c #877B49",
" p 	c #DCC87A",
".p 	c #6F6645",
"+p 	c #332F26",
"@p 	c #433E2B",
"#p 	c #BEAE6D",
"$p 	c #B6AA6B",
"%p 	c #605A39",
"&p 	c #070A0D",
"*p 	c #384326",
"=p 	c #809A56",
"-p 	c #9FBF6B",
";p 	c #A0C16B",
">p 	c #A4C66E",
",p 	c #A5C76F",
"'p 	c #A1C26C",
")p 	c #9DBD6A",
"!p 	c #9BBB68",
"~p 	c #9ABA68",
"{p 	c #42502C",
"]p 	c #010002",
"^p 	c #3E3938",
"/p 	c #423C3B",
"(p 	c #5F5958",
"_p 	c #78706E",
":p 	c #615956",
"<p 	c #5C5452",
"[p 	c #423B3C",
"}p 	c #474040",
"|p 	c #364648",
"1p 	c #546B6C",
"2p 	c #877B4A",
"3p 	c #DCC97B",
"4p 	c #726A48",
"5p 	c #363329",
"6p 	c #453F2D",
"7p 	c #BFB06F",
"8p 	c #B8AC6D",
"9p 	c #615C3B",
"0p 	c #0A0D0E",
"ap 	c #3C4829",
"bp 	c #8BA75E",
"cp 	c #ACCF74",
"dp 	c #ADD074",
"ep 	c #B1D677",
"fp 	c #B3D878",
"gp 	c #AED175",
"hp 	c #A9CC72",
"ip 	c #A9CB72",
"jp 	c #485830",
"kp 	c #010000",
"lp 	c #393434",
"mp 	c #433E3C",
"np 	c #4E4947",
"op 	c #A09C9B",
"pp 	c #807977",
"qp 	c #464041",
"rp 	c #564F4C",
"sp 	c #58504E",
"tp 	c #4D4645",
"up 	c #494342",
"vp 	c #433D3C",
"wp 	c #4A4342",
"xp 	c #524B49",
"yp 	c #698485",
"zp 	c #303E40",
"Ap 	c #2A3D43",
"Bp 	c #DDC97C",
"Cp 	c #766D4A",
"Dp 	c #39362B",
"Ep 	c #47412E",
"Fp 	c #C0B171",
"Gp 	c #B9AE6F",
"Hp 	c #625D3C",
"Ip 	c #394427",
"Jp 	c #829C58",
"Kp 	c #A1C26D",
"Lp 	c #A3C46E",
"Mp 	c #A7CA71",
"Np 	c #A9CC71",
"Op 	c #A3C56E",
"Pp 	c #9EC06B",
"Qp 	c #9EBE6A",
"Rp 	c #43512C",
"Sp 	c #020002",
"Tp 	c #393636",
"Up 	c #969291",
"Vp 	c #827A77",
"Wp 	c #807874",
"Xp 	c #5F5857",
"Yp 	c #342F31",
"Zp 	c #4F4847",
"`p 	c #1C2627",
" q 	c #2A3537",
".q 	c #2B3A3F",
"+q 	c #877B4B",
"@q 	c #DECB7D",
"#q 	c #7A714E",
"$q 	c #3D392D",
"%q 	c #494330",
"&q 	c #C1B173",
"*q 	c #BAAF71",
"=q 	c #635E3D",
"-q 	c #0D1010",
";q 	c #475530",
">q 	c #5D6E3F",
",q 	c #647844",
"'q 	c #6A7F48",
")q 	c #6B8048",
"!q 	c #5A6C3D",
"~q 	c #546438",
"{q 	c #4E5F35",
"]q 	c #232A17",
"^q 	c #3E3A39",
"/q 	c #726D6B",
"(q 	c #7D7572",
"_q 	c #776F6C",
":q 	c #6E6664",
"<q 	c #40393A",
"[q 	c #403939",
"}q 	c #41393A",
"|q 	c #698486",
"1q 	c #887C4C",
"2q 	c #DECB7F",
"3q 	c #7E7552",
"4q 	c #413C30",
"5q 	c #4B4533",
"6q 	c #C3B475",
"7q 	c #BCB174",
"8q 	c #655F3F",
"9q 	c #1D2115",
"0q 	c #2B321E",
"aq 	c #384127",
"bq 	c #414C2D",
"cq 	c #465330",
"dq 	c #3F4B2C",
"eq 	c #353F25",
"fq 	c #28301C",
"gq 	c #1E2415",
"hq 	c #11140B",
"iq 	c #3F3B3A",
"jq 	c #989392",
"kq 	c #817975",
"lq 	c #7F7774",
"mq 	c #625A58",
"nq 	c #68605D",
"oq 	c #554C4A",
"pq 	c #534A48",
"qq 	c #5B514F",
"rq 	c #504746",
"sq 	c #3F3838",
"tq 	c #232C2F",
"uq 	c #887C4D",
"vq 	c #827955",
"wq 	c #443F33",
"xq 	c #4D4735",
"yq 	c #C4B677",
"zq 	c #BEB476",
"Aq 	c #666140",
"Bq 	c #0E1111",
"Cq 	c #202417",
"Dq 	c #2A301E",
"Eq 	c #343D24",
"Fq 	c #3D472A",
"Gq 	c #404C2D",
"Hq 	c #394328",
"Iq 	c #313922",
"Jq 	c #262D1B",
"Kq 	c #171B10",
"Lq 	c #494240",
"Mq 	c #564C49",
"Nq 	c #9B9796",
"Oq 	c #736A68",
"Pq 	c #6D6463",
"Qq 	c #6C6362",
"Rq 	c #6B6261",
"Sq 	c #978E87",
"Tq 	c #908680",
"Uq 	c #756B65",
"Vq 	c #6C615C",
"Wq 	c #4C4443",
"Xq 	c #3A3435",
"Yq 	c #443C3C",
"Zq 	c #413839",
"`q 	c #4D4341",
" r 	c #313F41",
".r 	c #232D2F",
"+r 	c #283232",
"@r 	c #887D4D",
"#r 	c #E0CE81",
"$r 	c #877E59",
"%r 	c #464235",
"&r 	c #4E4936",
"*r 	c #C6B87A",
"=r 	c #BFB679",
"-r 	c #676342",
";r 	c #111513",
">r 	c #212518",
",r 	c #3E492B",
"'r 	c #424D2D",
")r 	c #3F4C2C",
"!r 	c #272D1C",
"~r 	c #1C2013",
"{r 	c #070804",
"]r 	c #574D4A",
"^r 	c #4C4543",
"/r 	c #807B7A",
"(r 	c #97918F",
"_r 	c #79726D",
":r 	c #756D6A",
"<r 	c #776F6B",
"[r 	c #8F8882",
"}r 	c #968F89",
"|r 	c #807670",
"1r 	c #6E645E",
"2r 	c #574D4B",
"3r 	c #564C4A",
"4r 	c #534947",
"5r 	c #514846",
"6r 	c #473F3F",
"7r 	c #413A3A",
"8r 	c #4F4542",
"9r 	c #73635B",
"0r 	c #817167",
"ar 	c #786A63",
"br 	c #977F73",
"cr 	c #998174",
"dr 	c #5B7070",
"er 	c #897D4D",
"fr 	c #E2CF83",
"gr 	c #8D835D",
"hr 	c #4A4637",
"ir 	c #504B38",
"jr 	c #C8BA7D",
"kr 	c #C1B97B",
"lr 	c #696644",
"mr 	c #171A15",
"nr 	c #1E2215",
"or 	c #272E1B",
"pr 	c #384227",
"qr 	c #43502E",
"rr 	c #475431",
"sr 	c #44512F",
"tr 	c #3B4529",
"ur 	c #313923",
"vr 	c #242919",
"wr 	c #161A10",
"xr 	c #554B48",
"yr 	c #8F8986",
"zr 	c #7A736E",
"Ar 	c #756D69",
"Br 	c #605954",
"Cr 	c #68615B",
"Dr 	c #68615C",
"Er 	c #77706B",
"Fr 	c #8D847E",
"Gr 	c #8E857E",
"Hr 	c #7E746E",
"Ir 	c #786E68",
"Jr 	c #5D524F",
"Kr 	c #9B8677",
"Lr 	c #A08979",
"Mr 	c #89776C",
"Nr 	c #847369",
"Or 	c #927C70",
"Pr 	c #8F7A6F",
"Qr 	c #273536",
"Rr 	c #1D2A2B",
"Sr 	c #556C6D",
"Tr 	c #897D4E",
"Ur 	c #E3D084",
"Vr 	c #928861",
"Wr 	c #4D4839",
"Xr 	c #524C3A",
"Yr 	c #CABC7F",
"Zr 	c #C3BB7E",
"`r 	c #6B6847",
" s 	c #1B1D17",
".s 	c #2A321D",
"+s 	c #3A4527",
"@s 	c #485631",
"#s 	c #4F5E36",
"$s 	c #4A5933",
"%s 	c #3C4729",
"&s 	c #2E3620",
"*s 	c #232A19",
"=s 	c #1B2013",
"-s 	c #0B0D07",
";s 	c #9E9A99",
">s 	c #857E7A",
",s 	c #6F6863",
"'s 	c #645B56",
")s 	c #6A5F5B",
"!s 	c #635955",
"~s 	c #5D5350",
"{s 	c #5C524F",
"]s 	c #5F5551",
"^s 	c #635855",
"/s 	c #5F5552",
"(s 	c #7D7069",
"_s 	c #9E8778",
":s 	c #968173",
"<s 	c #6E635C",
"[s 	c #6A605A",
"}s 	c #6D625C",
"|s 	c #242D2F",
"1s 	c #5C7070",
"2s 	c #576363",
"3s 	c #000001",
"4s 	c #E3D186",
"5s 	c #978D65",
"6s 	c #4F4A3B",
"7s 	c #534E3B",
"8s 	c #CDBE82",
"9s 	c #C4BD80",
"0s 	c #6B6948",
"as 	c #1C1E18",
"bs 	c #3A4528",
"cs 	c #7B9452",
"ds 	c #98B866",
"es 	c #9CBC69",
"fs 	c #9FC16B",
"gs 	c #9BBC69",
"hs 	c #95B464",
"is 	c #92B062",
"js 	c #92B162",
"ks 	c #3C4A27",
"ls 	c #7D7876",
"ms 	c #8B8684",
"ns 	c #736C67",
"os 	c #766E6A",
"ps 	c #79716D",
"qs 	c #625B56",
"rs 	c #8A817B",
"ss 	c #8C837C",
"ts 	c #766C66",
"us 	c #7A6E68",
"vs 	c #70655E",
"ws 	c #6B605A",
"xs 	c #70645E",
"ys 	c #324042",
"zs 	c #897D4F",
"As 	c #E4D187",
"Bs 	c #9C916A",
"Cs 	c #514C3C",
"Ds 	c #544F3C",
"Es 	c #CFC084",
"Fs 	c #C5BE82",
"Gs 	c #6C6A49",
"Hs 	c #1C1E17",
"Is 	c #434F2D",
"Js 	c #8FAD60",
"Ks 	c #B1D577",
"Ls 	c #B4D978",
"Ms 	c #B6DD7A",
"Ns 	c #B2D878",
"Os 	c #ADD175",
"Ps 	c #ABCE74",
"Qs 	c #ACD074",
"Rs 	c #48582F",
"Ss 	c #827D7B",
"Ts 	c #847F7C",
"Us 	c #746E69",
"Vs 	c #615A55",
"Ws 	c #5F5651",
"Xs 	c #5F5752",
"Ys 	c #605853",
"Zs 	c #5D5550",
"`s 	c #625954",
" t 	c #918781",
".t 	c #867C76",
"+t 	c #324142",
"@t 	c #2D4044",
"#t 	c #1E2A2D",
"$t 	c #203133",
"%t 	c #8AADAF",
"&t 	c #897E4F",
"*t 	c #E4D287",
"=t 	c #9D936B",
"-t 	c #524D3D",
";t 	c #55503D",
">t 	c #D0C185",
",t 	c #C6BF83",
"'t 	c #6D6A4A",
")t 	c #424F2D",
"!t 	c #B2D777",
"~t 	c #B4DA79",
"{t 	c #B1D678",
"]t 	c #514946",
"^t 	c #4D4643",
"/t 	c #605B59",
"(t 	c #847F7D",
"_t 	c #756F6A",
":t 	c #706964",
"<t 	c #5E5651",
"[t 	c #5C5550",
"}t 	c #5E5752",
"|t 	c #635A55",
"1t 	c #655C57",
"2t 	c #7C736D",
"3t 	c #928983",
"4t 	c #A49A96",
"5t 	c #A79D99",
"6t 	c #A69C98",
"7t 	c #968C88",
"8t 	c #786D68",
"9t 	c #766B66",
"0t 	c #7B6F69",
"at 	c #324143",
"bt 	c #252D2F",
"ct 	c #D1C185",
"dt 	c #1A1C17",
"et 	c #353F24",
"ft 	c #70874B",
"gt 	c #8AA75D",
"ht 	c #8CA95D",
"it 	c #8DAB5E",
"jt 	c #8BA85E",
"kt 	c #88A55B",
"lt 	c #86A259",
"mt 	c #374323",
"nt 	c #5A504D",
"ot 	c #78716F",
"pt 	c #79736F",
"qt 	c #6A635F",
"rt 	c #847A76",
"st 	c #A39995",
"tt 	c #A39894",
"ut 	c #8F8480",
"vt 	c #8B807C",
"wt 	c #897E7A",
"xt 	c #7C706B",
"yt 	c #6E635D",
"zt 	c #262C2E",
"At 	c #252C2E",
"Bt 	c #252C2D",
"Ct 	c #242C2D",
"Dt 	c #242C2C",
"Et 	c #242B2C",
"Ft 	c #232B2C",
"Gt 	c #222A2B",
"Ht 	c #222B2C",
"It 	c #213032",
"Jt 	c #232C2E",
"Kt 	c #232A2C",
"Lt 	c #232B2B",
"Mt 	c #272D2F",
"Nt 	c #566C6E",
"Ot 	c #9D926A",
"Pt 	c #D0C184",
"Qt 	c #C6BE83",
"Rt 	c #6B6949",
"St 	c #181A15",
"Tt 	c #1B1F14",
"Ut 	c #1B1F13",
"Vt 	c #232919",
"Wt 	c #2B331E",
"Xt 	c #2E3720",
"Yt 	c #2A321E",
"Zt 	c #212617",
"`t 	c #171A11",
" u 	c #0B090B",
".u 	c #010006",
"+u 	c #020102",
"@u 	c #7A7470",
"#u 	c #706965",
"$u 	c #6D6662",
"%u 	c #635C57",
"&u 	c #5D5651",
"*u 	c #786F69",
"=u 	c #988F8A",
"-u 	c #A09692",
";u 	c #887D79",
">u 	c #70655F",
",u 	c #6C615B",
"'u 	c #283637",
")u 	c #1E2727",
"!u 	c #1E2627",
"~u 	c #1D2627",
"{u 	c #1D2626",
"]u 	c #1C2525",
"^u 	c #1A2324",
"/u 	c #1A2323",
"(u 	c #192323",
"_u 	c #192423",
":u 	c #1E2626",
"<u 	c #1F2727",
"[u 	c #22292A",
"}u 	c #566D6E",
"|u 	c #E4D186",
"1u 	c #9A9068",
"2u 	c #504B3B",
"3u 	c #554F3C",
"4u 	c #CFC083",
"5u 	c #C5BD81",
"6u 	c #6A6747",
"7u 	c #131512",
"8u 	c #191C12",
"9u 	c #222817",
"0u 	c #282F1B",
"au 	c #29321D",
"bu 	c #212717",
"cu 	c #14180E",
"du 	c #0D0F09",
"eu 	c #736C69",
"fu 	c #797370",
"gu 	c #6C6662",
"hu 	c #5A524E",
"iu 	c #685F59",
"ju 	c #665D57",
"ku 	c #695F59",
"lu 	c #161F20",
"mu 	c #161F1F",
"nu 	c #16201F",
"ou 	c #192222",
"pu 	c #E3D086",
"qu 	c #958B65",
"ru 	c #4E493A",
"su 	c #CDBE80",
"tu 	c #C3BC7F",
"uu 	c #696746",
"vu 	c #0C0C0F",
"wu 	c #13150E",
"xu 	c #181C11",
"yu 	c #29301C",
"zu 	c #202616",
"Au 	c #191D12",
"Bu 	c #10130B",
"Cu 	c #040503",
"Du 	c #877D75",
"Eu 	c #968981",
"Fu 	c #A0938A",
"Gu 	c #998D85",
"Hu 	c #665F5A",
"Iu 	c #5C544F",
"Ju 	c #59514D",
"Ku 	c #58504D",
"Lu 	c #5A514E",
"Mu 	c #615954",
"Nu 	c #99BEBE",
"Ou 	c #334244",
"Pu 	c #20292C",
"Qu 	c #232B2E",
"Ru 	c #5C7171",
"Su 	c #E2CF84",
"Tu 	c #8F8660",
"Uu 	c #4B4738",
"Vu 	c #CABB7E",
"Wu 	c #C2BA7D",
"Xu 	c #696645",
"Yu 	c #04030B",
"Zu 	c #0B0C08",
"`u 	c #171A10",
" v 	c #252A1A",
".v 	c #2C331F",
"+v 	c #2E3520",
"@v 	c #262C1B",
"#v 	c #0A0C07",
"$v 	c #9A8D85",
"%v 	c #645D58",
"&v 	c #675D58",
"*v 	c #262E31",
"=v 	c #2B3A40",
"-v 	c #222B2E",
";v 	c #E1CE83",
">v 	c #8A815C",
",v 	c #484436",
"'v 	c #504A37",
")v 	c #C7B97B",
"!v 	c #C0B77A",
"~v 	c #676443",
"{v 	c #04040C",
"]v 	c #0F110C",
"^v 	c #15190F",
"/v 	c #202517",
"(v 	c #2A311E",
"_v 	c #2D3520",
":v 	c #212718",
"<v 	c #181B11",
"[v 	c #11130B",
"}v 	c #030402",
"|v 	c #544F4C",
"1v 	c #665C57",
"2v 	c #162225",
"3v 	c #5D7171",
"4v 	c #E0CD81",
"5v 	c #867C58",
"6v 	c #464134",
"7v 	c #4E4836",
"8v 	c #C5B779",
"9v 	c #BFB578",
"0v 	c #666242",
"av 	c #0B0C0F",
"bv 	c #15170F",
"cv 	c #181D11",
"dv 	c #1F2416",
"ev 	c #272F1B",
"fv 	c #262E1A",
"gv 	c #222717",
"hv 	c #514C48",
"iv 	c #67605B",
"jv 	c #344345",
"kv 	c #272E31",
"lv 	c #162323",
"mv 	c #131C1C",
"nv 	c #162224",
"ov 	c #182628",
"pv 	c #566E6E",
"qv 	c #DECB80",
"rv 	c #807753",
"sv 	c #423E31",
"tv 	c #C4B476",
"uv 	c #BDB275",
"vv 	c #656040",
"wv 	c #111311",
"xv 	c #1A1E13",
"yv 	c #212817",
"zv 	c #2B341D",
"Av 	c #323C22",
"Bv 	c #364125",
"Cv 	c #343F23",
"Dv 	c #2E371F",
"Ev 	c #212716",
"Fv 	c #1C2113",
"Gv 	c #090B05",
"Hv 	c #5D544F",
"Iv 	c #665D58",
"Jv 	c #172527",
"Kv 	c #192322",
"Lv 	c #1B2423",
"Mv 	c #5D7172",
"Nv 	c #576364",
"Ov 	c #DECB7E",
"Pv 	c #7C7350",
"Qv 	c #3F3B2F",
"Rv 	c #4A4431",
"Sv 	c #C2B374",
"Tv 	c #BBB073",
"Uv 	c #64603F",
"Vv 	c #121512",
"Wv 	c #29311D",
"Xv 	c #4E5E35",
"Yv 	c #627743",
"Zv 	c #677E47",
"`v 	c #6C8249",
" w 	c #6A8048",
".w 	c #637843",
"+w 	c #5E7140",
"@w 	c #56673B",
"#w 	c #222A16",
"$w 	c #99BEBF",
"%w 	c #344445",
"&w 	c #222C2D",
"*w 	c #1D2B2C",
"=w 	c #1E2D2D",
"-w 	c #1F2D2E",
";w 	c #202F31",
">w 	c #223031",
",w 	c #232E2F",
"'w 	c #222A2A",
")w 	c #576E6F",
"!w 	c #2F3636",
"~w 	c #DECA7D",
"{w 	c #79704D",
"]w 	c #3C382D",
"^w 	c #484230",
"/w 	c #C1B172",
"(w 	c #645F3E",
"_w 	c #111512",
":w 	c #849E58",
"<w 	c #A7CA70",
"[w 	c #A6C870",
"}w 	c #9EBE6B",
"|w 	c #9DBE6B",
"1w 	c #42502B",
"2w 	c #685E59",
"3w 	c #99BFBF",
"4w 	c #354446",
"5w 	c #253639",
"6w 	c #27383A",
"7w 	c #2B3E41",
"8w 	c #536161",
"9w 	c #343D3D",
"0w 	c #746B49",
"aw 	c #39352A",
"bw 	c #46402D",
"cw 	c #C0B070",
"dw 	c #B8AD6F",
"ew 	c #625E3C",
"fw 	c #101411",
"gw 	c #3F4B2B",
"hw 	c #8CA85E",
"iw 	c #AFD375",
"jw 	c #ABCE73",
"kw 	c #A8CA71",
"lw 	c #A8CA72",
"mw 	c #47562E",
"nw 	c #35474A",
"ow 	c #2E3D3E",
"pw 	c #2B3D40",
"qw 	c #2A3437",
"rw 	c #5D7273",
"sw 	c #576464",
"tw 	c #536061",
"uw 	c #DCC97A",
"vw 	c #716845",
"ww 	c #443F2C",
"xw 	c #BFB06E",
"yw 	c #B7AB6C",
"zw 	c #615C3A",
"Aw 	c #0E1310",
"Bw 	c #A4C66F",
"Cw 	c #A8CB71",
"Dw 	c #A7C96F",
"Ew 	c #A0C16C",
"Fw 	c #9BBA69",
"Gw 	c #9BBA68",
"Hw 	c #414F2A",
"Iw 	c #181C1C",
"Jw 	c #354547",
"Kw 	c #213337",
"Lw 	c #2E3535",
"Mw 	c #897E4B",
"Nw 	c #DFCE7D",
"Ow 	c #706744",
"Pw 	c #433E2A",
"Qw 	c #C1B16E",
"Rw 	c #B7AC6C",
"Sw 	c #605B39",
"Tw 	c #0C110F",
"Uw 	c #29311C",
"Vw 	c #536438",
"Ww 	c #6D8349",
"Xw 	c #71884B",
"Yw 	c #6F864A",
"Zw 	c #647943",
"`w 	c #607340",
" x 	c #272F19",
".x 	c #4D5859",
"+x 	c #5D6A6A",
"@x 	c #675E58",
"#x 	c #364547",
"$x 	c #27373B",
"%x 	c #525E5E",
"&x 	c #323A3A",
"*x 	c #050C13",
"=x 	c #645C37",
"-x 	c #A4985C",
";x 	c #554F36",
">x 	c #2D2921",
",x 	c #383425",
"'x 	c #9A8D59",
")x 	c #928957",
"!x 	c #4D492E",
"~x 	c #10130F",
"{x 	c #161910",
"]x 	c #1D2215",
"^x 	c #29301D",
"/x 	c #2B341F",
"(x 	c #222818",
"_x 	c #000005",
":x 	c #040404",
"<x 	c #2A3131",
"[x 	c #A7CFCF",
"}x 	c #2F3E3F",
"|x 	c #8CAFB0",
"1x 	c #606F6F",
"2x 	c #596766",
"3x 	c #414B4B",
"4x 	c #212626",
"5x 	c #191612",
"6x 	c #4D4731",
"7x 	c #4B4530",
"8x 	c #2A271C",
"9x 	c #12140E",
"0x 	c #15180F",
"ax 	c #222918",
"bx 	c #2C341E",
"cx 	c #2B321D",
"dx 	c #252C19",
"ex 	c #1F2415",
"fx 	c #11130C",
"gx 	c #2B3C3F",
"hx 	c #2F3D3E",
"ix 	c #586F70",
"jx 	c #4E5959",
"kx 	c #5A6868",
"lx 	c #637171",
"mx 	c #586565",
"nx 	c #23201B",
"ox 	c #0F110B",
"px 	c #1D2214",
"qx 	c #242A19",
"rx 	c #232918",
"sx 	c #1A1E12",
"tx 	c #13160D",
"ux 	c #090A06",
"vx 	c #111414",
"wx 	c #5A6869",
"xx 	c #6E8A8C",
"yx 	c #2F3E40",
"zx 	c #2B3F42",
"Ax 	c #2A3B3D",
"Bx 	c #293A3C",
"Cx 	c #587070",
"Dx 	c #596E6F",
"Ex 	c #424B4B",
"Fx 	c #535F60",
"Gx 	c #667575",
"Hx 	c #627071",
"Ix 	c #3F4848",
"Jx 	c #1A1B18",
"Kx 	c #201D18",
"Lx 	c #201E18",
"Mx 	c #171612",
"Nx 	c #090806",
"Ox 	c #060705",
"Px 	c #0F120B",
"Qx 	c #161B10",
"Rx 	c #1C2114",
"Sx 	c #191D11",
"Tx 	c #0A0C06",
"Ux 	c #262B2B",
"Vx 	c #515D5D",
"Wx 	c #5B6868",
"Xx 	c #405254",
"Yx 	c #263435",
"Zx 	c #303E3F",
"`x 	c #587071",
" y 	c #404A4A",
".y 	c #4C5757",
"+y 	c #5E6D6D",
"@y 	c #525D5D",
"#y 	c #262A28",
"$y 	c #1C1B16",
"%y 	c #1C1A15",
"&y 	c #1C1A16",
"*y 	c #0D1009",
"=y 	c #13170D",
"-y 	c #14170E",
";y 	c #080905",
">y 	c #040505",
",y 	c #3B4444",
"'y 	c #596566",
")y 	c #242E31",
"!y 	c #3E4F52",
"~y 	c #374648",
"{y 	c #3F4B4C",
"]y 	c #454E4F",
"^y 	c #546060",
"/y 	c #647273",
"(y 	c #616E6E",
"_y 	c #323937",
":y 	c #1B1C18",
"<y 	c #1F1E1A",
"[y 	c #1D1C19",
"}y 	c #1E1D1A",
"|y 	c #1E1E1A",
"1y 	c #1E1E19",
"2y 	c #181816",
"3y 	c #0D0E0D",
"4y 	c #0B0D0B",
"5y 	c #0C0F0D",
"6y 	c #0B0E0C",
"7y 	c #080B0A",
"8y 	c #4E5A5A",
"9y 	c #394242",
"0y 	c #9ABFBF",
"ay 	c #6F8B8D",
"by 	c #374749",
"cy 	c #303F40",
"dy 	c #8DB0B0",
"ey 	c #3C4C4F",
"fy 	c #404B4C",
"gy 	c #4D5858",
"hy 	c #596767",
"iy 	c #424B49",
"jy 	c #303431",
"ky 	c #313431",
"ly 	c #2F322F",
"my 	c #313430",
"ny 	c #303430",
"oy 	c #2C302E",
"py 	c #252A2A",
"qy 	c #333A3A",
"ry 	c #556162",
"sy 	c #475151",
"ty 	c #152124",
"uy 	c #2F4042",
"vy 	c #415355",
"wy 	c #384749",
"xy 	c #313F40",
"yy 	c #A6CECE",
"zy 	c #3A4D50",
"Ay 	c #3E4C4E",
"By 	c #464F50",
"Cy 	c #556061",
"Dy 	c #667474",
"Ey 	c #5C6866",
"Fy 	c #49514F",
"Gy 	c #4A514E",
"Hy 	c #48504D",
"Iy 	c #474F4C",
"Jy 	c #474F4D",
"Ky 	c #434D4C",
"Ly 	c #616F70",
"My 	c #4F5A5A",
"Ny 	c #71655F",
"Oy 	c #384849",
"Py 	c #1F2929",
"Qy 	c #3B4B4D",
"Ry 	c #3F4A4B",
"Sy 	c #5A6768",
"Ty 	c #758483",
"Uy 	c #606A68",
"Vy 	c #606A67",
"Wy 	c #5F6A67",
"Xy 	c #5F6A68",
"Yy 	c #5E6B6A",
"Zy 	c #5E6B6B",
"`y 	c #5F6B6B",
" z 	c #707F7F",
".z 	c #566364",
"+z 	c #4B5555",
"@z 	c #685E58",
"#z 	c #665C56",
"$z 	c #655B56",
"%z 	c #6C625C",
"&z 	c #3F5053",
"*z 	c #6F8C8E",
"=z 	c #38484A",
"-z 	c #314041",
";z 	c #597172",
">z 	c #3D494A",
",z 	c #454D4D",
"'z 	c #505B5C",
")z 	c #768585",
"!z 	c #788583",
"~z 	c #778582",
"{z 	c #768583",
"]z 	c #768584",
"^z 	c #75827F",
"/z 	c #74807E",
"(z 	c #748281",
"_z 	c #738383",
":z 	c #728282",
"<z 	c #718081",
"[z 	c #6F7F7F",
"}z 	c #6E7E7E",
"|z 	c #6D7D7D",
"1z 	c #6C7B7C",
"2z 	c #6B7A7B",
"3z 	c #6A7979",
"4z 	c #515C5C",
"5z 	c #414A4B",
"6z 	c #2E3738",
"7z 	c #162125",
"8z 	c #675D57",
"9z 	c #645A55",
"0z 	c #736761",
"az 	c #485C60",
"bz 	c #1F2A2B",
"cz 	c #A6CFCE",
"dz 	c #8EB1B1",
"ez 	c #394749",
"fz 	c #404949",
"gz 	c #4B5454",
"hz 	c #657272",
"iz 	c #667271",
"jz 	c #657372",
"kz 	c #657374",
"lz 	c #657170",
"mz 	c #65706F",
"nz 	c #647272",
"oz 	c #647373",
"pz 	c #647374",
"qz 	c #637273",
"rz 	c #627171",
"sz 	c #4D5758",
"tz 	c #363E3F",
"uz 	c #5B534F",
"vz 	c #7B7069",
"wz 	c #1E2F31",
"xz 	c #303D3E",
"yz 	c #8EB1B2",
"zz 	c #3C4748",
"Az 	c #464E4E",
"Bz 	c #515C5D",
"Cz 	c #5F6C6C",
"Dz 	c #5F6C6D",
"Ez 	c #5E6D6E",
"Fz 	c #475050",
"Gz 	c #2E3638",
"Hz 	c #A7D1D0",
"Iz 	c #708D8F",
"Jz 	c #39494B",
"Kz 	c #324041",
"Lz 	c #1E2F32",
"Mz 	c #303D3F",
"Nz 	c #597272",
"Oz 	c #374446",
"Pz 	c #414A4A",
"Qz 	c #4B5657",
"Rz 	c #4B5656",
"Sz 	c #4B5556",
"Tz 	c #485252",
"Uz 	c #3C4545",
"Vz 	c #766B64",
"Wz 	c #344448",
"Xz 	c #97BCBD",
"Yz 	c #3A4446",
"Zz 	c #404848",
"`z 	c #394040",
" A 	c #394140",
".A 	c #394141",
"+A 	c #3F4747",
"@A 	c #6A5F5A",
"#A 	c #28353A",
"$A 	c #708E90",
"%A 	c #394A4B",
"&A 	c #162325",
"*A 	c #5A7273",
"=A 	c #5A7374",
"-A 	c #323F41",
";A 	c #364041",
">A 	c #31393A",
",A 	c #303939",
"'A 	c #303839",
")A 	c #635954",
"!A 	c #615752",
"~A 	c #A6D1D1",
"{A 	c #708F90",
"]A 	c #4A6061",
"^A 	c #3A4A4C",
"/A 	c #334142",
"(A 	c #2E3B3C",
"_A 	c #162324",
":A 	c #334143",
"<A 	c #222C2F",
"[A 	c #675E59",
"}A 	c #5C534E",
"|A 	c #605752",
"1A 	c #625853",
"2A 	c #6D635D",
"3A 	c #91B5B6",
"4A 	c #9BC1C2",
"5A 	c #5B534E",
"6A 	c #59514C",
"7A 	c #58504C",
"8A 	c #574F4B",
"9A 	c #59504C",
"0A 	c #574D49",
"aA 	c #7A6F68",
"bA 	c #718F91",
"cA 	c #3A4B4C",
"dA 	c #334243",
"eA 	c #344244",
"fA 	c #584F4B",
"gA 	c #5B524D",
"hA 	c #9BC2C2",
"iA 	c #344344",
"jA 	c #5A7373",
"kA 	c #8FB2B4",
"lA 	c #5A514D",
"mA 	c #5C524D",
"nA 	c #584E4A",
"oA 	c #59504B",
"pA 	c #776C66",
"qA 	c #9BC2C3",
"rA 	c #334144",
"sA 	c #5B7374",
"tA 	c #5C7476",
"uA 	c #5A524D",
"vA 	c #425457",
"wA 	c #729191",
"xA 	c #4C6265",
"yA 	c #354345",
"zA 	c #1F2F34",
"AA 	c #5A514C",
"BA 	c #5F544F",
"CA 	c #4B403D",
"DA 	c #473C39",
"EA 	c #483D3A",
"FA 	c #897E78",
"GA 	c #A8D3D2",
"HA 	c #9BC3C3",
"IA 	c #3B4C4D",
"JA 	c #2F3C3D",
"KA 	c #2A363A",
"LA 	c #A6D0CF",
"MA 	c #8FB4B4",
"NA 	c #3E4E51",
"OA 	c #3C4B4E",
"PA 	c #39474A",
"QA 	c #374547",
"RA 	c #364346",
"SA 	c #354346",
"TA 	c #354245",
"UA 	c #344245",
"VA 	c #323F42",
"WA 	c #313E40",
"XA 	c #303D40",
"YA 	c #303C3F",
"ZA 	c #2F3B3D",
"`A 	c #2E393B",
" B 	c #2C373A",
".B 	c #2C3738",
"+B 	c #594F4B",
"@B 	c #504541",
"#B 	c #8B807A",
"$B 	c #435558",
"%B 	c #46595B",
"&B 	c #293033",
"*B 	c #57686A",
"=B 	c #6D7D7E",
"-B 	c #728284",
";B 	c #718182",
">B 	c #728183",
",B 	c #758587",
"'B 	c #7B8B8D",
")B 	c #7A8A8C",
"!B 	c #7A8A8B",
"~B 	c #79898B",
"{B 	c #78898B",
"]B 	c #78888A",
"^B 	c #778789",
"/B 	c #778788",
"(B 	c #768687",
"_B 	c #758687",
":B 	c #748586",
"<B 	c #738485",
"[B 	c #738384",
"}B 	c #718082",
"|B 	c #6F8082",
"1B 	c #6F7F81",
"2B 	c #6F7E80",
"3B 	c #6E7D7E",
"4B 	c #6D7C7D",
"5B 	c #6C7B7D",
"6B 	c #6B7A7C",
"7B 	c #6B7A7A",
"8B 	c #566264",
"9B 	c #534844",
"0B 	c #7E736E",
"aB 	c #92B5B6",
"bB 	c #9CC3C3",
"cB 	c #3C4D4E",
"dB 	c #292E2E",
"eB 	c #536162",
"fB 	c #626F70",
"gB 	c #637071",
"hB 	c #657274",
"iB 	c #6A7879",
"jB 	c #6A7779",
"kB 	c #6B797A",
"lB 	c #6A797A",
"mB 	c #6B797B",
"nB 	c #6C7A7B",
"oB 	c #6E7B7C",
"pB 	c #586364",
"qB 	c #726861",
"rB 	c #7D746C",
"sB 	c #938B83",
"tB 	c #A19A90",
"uB 	c #A0998F",
"vB 	c #887F77",
"wB 	c #7F766F",
"xB 	c #9CC3C4",
"yB 	c #3C4D4F",
"zB 	c #242E2F",
"AB 	c #242D2E",
"BB 	c #24363A",
"CB 	c #5C7475",
"DB 	c #505E5F",
"EB 	c #616E6F",
"FB 	c #6D7A7B",
"GB 	c #5F6A6B",
"HB 	c #564E4A",
"IB 	c #746B65",
"JB 	c #584F4A",
"KB 	c #6C625B",
"LB 	c #B3ADA3",
"MB 	c #C9C4B9",
"NB 	c #AFA89F",
"OB 	c #9DC4C4",
"PB 	c #475A5D",
"QB 	c #3C4E4F",
"RB 	c #233435",
"SB 	c #243334",
"TB 	c #1F2E30",
"UB 	c #212F31",
"VB 	c #222F31",
"WB 	c #233335",
"XB 	c #1C2C30",
"YB 	c #364647",
"ZB 	c #5C6969",
"`B 	c #455051",
" C 	c #616C6C",
".C 	c #4F4945",
"+C 	c #6A615B",
"@C 	c #69605A",
"#C 	c #776E67",
"$C 	c #9C958C",
"%C 	c #ADA69D",
"&C 	c #9B918A",
"*C 	c #918780",
"=C 	c #877C75",
"-C 	c #847973",
";C 	c #80756F",
">C 	c #7C716A",
",C 	c #9CC4C4",
"'C 	c #3D4E4F",
")C 	c #1D2E30",
"!C 	c #203234",
"~C 	c #213638",
"{C 	c #5E7778",
"]C 	c #586667",
"^C 	c #1D2121",
"/C 	c #394243",
"(C 	c #606C6C",
"_C 	c #726862",
":C 	c #6F655E",
"<C 	c #3D4E50",
"[C 	c #1F3235",
"}C 	c #232D30",
"|C 	c #1E3032",
"1C 	c #586666",
"2C 	c #1E2222",
"3C 	c #726963",
"4C 	c #5B514C",
"5C 	c #6E645D",
"6C 	c #766C65",
"7C 	c #354546",
"8C 	c #1E3134",
"9C 	c #18272B",
"0C 	c #1A2A2D",
"aC 	c #596666",
"bC 	c #43585A",
"cC 	c #9DC4C5",
"dC 	c #3D4F50",
"eC 	c #25393D",
"fC 	c #25393E",
"gC 	c #24393B",
"hC 	c #23383B",
"iC 	c #23383A",
"jC 	c #374748",
"kC 	c #5E7879",
"lC 	c #515E5F",
"mC 	c #6E655F",
"nC 	c #736962",
"oC 	c #9EC5C5",
"pC 	c #364546",
"qC 	c #344C52",
"rC 	c #375259",
"sC 	c #375159",
"tC 	c #385159",
"uC 	c #38525A",
"vC 	c #375158",
"wC 	c #222B2F",
"xC 	c #1B2A2E",
"yC 	c #2B4246",
"zC 	c #30494D",
"AC 	c #314A4E",
"BC 	c #31494E",
"CC 	c #2F464C",
"DC 	c #2B4044",
"EC 	c #26393C",
"FC 	c #515F60",
"GC 	c #5D6C6D",
"HC 	c #625953",
"IC 	c #779696",
"JC 	c #3E4F51",
"KC 	c #35464B",
"LC 	c #45636C",
"MC 	c #4B6C77",
"NC 	c #4C6C78",
"OC 	c #4C6C77",
"PC 	c #4C6C76",
"QC 	c #4C6B76",
"RC 	c #4C6D77",
"SC 	c #4A6B75",
"TC 	c #3E5A62",
"UC 	c #2A3F44",
"VC 	c #44626A",
"WC 	c #405C66",
"XC 	c #354C54",
"YC 	c #374849",
"ZC 	c #9EC5C6",
"`C 	c #779697",
" D 	c #3E5051",
".D 	c #37484E",
"+D 	c #52737E",
"@D 	c #52737F",
"#D 	c #537580",
"$D 	c #426069",
"%D 	c #2D4147",
"&D 	c #2C4146",
"*D 	c #436069",
"=D 	c #50717B",
"-D 	c #52757F",
";D 	c #4B6A75",
">D 	c #3C555D",
",D 	c #344243",
"'D 	c #5F797A",
")D 	c #504A46",
"!D 	c #615853",
"~D 	c #756B64",
"{D 	c #9EC6C6",
"]D 	c #526A6C",
"^D 	c #2C383A",
"/D 	c #313E43",
"(D 	c #3D545B",
"_D 	c #425C64",
":D 	c #435D64",
"<D 	c #435E65",
"[D 	c #435F66",
"}D 	c #435F68",
"|D 	c #446169",
"1D 	c #45616A",
"2D 	c #4A6972",
"3D 	c #4B6C75",
"4D 	c #4B6B74",
"5D 	c #4B6A73",
"6D 	c #4B6A74",
"7D 	c #46636C",
"8D 	c #395159",
"9D 	c #5D7777",
"0D 	c #010202",
"aD 	c #524B48",
"bD 	c #5F5650",
"cD 	c #6B615A",
"dD 	c #746A63",
"eD 	c #779798",
"fD 	c #3F5151",
"gD 	c #2C393A",
"hD 	c #2C383B",
"iD 	c #2E3B3F",
"jD 	c #2F4144",
"kD 	c #2F4247",
"lD 	c #304349",
"mD 	c #30444B",
"nD 	c #30454B",
"oD 	c #31454B",
"pD 	c #31464B",
"qD 	c #213237",
"rD 	c #282D30",
"sD 	c #30474B",
"tD 	c #374F55",
"uD 	c #385157",
"vD 	c #385056",
"wD 	c #385057",
"xD 	c #364D54",
"yD 	c #31464C",
"zD 	c #38494A",
"AD 	c #516061",
"BD 	c #796F68",
"CD 	c #9EC6C7",
"DD 	c #3F5152",
"ED 	c #283033",
"FD 	c #273236",
"GD 	c #2C3C40",
"HD 	c #6D635C",
"ID 	c #9FC6C7",
"JD 	c #293438",
"KD 	c #2D3F45",
"LD 	c #203032",
"MD 	c #5E7777",
"ND 	c #91B7B8",
"OD 	c #212525",
"PD 	c #0A0C0C",
"QD 	c #3A4444",
"RD 	c #786E67",
"SD 	c #9FC7C7",
"TD 	c #4B5F62",
"UD 	c #405153",
"VD 	c #2C4043",
"WD 	c #2B3D3F",
"XD 	c #44595B",
"YD 	c #526161",
"ZD 	c #596768",
"`D 	c #363D3D",
" E 	c #333939",
".E 	c #323838",
"+E 	c #58504B",
"@E 	c #799999",
"#E 	c #546D6E",
"$E 	c #384848",
"%E 	c #29393B",
"&E 	c #354445",
"*E 	c #3A4A4B",
"=E 	c #93B8B8",
"-E 	c #627B7D",
";E 	c #526061",
">E 	c #606D6E",
",E 	c #647070",
"'E 	c #687475",
")E 	c #697677",
"!E 	c #697676",
"~E 	c #677475",
"{E 	c #39494D",
"]E 	c #9FC7C8",
"^E 	c #405253",
"/E 	c #3A4B4B",
"(E 	c #5E7878",
"_E 	c #526162",
":E 	c #9FC8C8",
"<E 	c #5A6667",
"[E 	c #625A54",
"}E 	c #A0C8C9",
"|E 	c #566F71",
"1E 	c #415254",
"2E 	c #354545",
"3E 	c #5F7879",
"4E 	c #545F60",
"5E 	c #535E5E",
"6E 	c #5C6868",
"7E 	c #606D6D",
"8E 	c #586465",
"9E 	c #596565",
"0E 	c #635B55",
"aE 	c #665E58",
"bE 	c #7B9B9B",
"cE 	c #39484A",
"dE 	c #2D3A3B",
"eE 	c #637D7E",
"fE 	c #586464",
"gE 	c #657373",
"hE 	c #687676",
"iE 	c #657273",
"jE 	c #616F6F",
"kE 	c #667475",
"lE 	c #718080",
"mE 	c #687576",
"nE 	c #655D57",
"oE 	c #645C56",
"pE 	c #5F7979",
"qE 	c #536263",
"rE 	c #5E6C6C",
"sE 	c #535E5F",
"tE 	c #627373",
"uE 	c #5E696A",
"vE 	c #798A8A",
"wE 	c #738382",
"xE 	c #6D7C7C",
"yE 	c #5B6969",
"zE 	c #5D6869",
"AE 	c #606C6D",
"BE 	c #6C7C7D",
"CE 	c #6F7E7E",
"DE 	c #6F7D7D",
"EE 	c #5D6B6D",
"FE 	c #544D49",
"GE 	c #485D60",
"HE 	c #ACD8D8",
"IE 	c #A0C9CA",
"JE 	c #536363",
"KE 	c #525D5E",
"LE 	c #556060",
"ME 	c #585859",
"NE 	c #624C4D",
"OE 	c #6C4546",
"PE 	c #6A4344",
"QE 	c #644849",
"RE 	c #5C5455",
"SE 	c #697776",
"TE 	c #748484",
"UE 	c #6C7B7B",
"VE 	c #4F595A",
"WE 	c #576061",
"XE 	c #5B5858",
"YE 	c #64494A",
"ZE 	c #694344",
"`E 	c #674344",
" F 	c #604C4D",
".F 	c #626869",
"+F 	c #707E7E",
"@F 	c #3D3838",
"#F 	c #554D49",
"$F 	c #4B4442",
"%F 	c #3E3939",
"&F 	c #3F3A39",
"*F 	c #4E4744",
"=F 	c #A1C9CA",
"-F 	c #39494A",
";F 	c #2C4046",
">F 	c #3C4C4E",
",F 	c #60797A",
"'F 	c #546364",
")F 	c #585758",
"!F 	c #69393A",
"~F 	c #832E2E",
"{F 	c #993131",
"]F 	c #AC3B3B",
"^F 	c #A23738",
"/F 	c #793131",
"(F 	c #5C4647",
"_F 	c #626D6E",
":F 	c #768787",
"<F 	c #505B5B",
"[F 	c #5A5657",
"}F 	c #6E3132",
"|F 	c #872C2D",
"1F 	c #993232",
"2F 	c #A93A3B",
"3F 	c #903233",
"4F 	c #673E3F",
"5F 	c #5A6061",
"6F 	c #534B47",
"7F 	c #4F4844",
"8F 	c #524B47",
"9F 	c #7C9C9E",
"0F 	c #425455",
"aF 	c #566262",
"bF 	c #586262",
"cF 	c #604545",
"dF 	c #843333",
"eF 	c #9E3636",
"fF 	c #BD4141",
"gF 	c #DE5353",
"hF 	c #D75050",
"iF 	c #A13737",
"jF 	c #782C2D",
"kF 	c #584D4E",
"lF 	c #79898A",
"mF 	c #5A6364",
"nF 	c #633F3F",
"oF 	c #8C2D2E",
"pF 	c #A43636",
"qF 	c #C34545",
"rF 	c #DD5252",
"sF 	c #C24646",
"tF 	c #8A3232",
"uF 	c #574A4A",
"vF 	c #6E7D7D",
"wF 	c #453F3D",
"xF 	c #47413E",
"yF 	c #544C48",
"zF 	c #504945",
"AF 	c #4B4441",
"BF 	c #4A4340",
"CF 	c #554D4B",
"DF 	c #A1CACB",
"EF 	c #4F6466",
"FF 	c #2B3639",
"GF 	c #9BC1C1",
"HF 	c #5A5B5B",
"IF 	c #6C3A3A",
"JF 	c #923838",
"KF 	c #B33D3D",
"LF 	c #D34949",
"MF 	c #E65656",
"NF 	c #E55656",
"OF 	c #B53E3F",
"PF 	c #8D2E2F",
"QF 	c #613C3C",
"RF 	c #747F7F",
"SF 	c #616E70",
"TF 	c #5C5C5D",
"UF 	c #713131",
"VF 	c #9D3333",
"WF 	c #BA3C3D",
"XF 	c #D94D4D",
"YF 	c #E55555",
"ZF 	c #D84F4F",
"`F 	c #A03636",
" G 	c #633434",
".G 	c #61696A",
"+G 	c #6D7A7A",
"@G 	c #504946",
"#G 	c #46403E",
"$G 	c #4C4542",
"%G 	c #4F4A4E",
"&G 	c #4D484C",
"*G 	c #484346",
"=G 	c #597274",
"-G 	c #2C3C41",
";G 	c #374647",
">G 	c #526262",
",G 	c #556565",
"'G 	c #733838",
")G 	c #9B3A3A",
"!G 	c #BB3E3F",
"~G 	c #D04444",
"{G 	c #DB4D4D",
"]G 	c #D74C4C",
"^G 	c #B33A3A",
"/G 	c #913031",
"(G 	c #663333",
"_G 	c #6F7776",
":G 	c #768686",
"<G 	c #4E5C5C",
"[G 	c #7D2F2F",
"}G 	c #A93636",
"|G 	c #C53F3F",
"1G 	c #D34646",
"2G 	c #DC4D4D",
"3G 	c #CE4545",
"4G 	c #742F2F",
"5G 	c #5B5A5B",
"6G 	c #6F7F80",
"7G 	c #3C3737",
"8G 	c #495F61",
"9G 	c #A2CACB",
"0G 	c #425556",
"aG 	c #607B7B",
"bG 	c #ABD4D5",
"cG 	c #526263",
"dG 	c #566565",
"eG 	c #5A5758",
"fG 	c #723738",
"gG 	c #99393A",
"hG 	c #B83D3E",
"iG 	c #CA4040",
"jG 	c #CB4040",
"kG 	c #C63F3F",
"lG 	c #AD3738",
"mG 	c #8F2F30",
"nG 	c #643435",
"oG 	c #707979",
"pG 	c #758585",
"qG 	c #5A5556",
"rG 	c #7C2F2F",
"sG 	c #C33E3E",
"tG 	c #C23D3D",
"uG 	c #A13435",
"vG 	c #732F30",
"wG 	c #5B5C5C",
"xG 	c #6C7A7A",
"yG 	c #393435",
"zG 	c #342F30",
"AG 	c #506568",
"BG 	c #435556",
"CG 	c #617A7B",
"DG 	c #536364",
"EG 	c #576566",
"FG 	c #595C5D",
"GG 	c #683B3B",
"HG 	c #8E3637",
"IG 	c #AA393A",
"JG 	c #BF3C3C",
"KG 	c #C13C3C",
"LG 	c #B6393A",
"MG 	c #A03334",
"NG 	c #862D2E",
"OG 	c #5E3E3E",
"PG 	c #758282",
"QG 	c #546061",
"RG 	c #5B5C5D",
"SG 	c #703233",
"TG 	c #B63939",
"UG 	c #C33D3D",
"VG 	c #C43D3D",
"WG 	c #B5393A",
"XG 	c #963132",
"YG 	c #643636",
"ZG 	c #60696A",
"`G 	c #49423F",
" H 	c #443E3C",
".H 	c #3D3737",
"+H 	c #A3CBCC",
"@H 	c #435557",
"#H 	c #546565",
"$H 	c #566464",
"%H 	c #5A4A4A",
"&H 	c #793333",
"*H 	c #903333",
"=H 	c #A23434",
"-H 	c #A33434",
";H 	c #9A3232",
">H 	c #882D2E",
",H 	c #693132",
"'H 	c #555455",
")H 	c #798A89",
"!H 	c #708080",
"~H 	c #5C6B6C",
"{H 	c #546161",
"]H 	c #5F4344",
"^H 	c #872E2F",
"/H 	c #9C3233",
"(H 	c #A73535",
"_H 	c #9B3232",
":H 	c #7B3132",
"<H 	c #564D4E",
"[H 	c #423C3A",
"}H 	c #3C3738",
"|H 	c #7E9FA1",
"1H 	c #5B7577",
"2H 	c #658183",
"3H 	c #556465",
"4H 	c #5A6767",
"5H 	c #556261",
"6H 	c #545C5D",
"7H 	c #593C3D",
"8H 	c #782E2F",
"9H 	c #862C2D",
"0H 	c #872D2D",
"aH 	c #802C2D",
"bH 	c #653232",
"cH 	c #524F50",
"dH 	c #677576",
"eH 	c #515B5C",
"fH 	c #575C5C",
"gH 	c #613636",
"hH 	c #822C2D",
"iH 	c #8B2E2E",
"jH 	c #7E2F2F",
"kH 	c #5A4343",
"lH 	c #586263",
"mH 	c #6B7979",
"nH 	c #564F4D",
"oH 	c #514A49",
"pH 	c #383231",
"qH 	c #514B4B",
"rH 	c #5E5756",
"sH 	c #645C5C",
"tH 	c #655D5D",
"uH 	c #625A5A",
"vH 	c #585051",
"wH 	c #4B6063",
"xH 	c #ABD6D5",
"yH 	c #435657",
"zH 	c #303E3E",
"AH 	c #3E4F50",
"BH 	c #617C7C",
"CH 	c #9CC2C2",
"DH 	c #ACD5D6",
"EH 	c #495F60",
"FH 	c #546465",
"GH 	c #545B5C",
"HH 	c #554C4D",
"IH 	c #5C4343",
"JH 	c #5C4242",
"KH 	c #56595A",
"LH 	c #7A8A8A",
"MH 	c #4E5758",
"NH 	c #555A5C",
"OH 	c #594A4A",
"PH 	c #5E4141",
"QH 	c #5E4243",
"RH 	c #5A4F4F",
"SH 	c #5E6768",
"TH 	c #728181",
"UH 	c #3B3534",
"VH 	c #615C5B",
"WH 	c #65605E",
"XH 	c #6F6A67",
"YH 	c #7C7572",
"ZH 	c #89817D",
"`H 	c #8B837F",
" I 	c #94BAB9",
".I 	c #51676A",
"+I 	c #445658",
"@I 	c #3B4B4C",
"#I 	c #627C7C",
"$I 	c #5D696A",
"%I 	c #728180",
"&I 	c #5A6466",
"*I 	c #5C6767",
"=I 	c #697777",
"-I 	c #585150",
";I 	c #4E4846",
">I 	c #46413F",
",I 	c #3F3A3B",
"'I 	c #625E5C",
")I 	c #676360",
"!I 	c #78726F",
"~I 	c #2D3D3F",
"{I 	c #425657",
"]I 	c #A4CCCD",
"^I 	c #5C7678",
"/I 	c #627C7D",
"(I 	c #9CC2C3",
"_I 	c #5A6566",
":I 	c #647172",
"<I 	c #5F6B6C",
"[I 	c #6E6867",
"}I 	c #6A6463",
"|I 	c #625E5E",
"1I 	c #645F60",
"2I 	c #5F5B5B",
"3I 	c #5D5959",
"4I 	c #615D5E",
"5I 	c #605C5D",
"6I 	c #4A4545",
"7I 	c #302A2C",
"8I 	c #2E282A",
"9I 	c #373131",
"0I 	c #3F3939",
"aI 	c #445758",
"bI 	c #556566",
"cI 	c #544C49",
"dI 	c #5E5857",
"eI 	c #474140",
"fI 	c #3F3938",
"gI 	c #383232",
"hI 	c #342E2F",
"iI 	c #474240",
"jI 	c #787475",
"kI 	c #797677",
"lI 	c #737071",
"mI 	c #666263",
"nI 	c #5B5657",
"oI 	c #595556",
"pI 	c #352F2F",
"qI 	c #3C3635",
"rI 	c #918277",
"sI 	c #84766D",
"tI 	c #82756C",
"uI 	c #574E4B",
"vI 	c #3E3837",
"wI 	c #453E3C",
"xI 	c #4B4341",
"yI 	c #685F5D",
"zI 	c #867B78",
"AI 	c #9B8F8C",
"BI 	c #A09491",
"CI 	c #887E7C",
"DI 	c #554E4E",
"EI 	c #95B9B9",
"FI 	c #5D7779",
"GI 	c #455759",
"HI 	c #2D3E42",
"II 	c #9CC2C4",
"JI 	c #525D5F",
"KI 	c #525F60",
"LI 	c #443F3D",
"MI 	c #413A39",
"NI 	c #4D4849",
"OI 	c #565253",
"PI 	c #332D2F",
"QI 	c #706764",
"RI 	c #7D7370",
"SI 	c #9E928F",
"TI 	c #998D8B",
"UI 	c #605B5A",
"VI 	c #3C4C4D",
"WI 	c #9DC3C4",
"XI 	c #566566",
"YI 	c #627070",
"ZI 	c #5B6768",
"`I 	c #282528",
" J 	c #777475",
".J 	c #625E5F",
"+J 	c #373234",
"@J 	c #6C6360",
"#J 	c #6B625C",
"$J 	c #8D7E74",
"%J 	c #69605D",
"&J 	c #9A8E8B",
"*J 	c #6D6464",
"=J 	c #3C3537",
"-J 	c #857D7A",
";J 	c #B0DDDD",
">J 	c #455859",
",J 	c #616A6B",
"'J 	c #656D6E",
")J 	c #697575",
"!J 	c #6D7B7B",
"~J 	c #626C6D",
"{J 	c #667070",
"]J 	c #687677",
"^J 	c #312B2C",
"/J 	c #776E6A",
"(J 	c #877A71",
"_J 	c #8C7E74",
":J 	c #47403E",
"<J 	c #7D7371",
"[J 	c #3F3839",
"}J 	c #817A76",
"|J 	c #A5CFD0",
"1J 	c #5E797B",
"2J 	c #2E3C3C",
"3J 	c #293737",
"4J 	c #566666",
"5J 	c #5B686A",
"6J 	c #565D5E",
"7J 	c #5A4D4D",
"8J 	c #654141",
"9J 	c #653C3D",
"0J 	c #614445",
"aJ 	c #595656",
"bJ 	c #788989",
"cJ 	c #566162",
"dJ 	c #595F61",
"eJ 	c #5E5050",
"fJ 	c #634546",
"gJ 	c #644444",
"hJ 	c #5F4D4D",
"iJ 	c #5D6364",
"jJ 	c #748283",
"kJ 	c #65554E",
"lJ 	c #6D5A53",
"mJ 	c #423736",
"nJ 	c #312A2C",
"oJ 	c #30292B",
"pJ 	c #3D3231",
"qJ 	c #433734",
"rJ 	c #413634",
"sJ 	c #6B625F",
"tJ 	c #6A635E",
"uJ 	c #6B645F",
"vJ 	c #6D6660",
"wJ 	c #85796F",
"xJ 	c #8C7E73",
"yJ 	c #4D4542",
"zJ 	c #635A58",
"AJ 	c #A19692",
"BJ 	c #796F6E",
"CJ 	c #5B5655",
"DJ 	c #6A6563",
"EJ 	c #76706D",
"FJ 	c #ADD6D8",
"GJ 	c #82A4A6",
"HJ 	c #5F7A7B",
"IJ 	c #536B6C",
"JJ 	c #3F5253",
"KJ 	c #566667",
"LJ 	c #565F60",
"MJ 	c #594242",
"NJ 	c #762E2F",
"OJ 	c #8C2E2F",
"PJ 	c #9A3435",
"QJ 	c #953334",
"RJ 	c #713132",
"SJ 	c #575253",
"TJ 	c #505A5B",
"UJ 	c #5A5F61",
"VJ 	c #603C3C",
"WJ 	c #7D2B2B",
"XJ 	c #953233",
"YJ 	c #8A3030",
"ZJ 	c #643F40",
"`J 	c #585D5F",
" K 	c #758484",
".K 	c #725E56",
"+K 	c #876F64",
"@K 	c #5F4C47",
"#K 	c #5C4A45",
"$K 	c #594843",
"%K 	c #52433F",
"&K 	c #483B39",
"*K 	c #403535",
"=K 	c #3A3131",
"-K 	c #342C2D",
";K 	c #423634",
">K 	c #463936",
",K 	c #4F403B",
"'K 	c #52423D",
")K 	c #55443F",
"!K 	c #5D4943",
"~K 	c #51413D",
"{K 	c #403534",
"]K 	c #2F292B",
"^K 	c #6C6560",
"/K 	c #766D66",
"(K 	c #82766E",
"_K 	c #8F8075",
":K 	c #8D8178",
"<K 	c #AFA49C",
"[K 	c #ADA29A",
"}K 	c #A0968E",
"|K 	c #827873",
"1K 	c #A99E96",
"2K 	c #4A4344",
"3K 	c #4D4748",
"4K 	c #6C6765",
"5K 	c #6D6866",
"6K 	c #5A5354",
"7K 	c #723334",
"8K 	c #8E3334",
"9K 	c #AE3A3A",
"0K 	c #D14D4D",
"aK 	c #CE4C4C",
"bK 	c #9B3536",
"cK 	c #6B3233",
"dK 	c #5A5C5D",
"eK 	c #5E4B4B",
"fK 	c #812D2E",
"gK 	c #9A3233",
"hK 	c #CA4949",
"iK 	c #BE4545",
"jK 	c #8B3232",
"kK 	c #5D4646",
"lK 	c #6D7979",
"mK 	c #6C5850",
"nK 	c #634F48",
"oK 	c #765C52",
"pK 	c #6B544C",
"qK 	c #564540",
"rK 	c #3C3232",
"sK 	c #393233",
"tK 	c #706864",
"uK 	c #8C7F76",
"vK 	c #423B3D",
"wK 	c #756F6C",
"xK 	c #A6D0D1",
"yK 	c #83A5A7",
"zK 	c #344444",
"AK 	c #232F32",
"BK 	c #576262",
"CK 	c #614545",
"DK 	c #863435",
"EK 	c #A43A3A",
"FK 	c #CA4444",
"GK 	c #E75757",
"HK 	c #E65757",
"IK 	c #B43E3E",
"JK 	c #8A2E2E",
"KK 	c #5D4848",
"LK 	c #738282",
"MK 	c #5C6162",
"NK 	c #6A3637",
"OK 	c #973131",
"PK 	c #B53B3B",
"QK 	c #D44A4B",
"RK 	c #E45656",
"SK 	c #A63939",
"TK 	c #732D2E",
"UK 	c #5F5E5E",
"VK 	c #6F8080",
"WK 	c #7A635A",
"XK 	c #5E4B46",
"YK 	c #745B51",
"ZK 	c #795F55",
"`K 	c #7E655B",
" L 	c #725950",
".L 	c #5A4842",
"+L 	c #372F2F",
"@L 	c #7C746E",
"#L 	c #7E766F",
"$L 	c #857C75",
"%L 	c #8D837C",
"&L 	c #958A82",
"*L 	c #988C84",
"=L 	c #ACA199",
"-L 	c #7F7875",
";L 	c #A7D1D2",
">L 	c #3D4D4F",
",L 	c #647E7F",
"'L 	c #576767",
")L 	c #5B6162",
"!L 	c #664040",
"~L 	c #8D3738",
"{L 	c #AD3C3C",
"]L 	c #CD4242",
"^L 	c #DE4F4F",
"/L 	c #DC4F4F",
"(L 	c #902E2F",
"_L 	c #614142",
":L 	c #72807F",
"<L 	c #6B7B7B",
"[L 	c #723031",
"}L 	c #A33535",
"|L 	c #C13D3D",
"1L 	c #D44747",
"2L 	c #E45454",
"3L 	c #AA3839",
"4L 	c #832B2C",
"5L 	c #5E4F50",
"6L 	c #604E48",
"7L 	c #6F574F",
"8L 	c #7B6258",
"9L 	c #846B61",
"0L 	c #8A7266",
"aL 	c #8E7669",
"bL 	c #7D6258",
"cL 	c #7B6156",
"dL 	c #6C554D",
"eL 	c #3B3535",
"fL 	c #6F6A68",
"gL 	c #A49F9C",
"hL 	c #7E7876",
"iL 	c #84A6A8",
"jL 	c #576768",
"kL 	c #663F40",
"lL 	c #CA3F3F",
"mL 	c #CD4141",
"nL 	c #C94040",
"oL 	c #AE3737",
"pL 	c #614041",
"qL 	c #738080",
"rL 	c #5C5B5C",
"sL 	c #743030",
"tL 	c #A53535",
"uL 	c #CE4242",
"vL 	c #C7403F",
"wL 	c #A73536",
"xL 	c #5E4E4E",
"yL 	c #80685E",
"zL 	c #715A53",
"AL 	c #6F5952",
"BL 	c #735E55",
"CL 	c #80695E",
"DL 	c #AA9384",
"EL 	c #AD9686",
"FL 	c #9B8073",
"GL 	c #917569",
"HL 	c #907468",
"IL 	c #7F6459",
"JL 	c #655C59",
"KL 	c #6A615E",
"LL 	c #565150",
"ML 	c #7C7875",
"NL 	c #A5A09D",
"OL 	c #9E9996",
"PL 	c #556D6E",
"QL 	c #465A5B",
"RL 	c #2C3B40",
"SL 	c #415354",
"TL 	c #99BFC1",
"UL 	c #576162",
"VL 	c #873536",
"WL 	c #A4393A",
"XL 	c #C73E3E",
"YL 	c #BC3B3B",
"ZL 	c #A33435",
"`L 	c #882D2D",
" M 	c #5D4748",
".M 	c #5C6061",
"+M 	c #6D3333",
"@M 	c #9D3233",
"#M 	c #B83A3B",
"$M 	c #C93E3E",
"%M 	c #9E3334",
"&M 	c #7B2C2D",
"*M 	c #5D5656",
"=M 	c #708181",
"-M 	c #6E7C7D",
";M 	c #64534E",
">M 	c #826B61",
",M 	c #846C62",
"'M 	c #786158",
")M 	c #725B54",
"!M 	c #735C55",
"~M 	c #7A625A",
"{M 	c #836B61",
"]M 	c #A89182",
"^M 	c #AF9888",
"/M 	c #987F72",
"(M 	c #8E7368",
"_M 	c #8F7367",
":M 	c #81665B",
"<M 	c #5D4C47",
"[M 	c #665D5A",
"}M 	c #766D6A",
"|M 	c #6D6661",
"1M 	c #6F6762",
"2M 	c #706863",
"3M 	c #978B85",
"4M 	c #4C4747",
"5M 	c #787371",
"6M 	c #75706E",
"7M 	c #763334",
"8M 	c #913435",
"9M 	c #AC3737",
"0M 	c #B03838",
"aM 	c #A63535",
"bM 	c #912F30",
"cM 	c #6E3131",
"dM 	c #575757",
"eM 	c #6C7C7C",
"fM 	c #596364",
"gM 	c #A43535",
"hM 	c #B23838",
"iM 	c #B43939",
"jM 	c #A83636",
"kM 	c #8F2F2F",
"lM 	c #643738",
"mM 	c #646D6D",
"nM 	c #6D7E7E",
"oM 	c #657474",
"pM 	c #504442",
"qM 	c #5F4F4C",
"rM 	c #665550",
"sM 	c #7A655C",
"tM 	c #8F776B",
"uM 	c #AC9586",
"vM 	c #927F74",
"wM 	c #786862",
"xM 	c #796862",
"yM 	c #342D2E",
"zM 	c #8C837F",
"AM 	c #6E6762",
"BM 	c #948982",
"CM 	c #4A4445",
"DM 	c #6E6A68",
"EM 	c #4F6568",
"FM 	c #B4E0E1",
"GM 	c #637D80",
"HM 	c #9DC5C6",
"IM 	c #576565",
"JM 	c #594243",
"KM 	c #723132",
"LM 	c #912E2F",
"MM 	c #872E2E",
"NM 	c #6C3334",
"OM 	c #564F50",
"PM 	c #6E7C7C",
"QM 	c #59595A",
"RM 	c #693636",
"SM 	c #932F30",
"TM 	c #952F30",
"UM 	c #8A2E2F",
"VM 	c #6B3637",
"WM 	c #584947",
"XM 	c #594A48",
"YM 	c #5A4B49",
"ZM 	c #695752",
"`M 	c #6A5852",
" N 	c #685751",
".N 	c #6B5A54",
"+N 	c #655651",
"@N 	c #62544F",
"#N 	c #5C4F4C",
"$N 	c #71625C",
"%N 	c #7D6A63",
"&N 	c #896D62",
"*N 	c #7B645B",
"=N 	c #5C5351",
"-N 	c #6D6561",
";N 	c #726A65",
">N 	c #716964",
",N 	c #7D726E",
"'N 	c #97928F",
")N 	c #A8D2D4",
"!N 	c #475A5C",
"~N 	c #425355",
"{N 	c #9AC0C2",
"]N 	c #555E5F",
"^N 	c #554F4F",
"/N 	c #5B3F40",
"(N 	c #5D3B3C",
"_N 	c #594545",
":N 	c #575859",
"<N 	c #4D5757",
"[N 	c #576263",
"}N 	c #57595A",
"|N 	c #5F3434",
"1N 	c #603233",
"2N 	c #5A3F3F",
"3N 	c #728182",
"4N 	c #483D3C",
"5N 	c #554745",
"6N 	c #574947",
"7N 	c #5B4E4B",
"8N 	c #877066",
"9N 	c #554643",
"0N 	c #948B87",
"aN 	c #766D69",
"bN 	c #726B65",
"cN 	c #77706A",
"dN 	c #807771",
"eN 	c #9F948D",
"fN 	c #A0958E",
"gN 	c #7F746F",
"hN 	c #40393B",
"iN 	c #696563",
"jN 	c #878280",
"kN 	c #837E7C",
"lN 	c #475B5C",
"mN 	c #3E4E50",
"nN 	c #667676",
"oN 	c #5E6C6E",
"pN 	c #586162",
"qN 	c #6C7C7B",
"rN 	c #594B49",
"sN 	c #8B7065",
"tN 	c #8E8581",
"uN 	c #756C68",
"vN 	c #746C67",
"wN 	c #7F7771",
"xN 	c #A39991",
"yN 	c #918680",
"zN 	c #514949",
"AN 	c #797472",
"BN 	c #7B7674",
"CN 	c #637F81",
"DN 	c #5A6666",
"EN 	c #606E6E",
"FN 	c #574A47",
"GN 	c #7B6A63",
"HN 	c #63514C",
"IN 	c #8F857E",
"JN 	c #847974",
"KN 	c #3D3638",
"LN 	c #746F6D",
"MN 	c #87AAAB",
"NN 	c #648081",
"ON 	c #576868",
"PN 	c #5F6F6F",
"QN 	c #545E5F",
"RN 	c #564946",
"SN 	c #9B9189",
"TN 	c #668181",
"UN 	c #9AC2C3",
"VN 	c #596465",
"WN 	c #5C6869",
"XN 	c #637070",
"YN 	c #677575",
"ZN 	c #5E6B6C",
"`N 	c #6F605B",
" O 	c #73635E",
".O 	c #746B66",
"+O 	c #857C76",
"@O 	c #958A85",
"#O 	c #867B76",
"$O 	c #7D726D",
"%O 	c #64605E",
"&O 	c #706B69",
"*O 	c #AAD5D6",
"=O 	c #88AAAC",
"-O 	c #485C5D",
";O 	c #668182",
">O 	c #9FC6C6",
",O 	c #B0DBDB",
"'O 	c #666E6F",
")O 	c #6A7273",
"!O 	c #6B7878",
"~O 	c #6A7978",
"{O 	c #6C7B7A",
"]O 	c #6A7878",
"^O 	c #655854",
"/O 	c #5E514F",
"(O 	c #877E7A",
"_O 	c #7A736D",
":O 	c #9A8F8A",
"<O 	c #9B908B",
"[O 	c #8E847F",
"}O 	c #6B6765",
"|O 	c #6E6967",
"1O 	c #6B6664",
"2O 	c #506869",
"3O 	c #AAD6D7",
"4O 	c #88AAAD",
"5O 	c #658083",
"6O 	c #3F4F50",
"7O 	c #B1DEDF",
"8O 	c #54595A",
"9O 	c #5E4A4B",
"0O 	c #653E3F",
"aO 	c #633F40",
"bO 	c #5F4C4C",
"cO 	c #595E5E",
"dO 	c #717F80",
"eO 	c #4F5959",
"fO 	c #5B5656",
"gO 	c #5D5253",
"hO 	c #5C5555",
"iO 	c #635653",
"jO 	c #756660",
"kO 	c #5C4F4D",
"lO 	c #79706B",
"mO 	c #7A726C",
"nO 	c #938883",
"oO 	c #51494A",
"pO 	c #B6E3E3",
"qO 	c #89ABAD",
"rO 	c #668083",
"sO 	c #5C6B6B",
"tO 	c #535858",
"uO 	c #5C3738",
"vO 	c #812C2C",
"wO 	c #903031",
"xO 	c #963334",
"yO 	c #892F30",
"zO 	c #585C5D",
"AO 	c #5E6B6D",
"BO 	c #595D5E",
"CO 	c #5F3B3B",
"DO 	c #792D2D",
"EO 	c #842F30",
"FO 	c #663838",
"GO 	c #595A5C",
"HO 	c #7B8A8B",
"IO 	c #6E605B",
"JO 	c #534646",
"KO 	c #938A86",
"LO 	c #766F69",
"MO 	c #79726C",
"NO 	c #736E6C",
"OO 	c #1F2B2B",
"PO 	c #B7E4E5",
"QO 	c #58686A",
"RO 	c #555D5D",
"SO 	c #5A4243",
"TO 	c #7D2F30",
"UO 	c #9C3434",
"VO 	c #BD4242",
"WO 	c #D34E4E",
"XO 	c #BD4444",
"YO 	c #8E3131",
"ZO 	c #624242",
"`O 	c #717C7D",
" P 	c #862E2E",
".P 	c #9B3334",
"+P 	c #B13D3E",
"@P 	c #B84142",
"#P 	c #9A3636",
"$P 	c #693B3D",
"%P 	c #5E514E",
"&P 	c #665955",
"*P 	c #8A817C",
"=P 	c #5B5351",
"-P 	c #2F3E3E",
";P 	c #202B2C",
">P 	c #556363",
",P 	c #505C5C",
"'P 	c #595B5C",
")P 	c #663636",
"!P 	c #8C3434",
"~P 	c #B33B3B",
"{P 	c #DA4F4F",
"]P 	c #A33737",
"^P 	c #703031",
"/P 	c #6B6E6F",
"(P 	c #752F30",
"_P 	c #B83C3D",
":P 	c #E15353",
"<P 	c #C44647",
"[P 	c #8B3334",
"}P 	c #574C4D",
"|P 	c #718282",
"1P 	c #4E4242",
"2P 	c #484140",
"3P 	c #837A75",
"4P 	c #746D67",
"5P 	c #364646",
"6P 	c #58696A",
"7P 	c #556263",
"8P 	c #4F5C5C",
"9P 	c #5A5858",
"0P 	c #713435",
"aP 	c #973737",
"bP 	c #BF3E3E",
"cP 	c #D84A4A",
"dP 	c #E25353",
"eP 	c #D54C4C",
"fP 	c #A83738",
"gP 	c #7F2D2D",
"hP 	c #656061",
"iP 	c #4F5C5D",
"jP 	c #5B4949",
"kP 	c #882E2F",
"lP 	c #AC3637",
"mP 	c #C84141",
"nP 	c #E35353",
"oP 	c #CA4747",
"pP 	c #9A3333",
"qP 	c #5C3D3D",
"rP 	c #5D5957",
"sP 	c #7A7573",
"tP 	c #51696B",
"uP 	c #678285",
"vP 	c #B3DFE1",
"wP 	c #516668",
"xP 	c #5F6E6E",
"yP 	c #723435",
"zP 	c #993737",
"AP 	c #CC4040",
"BP 	c #C43E3E",
"CP 	c #A63536",
"DP 	c #822D2E",
"EP 	c #778888",
"FP 	c #4D5B5C",
"GP 	c #D04343",
"HP 	c #D24646",
"IP 	c #BF3D3D",
"JP 	c #603838",
"KP 	c #564846",
"LP 	c #6C5E5A",
"MP 	c #918884",
"NP 	c #585453",
"OP 	c #7C7775",
"PP 	c #B8E5E6",
"QP 	c #3F5051",
"RP 	c #A0C8C8",
"SP 	c #B3E1E0",
"TP 	c #9CC4C5",
"UP 	c #5A5B5C",
"VP 	c #693536",
"WP 	c #913535",
"XP 	c #B73A3A",
"YP 	c #772F30",
"ZP 	c #686969",
"`P 	c #4D5C5C",
" Q 	c #594747",
".Q 	c #CB403F",
"+Q 	c #C93F3F",
"@Q 	c #B53A39",
"#Q 	c #953031",
"$Q 	c #5B3B3C",
"%Q 	c #645754",
"&Q 	c #70615C",
"*Q 	c #322B2D",
"=Q 	c #867D78",
"-Q 	c #7D756F",
";Q 	c #97BCBE",
">Q 	c #ADD9DA",
",Q 	c #435758",
"'Q 	c #688384",
")Q 	c #5D3E3F",
"!Q 	c #833132",
"~Q 	c #A13434",
"{Q 	c #B13838",
"]Q 	c #8E2F2F",
"^Q 	c #673C3C",
"/Q 	c #505D5E",
"(Q 	c #585556",
"_Q 	c #742F30",
":Q 	c #BA3A3A",
"<Q 	c #813030",
"[Q 	c #554A4A",
"}Q 	c #718281",
"|Q 	c #615451",
"1Q 	c #6D5E5A",
"2Q 	c #362F30",
"3Q 	c #8AAFB0",
"4Q 	c #678486",
"5Q 	c #202D2E",
"6Q 	c #BAE8E8",
"7Q 	c #9DC4C6",
"8Q 	c #6F8B8E",
"9Q 	c #545455",
"0Q 	c #613939",
"aQ 	c #802E2F",
"bQ 	c #922E2F",
"cQ 	c #812E2E",
"dQ 	c #683939",
"eQ 	c #5B4343",
"fQ 	c #942F30",
"gQ 	c #9B3132",
"hQ 	c #983031",
"iQ 	c #872F2F",
"jQ 	c #613D3D",
"kQ 	c #5A6262",
"lQ 	c #625552",
"mQ 	c #776761",
"nQ 	c #8B827E",
"oQ 	c #786F6A",
"pQ 	c #716A64",
"qQ 	c #78716B",
"rQ 	c #7E7570",
"sQ 	c #BBE9E9",
"tQ 	c #AEDBDB",
"uQ 	c #495E5F",
"vQ 	c #3F5052",
"wQ 	c #688383",
"xQ 	c #52676A",
"yQ 	c #535859",
"zQ 	c #594849",
"AQ 	c #5F3A3A",
"BQ 	c #603B3C",
"CQ 	c #5B4C4C",
"DQ 	c #555A5B",
"EQ 	c #565E5F",
"FQ 	c #554040",
"GQ 	c #643131",
"HQ 	c #6B2E2F",
"IQ 	c #683030",
"JQ 	c #5A3D3D",
"KQ 	c #565B5C",
"LQ 	c #665855",
"MQ 	c #6B5D58",
"NQ 	c #867D79",
"OQ 	c #756E68",
"PQ 	c #716C6A",
"QQ 	c #52696C",
"RQ 	c #BBEAEA",
"SQ 	c #8BAFB1",
"TQ 	c #687979",
"UQ 	c #4F5556",
"VQ 	c #504F50",
"WQ 	c #515454",
"XQ 	c #788888",
"YQ 	c #736C66",
"ZQ 	c #8BB0B1",
"`Q 	c #688587",
" R 	c #607070",
".R 	c #584A48",
"+R 	c #7C736E",
"@R 	c #797573",
"#R 	c #BAE8E9",
"$R 	c #BBEBEC",
"%R 	c #AFDCDC",
"&R 	c #8CB0B2",
"*R 	c #5A7475",
"=R 	c #9EC5C7",
"-R 	c #52686B",
";R 	c #596A6B",
">R 	c #5E6A6B",
",R 	c #647171",
"'R 	c #667374",
")R 	c #616C6D",
"!R 	c #877D77",
"~R 	c #443C3E",
"{R 	c #777371",
"]R 	c #B3E1E2",
"^R 	c #AFDDDD",
"/R 	c #8CB1B2",
"(R 	c #698588",
"_R 	c #5A7476",
":R 	c #A0C9C9",
"<R 	c #586A6A",
"[R 	c #586363",
"}R 	c #605351",
"|R 	c #4D4544",
"1R 	c #A99A91",
"2R 	c #625654",
"3R 	c #546567",
"4R 	c #4A5656",
"5R 	c #434C4D",
"6R 	c #404849",
"7R 	c #3F4849",
"8R 	c #3F4748",
"9R 	c #3E4748",
"0R 	c #454E4E",
"aR 	c #3D4546",
"bR 	c #463E3E",
"cR 	c #716A66",
"dR 	c #756E69",
"eR 	c #827973",
"fR 	c #BBA9A0",
"gR 	c #BBEAEB",
"hR 	c #8DB1B3",
"iR 	c #405152",
"jR 	c #A1C9C9",
"kR 	c #9EC6C8",
"lR 	c #53696C",
"mR 	c #4C5D5F",
"nR 	c #445151",
"oR 	c #3B4646",
"pR 	c #323A3B",
"qR 	c #2D3334",
"rR 	c #262C2D",
"sR 	c #262C2C",
"tR 	c #252B2C",
"uR 	c #252B2B",
"vR 	c #24292A",
"wR 	c #5C4E4C",
"xR 	c #423B3B",
"yR 	c #48403F",
"zR 	c #716A65",
"AR 	c #817872",
"BR 	c #847C75",
"CR 	c #877F78",
"DR 	c #888079",
"ER 	c #796661",
"FR 	c #BDEDEE",
"GR 	c #8DB2B3",
"HR 	c #6A8789",
"IR 	c #495B5C",
"JR 	c #3E4B4C",
"KR 	c #303A3A",
"LR 	c #2C3334",
"MR 	c #554845",
"NR 	c #594C4A",
"OR 	c #403839",
"PR 	c #7A6661",
"QR 	c #BEEEEE",
"RR 	c #8DB2B4",
"SR 	c #495B5D",
"TR 	c #3E4C4D",
"UR 	c #181D1D",
"VR 	c #182124",
"WR 	c #5A4B48",
"XR 	c #504240",
"YR 	c #473B39",
"ZR 	c #4D413F",
"`R 	c #504846",
" S 	c #726B67",
".S 	c #837B74",
"+S 	c #8D847D",
"@S 	c #443B3C",
"#S 	c #7F7A78",
"$S 	c #6A878A",
"%S 	c #BCEBEB",
"&S 	c #BEEEEF",
"*S 	c #495C5E",
"=S 	c #181D1E",
"-S 	c #5C4D4A",
";S 	c #483C3A",
">S 	c #524643",
",S 	c #5A514F",
"'S 	c #8F867F",
")S 	c #4C4142",
"!S 	c #BCECED",
"~S 	c #BFEFF0",
"{S 	c #4B5F61",
"]S 	c #3E4D4E",
"^S 	c #182021",
"/S 	c #544845",
"(S 	c #5E4E4B",
"_S 	c #493D3B",
":S 	c #4C3F3D",
"<S 	c #544745",
"[S 	c #827C7A",
"}S 	c #888380",
"|S 	c #736D6B",
"1S 	c #BCEDED",
"2S 	c #B2E0E0",
"3S 	c #8EB4B5",
"4S 	c #4B6061",
"5S 	c #9FC8C9",
"6S 	c #3E4E4F",
"7S 	c #364040",
"8S 	c #2C3536",
"9S 	c #212B2C",
"0S 	c #1D282C",
"aS 	c #1C2325",
"bS 	c #191E20",
"cS 	c #5A4C49",
"dS 	c #675652",
"eS 	c #524543",
"fS 	c #5A534F",
"gS 	c #504A47",
"hS 	c #5A5351",
"iS 	c #5E5755",
"jS 	c #9E928A",
"kS 	c #676361",
"lS 	c #938C89",
"mS 	c #99918E",
"nS 	c #76716F",
"oS 	c #485B5E",
"pS 	c #B2E0E1",
"qS 	c #364140",
"rS 	c #303A3B",
"sS 	c #192122",
"tS 	c #6B5955",
"uS 	c #6A5854",
"vS 	c #60504D",
"wS 	c #5B4C49",
"xS 	c #534543",
"yS 	c #5A4D4B",
"zS 	c #423A3B",
"AS 	c #524C49",
"BS 	c #4F4946",
"CS 	c #453E3D",
"DS 	c #554E4C",
"ES 	c #9F928A",
"FS 	c #67615E",
"GS 	c #252E2E",
"HS 	c #252D2D",
"IS 	c #28393F",
"JS 	c #46585A",
"KS 	c #BFF0F1",
"LS 	c #364141",
"MS 	c #303B3C",
"NS 	c #61504D",
"OS 	c #5D4D4B",
"PS 	c #564845",
"QS 	c #4A3E3C",
"RS 	c #4C403D",
"SS 	c #857D76",
"TS 	c #AE9F96",
"US 	c #8EB4B6",
"VS 	c #1E2829",
"WS 	c #1E2828",
"XS 	c #1E2728",
"YS 	c #1C2828",
"ZS 	c #1D2727",
"`S 	c #1D2828",
" T 	c #3D4D4E",
".T 	c #46595A",
"+T 	c #364243",
"@T 	c #303C3E",
"#T 	c #70635F",
"$T 	c #63524F",
"%T 	c #5E4E4C",
"&T 	c #564745",
"*T 	c #514442",
"=T 	c #514341",
"-T 	c #4B4343",
";T 	c #58524E",
">T 	c #736F6D",
",T 	c #C1F3F3",
"'T 	c #8FB5B6",
")T 	c #202A2B",
"!T 	c #192525",
"~T 	c #192425",
"{T 	c #172628",
"]T 	c #15201F",
"^T 	c #152120",
"/T 	c #364445",
"(T 	c #303E41",
"_T 	c #958783",
":T 	c #8B7975",
"<T 	c #594B48",
"[T 	c #574846",
"}T 	c #645553",
"|T 	c #564D4B",
"1T 	c #807976",
"2T 	c #655E5C",
"3T 	c #40383A",
"4T 	c #7C7774",
"5T 	c #131E1D",
"6T 	c #172528",
"7T 	c #364548",
"8T 	c #B1A09B",
"9T 	c #9F8E89",
"0T 	c #6F5D59",
"aT 	c #685753",
"bT 	c #645350",
"cT 	c #6A5954",
"dT 	c #76635D",
"eT 	c #5D5452",
"fT 	c #766D68",
"gT 	c #817A77",
"hT 	c #7A7370",
"iT 	c #6B6461",
"jT 	c #89817A",
"kT 	c #736E6D",
"lT 	c #8FB5B7",
"mT 	c #746562",
"nT 	c #AD9C97",
"oT 	c #AF9E99",
"pT 	c #867570",
"qT 	c #665551",
"rT 	c #685652",
"sT 	c #695854",
"tT 	c #715E59",
"uT 	c #7B6860",
"vT 	c #726D6C",
"wT 	c #7C7674",
"xT 	c #C2F5F5",
"yT 	c #B4E3E3",
"zT 	c #384748",
"AT 	c #29353A",
"BT 	c #142020",
"CT 	c #2A3438",
"DT 	c #C1F4F4",
"ET 	c #5E4F4E",
"FT 	c #705D5B",
"GT 	c #8E7B78",
"HT 	c #A5948F",
"IT 	c #7D6B67",
"JT 	c #685955",
"KT 	c #6C6561",
"LT 	c #7D7673",
"MT 	c #463F3E",
"NT 	c #7E7670",
"OT 	c #978C84",
"PT 	c #786561",
"QT 	c #65615F",
"RT 	c #C3F5F5",
"ST 	c #293337",
"TT 	c #6E5C59",
"UT 	c #74615F",
"VT 	c #93817D",
"WT 	c #9B8A85",
"XT 	c #887771",
"YT 	c #786661",
"ZT 	c #7F6A63",
"`T 	c #AD9182",
" U 	c #BB9D8B",
".U 	c #AE9282",
"+U 	c #6D5D58",
"@U 	c #66605C",
"#U 	c #6E6864",
"$U 	c #7E7774",
"%U 	c #77706D",
"&U 	c #6A6360",
"*U 	c #666260",
"=U 	c #746F6C",
"-U 	c #162120",
";U 	c #14201F",
">U 	c #B9E8E9",
",U 	c #728F92",
"'U 	c #675552",
")U 	c #685653",
"!U 	c #6E5B59",
"~U 	c #897774",
"{U 	c #D2C4B7",
"]U 	c #CFC0B3",
"^U 	c #AE988C",
"/U 	c #A1887C",
"(U 	c #A0877B",
"_U 	c #B69988",
":U 	c #71605A",
"<U 	c #736A66",
"[U 	c #76706C",
"}U 	c #6E5F5B",
"|U 	c #6A6564",
"1U 	c #746F6E",
"2U 	c #938D8A",
"3U 	c #B5E4E4",
"4U 	c #90B6B7",
"5U 	c #243537",
"6U 	c #1C2A2B",
"7U 	c #182525",
"8U 	c #172526",
"9U 	c #18282A",
"0U 	c #A1CACA",
"aU 	c #695754",
"bU 	c #8F7D78",
"cU 	c #BCADA3",
"dU 	c #A99286",
"eU 	c #A58B7E",
"fU 	c #B99B89",
"gU 	c #8C756B",
"hU 	c #59504E",
"iU 	c #6B6561",
"jU 	c #6D6763",
"kU 	c #B5A49B",
"lU 	c #5E5352",
"mU 	c #85807E",
"nU 	c #ACA5A1",
"oU 	c #B1AAA5",
"pU 	c #C4F5F5",
"qU 	c #766361",
"rU 	c #907E78",
"sU 	c #A28A7E",
"tU 	c #A1887B",
"uU 	c #B89A89",
"vU 	c #A78879",
"wU 	c #534B49",
"xU 	c #59514F",
"yU 	c #68625E",
"zU 	c #6F6B69",
"AU 	c #8F8A86",
"BU 	c #546C6D",
"CU 	c #C1F2F3",
"DU 	c #B5E4E5",
"EU 	c #62514E",
"FU 	c #6D5A58",
"GU 	c #8A736C",
"HU 	c #A08072",
"IU 	c #79665F",
"JU 	c #6A6460",
"KU 	c #78706A",
"LU 	c #B4A29A",
"MU 	c #716C6B",
"NU 	c #8F8987",
"OU 	c #B5E5E5",
"PU 	c #90B7B7",
"QU 	c #293D41",
"RU 	c #2C4145",
"SU 	c #2E4146",
"TU 	c #B09281",
"UU 	c #494141",
"VU 	c #67615D",
"WU 	c #A2938C",
"XU 	c #5A5655",
"YU 	c #96908C",
"ZU 	c #5E4F4C",
"`U 	c #665451",
" V 	c #A88879",
".V 	c #4A4242",
"+V 	c #9A8D86",
"@V 	c #C5F8F8",
"#V 	c #6C8A8C",
"$V 	c #4C6062",
"%V 	c #415253",
"&V 	c #223438",
"*V 	c #C4F7F8",
"=V 	c #574946",
"-V 	c #A48476",
";V 	c #574F4C",
">V 	c #69635F",
",V 	c #2A3235",
"'V 	c #5D4E4B",
")V 	c #6F5C5A",
"!V 	c #836D67",
"~V 	c #A48576",
"{V 	c #6B5C57",
"]V 	c #676262",
"^V 	c #4C6061",
"/V 	c #584A47",
"(V 	c #AE8F7F",
"_V 	c #574C4A",
":V 	c #6F6A69",
"<V 	c #223338",
"[V 	c #26363B",
"}V 	c #272C2E",
"|V 	c #272F32",
"1V 	c #262E2E",
"2V 	c #262D2D",
"3V 	c #252B2D",
"4V 	c #263537",
"5V 	c #263638",
"6V 	c #C4F6F7",
"7V 	c #725F5A",
"8V 	c #3C3536",
"9V 	c #222A2D",
"0V 	c #222A2C",
"aV 	c #1D2625",
"bV 	c #1D2525",
"cV 	c #1C2425",
"dV 	c #1C2424",
"eV 	c #1B2727",
"fV 	c #1B2828",
"gV 	c #A3887A",
"hV 	c #AF9383",
"iV 	c #6D5E59",
"jV 	c #504645",
"kV 	c #152123",
"lV 	c #161E1F",
"mV 	c #172020",
"nV 	c #192121",
"oV 	c #192221",
"pV 	c #172120",
"qV 	c #151E1D",
"rV 	c #131C1D",
"sV 	c #121D1D",
"tV 	c #2B3539",
"uV 	c #7C6760",
"vV 	c #998075",
"wV 	c #7F6C65",
"xV 	c #483F3E",
"yV 	c #111A1A",
"zV 	c #121B1A",
"AV 	c #121C1B",
"BV 	c #121D1C",
"CV 	c #9B8276",
"DV 	c #89756E",
"EV 	c #756864",
"FV 	c #675A56",
"GV 	c #453C3C",
"HV 	c #544C4A",
"IV 	c #BEF0F0",
"JV 	c #9A8175",
"KV 	c #83716B",
"LV 	c #766965",
"MV 	c #787372",
"NV 	c #777271",
"OV 	c #8FB6B7",
"PV 	c #5D4D4A",
"QV 	c #61514E",
"RV 	c #77635D",
"SV 	c #A0867A",
"TV 	c #7B6C67",
"UV 	c #695C59",
"VV 	c #B4E3E4",
"WV 	c #262D30",
"XV 	c #2E4145",
"YV 	c #2D4145",
"ZV 	c #2E4247",
"`V 	c #594A47",
" W 	c #897269",
".W 	c #6F625E",
"+W 	c #847A74",
"@W 	c #797473",
"#W 	c #807A79",
"$W 	c #C2F5F4",
"%W 	c #252D30",
"&W 	c #31454A",
"*W 	c #32484C",
"=W 	c #32474C",
"-W 	c #33484C",
";W 	c #33484D",
">W 	c #2E4045",
",W 	c #7D6861",
"'W 	c #B99B8A",
")W 	c #7E6E69",
"!W 	c #736662",
"~W 	c #5A4E4C",
"{W 	c #4D4646",
"]W 	c #7E7877",
"^W 	c #7F7978",
"/W 	c #706B6A",
"(W 	c #1A292A",
"_W 	c #705E58",
":W 	c #A48A7C",
"<W 	c #86736C",
"[W 	c #7C7776",
"}W 	c #2E4147",
"|W 	c #374E55",
"1W 	c #3A545B",
"2W 	c #3A545A",
"3W 	c #3A5359",
"4W 	c #3A535A",
"5W 	c #33494E",
"6W 	c #253439",
"7W 	c #6C5A55",
"8W 	c #927C72",
"9W 	c #847B72",
"0W 	c #827970",
"aW 	c #AA9A92",
"bW 	c #76706F",
"cW 	c #797372",
"dW 	c #75706F",
"eW 	c #B3E2E2",
"fW 	c #8FB4B6",
"gW 	c #354B52",
"hW 	c #4A6A74",
"iW 	c #496972",
"jW 	c #496871",
"kW 	c #496771",
"lW 	c #496973",
"mW 	c #354C52",
"nW 	c #8C756C",
"oW 	c #7C6D68",
"pW 	c #514747",
"qW 	c #736A64",
"rW 	c #7B7675",
"sW 	c #6B898A",
"tW 	c #354B51",
"uW 	c #496872",
"vW 	c #486872",
"wW 	c #486771",
"xW 	c #76625C",
"yW 	c #957D73",
"zW 	c #776A65",
"AW 	c #584E4D",
"BW 	c #7D756C",
"CW 	c #7A7474",
"DW 	c #827C7B",
"EW 	c #8C8684",
"FW 	c #33484F",
"GW 	c #364E55",
"HW 	c #374F56",
"IW 	c #374F57",
"JW 	c #8F786E",
"KW 	c #8B776F",
"LW 	c #443C3D",
"MW 	c #80776E",
"NW 	c #AA9B93",
"OW 	c #87817F",
"PW 	c #8B8583",
"QW 	c #817B7A",
"RW 	c #263439",
"SW 	c #BEEFF0",
"TW 	c #61514D",
"UW 	c #72615A",
"VW 	c #89756D",
"WW 	c #7C736B",
"XW 	c #8A8482",
"YW 	c #86807F",
"ZW 	c #685953",
"`W 	c #977F74",
" X 	c #544D4A",
".X 	c #726962",
"+X 	c #6E6863",
"@X 	c #BCEDEC",
"#X 	c #6B878A",
"$X 	c #242C2F",
"%X 	c #1E292D",
"&X 	c #7A6A64",
"*X 	c #6D615D",
"=X 	c #4D4648",
"-X 	c #847E7C",
";X 	c #B1DFDF",
">X 	c #2D3E43",
",X 	c #716963",
"'X 	c #8D827D",
")X 	c #4A4243",
"!X 	c #888280",
"~X 	c #BDEFEF",
"{X 	c #534948",
"]X 	c #433C3C",
"^X 	c #7B726B",
"/X 	c #726C66",
"(X 	c #968B85",
"_X 	c #9B8F8A",
":X 	c #544C4C",
"<X 	c #5C5556",
"[X 	c #7F7A79",
"}X 	c #665752",
"|X 	c #6B5D57",
"1X 	c #80776F",
"2X 	c #635D5D",
"3X 	c #63544F",
"4X 	c #71635E",
"5X 	c #857F7D",
"6X 	c #BDECED",
"7X 	c #756F6F",
"8X 	c #898382",
"9X 	c #334042",
"0X 	c #708C8E",
"aX 	c #495C5F",
"bX 	c #5D5250",
"cX 	c #756F69",
"dX 	c #807872",
"eX 	c #767070",
"fX 	c #1C2727",
"gX 	c #2B363A",
"hX 	c #3C3335",
"iX 	c #584946",
"jX 	c #746764",
"kX 	c #2D2629",
"lX 	c #5E5A5B",
"mX 	c #888381",
"nX 	c #8CAFB1",
"oX 	c #698487",
"pX 	c #675852",
"qX 	c #6C5E59",
"rX 	c #6C605D",
"sX 	c #2E272A",
"tX 	c #4F4745",
"uX 	c #7A7574",
"vX 	c #545152",
"wX 	c #767170",
"xX 	c #60504C",
"yX 	c #675752",
"zX 	c #665751",
"AX 	c #746763",
"BX 	c #675B59",
"CX 	c #968B86",
"DX 	c #615858",
"EX 	c #595657",
"FX 	c #575455",
"GX 	c #6A6665",
"HX 	c #817C7B",
"IX 	c #675853",
"JX 	c #574C4B",
"KX 	c #7B716E",
"LX 	c #8AAEB0",
"MX 	c #2A3335",
"NX 	c #6B6260",
"OX 	c #3C3839",
"PX 	c #ADD8DA",
"QX 	c #8BADAF",
"RX 	c #27363C",
"SX 	c #263338",
"TX 	c #273638",
"UX 	c #9CC3C5",
"VX 	c #4F4645",
"WX 	c #3B3436",
"XX 	c #463F3F",
"YX 	c #645E5A",
"ZX 	c #635D5A",
"`X 	c #223133",
" Y 	c #5E5754",
".Y 	c #5D5754",
"+Y 	c #463D3C",
"@Y 	c #483F3C",
"#Y 	c #443E3D",
"$Y 	c #3D5153",
"%Y 	c #51696A",
"&Y 	c #6D8A8C",
"*Y 	c #695A54",
"=Y 	c #716561",
"-Y 	c #383132",
";Y 	c #373030",
">Y 	c #5F544E",
",Y 	c #60544E",
"'Y 	c #61554F",
")Y 	c #4C4442",
"!Y 	c #433C3B",
"~Y 	c #514845",
"{Y 	c #554E4B",
"]Y 	c #ABD7D8",
"^Y 	c #678182",
"/Y 	c #72645F",
"(Y 	c #3C3838",
"_Y 	c #3B3738",
":Y 	c #A89485",
"<Y 	c #A18E80",
"[Y 	c #988679",
"}Y 	c #7D6F66",
"|Y 	c #766961",
"1Y 	c #86776C",
"2Y 	c #B9AA9B",
"3Y 	c #645450",
"4Y 	c #615654",
"5Y 	c #362F2F",
"6Y 	c #A38F81",
"7Y 	c #A28E7F",
"8Y 	c #A08C7D",
"9Y 	c #A69283",
"0Y 	c #A5978A",
"aY 	c #AA9C8E",
"bY 	c #272427",
"cY 	c #31292C",
"dY 	c #403637",
"eY 	c #3C3333",
"fY 	c #362E30",
"gY 	c #3C3434",
"hY 	c #413837",
"iY 	c #534643",
"jY 	c #9E8B7C",
"kY 	c #897669",
"lY 	c #837063",
"mY 	c #816E61",
"nY 	c #806D5F",
"oY 	c #867264",
"pY 	c #887465",
"qY 	c #7F6D61",
"rY 	c #ABD5D7",
"sY 	c #88ABAD",
"tY 	c #1D2D2E",
"uY 	c #1E2E2F",
"vY 	c #1E2E30",
"wY 	c #B5E1E2",
"xY 	c #31292B",
"yY 	c #4E423F",
"zY 	c #4F433F",
"AY 	c #504340",
"BY 	c #4B3E3E",
"CY 	c #4A3E3D",
"DY 	c #4D403F",
"EY 	c #4E4141",
"FY 	c #4E4241",
"GY 	c #64544D",
"HY 	c #695850",
"IY 	c #705D55",
"JY 	c #64544F",
"KY 	c #4F4443",
"LY 	c #554844",
"MY 	c #504441",
"NY 	c #4B403E",
"OY 	c #473C3B",
"PY 	c #544743",
"QY 	c #6E5E55",
"RY 	c #67574F",
"SY 	c #6A5C56",
"TY 	c #453A38",
"UY 	c #6D5B52",
"VY 	c #746155",
"WY 	c #826D62",
"XY 	c #856F63",
"YY 	c #8B7467",
"ZY 	c #877065",
"`Y 	c #806A60",
" Z 	c #77675D",
".Z 	c #675850",
"+Z 	c #685952",
"@Z 	c #695B54",
"#Z 	c #695B55",
"$Z 	c #6A5D56",
"%Z 	c #364446",
"&Z 	c #332B2D",
"*Z 	c #463A38",
"=Z 	c #6B5951",
"-Z 	c #705D53",
";Z 	c #776357",
">Z 	c #7F695E",
",Z 	c #A38777",
"'Z 	c #9D8273",
")Z 	c #60514C",
"!Z 	c #A9D4D5",
"~Z 	c #1C2C2F",
"{Z 	c #212C2D",
"]Z 	c #2E2729",
"^Z 	c #322B2C",
"/Z 	c #383030",
"(Z 	c #584C48",
"_Z 	c #564A47",
":Z 	c #433A3A",
"<Z 	c #352D2F",
"[Z 	c #463B3B",
"}Z 	c #4D4140",
"|Z 	c #725F54",
"1Z 	c #756156",
"2Z 	c #715E54",
"3Z 	c #766257",
"4Z 	c #806A5F",
"5Z 	c #9D8373",
"6Z 	c #92796C",
"7Z 	c #826C61",
"8Z 	c #2D292A",
"9Z 	c #74655E",
"0Z 	c #645752",
"aZ 	c #5B504D",
"bZ 	c #403838",
"cZ 	c #413737",
"dZ 	c #554744",
"eZ 	c #7A665A",
"fZ 	c #7B665A",
"gZ 	c #90776A",
"hZ 	c #AA8F7E",
"iZ 	c #AF9683",
"jZ 	c #AB917F",
"kZ 	c #A48878",
"lZ 	c #9B8072",
"mZ 	c #7A665D",
"nZ 	c #61504B",
"oZ 	c #6F5B53",
"pZ 	c #755F56",
"qZ 	c #7A6359",
"rZ 	c #6C5951",
"sZ 	c #66554E",
"tZ 	c #5E4F49",
"uZ 	c #78655C",
"vZ 	c #A88D7D",
"wZ 	c #AE9281",
"xZ 	c #A58B7B",
"yZ 	c #66564F",
"zZ 	c #63534D",
"AZ 	c #4F6667",
"BZ 	c #25393B",
"CZ 	c #253A3C",
"DZ 	c #263A3C",
"EZ 	c #24373C",
"FZ 	c #99C0C2",
"GZ 	c #302B2C",
"HZ 	c #786962",
"IZ 	c #94837A",
"JZ 	c #695B57",
"KZ 	c #816D61",
"LZ 	c #877467",
"MZ 	c #8E786B",
"NZ 	c #8F796B",
"OZ 	c #8F796C",
"PZ 	c #967F71",
"QZ 	c #9F8878",
"RZ 	c #AC9582",
"SZ 	c #B19986",
"TZ 	c #B49C88",
"UZ 	c #B29A86",
"VZ 	c #A68B7A",
"WZ 	c #A28677",
"XZ 	c #947B6D",
"YZ 	c #62534F",
"ZZ 	c #816A5F",
"`Z 	c #826A5F",
" ` 	c #8E7569",
".` 	c #A68A7B",
"+` 	c #8D766A",
"@` 	c #66564E",
"#` 	c #A8D3D4",
"$` 	c #827269",
"%` 	c #938279",
"&` 	c #928178",
"*` 	c #514544",
"=` 	c #615450",
"-` 	c #9D8C7F",
";` 	c #B59D89",
">` 	c #B9A08B",
",` 	c #AE9380",
"'` 	c #AD917F",
")` 	c #AA8E7D",
"!` 	c #AC907E",
"~` 	c #A48979",
"{` 	c #A28878",
"]` 	c #988072",
"^` 	c #2B383D",
"/` 	c #766760",
"(` 	c #83736A",
"_` 	c #86766D",
":` 	c #73645F",
"<` 	c #928175",
"[` 	c #958478",
"}` 	c #A18B7B",
"|` 	c #A48D7C",
"1` 	c #A78F7D",
"2` 	c #B29985",
"3` 	c #C7AB94",
"4` 	c #C9AD95",
"5` 	c #CDAD93",
"6` 	c #CAAA91",
"7` 	c #C9A990",
"8` 	c #C4A58E",
"9` 	c #B69884",
"0` 	c #8A7366",
"a` 	c #705C53",
"b` 	c #807068",
"c` 	c #907F77",
"d` 	c #725F57",
"e` 	c #736058",
"f` 	c #76635A",
"g` 	c #847164",
"h` 	c #877466",
"i` 	c #8A7668",
"j` 	c #8D796B",
"k` 	c #947F6F",
"l` 	c #9E8877",
"m` 	c #BBA08B",
"n` 	c #C5A58D",
"o` 	c #B89A84",
"p` 	c #92796A",
"q` 	c #776257",
"r` 	c #715D53",
"s` 	c #6F5B52",
"t` 	c #617C7E",
"u` 	c #3D3636",
"v` 	c #796A62",
"w` 	c #87776E",
"x` 	c #5B4D49",
"y` 	c #6B5A53",
"z` 	c #6D5C55",
"A` 	c #846C60",
"B` 	c #9C8272",
"C` 	c #AD927F",
"D` 	c #B79C87",
"E` 	c #C4A992",
"F` 	c #A78A77",
"G` 	c #95796A",
"H` 	c #8C7063",
"I` 	c #8A6F62",
"J` 	c #876D60",
"K` 	c #6E5A51",
"L` 	c #2C3E41",
"M` 	c #293236",
"N` 	c #4C6365",
"O` 	c #85756C",
"P` 	c #84756D",
"Q` 	c #64554F",
"R` 	c #6C5B54",
"S` 	c #715E57",
"T` 	c #81695E",
"U` 	c #7B6459",
"V` 	c #725E54",
"W` 	c #ADD8D7",
"X` 	c #83A6A7",
"Y` 	c #607B7D",
"Z` 	c #342F2F",
"`` 	c #7A6A63",
"  .	c #928179",
". .	c #534644",
"+ .	c #7F685D",
"@ .	c #7E675B",
"# .	c #766156",
"$ .	c #6D5A51",
"% .	c #2F3536",
"& .	c #2F3637",
"* .	c #2F3638",
"= .	c #313B3E",
"- .	c #324045",
"; .	c #2E3F44",
"> .	c #222F32",
", .	c #2D3436",
"' .	c #2F3537",
") .	c #2F3737",
"! .	c #303738",
"~ .	c #2F3635",
"{ .	c #2F3535",
"] .	c #30393C",
"^ .	c #313D40",
"/ .	c #313D41",
"( .	c #313E41",
"_ .	c #313F42",
": .	c #313F43",
"< .	c #30393B",
"[ .	c #2E3435",
"} .	c #2F3838",
"| .	c #2F383A",
"1 .	c #2F393B",
"2 .	c #2C3435",
"3 .	c #2E393A",
"4 .	c #182424",
"5 .	c #403736",
"6 .	c #84746B",
"7 .	c #8B7A71",
"8 .	c #4F4341",
"9 .	c #6F5D56",
"0 .	c #7D665C",
"a .	c #68584F",
"b .	c #83A4A6",
"c .	c #363D3E",
"d .	c #373D3E",
"e .	c #373C3E",
"f .	c #383F42",
"g .	c #394449",
"h .	c #36454A",
"i .	c #313A3C",
"j .	c #353C3E",
"k .	c #373D3D",
"l .	c #383D3E",
"m .	c #3A3E3F",
"n .	c #3A3F40",
"o .	c #3A4040",
"p .	c #3A4041",
"q .	c #3C4142",
"r .	c #3D4343",
"s .	c #3D4243",
"t .	c #3D4344",
"u .	c #3D4445",
"v .	c #3E4446",
"w .	c #3E4445",
"x .	c #3E4345",
"y .	c #3E4546",
"z .	c #3E4547",
"A .	c #3E4647",
"B .	c #3E4648",
"C .	c #3E4849",
"D .	c #40494B",
"E .	c #404A4C",
"F .	c #3F4749",
"G .	c #3F4547",
"H .	c #3F4546",
"I .	c #404546",
"J .	c #414647",
"K .	c #424748",
"L .	c #424848",
"M .	c #44494A",
"N .	c #444849",
"O .	c #444949",
"P .	c #454A4B",
"Q .	c #464B4B",
"R .	c #464B4C",
"S .	c #474C4D",
"T .	c #474D4D",
"U .	c #484D4D",
"V .	c #484C4D",
"W .	c #464C4D",
"X .	c #3E484A",
"Y .	c #3D4849",
"Z .	c #3E4749",
"` .	c #41494B",
" ..	c #494E4E",
"...	c #494E4F",
"+..	c #494F4F",
"@..	c #495152",
"#..	c #303B3D",
"$..	c #1B2626",
"%..	c #6D5D56",
"&..	c #594B47",
"*..	c #695852",
"=..	c #6E5C55",
"-..	c #7B655B",
";..	c #7D665A",
">..	c #715C53",
",..	c #131F20",
"'..	c #343A3A",
")..	c #7A7E80",
"!..	c #4C5455",
"~..	c #242D2D",
"{..	c #817169",
"]..	c #897970",
"^..	c #7B6A62",
"/..	c #77635A",
"(..	c #60504A",
"_..	c #5E4E48",
":..	c #5C4D46",
"<..	c #5E4F48",
"[..	c #61514B",
"}..	c #101D1E",
"|..	c #454A4A",
"1..	c #616767",
"2..	c #2D3535",
"3..	c #8C7B73",
"4..	c #77625A",
"5..	c #5D4E47",
"6..	c #5B4C45",
"7..	c #464A4A",
"8..	c #9DC3C3",
"9..	c #7D6E65",
"0..	c #907F76",
"a..	c #827068",
"b..	c #735E54",
"c..	c #86766C",
"d..	c #8D7C73",
"e..	c #746159",
"f..	c #715F57",
"g..	c #726058",
"h..	c #766259",
"i..	c #6E5B52",
"j..	c #796A63",
"k..	c #938379",
"l..	c #A7978C",
"m..	c #AB9B90",
"n..	c #8B7970",
"o..	c #806D64",
"p..	c #7C6960",
"q..	c #705E56",
"r..	c #735F55",
"s..	c #3A4D4F",
"t..	c #363131",
"u..	c #584D4A",
"v..	c #837168",
"w..	c #7D6A61",
"x..	c #7B685F",
"y..	c #736159",
"z..	c #6D5C54",
"A..	c #A4CCCE",
"B..	c #97BBBD",
"C..	c #99877D",
"D..	c #86746B",
"E..	c #75645C",
"F..	c #725D54",
"G..	c #5F4F49",
"H..	c #606666",
"I..	c #627B7C",
"J..	c #7E6C63",
"K..	c #77665D",
"L..	c #6C5A51",
"M..	c #5B7477",
"N..	c #74635B",
"O..	c #68574F",
"P..	c #655650",
"Q..	c #6D5B54",
"R..	c #746158",
"S..	c #78645A",
"T..	c #7B665B",
"U..	c #94B8B9",
"V..	c #A2CBCC",
"W..	c #617B7B",
"X..	c #706059",
"Y..	c #78665E",
"Z..	c #746058",
"`..	c #6E5A52",
" +.	c #A2CBCB",
".+.	c #95BABC",
"++.	c #443A38",
"@+.	c #6C5A53",
"#+.	c #756259",
"$+.	c #5F6565",
"%+.	c #152223",
"&+.	c #ABD4D4",
"*+.	c #745F55",
"=+.	c #474C4C",
"-+.	c #5E6464",
";+.	c #4A4140",
">+.	c #77665E",
",+.	c #76645C",
"'+.	c #4D4343",
")+.	c #7A675F",
"!+.	c #2D393B",
"~+.	c #4C4344",
"{+.	c #7A655B",
"]+.	c #74625A",
"^+.	c #79645A",
"/+.	c #3D3535",
"(+.	c #7A665B",
"_+.	c #705B52",
":+.	c #7B9A9C",
"<+.	c #2D3434",
"[+.	c #77655D",
"}+.	c #3F5155",
"|+.	c #475C5F",
"1+.	c #4C6263",
"2+.	c #A0C7C8",
"3+.	c #756055",
"4+.	c #38494D",
"5+.	c #4B6162",
"6+.	c #554A48",
"7+.	c #6C5C53",
"8+.	c #79999A",
"9+.	c #756056",
"0+.	c #2C3434",
"a+.	c #617A7C",
"b+.	c #483D3B",
"c+.	c #6D5D54",
"d+.	c #2C3333",
"e+.	c #7D6A60",
"f+.	c #7E6B61",
"g+.	c #79675F",
"h+.	c #6A5850",
"i+.	c #2B3333",
"j+.	c #5D7576",
"k+.	c #78675E",
"l+.	c #75655E",
"m+.	c #6C5C55",
"n+.	c #9EC4C5",
"o+.	c #75645A",
"p+.	c #759496",
"q+.	c #887669",
"r+.	c #8A786B",
"s+.	c #6C5C54",
"t+.	c #AAD2D3",
"u+.	c #6E5D55",
"v+.	c #806E63",
"w+.	c #749395",
"x+.	c #7C6B60",
"y+.	c #749294",
"z+.	c #5D6363",
"A+.	c #63544D",
"B+.	c #695951",
"C+.	c #726158",
"D+.	c #7D6B61",
"E+.	c #62534C",
"F+.	c #3B4D4E",
"G+.	c #72655C",
"H+.	c #6E6057",
"I+.	c #6A5952",
"J+.	c #72645B",
"K+.	c #6D5E55",
"L+.	c #65554D",
"M+.	c #827165",
"N+.	c #867468",
"O+.	c #101D1D",
"P+.	c #494D4D",
"Q+.	c #293131",
"R+.	c #5B7274",
"S+.	c #8EB2B4",
"T+.	c #60514A",
"U+.	c #5B4D47",
"V+.	c #4B6164",
"W+.	c #0F1D1D",
"X+.	c #4A4F4F",
"Y+.	c #848888",
"Z+.	c #5B7273",
"`+.	c #695950",
" @.	c #63544C",
".@.	c #70635A",
"+@.	c #65544E",
"@@.	c #7F6E62",
"#@.	c #71645B",
"$@.	c #71635A",
"%@.	c #7A695E",
"&@.	c #5A7272",
"*@.	c #5E5049",
"=@.	c #5D4E48",
"-@.	c #847266",
";@.	c #5D504A",
">@.	c #483F3D",
",@.	c #48403D",
"'@.	c #675B54",
")@.	c #716057",
"!@.	c #847366",
"~@.	c #78675D",
"{@.	c #A6CECF",
"]@.	c #2C292A",
"^@.	c #6A5A51",
"/@.	c #5B4E48",
"(@.	c #5C4E48",
"_@.	c #5D4F48",
":@.	c #65564F",
"<@.	c #5A7174",
"[@.	c #282628",
"}@.	c #6B5C53",
"|@.	c #61524B",
"1@.	c #292628",
"2@.	c #49413E",
"3@.	c #5C4D48",
"4@.	c #5A4D47",
"5@.	c #5E514B",
"6@.	c #706158",
"7@.	c #564943",
"8@.	c #504440",
"9@.	c #443A37",
"0@.	c #483D39",
"a@.	c #4B403B",
"b@.	c #453C38",
"c@.	c #463C38",
"d@.	c #473D3A",
"e@.	c #597071",
"f@.	c #4E423E",
"g@.	c #433937",
"h@.	c #312A2B",
"i@.	c #71615A",
"j@.	c #584B46",
"k@.	c #352E2F",
"l@.	c #584B45",
"m@.	c #403735",
"n@.	c #332C2D",
"o@.	c #587171",
"p@.	c #645650",
"q@.	c #6D5D57",
"r@.	c #63554D",
"s@.	c #60524B",
"t@.	c #393232",
"u@.	c #3B3434",
"v@.	c #584C47",
"w@.	c #3A3231",
"x@.	c #433B3A",
"y@.	c #4D4442",
"z@.	c #584F4C",
"A@.	c #463E3C",
"B@.	c #594E4B",
"C@.	c #9ABFC0",
"D@.	c #332C2E",
"E@.	c #49403D",
"F@.	c #4C433F",
"G@.	c #4A413E",
"H@.	c #3E3636",
"I@.	c #4E433F",
"J@.	c #443C3B",
"K@.	c #796E67",
"L@.	c #746861",
"M@.	c #374649",
"N@.	c #363030",
"O@.	c #342D2F",
"P@.	c #84776F",
"Q@.	c #6C605A",
"R@.	c #332D2E",
"S@.	c #373132",
"T@.	c #151E20",
"U@.	c #80756D",
"V@.	c #8B7D74",
"W@.	c #877971",
"X@.	c #80736B",
"Y@.	c #3F3636",
"Z@.	c #151D1F",
"`@.	c #5C6262",
" #.	c #151C1E",
".#.	c #473F3E",
"+#.	c #978A7F",
"@#.	c #988B80",
"##.	c #8C8077",
"$#.	c #887B72",
"%#.	c #867A71",
"&#.	c #80736C",
"*#.	c #84766F",
"=#.	c #7C7169",
"-#.	c #71665F",
";#.	c #695E58",
">#.	c #161C1D",
",#.	c #2F3B3E",
"'#.	c #151A1C",
")#.	c #363031",
"!#.	c #726760",
"~#.	c #756862",
"{#.	c #161B1D",
"]#.	c #576F6F",
"^#.	c #576E70",
"/#.	c #171B1C",
"(#.	c #4A4240",
"_#.	c #151A1B",
":#.	c #8BB0B0",
"<#.	c #171C1B",
"[#.	c #58524F",
"}#.	c #7E726D",
"|#.	c #897F78",
"1#.	c #151A1A",
"2#.	c #867B75",
"3#.	c #15191A",
"4#.	c #81776F",
"5#.	c #877D76",
"6#.	c #6F6965",
"7#.	c #151919",
"8#.	c #161F22",
"9#.	c #191C1D",
"0#.	c #A2948C",
"a#.	c #968982",
"b#.	c #161E21",
"c#.	c #181C1B",
"d#.	c #9F918A",
"e#.	c #9B8D86",
"f#.	c #80746F",
"g#.	c #7D716C",
"h#.	c #776D68",
"i#.	c #7B706B",
"j#.	c #79716C",
"k#.	c #4B423E",
"l#.	c #352D2E",
"m#.	c #372F30",
"n#.	c #2D3C3D",
"o#.	c #556C6F",
"p#.	c #171B1B",
"q#.	c #5E5854",
"r#.	c #A1938B",
"s#.	c #8E817B",
"t#.	c #3E3535",
"u#.	c #393131",
"v#.	c #443937",
"w#.	c #161B1C",
"x#.	c #8CAFAF",
"y#.	c #9B8E86",
"z#.	c #8F827C",
"A#.	c #7C716C",
"B#.	c #897D77",
"C#.	c #93857F",
"D#.	c #9C8F87",
"E#.	c #978A83",
"F#.	c #7F736E",
"G#.	c #3A3132",
"H#.	c #161A1A",
"I#.	c #161A1B",
"J#.	c #171A1B",
"K#.	c #58534F",
"L#.	c #9E9189",
"M#.	c #8C7F79",
"N#.	c #A0928A",
"O#.	c #332B2C",
"P#.	c #161B1B",
"Q#.	c #161E20",
"R#.	c #857873",
"S#.	c #9C8E87",
"T#.	c #988B84",
"U#.	c #64534C",
"V#.	c #0F1C1D",
"W#.	c #232C2C",
"X#.	c #91847E",
"Y#.	c #433938",
"Z#.	c #736055",
"`#.	c #4B4F4F",
" $.	c #566D6D",
".$.	c #564A46",
"+$.	c #0E1C1D",
"@$.	c #4C5050",
"#$.	c #566C6D",
"$$.	c #8BADAE",
"%$.	c #8F837C",
"&$.	c #675C56",
"*$.	c #161A19",
"=$.	c #171F22",
"-$.	c #546A6C",
";$.	c #938780",
">$.	c #3B3333",
",$.	c #161919",
"'$.	c #171F20",
")$.	c #3A4C4D",
"!$.	c #9E9089",
"~$.	c #685D57",
"{$.	c #4F4441",
"]$.	c #171D1E",
"^$.	c #171C1C",
"/$.	c #91B4B5",
"($.	c #161819",
"_$.	c #171E1E",
":$.	c #171C1D",
"<$.	c #483E3C",
"[$.	c #574B47",
"}$.	c #645954",
"|$.	c #514542",
"1$.	c #181E1F",
"2$.	c #202929",
"3$.	c #81756C",
"4$.	c #786C63",
"5$.	c #6D615B",
"6$.	c #554945",
"7$.	c #655852",
"8$.	c #181C1D",
"9$.	c #85786E",
"0$.	c #877A70",
"a$.	c #594D48",
"b$.	c #635651",
"c$.	c #698385",
"d$.	c #71655E",
"e$.	c #86796F",
"f$.	c #544A48",
"g$.	c #554D4A",
"h$.	c #4A4241",
"i$.	c #342D2D",
"j$.	c #2F3C3F",
"k$.	c #536B6B",
"l$.	c #80736A",
"m$.	c #524947",
"n$.	c #3E3635",
"o$.	c #A5CFCE",
"p$.	c #7E7269",
"q$.	c #6B6059",
"r$.	c #526668",
"s$.	c #554C49",
"t$.	c #516567",
"u$.	c #554846",
"v$.	c #516465",
"w$.	c #635953",
"x$.	c #675A57",
"y$.	c #8B766F",
"z$.	c #76615B",
"A$.	c #516464",
"B$.	c #584E4C",
"C$.	c #8B7973",
"D$.	c #8E7A72",
"E$.	c #856D65",
"F$.	c #836B64",
"G$.	c #506364",
"H$.	c #2F3A3B",
"I$.	c #645A56",
"J$.	c #776863",
"K$.	c #938079",
"L$.	c #8C7770",
"M$.	c #645751",
"N$.	c #544A47",
"O$.	c #1B2326",
"P$.	c #2E3838",
"Q$.	c #625653",
"R$.	c #8E7C75",
"S$.	c #927F78",
"T$.	c #88726A",
"U$.	c #7D6661",
"V$.	c #5F534E",
"W$.	c #4F4644",
"X$.	c #2E3637",
"Y$.	c #81706B",
"Z$.	c #876F67",
"`$.	c #655354",
" %.	c #3E3435",
".%.	c #594E4A",
"+%.	c #2F3B3C",
"@%.	c #524A48",
"#%.	c #5B514D",
"$%.	c #615652",
"%%.	c #8A7872",
"&%.	c #524946",
"*%.	c #1B1E1F",
"=%.	c #4F6363",
"-%.	c #2F393A",
";%.	c #14191A",
">%.	c #534E4B",
",%.	c #615754",
"'%.	c #4E4644",
")%.	c #7F706A",
"!%.	c #514B49",
"~%.	c #544B49",
"{%.	c #70625D",
"]%.	c #866E66",
"^%.	c #6A5756",
"/%.	c #4C5151",
"(%.	c #4F6263",
"_%.	c #2D3536",
":%.	c #504B47",
"<%.	c #645854",
"[%.	c #877068",
"}%.	c #171A1A",
"|%.	c #2E3A3B",
"1%.	c #838787",
"2%.	c #1A2425",
"3%.	c #506263",
"4%.	c #2C3638",
"5%.	c #605551",
"6%.	c #8D7B74",
"7%.	c #8B756E",
"8%.	c #3F3737",
"9%.	c #181B1A",
"0%.	c #787B7B",
"a%.	c #2D3435",
"b%.	c #2C3436",
"c%.	c #675D59",
"d%.	c #655A56",
"e%.	c #8F7B74",
"f%.	c #715D5A",
"g%.	c #352E2E",
"h%.	c #88776D",
"i%.	c #181A1A",
"j%.	c #767979",
"k%.	c #6C5F5B",
"l%.	c #735E5B",
"m%.	c #4B4240",
"n%.	c #60534D",
"o%.	c #2C3233",
"p%.	c #6E6662",
"q%.	c #685D59",
"r%.	c #625753",
"s%.	c #866F67",
"t%.	c #534741",
"u%.	c #6F5C52",
"v%.	c #2E3739",
"w%.	c #8A746D",
"x%.	c #78635E",
"y%.	c #493E3A",
"z%.	c #4F6262",
"A%.	c #2D3637",
"B%.	c #2B3233",
"C%.	c #6F6763",
"D%.	c #79726E",
"E%.	c #776963",
"F%.	c #413735",
"G%.	c #2D3738",
"H%.	c #757979",
"I%.	c #4E6162",
"J%.	c #918985",
"K%.	c #908884",
"L%.	c #695D58",
"M%.	c #726057",
"N%.	c #45494A",
"O%.	c #827B77",
"P%.	c #887169",
"Q%.	c #454949",
"R%.	c #757879",
"S%.	c #2C3234",
"T%.	c #7D7571",
"U%.	c #86756F",
"V%.	c #7E6E67",
"W%.	c #2B3436",
"X%.	c #757878",
"Y%.	c #242A2B",
"Z%.	c #807975",
"`%.	c #857D79",
" &.	c #917E76",
".&.	c #2B3435",
"+&.	c #2D3636",
"@&.	c #8F8783",
"#&.	c #7A6962",
"$&.	c #747878",
"%&.	c #232A2B",
"&&.	c #645955",
"*&.	c #8A746C",
"=&.	c #352D2D",
"-&.	c #23292A",
";&.	c #635854",
">&.	c #8F7A73",
",&.	c #635152",
"'&.	c #736158",
")&.	c #2A3133",
"!&.	c #8E8682",
"~&.	c #625151",
"{&.	c #715F55",
"]&.	c #4E6062",
"^&.	c #736560",
"/&.	c #5D4D4D",
"(&.	c #747777",
"_&.	c #4E6161",
":&.	c #8E8783",
"<&.	c #685C58",
"[&.	c #89736B",
"}&.	c #383134",
"|&.	c #3E383B",
"1&.	c #6F635F",
"2&.	c #737777",
"3&.	c #8BADAD",
"4&.	c #4E6061",
"5&.	c #2A3031",
"6&.	c #444848",
"7&.	c #737676",
"8&.	c #463B3A",
"9&.	c #3C3638",
"0&.	c #151819",
"a&.	c #2E3C3F",
"b&.	c #434848",
"c&.	c #727676",
"d&.	c #78635D",
"e&.	c #413736",
"f&.	c #141819",
"g&.	c #4D6061",
"h&.	c #57514E",
"i&.	c #3D373A",
"j&.	c #2C3335",
"k&.	c #4D5F60",
"l&.	c #756E6C",
"m&.	c #746D6A",
"n&.	c #84746E",
"o&.	c #8E7C76",
"p&.	c #2B3334",
"q&.	c #15191B",
"r&.	c #746D6B",
"s&.	c #655955",
"t&.	c #7F706C",
"u&.	c #4E4647",
"v&.	c #2E3B3E",
"w&.	c #151D20",
"x&.	c #695D59",
"y&.	c #3B3437",
"z&.	c #2D3B3E",
"A&.	c #1A2124",
"B&.	c #151B1B",
"C&.	c #6E625E",
"D&.	c #262B2C",
"E&.	c #4D6060",
"F&.	c #161D20",
"G&.	c #4C5F60",
"H&.	c #7E706C",
"I&.	c #2A3032",
"J&.	c #1D2829",
"K&.	c #171E20",
"L&.	c #7A6C67",
"M&.	c #171C1E",
"N&.	c #726561",
"O&.	c #181F21",
"P&.	c #5B5551",
"Q&.	c #937F76",
"R&.	c #4E4546",
"S&.	c #464042",
"T&.	c #524C4D",
"U&.	c #1D2527",
"V&.	c #141718",
"W&.	c #72635F",
"X&.	c #3F393C",
"Y&.	c #181B1C",
"Z&.	c #8E7B73",
"`&.	c #494345",
" *.	c #665957",
".*.	c #504A4B",
"+*.	c #4D5F5F",
"@*.	c #1E2629",
"#*.	c #86746D",
"$*.	c #474143",
"%*.	c #242B2D",
"&*.	c #4C5F5F",
"**.	c #252A2B",
"=*.	c #433D40",
"-*.	c #141F21",
";*.	c #534A4A",
">*.	c #131E20",
",*.	c #87776F",
"'*.	c #645957",
")*.	c #4F494A",
"!*.	c #121D1F",
"~*.	c #4C5E60",
"{*.	c #605450",
"]*.	c #897870",
"^*.	c #605858",
"/*.	c #101C1E",
"(*.	c #202425",
"_*.	c #6B605E",
":*.	c #4A4446",
"<*.	c #696363",
"[*.	c #202729",
"}*.	c #101B1E",
"|*.	c #4C5E5F",
"1*.	c #5C5454",
"2*.	c #6C6665",
"3*.	c #0F1A1D",
"4*.	c #4B5D5E",
"5*.	c #766C67",
"6*.	c #0E191C",
"7*.	c #506667",
"8*.	c #4B5D5D",
"9*.	c #746A65",
"0*.	c #4B5C5D",
"a*.	c #6F6764",
"b*.	c #98C0C0",
"c*.	c #4A5C5D",
"d*.	c #726A67",
"e*.	c #0D181B",
"f*.	c #8CAEAF",
"g*.	c #746E6A",
"h*.	c #787270",
"i*.	c #77716F",
"j*.	c #0C181A",
"k*.	c #526768",
"l*.	c #9EC2C3",
"m*.	c #6A6565",
"n*.	c #6E6868",
"o*.	c #6A6464",
"p*.	c #585353",
"q*.	c #605A59",
"r*.	c #716B69",
"s*.	c #4E4645",
"t*.	c #0A171A",
"u*.	c #56696A",
"v*.	c #A3C5C5",
"w*.	c #485A5B",
"x*.	c #595555",
"y*.	c #504B4C",
"z*.	c #3D393B",
"A*.	c #464143",
"B*.	c #555050",
"C*.	c #676160",
"D*.	c #6E6766",
"E*.	c #4F4C4C",
"F*.	c #4E4C4C",
"G*.	c #091619",
"H*.	c #596C6D",
"I*.	c #A7C9CA",
"J*.	c #4A5D5E",
"K*.	c #343133",
"L*.	c #2C2729",
"M*.	c #AED6D6",
"N*.	c #BEECEC",
"O*.	c #9DC6C6",
"P*.	c #627E80",
"Q*.	c #091618",
"R*.	c #5A6F70",
"S*.	c #AACECE",
"T*.	c #92B3B4",
"U*.	c #4E5F60",
"V*.	c #1A1D1F",
"W*.	c #2D282A",
"X*.	c #2E292B",
"Y*.	c #8AABAC",
"Z*.	c #071518",
"`*.	c #5D7071",
" =.	c #B1D3D4",
".=.	c #BAE6E6",
"+=.	c #B3DFDF",
"@=.	c #9CB8B9",
"#=.	c #3C383A",
"$=.	c #3F3A3C",
"%=.	c #635D5E",
"&=.	c #4F494C",
"*=.	c #4D474A",
"==.	c #4B4648",
"-=.	c #494346",
";=.	c #635652",
">=.	c #6C5C57",
",=.	c #6E5D58",
"'=.	c #70605A",
")=.	c #71615B",
"!=.	c #776660",
"~=.	c #7F6F68",
"{=.	c #8C7C74",
"]=.	c #9D8D83",
"^=.	c #98887E",
"/=.	c #3C5355",
"(=.	c #465C5F",
"_=.	c #334548",
":=.	c #142122",
"<=.	c #061718",
"[=.	c #101D1F",
"}=.	c #4A595B",
"|=.	c #8CA7A8",
"1=.	c #96B9BA",
"2=.	c #7D9394",
"3=.	c #444E4F",
"4=.	c #9A9492",
"5=.	c #918C8B",
"6=.	c #5F5C60",
"7=.	c #5E5B5F",
"8=.	c #6F6B6D",
"9=.	c #938D8C",
"0=.	c #9D9795",
"a=.	c #928C8A",
"b=.	c #867F7D",
"c=.	c #827A78",
"d=.	c #77706E",
"e=.	c #696261",
"f=.	c #837267",
"g=.	c #85746A",
"h=.	c #9A8A7F",
"i=.	c #847368",
"j=.	c #142429",
"k=.	c #0F2328",
"l=.	c #1A2B2F",
"m=.	c #3D4648",
"n=.	c #4D5354",
"o=.	c #6D7172",
"p=.	c #8C9091",
"q=.	c #142224",
"r=.	c #304145",
"s=.	c #433F3F",
"t=.	c #706B6B",
"u=.	c #625F63",
"v=.	c #625F62",
"w=.	c #706C6F",
"x=.	c #898484",
"y=.	c #97918E",
"z=.	c #928C88",
"A=.	c #908986",
"B=.	c #908985",
"C=.	c #46403F",
"D=.	c #87766B",
"E=.	c #8B7A6F",
"F=.	c #8E7E73",
"G=.	c #8F7F74",
"H=.	c #3A474A",
"I=.	c #4E585A",
"J=.	c #616769",
"K=.	c #777B7C",
"L=.	c #828688",
"M=.	c #898D8F",
"N=.	c #929697",
"O=.	c #9DA0A0",
"P=.	c #ACAEAE",
"Q=.	c #B8BBBB",
"R=.	c #848889",
"S=.	c #616667",
"T=.	c #112022",
"U=.	c #837B75",
"V=.	c #433F40",
"W=.	c #958F8E",
"X=.	c #8D8887",
"Y=.	c #999392",
"Z=.	c #999391",
"`=.	c #8B8481",
" -.	c #87807B",
".-.	c #867F7A",
"+-.	c #857E79",
"@-.	c #7E7773",
"#-.	c #7A7270",
"$-.	c #7B6B61",
"%-.	c #1F2122",
"&-.	c #202323",
"*-.	c #232525",
"=-.	c #242626",
"--.	c #252827",
";-.	c #282928",
">-.	c #2A2A2A",
",-.	c #2B2C2A",
"'-.	c #2B2C2B",
")-.	c #2F2F2E",
"!-.	c #2D2F2E",
"~-.	c #2C2D2D",
"{-.	c #2C2E2D",
"]-.	c #2C2E2E",
"^-.	c #2E2F2F",
"/-.	c #323231",
"(-.	c #323331",
"_-.	c #313231",
":-.	c #2F3131",
"<-.	c #2A2F2F",
"[-.	c #223237",
"}-.	c #233136",
"|-.	c #3E4B4E",
"1-.	c #5D686A",
"2-.	c #7E8687",
"3-.	c #9C9FA0",
"4-.	c #BEC0C0",
"5-.	c #CCCCCC",
"6-.	c #CDCDCD",
"7-.	c #ABAEAE",
"8-.	c #7C8080",
"9-.	c #4E5457",
"0-.	c #2E373A",
"a-.	c #988F87",
"b-.	c #5C5654",
"c-.	c #635E5E",
"d-.	c #7E7875",
"e-.	c #6C5E56",
"f-.	c #78665C",
"g-.	c #3A3430",
"h-.	c #3A3431",
"i-.	c #3B3431",
"j-.	c #3B3532",
"k-.	c #403935",
"l-.	c #423C37",
"m-.	c #4C433D",
"n-.	c #504740",
"o-.	c #544B44",
"p-.	c #564C45",
"q-.	c #584E46",
"r-.	c #594F47",
"s-.	c #5A5048",
"t-.	c #504741",
"u-.	c #4A413C",
"v-.	c #4B433D",
"w-.	c #4C433E",
"x-.	c #4D443F",
"y-.	c #514842",
"z-.	c #514843",
"A-.	c #524944",
"B-.	c #514944",
"C-.	c #625850",
"D-.	c #655B52",
"E-.	c #60574E",
"F-.	c #28373D",
"G-.	c #BCBEBE",
"H-.	c #8E9196",
"I-.	c #4E555C",
"J-.	c #242524",
"K-.	c #4A4743",
"L-.	c #9B9593",
"M-.	c #827B79",
"N-.	c #4C4340",
"O-.	c #736057",
"P-.	c #988373",
"Q-.	c #756358",
"R-.	c #77655A",
"S-.	c #181E1E",
"T-.	c #161A1C",
"U-.	c #3A3836",
"V-.	c #938A82",
"W-.	c #9A9088",
"X-.	c #8F8A88",
"Y-.	c #86807E",
"Z-.	c #817065",
"`-.	c #8C786A",
" ;.	c #776459",
".;.	c #171E21",
"+;.	c #333333",
"@;.	c #494445",
"#;.	c #9C9694",
".  .  .  .  .  .  .  .  +  @  @  @  #  $  $  %  &  *  *  *  =  -  ;  ;  ;  ;  ;  ;  ;  ;  ;  ;  ;  ;  ;  >  ,  ,  '  )  )  )  )  !  ~  ~  {  ]  ]  ]  ]  ]  ]  ]  ]  ]  ]  ]  ]  ]  ]  ]  ]  ]  ]  ]  ]  ]  ]  ]  ]  ]  ]  ]  ^  /  (  _  :  :  :  :  <  <  <  <  [  <  :  :  <  <  <  <  <  <  <  (  <  }  }  |  1  2  3  4  5  6  7  8  5  9  9  7  0  a  7  b  c  d  e  f  g  g  f  h  h  h  h  h  h  h  h  h  h  h  h  h  h  h  h  h  h  h  h  h  h  h  h  h  h  h  h  h  h  h  h  h  h  h  h  h  h  g  g  g  g  g  g  i  i  i  j  k  k  l  m  n  o  o  p  q  r  r  s  t  t  u  u  v  v  v  v  v  u  u  u  u  u  u  u  u  u  u  u  u  u  u  u  u  u  u  u  u  u  u  u  u  u  u  u  u  u  u  u  u  u  u  u  u  u  u  u  u  u  u  u  u  u  u  u  u  u  u  u  u  u  u  u  u  u  u  u  u  u  u  u  u  u  u  u  u  u  u  u  u  u  u  u  u  u  u  u  u  u  u  u  u  u  u  u  u  u  u  u  u  u  u  u  u  u  u  u  u  u  u  u  u  u  u  u  u  u  u  u  u  u  u  u  u  u  u  u  u  u  u  u  u  u  u  u  u  u  u  u  u  u  u  u  u  u  u  u  u  u  u  u  u  u  u  u  u  u  u  u  u  u  u  u  u  u  u  u  u  u  u  u  u  u  u  u  u  u  u  u  u  u  u  u  u  u  u  u  u  u  u  u  v  v  u  u  u  v  v  w  x  y  y  z  x  A  B  B  C  C  C  B  B  C  C  C  B  B  B  D  D  E  F  F  F  F  E  G  E  H  I  J  K  L  M  M  M  N  O  P  M  M  Q  R  S  T  U  S  S  V  W  X  Y  Z  Z  Z  Z  Z  Z  Z  Z  Z  Z  Z  Z  Z  Z  Z  Z  Z  Z  Z  `   . .. .. .. .. .. +. @. @. @. @. @. @. @. @. @. #. $. $. $. $. $. $. $. $. $. $. $. %. &. &. &. &. &. &. &. &. &. &. &. &. &. &. &. &. &. &. &. &. &. &. &. &. &. ",
".  .  .  .  .  .  .  *. @  @  @  @  =. $  $  -. &  *  *  *  ;. >. ;  ;  ;  ;  ;  ;  ;  ;  ;  ;  ;  ;  ;  >  ,  ,  ,. )  )  )  )  !  ~  ~  ~  ]  ]  ]  ]  ]  ]  ]  ]  ]  ]  ]  ]  ]  ]  ]  ]  ]  ]  ]  ]  ]  ]  ]  ]  ]  ]  '. ). !. ~. _  :  :  :  :  <  <  <  <  (  {. <  :  <  <  <  <  <  {. ]. (  }  |  <  |  ^. /. (. _. 4  5  7  8  :. 9  <. 8  [. 7  a  }. |. 1. 2. 3. e  e  f  f  f  f  f  f  f  f  f  f  f  f  f  f  f  f  f  f  f  f  f  f  f  f  f  f  4. 4. 4. 4. 4. f  3. e  e  5. 6. m  o  q  r  r  7. s  u  v  u  u  v  u  u  u  u  u  u  u  u  8. 9. 9. 9. 9. 9. 9. 9. 9. 9. 9. 9. 9. 9. 9. 9. 9. 9. 9. 9. 9. 9. 9. 9. 9. 9. 9. 9. 9. 9. 9. 9. 9. 9. 9. 9. 9. 9. 9. 9. 9. 9. 9. 9. 9. 9. 9. 9. 9. 9. 9. 9. 9. 9. 9. 9. 9. 9. 9. 9. 9. 9. 9. 9. 9. 9. 9. 9. 9. 9. 9. 9. 9. 9. 9. 9. 9. 9. 9. 9. 9. 9. 9. 9. 9. 9. 9. 9. 9. 9. 9. 9. 9. 9. 9. 9. 9. 9. 9. 9. 9. 9. 9. 9. 9. 9. 9. 9. 9. 9. 9. 9. 9. 9. 9. 9. 9. 9. 9. 9. 9. 9. 9. 9. 9. 9. 9. 9. 9. 9. 9. 9. 9. 9. 9. 9. 9. 9. 9. 9. 9. 9. 9. 9. 9. 9. 9. 9. 9. 9. 9. 9. 9. 9. 9. 9. 9. 9. 9. 9. 9. 9. 9. 9. 9. 9. 9. 9. 9. 9. 9. 9. 9. 9. 9. 9. 9. 9. 9. 9. 9. 9. 9. 9. 9. 9. 9. 9. 9. 9. 9. 9. 9. 9. 9. 9. 9. 9. 9. w  x  x  x  x  z  z  C  C  C  0. B  B  B  B  B  B  D  D  B  B  0. 0. B  B  E  E  E  E  a. a. D  b. b. b. c. d. e. f. e. e. e. e. U  N  M  g. g. h. i. N  j. S  S  V  k. l. m. n. n. Z  Z  Z  Z  Z  Z  Z  Z  Z  Z  Z  Z  Z  Z  Z  Z  Z  Z  o. p. q. .. .. .. r. @. @. @. @. @. @. @. @. @. s. $. $. $. $. $. $. $. $. $. $. $. $. t. &. &. &. &. &. &. &. &. &. &. &. &. &. &. &. &. &. &. &. &. &. &. &. &. ",
".  .  .  .  .  .  .  u. @  @  @  @  v. $  $  -. &  *  *  *  w. x. ;  ;  ;  ;  ;  ;  ;  ;  ;  ;  ;  ;  ;  >  ,  ,  ,  y. )  )  )  !  ~  ~  ~  {  ]  ]  ]  ]  ]  ]  ]  ]  ]  ]  ]  ]  ]  ]  ]  ]  ]  ]  ]  ]  ]  ]  ]  ]  ]  z. A. B. C. [  _  :  <  <  <  <  <  <  <  <  <  <  <  D. {. <  _  _  E. _  _  _  F. ^. <  2  G. _. H. _. 8  7  7  I. I. I. J. |. K. K. L. 1. M. 2. 2. 3. 3. 3. 3. 3. 3. 3. 3. 3. 3. 3. 3. f  f  f  N. e  e  O. P. 6. 6. Q. R. S. T. U. U. V. V. W. X. Y. Y. Z. Z. Z. `.  +  + `. `. x  x  x  x  x  x  x  x  x  x  x  x  x  x  x  x  x  x  x  x  x  x  x  x  x  x  x  x  x  x  x  x  x  x  x  x  x  x  x  x  x  x  x  x  x  x  x  x  x  x  x  x  x  x  x  x  x  x  x  x  x  x  x  x  x  x  x  x  x  x  x  x  x  x  x  x  x  x  x  x  x  x  x  x  x  x  x  x  x  x  x  x  x  x  x  x  x  x  x  x  x  x  x  x  x  x  x  x  x  x  x  x  x  x  x  x  x  x  x  x  x  x  x  x  x  x  x  x  x  x  x  x  x  x  x  x  x  x  x  x  x  x  x  x  x  x  x  x  x  x  x  x  x  x  x  x  x  x  x  x  x  x  x  x  x  x  x  x  x  x  x  x  x  x  x  x  x  x  x  x  x  x  x  x  x  x  x  x  x  x  x  x  x  x  x  x  x  x  x  x  x  x  x  x  x  x  x  x  x  x  x  x  x  x  x  .+ A  ++ @+ .+ C  C  B  B  0. 0. B  B  B  B  E  #+ F  $+ H  $+ H  %+ &+ H  *+ *+ =+ %+ %+ -+ Q  Q  S  N  U  U  U  U  N  U  N  N  ;+ >+ ,+ ,+ >+ >+ '+ >+ )+ P  j. !+ ~+ {+ ]+ ^+ ^+ /+ Z  Z  Z  Z  Z  Z  Z  Z  Z  Z  Z  Z  Z  Z  Z  Z  Z  (+ _+ _+ p. q. .. .. @. @. @. @. @. @. @. @. :+ $. $. $. $. $. $. $. $. $. $. $. $. $. $. <+ &. &. &. &. &. &. &. &. &. &. &. &. &. &. &. &. &. &. &. &. &. &. &. ",
".  .  .  .  .  .  [+ @  @  @  @  @  $  $  $  -. }+ *  *  *  w. x. ;  ;  ;  ;  ;  ;  ;  ;  ;  ;  ;  ;  ;  |+ ,  ,  ,  ,. )  )  )  )  ~  ~  ~  ~  ]  ]  ]  ]  ]  ]  ]  ]  ]  ]  ]  ]  ]  ]  ]  ]  ]  ]  ]  ]  ]  ]  ]  ]  ]  1+ 2+ 3+ E. 4+ :  :  :  <  <  <  <  <  <  <  <  :  :  D. {. ^. }  _  _  }  _  5+ 5+ 1  2  /. (. 6+ H. _. :. 8  7  I. I. I. |. |. 7+ 8+ 7+ 1. 2. 9+ 2. 2. 0+ 0+ 2. 9+ 1. L. a+ a+ b+ c+ d+ d+ e+ e+ f+ f+ g+ g+ h+ g+ g+ g+ g+ @+ @+ @+ @+ ++ ++ ++ A  A  A  A  A  A  A  A  A  A  A  A  A  A  A  A  A  A  A  A  A  A  A  A  A  A  A  A  A  A  A  A  A  A  A  A  A  A  A  A  A  A  A  A  A  A  A  A  A  A  A  A  A  A  A  A  A  A  A  A  A  A  A  A  A  A  A  A  A  A  A  A  A  A  A  A  A  A  A  A  A  A  A  A  A  A  A  A  A  A  A  A  A  A  A  A  A  A  A  A  A  A  A  A  A  A  A  A  A  A  A  A  A  A  A  A  A  A  A  A  A  A  A  A  A  A  A  A  A  A  A  A  A  A  A  A  A  A  A  A  A  A  A  A  A  A  A  A  A  A  A  A  A  A  A  A  A  A  A  A  A  A  A  A  A  A  A  A  A  A  A  A  A  A  A  A  A  A  A  A  A  A  A  A  A  A  A  A  A  A  A  A  A  A  A  A  A  A  A  A  A  A  A  A  A  A  A  A  A  A  A  A  A  A  A  A  A  A  A  A  A  A  A  A  A  A  A  0. 0. 0. B  F  $+ $+ B  i+ i+ E  H  $+ $+ H  j+ H  #+ H  H  #+ -+ -+ J  L  M  Q  Q  Q  M  M  M  e. g. U  g. U  U  k+ l+ k+ >+ >+ !+ m+ h. n+ o+ p+ p+ >+ q+ '+ r+ h. s+ t+ ^+ ^+ u+ Z  Z  Z  Z  Z  Z  Z  Z  Z  Z  Z  Z  (+ v+ _+ _+ v+ w+ x+ _+ _+ _+ y+ z+ A+ @. @. @. @. @. @. @. B+ $. $. $. $. $. $. $. $. $. $. $. $. $. $. $. %. &. &. &. &. &. &. &. &. &. &. &. &. &. &. &. &. &. &. &. &. &. &. ",
".  .  .  .  .  C+ @  @  @  @  @  D+ $  $  $  -. E+ *  *  *  w. x. F+ ;  ;  ;  ;  ;  ;  ;  ;  ;  ;  ;  ;  ;  ,  ,  ,  ,  '  )  )  )  G+ ~  ~  ~  H+ ]  ]  ]  ]  ]  ]  ]  ]  ]  ]  ]  ]  ]  ]  ]  ]  ]  ]  ]  ]  ]  ]  ]  z. I+ J+ :  :  4+ :  <  <  <  <  <  <  <  <  <  <  <  <  <  <  <  {. {. <  }  <  F. F. <  D. <  :  _. (. _. :. K+ 9  9  9  7  J. K. |. |. 8+ 7+ 1. 1. 1. 1. L+ M+ f+ g+ g+ g+ @+ ++ ++ ++ A  A  0. B  B  B  B  B  B  B  B  B  B  B  B  B  B  B  B  B  B  B  B  B  B  B  B  B  B  B  B  B  B  B  B  B  B  B  B  0. 0. 0. 0. 0. 0. 0. 0. 0. 0. 0. 0. 0. 0. 0. 0. 0. 0. 0. 0. 0. 0. 0. 0. 0. 0. 0. 0. 0. 0. 0. 0. 0. 0. 0. 0. 0. 0. 0. 0. 0. 0. 0. 0. 0. 0. 0. 0. 0. 0. 0. 0. 0. 0. 0. 0. 0. 0. 0. 0. 0. 0. 0. 0. 0. 0. 0. 0. 0. 0. 0. 0. 0. 0. 0. 0. 0. 0. 0. 0. 0. 0. 0. 0. 0. 0. 0. 0. 0. 0. 0. 0. 0. 0. 0. 0. 0. 0. 0. 0. 0. 0. 0. 0. 0. 0. 0. 0. 0. 0. 0. 0. 0. 0. 0. 0. 0. 0. 0. 0. 0. 0. 0. 0. 0. 0. 0. 0. 0. 0. 0. 0. 0. 0. 0. 0. 0. 0. 0. 0. 0. 0. 0. 0. 0. 0. 0. 0. 0. 0. 0. 0. 0. 0. 0. 0. 0. 0. 0. 0. 0. 0. 0. 0. 0. 0. 0. 0. 0. 0. 0. 0. 0. 0. 0. 0. 0. 0. 0. 0. 0. 0. 0. 0. 0. 0. 0. 0. 0. 0. 0. 0. 0. 0. 0. 0. 0. 0. 0. 0. 0. 0. 0. 0. 0. 0. 0. 0. 0. B  $+ N+ $+ O+ H  H  H  H  H  H  %+ %+ =+ %+ =+ -+ Q  Q  -+ Q  P+ Q  Q+ Q+ h. m+ m+ h. h. >+ h. h. h. l+ >+ >+ l+ l+ o+ o+ o+ l+ o+ o+ R+ n+ S+ r+ r+ )+ )+ T+ '+ U+ V+ ^+ ^+ Z  Z  Z  Z  Z  Z  Z  Z  Z  Z  Z  Z  W+ _+ _+ _+ _+ _+ _+ _+ _+ _+ _+ _+ _+ X+ @. @. @. @. @. @. Y+ $. $. $. $. $. $. $. $. $. $. $. $. $. $. $. $. $. $. t. &. &. &. &. &. &. &. &. &. &. &. &. &. &. &. &. &. &. &. &. ",
".  .  .  .  Z+ @  @  @  @  @  @  v. $  $  $  -. E+ *  *  *  w. x. F+ ;  ;  ;  ;  ;  ;  ;  ;  ;  ;  ;  ;  ;  ,  ,  ,  ,  ,  `+ )  )   @ ~  ~  ~  ~  ]  ]  ]  ]  ]  ]  ]  ]  ]  ]  ]  ]  ]  ]  ]  ]  ]  ]  ]  ]  ]  ]  ]  .@ +@ @@ E. E. :  4+ <  <  <  <  <  <  <  <  <  <  <  <  }  }  <  <  <  {. 5+ F. {. F. <  <  _  :  {. (. #@ :. 9  8  8  7  I. $@ %@ K. L. &@ 1. 7+ 1. 1. L+ f+ 0. i+ i+ i+ i+ i+ i+ i+ i+ i+ i+ i+ i+ i+ i+ i+ i+ i+ i+ i+ i+ i+ i+ i+ i+ i+ i+ i+ i+ i+ i+ i+ i+ i+ i+ i+ i+ i+ i+ i+ i+ i+ i+ i+ i+ i+ i+ i+ i+ i+ i+ i+ i+ i+ i+ i+ i+ i+ i+ i+ i+ i+ i+ i+ i+ i+ i+ i+ i+ i+ i+ i+ i+ i+ i+ i+ i+ i+ i+ i+ i+ i+ i+ i+ i+ i+ i+ i+ i+ i+ i+ i+ i+ i+ i+ i+ i+ i+ i+ i+ i+ i+ i+ i+ i+ i+ i+ i+ i+ i+ i+ i+ i+ i+ i+ i+ i+ i+ i+ i+ i+ i+ i+ i+ i+ i+ i+ i+ i+ i+ i+ i+ i+ i+ i+ i+ i+ i+ i+ i+ i+ i+ i+ i+ i+ i+ i+ i+ i+ i+ i+ i+ i+ i+ i+ i+ i+ i+ i+ i+ i+ i+ i+ i+ i+ i+ i+ i+ i+ i+ i+ i+ i+ i+ i+ i+ i+ i+ i+ i+ i+ i+ i+ i+ i+ i+ i+ i+ i+ i+ i+ i+ i+ i+ i+ i+ i+ i+ i+ i+ i+ i+ i+ i+ i+ i+ i+ i+ i+ i+ i+ i+ i+ i+ i+ i+ i+ i+ i+ i+ i+ i+ i+ i+ i+ i+ i+ i+ i+ i+ i+ i+ i+ i+ i+ i+ i+ i+ i+ i+ i+ i+ i+ i+ i+ i+ i+ i+ i+ i+ i+ i+ i+ i+ i+ i+ $+ H  %+ %+ *+ =+ %+ %+ %+ %+ %+ %+ -+ Q  Q  Q  L  Q  M  *@ M  Q+ ~+ h. m+ l+ o+ r+ =@ -@ -@ r+ ;@ o+ o+ ;@ r+ o+ ;@ ;@ >@ U+ ;@ ;@ ,@ ,@ o+ '@ T+ T+ T+ r+ T+ r+ r+ l+ )@ !@ ~@ Z  Z  Z  Z  Z  Z  Z  Z  Z  Z  {@ v+ _+ _+ _+ _+ _+ _+ _+ _+ _+ _+ _+ _+ _+ _+ @. @. @. @. @. ]@ ^@ $. $. $. $. $. $. $. $. $. $. $. $. $. $. $. $. $. $. $. t. &. &. &. &. &. &. &. &. &. &. &. &. &. &. &. &. &. &. &. ",
".  .  .  /@ @  @  @  @  @  @  #  $  $  $  $  (@ E+ *  *  *  _@ x. :@ ;  ;  ;  ;  ;  ;  ;  ;  ;  ;  ;  ;  ;  ,  ,  ,  ,  ,  <@ )  )  )  [@ ~  ~  ~  }@ ]  ]  ]  ]  ]  ]  ]  ]  ]  ]  ]  ]  ]  ]  ]  ]  ]  ]  ]  ]  ]  '. |@ 1@ _  :  :  :  :  <  <  <  <  <  <  <  <  <  <  <  <  <  <  <  _  E. 2@ F. F. F. {. {. :  E. C. (  (. G. #@ 9  8  8  7  I. b  b  b  $@ L. c  |. |. 3@ 4@ 5@ %+ %+ %+ %+ %+ %+ %+ %+ %+ %+ %+ %+ %+ %+ %+ %+ %+ %+ %+ %+ %+ %+ %+ %+ %+ %+ %+ %+ %+ %+ %+ %+ %+ %+ %+ %+ %+ %+ %+ %+ %+ %+ %+ %+ %+ %+ %+ %+ %+ %+ %+ %+ %+ %+ %+ %+ %+ %+ %+ %+ %+ %+ %+ %+ %+ %+ %+ %+ %+ %+ %+ %+ %+ %+ %+ %+ %+ %+ %+ %+ %+ %+ %+ %+ %+ %+ %+ %+ %+ %+ %+ %+ %+ %+ %+ %+ %+ %+ %+ %+ %+ %+ %+ %+ %+ %+ %+ %+ %+ %+ %+ %+ %+ %+ %+ %+ %+ %+ %+ %+ %+ %+ %+ %+ %+ %+ %+ %+ %+ %+ %+ %+ %+ %+ %+ %+ %+ %+ %+ %+ %+ %+ %+ %+ %+ %+ %+ %+ %+ %+ %+ %+ %+ %+ %+ %+ %+ %+ %+ %+ %+ %+ %+ %+ %+ %+ %+ %+ %+ %+ %+ %+ %+ %+ %+ %+ %+ %+ %+ %+ %+ %+ %+ %+ %+ %+ %+ %+ %+ %+ %+ %+ %+ %+ %+ %+ %+ %+ %+ %+ %+ %+ %+ %+ %+ %+ %+ %+ %+ %+ %+ %+ %+ %+ %+ %+ %+ %+ %+ %+ %+ %+ %+ %+ %+ %+ %+ %+ %+ %+ %+ %+ %+ %+ %+ %+ %+ %+ %+ %+ %+ %+ %+ %+ %+ %+ %+ %+ %+ %+ %+ %+ %+ %+ %+ %+ Q  Q  P+ Q  Q  Q  Q  Q  Q  Q  M  Q  Q  6@ Q+ M  M  M  Q+ Q+ h. h. !+ o+ o+ o+ o+ 7@ 7@ 7@ 7@ 7@ 7@ 7@ 7@ 7@ r+ 7@ U+ U+ U+ U+ 7@ 8@ U+ U+ 9@ 9@ 0@ 0@ a@ r+ ;@ =@ =@ R+ b@ c@ /+ Z  Z  Z  Z  Z  Z  Z  Z  Z  v+ _+ _+ _+ _+ _+ _+ _+ _+ _+ _+ _+ _+ _+ _+ _+ _+ d@ e@ f@ g@ h@ i@ j@ $. $. $. $. $. $. $. $. $. $. $. $. $. $. $. $. $. $. $. k@ &. &. &. &. &. &. &. &. &. &. &. &. &. &. &. &. &. &. &. ",
".  .  /@ @  @  @  @  @  @  @  l@ $  $  $  m@ n@ o@ *  *  *  p@ x. q@ ;  ;  ;  ;  ;  ;  ;  ;  ;  ;  ;  ;  ;  ,  ,  ,  ,  ,  <@ )  )  )  )  G+ ~  ~  ~  {  ]  ]  ]  ]  ]  ]  ]  ]  ]  ]  ]  ]  ]  ]  ]  ]  ]  ]  ]  ]  r@ s@ t@ }  :  <  :  5+ 5+ <  <  <  <  <  <  <  <  <  :  :  <  <  <  <  :  F. :  F. <  {. {. C. E. u@ 1  (. 6+ :. 9  8  8  8  I. I. I. b  b  b  %@ %@ v@ v@ w@ x@ P+ =+ =+ =+ =+ =+ =+ =+ =+ =+ =+ =+ =+ =+ =+ =+ =+ =+ =+ =+ =+ =+ =+ =+ =+ =+ =+ =+ =+ =+ =+ =+ =+ =+ =+ =+ =+ =+ =+ =+ =+ =+ =+ =+ =+ =+ =+ =+ =+ =+ =+ =+ =+ =+ =+ =+ =+ =+ =+ =+ =+ =+ =+ =+ =+ =+ =+ =+ =+ =+ =+ =+ =+ =+ =+ =+ =+ =+ =+ =+ =+ =+ =+ =+ =+ =+ =+ =+ =+ =+ =+ =+ =+ =+ =+ =+ =+ =+ =+ =+ =+ =+ =+ =+ =+ =+ =+ =+ =+ =+ =+ =+ =+ =+ =+ =+ =+ =+ =+ =+ =+ =+ =+ =+ =+ =+ =+ =+ =+ =+ =+ =+ =+ =+ =+ =+ =+ =+ =+ =+ =+ =+ =+ =+ =+ =+ =+ =+ =+ =+ =+ =+ =+ =+ =+ =+ =+ =+ =+ =+ =+ =+ =+ =+ =+ =+ =+ =+ =+ =+ =+ =+ =+ =+ =+ =+ =+ =+ =+ =+ =+ =+ =+ =+ =+ =+ =+ =+ =+ =+ =+ =+ =+ =+ =+ =+ =+ =+ =+ =+ =+ =+ =+ =+ =+ =+ =+ =+ =+ =+ =+ =+ =+ =+ =+ =+ =+ =+ =+ =+ =+ =+ =+ =+ =+ =+ =+ =+ =+ =+ =+ =+ =+ =+ =+ =+ =+ =+ =+ =+ =+ =+ =+ =+ =+ =+ =+ =+ =+ =+ =+ %+ =+ Q  Q  Q  Q  P+ P+ Q+ Q+ Q  M  M  P+ Q+ Q+ Q+ Q+ 6@ y@ y@ y@ ~+ m+ !+ o+ o+ ,@ >@ >@ >@ ;@ >@ U+ U+ U+ z@ z@ z@ z@ 7@ 7@ U+ U+ U+ U+ U+ U+ A@ A@ B@ B@ B@ A@ A@ C@ 7@ ;@ >@ o+ r+ D@ E@ u+ Z  Z  Z  Z  Z  Z  Z  Z  {@ _+ _+ _+ _+ _+ _+ _+ _+ _+ _+ _+ _+ _+ _+ _+ _+ _+ F@ f@ f@ f@ G@ H@ I@ $. $. $. $. $. $. $. $. $. $. $. $. $. $. $. $. $. $. $. $. &. &. &. &. &. &. &. &. &. &. &. &. &. &. &. &. &. &. &. ",
".  *. J@ @  @  @  @  @  @  K@ $  $  $  $  L@ M@ N@ *  *  *  O@ x. q@ ;  ;  ;  ;  ;  ;  ;  ;  ;  ;  ;  ;  ;  ,  ,  ,  ,  ,  <@ )  )  )  )  )  ~  ~  ~  ~  {  ]  ]  ]  ]  ]  ]  ]  ]  ]  ]  ]  ]  ]  ]  ]  ]  ]  ]  ]  P@ Q@ _  }  <  <  <  5+ 5+ <  <  <  <  <  <  (  ~. :  :  :  <  E. _  <  <  :  :  <  ]. ^. {. R@ {. S@ ^. /. :. :. 9  8  8  8  7  I. I. b  T@ b  b  b  b  b  w@ U@ P+ P+ P+ P+ P+ P+ P+ P+ P+ P+ P+ P+ P+ P+ P+ P+ P+ P+ P+ P+ P+ P+ P+ P+ P+ P+ P+ P+ P+ P+ P+ P+ P+ P+ P+ P+ P+ P+ P+ P+ P+ P+ P+ P+ P+ P+ P+ P+ P+ P+ P+ P+ P+ P+ P+ P+ P+ P+ P+ Q  Q  Q  Q  Q  Q  Q  Q  Q  Q  Q  Q  Q  Q  Q  Q  Q  Q  Q  Q  Q  Q  Q  Q  Q  Q  Q  Q  Q  Q  Q  Q  Q  Q  Q  Q  Q  Q  Q  Q  Q  Q  Q  Q  Q  Q  Q  Q  Q  Q  Q  Q  Q  Q  Q  Q  Q  Q  Q  Q  Q  Q  Q  Q  Q  Q  Q  Q  Q  Q  Q  Q  Q  Q  Q  Q  Q  Q  Q  Q  Q  Q  Q  Q  Q  Q  Q  Q  Q  Q  Q  Q  Q  Q  Q  Q  Q  Q  Q  Q  Q  Q  Q  Q  Q  Q  Q  Q  Q  Q  Q  Q  Q  Q  Q  Q  Q  Q  Q  Q  Q  Q  Q  Q  Q  Q  Q  Q  Q  Q  Q  Q  Q  Q  Q  Q  Q  Q  Q  Q  Q  Q  Q  Q  Q  Q  Q  Q  Q  Q  Q  Q  Q  Q  Q  Q  Q  Q  Q  Q  Q  Q  Q  Q  Q  Q  Q  Q  Q  Q  Q  Q  Q  Q  Q  Q  Q  Q  Q  Q  Q  Q  Q  Q  Q  Q  Q  Q  Q  Q  Q  Q  P+ P+ P+ P+ Q+ Q+ Q+ k. Q+ Q+ Q+ g. g. y@ y@ y@ Q+ g. g. m+ m+ m+ m+ !+ ,@ >@ ;@ >@ >@ 8@ 8@ V@ U+ U+ 8@ W@ 8@ A@ A@ 0@ X@ X@ 7@ Y@ Y@ A@ B@ B@ B@ B@ B@ Z@ B@ `@ A@ 0@ U+ >@  # >@  # -@ .# +# Z  Z  Z  Z  Z  Z  Z  Z  @# _+ _+ _+ _+ _+ _+ _+ _+ _+ _+ _+ _+ _+ _+ _+ _+ _+ f@ f@ f@ f@ ## H@ j@ $. $. $. $. $. $. $. $. $. $. $. $. $. $. $. $. $. $. $. $# &. &. &. &. &. &. &. &. &. &. &. &. &. &. &. &. &. %# k@ ",
".  &# @  @  @  @  @  @  K@ $  $  $  $  $  M@ M@ *# *  *  *  =# x. -# ;  ;  ;  ;  ;  ;  ;  ;  ;  ;  ;  ;  ;  ,  ,  ,  ,  ,  <@ )  )  )  )  )  )  ~  ~  ~  ~  ~  ;# }@ {  H+ ># ]  ]  ]  ]  ]  ]  ]  ]  ]  ]  ]  ]  '. ,# '# <  <  }  <  <  5+ 5+ <  <  <  <  <  <  <  :  :  <  <  <  E. E. <  <  <  {. <  {. 5+ ^. C. ^. 1  /. (. :. :. 5  K+ 8  9  8  I. b  w@ T@ T@ T@ b  b  b  T@ )# *+ Q+ Q+ Q+ Q+ Q+ Q+ Q+ Q+ Q+ Q+ Q+ Q+ Q+ Q+ Q+ Q+ Q+ Q+ Q+ Q+ Q+ Q+ Q+ Q+ Q+ Q+ Q+ Q+ Q+ Q+ Q+ Q+ Q+ Q+ Q+ Q+ Q+ Q+ Q+ Q+ Q+ Q+ Q+ Q+ Q+ Q+ Q+ Q+ Q+ Q+ Q+ Q+ Q+ Q+ Q+ Q+ Q+ Q+ Q+ Q+ Q+ Q+ Q+ Q+ Q+ Q+ Q+ Q+ Q+ Q+ Q+ Q+ Q+ Q+ Q+ Q+ Q+ Q+ Q+ Q+ Q+ Q+ Q+ Q+ Q+ Q+ Q+ Q+ Q+ Q+ Q+ Q+ Q+ Q+ Q+ Q+ Q+ Q+ Q+ Q+ Q+ Q+ Q+ Q+ Q+ Q+ Q+ Q+ Q+ Q+ Q+ Q+ Q+ Q+ Q+ Q+ Q+ Q+ Q+ Q+ Q+ Q+ Q+ Q+ Q+ Q+ Q+ Q+ Q+ Q+ Q+ Q+ Q+ Q+ Q+ Q+ Q+ Q+ Q+ Q+ Q+ Q+ Q+ Q+ Q+ Q+ Q+ Q+ Q+ Q+ Q+ Q+ Q+ Q+ Q+ Q+ Q+ Q+ Q+ Q+ Q+ Q+ Q+ Q+ Q+ Q+ Q+ Q+ Q+ Q+ Q+ Q+ Q+ Q+ Q+ Q+ Q+ Q+ Q+ Q+ Q+ Q+ Q+ Q+ Q+ Q+ Q+ Q+ Q+ Q+ Q+ Q+ Q+ Q+ Q+ Q+ Q+ Q+ Q+ Q+ Q+ Q+ Q+ Q+ Q+ Q+ Q+ Q+ Q+ Q+ Q+ Q+ Q+ Q+ Q+ Q+ Q+ Q+ Q+ Q+ Q+ Q+ Q+ Q+ Q+ Q+ Q+ Q+ Q+ Q+ Q+ Q+ Q+ Q+ Q+ Q+ Q+ Q+ Q+ Q+ Q+ Q+ Q+ Q+ Q+ Q+ Q+ Q+ Q+ Q+ Q+ ~+ k. y@ !# !# ~# ~# m+ m+ !# l+ m+ !# m+ h. h. g. h. o+ o+ o+ r+ o+ >@ U+ U+ U+ U+ A@ A@ 8@ 8@ 8@ U+ A@ A@ A@ A@ Y@ Y@ A@ A@ A@ {# {# B@ Z@ B@ ]# ^# {# `@ /# A@ B@ 9@ '@ (# _# >@ :# <# [# n. Z  Z  Z  Z  Z  Z  Z  @# _+ _+ _+ _+ _+ _+ _+ _+ _+ _+ _+ _+ _+ _+ _+ _+ _+ f@ f@ f@ f@ }# H@ j@ $. $. $. $. $. $. $. $. $. $. $. $. $. $. $. $. $. $. $# &. &. &. &. &. &. &. &. &. &. &. &. &. &. &. &. &. |# $. $. ",
"1# @  @  @  @  @  @  @  $  $  $  $  $  2# M@ M@ 3# *  *  *  4# x. -  ;  ;  ;  ;  ;  ;  ;  ;  ;  ;  ;  ;  ;  ,  ,  ,  ,  ,  <@ )  )  )  )  )  )  )  ~  ~  ~  ~  ~  ~  ~  ~  ;# ]  ]  ]  ]  ]  ]  ]  G+ 5# 6# 7# 7# 8# 9# 0# <  <  }  <  <  <  <  <  <  <  <  <  <  <  <  <  <  E. E. E. E. E. E. E. <  <  <  <  ^. 1  ^. a# b# c# G. :. 5  5  K+ 6  K+ 8  8  d# 8  8  8  8  8  8  8  8  e# ~+ m+ m+ m+ m+ m+ m+ m+ m+ m+ m+ m+ m+ m+ m+ m+ m+ m+ m+ m+ m+ m+ m+ m+ m+ m+ m+ m+ m+ m+ m+ m+ m+ m+ m+ m+ m+ m+ m+ m+ m+ m+ m+ m+ m+ m+ m+ m+ m+ m+ m+ m+ m+ m+ m+ m+ m+ m+ m+ m+ m+ m+ m+ m+ m+ m+ m+ m+ m+ m+ m+ m+ m+ m+ m+ m+ m+ m+ m+ m+ m+ m+ m+ m+ m+ m+ m+ m+ m+ m+ m+ m+ m+ m+ m+ m+ m+ m+ m+ m+ m+ m+ m+ m+ m+ m+ m+ m+ m+ m+ m+ m+ m+ m+ m+ m+ m+ m+ m+ m+ m+ m+ m+ m+ m+ m+ m+ m+ m+ m+ m+ m+ m+ m+ m+ m+ m+ m+ m+ m+ m+ m+ m+ m+ m+ m+ m+ m+ m+ m+ m+ m+ m+ m+ m+ m+ m+ m+ m+ m+ m+ m+ m+ m+ m+ m+ m+ m+ m+ m+ m+ m+ m+ m+ m+ m+ m+ m+ m+ m+ m+ m+ m+ m+ m+ m+ m+ m+ m+ m+ m+ m+ m+ m+ m+ m+ m+ m+ m+ m+ m+ m+ m+ m+ m+ m+ m+ m+ m+ m+ m+ m+ m+ m+ m+ m+ m+ m+ m+ m+ m+ m+ m+ m+ m+ m+ m+ m+ m+ m+ m+ m+ m+ m+ m+ m+ m+ m+ m+ m+ m+ m+ m+ m+ m+ m+ m+ m+ m+ m+ m+ m+ :# :# :# :# :# :# :# :# m+ -@ m+ m+ !+ o+ l+ l+ ;@ 7@ 7@ z@ Y@ z@ z@ A@ A@ A@ A@ A@ A@ A@ {# {# A@ A@ /# A@ {# {# {# Z@ ^# Z@ f# g# Z@ Z@ ^# ^# `@ /# `@ {# B@ A@ U+ a@ ,@ !+ !+ m+ h# i# j# Z  Z  Z  Z  Z  Z  Z  @# _+ _+ _+ _+ _+ _+ _+ _+ _+ _+ _+ _+ _+ _+ _+ _+ _+ f@ f@ f@ f@ f@ k# l# $. $. $. $. $. $. $. $. $. $. $. $. $. $. $. $. $. m# &. &. &. &. &. &. &. &. &. &. &. &. &. &. &. &. &. $# $. $. $. ",
"@  @  @  @  @  @  @  @  $  $  $  $  $  n# M@ M@ M@ o# *  *  *  p# -  ;  ;  ;  ;  ;  ;  ;  ;  ;  ;  ;  ;  |+ ,  ,  ,  ,  ,  <@ )  )  )  )  )  )  )  )  ~  ~  ~  ~  ~  ~  ~  ~  ># ]  ]  ]  ]  ]  ]  ]  q# r# r# r# s# t# 3+ <  C. <  C. <  <  <  <  <  <  <  <  <  <  <  <  E. E. E. <  <  <  _  _  E. _  _  <  <  {. 1  1  3  /. _. 5  5  5  K+ K+ u# 8  8  8  8  8  8  8  8  8  8  8  G. v# :# :# :# :# :# :# :# :# :# :# :# :# :# :# :# :# :# :# :# :# :# :# :# :# :# :# :# :# :# :# :# :# :# :# :# :# :# :# :# :# :# :# :# :# :# :# :# :# :# :# :# :# :# :# :# :# :# :# :# :# :# :# :# :# :# :# :# :# :# :# :# :# :# :# :# :# :# :# :# :# :# :# :# :# :# :# :# :# :# :# :# :# :# :# :# :# :# :# :# :# :# :# :# :# :# :# :# :# :# :# :# :# :# :# :# :# :# :# :# :# :# :# :# :# :# :# :# :# :# :# :# :# :# :# :# :# :# :# :# :# :# :# :# :# :# :# :# :# :# :# :# :# :# :# :# :# :# :# :# :# :# :# :# :# :# :# :# :# :# :# :# :# :# :# :# :# :# :# :# :# :# :# :# :# :# :# :# :# :# :# :# :# :# :# :# :# :# :# :# :# :# :# :# :# :# :# :# :# :# :# :# :# :# :# :# :# :# :# :# :# :# :# :# :# :# :# :# :# :# :# :# :# :# :# :# :# :# :# :# :# :# :# :# :# :# :# :# :# :# :# :# w# w# :# :# :# :# :# w# w# w# :# w# w# ;@ ;@ 7@ 7@ Y@ Y@ x# y# y# x# z# A@ B@ B@ B@ A@ {# {# Z@ /# `@ Z@ {# f# `@ ^# ^# A# g# g# g# g# Z@ A# B# C# ^# ^# g# D# W@ 9@ >@ ,@ U+ ,@ )+ ,@ E# F# Z  Z  Z  Z  Z  Z  Z  G# _+ _+ _+ _+ _+ _+ _+ _+ _+ _+ _+ _+ _+ _+ _+ _+ _+ f@ f@ f@ f@ f@ H# I# $. $. $. $. $. $. $. $. $. $. $. $. $. $. $. $. t. &. &. &. &. &. &. &. &. &. &. &. &. &. &. &. &. &. t. $. $. $. J# ",
"@  @  @  @  @  @  @  @  K# $  $  $  $  n# M@ M@ M@ L# *  *  *  M# -  ;  ;  ;  ;  ;  ;  ;  ;  ;  ;  ;  ;  >  ,  ,  ,  ,  ,  <@ )  )  )  )  )  )  )  )  )  ~  ~  ~  ~  ~  ~  ~  {  ]  ]  ]  ]  ]  ]  ]  G+ r# r# N# G+ O# <  <  C. <  C. <  <  <  <  <  <  <  <  <  <  <  <  }  <  }  }  <  E. E. E. _  _  E. P# {. ^. ^. S@ 1  /. _. (. (. (. 5  _. 5  5  5  5  5  5  5  5  5  5  5  5  5  S@ Q# ;@ ;@ ;@ ;@ ;@ ;@ ;@ ;@ ;@ ;@ ;@ ;@ ;@ ;@ ;@ ;@ ;@ ;@ ;@ ;@ ;@ ;@ ;@ ;@ ;@ ;@ ;@ ;@ ;@ ;@ ;@ ;@ ;@ ;@ ;@ ;@ ;@ ;@ ;@ ;@ ;@ ;@ ;@ ;@ ;@ ;@ ;@ ;@ ;@ ;@ ;@ ;@ ;@ ;@ ;@ ;@ ;@ ;@ ;@ ;@ ;@ ;@ ;@ ;@ ;@ ;@ ;@ ;@ ;@ ;@ ;@ ;@ ;@ ;@ ;@ ;@ ;@ ;@ ;@ ;@ ;@ ;@ ;@ ;@ ;@ ;@ ;@ ;@ ;@ ;@ ;@ ;@ ;@ ;@ ;@ ;@ ;@ ;@ ;@ ;@ ;@ ;@ ;@ ;@ ;@ ;@ ;@ ;@ ;@ ;@ ;@ ;@ ;@ ;@ ;@ ;@ ;@ ;@ ;@ ;@ ;@ ;@ ;@ ;@ ;@ ;@ ;@ ;@ ;@ ;@ ;@ ;@ ;@ ;@ ;@ ;@ ;@ ;@ ;@ ;@ ;@ ;@ ;@ ;@ ;@ ;@ ;@ ;@ ;@ ;@ ;@ ;@ ;@ ;@ ;@ ;@ ;@ ;@ ;@ ;@ ;@ ;@ ;@ ;@ ;@ ;@ ;@ ;@ ;@ ;@ ;@ ;@ ;@ ;@ ;@ ;@ ;@ ;@ ;@ ;@ ;@ ;@ ;@ ;@ ;@ ;@ ;@ ;@ ;@ ;@ ;@ ;@ ;@ ;@ ;@ ;@ ;@ ;@ ;@ ;@ ;@ ;@ ;@ ;@ ;@ ;@ ;@ ;@ ;@ ;@ ;@ ;@ ;@ ;@ ;@ ;@ ;@ ;@ ;@ ;@ ;@ ;@ ;@ ;@ ;@ ;@ ;@ ;@ ;@ ;@ ;@ ;@ ;@ ;@ ;@ ;@ ;@ ;@ ;@ ;@ ;@ ;@ ;@ ;@ ;@ ;@ ;@ ;@ ;@ ;@ ;@ ;@ ;@ ;@ ;@ ;@ R# ;@ ;@ ;@ ;@ ;@ z@ z@ Y@ Y@ Y@ A@ A@ A@ `@ `@ A@ `@ {# S# C# `@ ^# A# ^# S# A# A# ^# A# A# `@ T# B# B# A# ^# A# A# A# g# A# A# ^# ^# C# `@ Z@ W@ U+ >@ U# '@ )+ o+ V# W# j# Z  Z  Z  Z  Z  Z  Z  _+ _+ _+ _+ _+ _+ _+ _+ _+ _+ _+ _+ _+ _+ _+ _+ _+ f@ f@ f@ f@ f@ X# I# $. $. $. $. $. $. $. $. $. $. $. $. $. $. $. %# &. &. &. &. &. &. &. &. &. &. &. &. &. &. &. &. &. &. $. $. $. Y# Z# ",
"@  @  @  @  @  @  @  @  @  `# $  $  $  n# M@ M@ M@ M@ *  *  *  p@  $ ;  ;  |+ .$ +$ >  ;  ;  ;  ;  ;  ;  @$ ,  ,  ,  ,  ,  y. )  )  )  )  )  )  )  )  )  )  ~  ~  ~  ~  ;# ># #$ ]  ]  ]  ]  ]  ]  ]  ]  s# r# $$ %$ &$ <  <  <  <  <  <  <  <  <  <  :  <  <  <  <  <  <  <  <  }  }  <  <  E. E. E. E. <  <  }  |  ^. ^. 1  3  3  H. 2  /. 3  (. 3  (. (. (. (. (. (. (. (. (. (. (. (. (. *$ z@ z@ z@ z@ z@ z@ z@ z@ z@ z@ z@ z@ z@ z@ z@ z@ z@ z@ z@ z@ z@ z@ z@ z@ z@ z@ z@ z@ z@ z@ z@ z@ z@ z@ z@ z@ z@ z@ z@ z@ z@ z@ z@ z@ z@ z@ z@ z@ z@ z@ z@ z@ z@ z@ z@ z@ z@ z@ z@ z@ z@ z@ z@ z@ z@ z@ z@ z@ z@ z@ z@ z@ z@ z@ z@ z@ z@ z@ z@ z@ z@ z@ z@ z@ z@ z@ z@ z@ z@ z@ z@ z@ z@ z@ z@ z@ z@ z@ z@ z@ z@ z@ z@ z@ z@ z@ z@ z@ z@ z@ z@ z@ z@ z@ z@ z@ z@ z@ z@ z@ z@ z@ z@ z@ z@ z@ z@ z@ z@ z@ z@ z@ z@ z@ z@ z@ z@ z@ z@ z@ z@ z@ z@ z@ z@ z@ z@ z@ z@ z@ z@ z@ z@ z@ z@ z@ z@ z@ z@ z@ z@ z@ z@ z@ z@ z@ z@ z@ z@ z@ z@ z@ z@ z@ z@ z@ z@ z@ z@ z@ z@ z@ z@ z@ z@ z@ z@ z@ z@ z@ z@ z@ z@ z@ z@ z@ z@ z@ z@ z@ z@ z@ z@ z@ z@ z@ z@ z@ z@ z@ z@ z@ z@ z@ z@ z@ z@ z@ z@ z@ z@ z@ z@ z@ z@ z@ z@ z@ z@ z@ z@ z@ z@ z@ z@ z@ z@ z@ z@ z@ z@ z@ z@ z@ z@ z@ z@ z@ z@ z@ z@ z@ z@ z@ Y@ z@ z@ z@ z@ z@ 8@ A@ 8@ {# `@ S# S# `@ `@ A# `@ S# S# A# ^# A# A# A# S# A# B# T# T# ^# ^# A# B# B# B# A# B# A# A# B# B# B# ^# A# ^# =$ ^# ^# A# Z@ Z@ Z@ W@ W@ U# T+ 7@ -$ ;$ >$ Z  Z  Z  Z  Z  Z  Z  x+ _+ _+ _+ _+ _+ _+ _+ _+ _+ _+ _+ _+ _+ _+ _+ _+ f@ f@ f@ f@ f@ f@ ,$ $. $. $. $. $. $. $. $. $. $. $. $. $. k@ &. &. &. &. &. &. &. &. &. &. &. &. &. &. &. &. &. &. &. m# $. $. '$ Z# Z# ",
"@  @  @  @  @  @  @  @  @  )$ $  $  $  n# M@ M@ M@ M@ !$ *  *  ~$ x. ;  ;  {$ ,  ,  ,  {$ >  >  @$ .$ ,  ,  ,  ,  ,  ,  ,  `+ )  )  )  )  )  )  )  )  )  )  )  ~  ~  ~  ;# ]  ]  ]  ]  ]  ]  ]  ]  ]  ]  ]  ]$ <@ ^$ C. <  <  <  :  <  <  <  <  <  :  :  <  <  <  <  <  <  <  <  <  <  }  <  <  <  <  E. E. <  <  {. ]. (  /$ 1  H. H. ($ H. H. 3  3  H. 1  ^. 1  1  1  1  1  1  H. 3  3  3  }  8@ {# {# {# {# {# {# {# {# {# {# {# {# {# {# {# {# {# {# {# {# {# {# {# {# {# {# {# {# {# {# {# {# {# {# {# {# {# {# {# {# {# {# {# {# {# {# {# {# {# {# {# {# {# {# {# {# {# {# {# {# {# {# {# {# {# {# {# {# {# {# {# {# {# {# {# {# {# {# {# {# {# {# {# {# {# {# {# {# {# {# {# {# {# {# {# {# {# {# {# {# {# {# {# {# {# {# {# {# {# {# {# {# {# {# {# {# {# {# {# {# {# {# {# {# {# {# {# {# {# {# {# {# {# {# {# {# {# {# {# {# {# {# {# {# {# {# {# {# {# {# {# {# {# {# {# {# {# {# {# {# {# {# {# {# {# {# {# {# {# {# {# {# {# {# {# {# {# {# {# {# {# {# {# {# {# {# {# {# {# {# {# {# {# {# {# {# {# {# {# {# {# {# {# {# {# {# {# {# {# {# {# {# {# {# {# {# {# {# {# {# {# {# {# {# {# {# {# {# {# {# {# {# {# {# {# {# {# {# {# {# {# {# {# {# {# {# {# {# {# {# {# {# {# {# f# {# {# {# {# {# {# f# {# `@ A# B# A# B# _$ _$ :$ _$ _$ :$ <$ [$ [$ A# A# _$ S# <$ ^# B# A# A# <$ S# A# A# A# B# }$ }$ A# B# B# }$ B# B# A# }$ A# }$ ^# A@ 8@ W@ U+ l+ W@ |$ 1$ Z  Z  Z  Z  Z  Z  Z  (+ _+ _+ _+ _+ _+ _+ _+ _+ _+ _+ _+ _+ _+ _+ _+ _+ f@ f@ f@ f@ f@ f@ 2$ $. $. $. $. $. $. $. $. $. $. $. $. k@ &. &. &. &. &. &. &. &. &. &. &. &. &. &. &. &. &. &. &. &. $. $. 3$ Z# Z# Z# ",
"@  @  @  @  @  @  @  @  @  @  K@ $  $  4$ M@ M@ M@ M@ 5$ *  *  6$ x. ;  |+ ,  ,  ,  ,  ,  ,  ,  ,  ,  ,  ,  ,  ,  ,  ,  ,  `+ )  )  )  )  )  )  )  )  )  )  )  !  ~  ~  ~  #$ ]  ]  ]  ]  ]  '. '. ]  ]  ]  7$ 8$ 9$ u@ C. <  <  :  <  <  <  <  <  <  :  <  <  }  <  <  <  }  <  <  }  }  }  <  <  }  <  <  <  <  <  |  <  0$ }  ^. ^. ^. 1  1  a$ b$ c$ _# >@ >@ 8@ U+ >@ d$ _# c$ e$ f$ f$ b$ {# S# S# S# S# S# S# S# S# S# S# S# S# S# S# S# S# S# S# S# S# S# S# S# S# S# S# S# S# S# S# S# S# S# S# S# S# S# S# S# S# S# S# S# S# S# S# S# S# S# S# S# S# S# S# S# S# S# S# S# S# S# S# S# S# S# S# S# S# S# S# S# S# S# S# S# S# S# S# S# S# S# S# S# S# S# S# S# S# S# S# S# S# S# S# S# S# S# S# S# S# S# S# S# S# S# S# S# S# S# S# S# S# S# S# S# S# S# S# S# S# S# S# S# S# S# S# S# S# S# S# S# S# S# S# S# S# S# S# S# S# S# S# S# S# S# S# S# S# S# S# S# S# S# S# S# S# S# S# S# S# S# S# S# S# S# S# S# S# S# S# S# S# S# S# S# S# S# S# S# S# S# S# S# S# S# S# S# S# S# S# S# S# S# S# S# S# S# S# S# S# S# S# S# S# S# S# S# S# S# S# S# S# S# S# S# S# S# S# S# S# S# S# S# S# S# S# S# S# S# S# S# S# S# S# S# S# S# S# S# S# S# S# S# S# S# S# S# S# S# S# S# S# S# S# S# S# S# S# S# S# [$ A# S# <$ <$ _$ _$ _$ _$ _$ _$ _$ _$ _$ :$ _$ _$ _$ _$ [$ :$ [$ [$ [$ [$ [$ [$ A# _$ [$ _$ _$ B# S# }$ A# B# B# A# A# B# A# B# A# A# `@ {# {# {# U+ T+ g$ m# j# Z  Z  Z  Z  Z  Z  Z  w+ _+ _+ _+ _+ _+ _+ _+ _+ _+ _+ _+ _+ _+ _+ _+ f@ f@ f@ f@ f@ f@ h$ $. $. $. $. $. $. $. $. $. $. $. $. &. &. &. &. &. &. &. &. &. &. &. &. &. &. &. &. &. &. &. &. t. $. $. +# Z# Z# Z# ",
"@  @  @  @  @  @  @  @  @  @  D+ $  $  4$ M@ M@ M@ M@ i$ *  *  *  x. ;  .$ ,  ,  ,  ,  ,  ,  ,  ,  ,  ,  ,  ,  ,  ,  ,  ,  `+ )  )  )  )  )  )  )  )  )  )  )   @ ~  ~  ~  ;# ]  ]  ]  ]  '. j$ j$ j$ '. ]  k$ l$ m$ R@ C. <  <  :  :  <  <  <  <  <  <  <  }  <  }  <  <  }  }  }  <  <  <  <  <  <  }  <  <  <  <  <  _  5+ u@ <  <  _  n$ o$ Z@ A# A# A# A# _$ _$ _$ B# A# A# A# g# g# A# A# _$ _$ _$ _$ _$ _$ _$ _$ _$ _$ _$ _$ _$ _$ _$ _$ _$ _$ _$ _$ _$ _$ _$ _$ _$ _$ _$ _$ _$ _$ _$ _$ _$ _$ _$ _$ _$ _$ _$ _$ _$ _$ _$ _$ _$ _$ _$ _$ _$ _$ _$ _$ _$ _$ _$ _$ _$ _$ _$ _$ _$ _$ _$ _$ _$ _$ _$ _$ _$ _$ _$ _$ _$ _$ _$ _$ _$ _$ _$ _$ _$ _$ _$ _$ _$ _$ _$ _$ _$ _$ _$ _$ _$ _$ _$ _$ _$ _$ _$ _$ _$ _$ _$ _$ _$ _$ _$ _$ _$ _$ _$ _$ _$ _$ _$ _$ _$ _$ _$ _$ _$ _$ _$ _$ _$ _$ _$ _$ _$ _$ _$ _$ _$ _$ _$ _$ _$ _$ _$ _$ _$ _$ _$ _$ _$ _$ _$ _$ _$ _$ _$ _$ _$ _$ _$ _$ _$ _$ _$ _$ _$ _$ _$ _$ _$ _$ _$ _$ _$ _$ _$ _$ _$ _$ _$ _$ _$ _$ _$ _$ _$ _$ _$ _$ _$ _$ _$ _$ _$ _$ _$ _$ _$ _$ _$ _$ _$ _$ _$ _$ _$ _$ _$ _$ _$ _$ _$ _$ _$ _$ _$ _$ _$ _$ _$ _$ _$ _$ _$ _$ _$ _$ _$ _$ _$ _$ _$ _$ _$ _$ _$ _$ _$ _$ _$ _$ _$ _$ _$ _$ _$ _$ _$ _$ _$ _$ _$ _$ _$ _$ _$ _$ _$ _$ _$ _$ _$ _$ _$ _$ _$ _$ _$ _$ _$ _$ _$ _$ _$ _$ _$ _$ _$ _$ _$ _$ _$ _$ _$ _$ _$ _$ _$ _$ _$ _$ B# B# :$ _$ B# B# _$ <$ [$ [$ <$ <$ <$ A# <$ p$ S# T# A# B# S# `@ ^# {# A@ Y@ q$ r$ F# Z  Z  Z  Z  Z  Z  Z  Z  _+ _+ _+ _+ _+ _+ _+ _+ _+ _+ _+ _+ _+ _+ _+ f@ f@ f@ f@ f@ f@ s$ $. $. $. $. $. $. $. $. $. $. $. %# &. &. &. &. &. &. &. &. &. &. &. &. &. &. &. &. &. &. &. &. %. $. $. Y# Z# Z# Z# ",
"@  @  @  @  @  @  @  @  @  @  =. $  $  t$ M@ M@ M@ M@ u$ *  *  *  x. v$ ,  ,  ,  ,  ,  ,  ,  ,  ,  ,  ,  ,  ,  ,  ,  ,  ,  )  )  )  )  )  )  )  )  )  )  )  )  G+ ~  ~  ~  ~  w$ ]  ]  ]  z. j$ j$ j$ j$ ]  x$ y$ z$ 3+ C. <  <  <  :  :  <  <  <  <  <  <  <  }  <  <  }  }  }  }  <  <  <  <  <  <  <  <  <  <  <  5+ _  u@ <  A$ B$ o$ g# _$ _$ _$ _$ _$ _$ _$ _$ _$ _$ _$ _$ _$ _$ _$ _$ _$ _$ _$ _$ _$ _$ _$ _$ _$ _$ _$ _$ _$ _$ _$ _$ _$ _$ _$ _$ _$ _$ _$ _$ _$ _$ _$ _$ _$ _$ _$ _$ _$ _$ _$ _$ _$ _$ _$ _$ _$ _$ _$ _$ _$ _$ _$ _$ _$ _$ _$ _$ _$ _$ _$ _$ _$ _$ _$ _$ _$ _$ _$ _$ _$ _$ _$ _$ _$ _$ _$ _$ _$ _$ _$ _$ _$ _$ _$ _$ _$ _$ :$ _$ B# _$ _$ _$ _$ C$ C$ D$ E$ E$ E$ E$ E$ F$ F$ F$ F$ F$ F$ G$ H$ H$ H$ H$ H$ H$ H$ H$ H$ H$ H$ H$ H$ H$ H$ H$ H$ H$ H$ H$ H$ H$ H$ H$ H$ H$ H$ H$ H$ H$ H$ H$ H$ H$ H$ H$ H$ H$ H$ H$ F$ F$ F$ F$ F$ F$ E$ E$ E$ E$ E$ D$ C$ _$ _$ _$ _$ _$ [$ :$ :$ _$ _$ _$ _$ _$ _$ _$ _$ _$ _$ _$ _$ _$ _$ _$ _$ _$ _$ _$ _$ _$ _$ _$ _$ _$ _$ _$ _$ _$ _$ _$ _$ _$ _$ _$ _$ _$ _$ _$ _$ _$ _$ _$ _$ _$ _$ _$ _$ _$ _$ _$ _$ _$ _$ _$ _$ _$ _$ _$ _$ _$ _$ _$ _$ _$ _$ _$ _$ _$ _$ _$ _$ _$ _$ _$ _$ _$ _$ _$ _$ _$ _$ _$ _$ _$ _$ _$ _$ _$ _$ _$ _$ _$ _$ _$ _$ _$ _$ _$ _$ _$ _$ _$ _$ _$ _$ _$ _$ _$ _$ _$ _$ _$ _$ _$ _$ _$ _$ _$ _$ _$ _$ _$ _$ _$ _$ B# B# A# _$ :$ S# [$ _$ B# A# I$ p$ J$ A# }$ B# A# ^# ^# ]# B@ A@ K$ L$ M$ Z  Z  Z  Z  Z  Z  Z  Z  {@ _+ _+ _+ _+ _+ _+ _+ _+ _+ _+ _+ _+ _+ _+ f@ f@ f@ f@ f@ f@ N$ $. $. $. $. $. $. $. $. $. $. $# &. &. &. &. &. &. &. &. &. &. &. &. &. &. &. &. &. &. &. &. &. $. $. $. Z# Z# Z# Z# ",
"@  @  @  @  @  @  @  @  @  O$ $  $  2# M@ M@ M@ M@ M@ M@ *  *  *  P$ ,  ,  ,  ,. `+ `+ y. `+ `+ ,. ,  ,  ,  ,  ,  ,  ,  ,  )  )  )  )  )  )  )  )  )  )  !  G+ ~  ~  ~  ~  ~  w$ ]  ]  ]  Q$ j$ j$ j$ j$ R$ S$ T$ U$ V$ :  :  <  <  <  <  :  <  <  <  <  <  <  <  }  <  <  }  <  <  <  <  <  <  <  <  <  <  <  <  <  u@ u@ W$ X$ o$ A# _$ _$ _$ _$ _$ _$ _$ _$ _$ _$ _$ _$ _$ _$ _$ _$ _$ _$ _$ _$ _$ _$ _$ _$ _$ _$ _$ _$ _$ _$ _$ _$ _$ _$ _$ _$ _$ _$ _$ _$ _$ _$ _$ _$ _$ _$ _$ _$ _$ _$ _$ _$ _$ _$ _$ _$ _$ _$ _$ _$ _$ _$ _$ _$ _$ _$ _$ _$ _$ _$ _$ _$ _$ _$ _$ _$ _$ _$ _$ :$ A# _$ _$ _$ C$ E$ E$ E$ E$ E$ F$ G$ G$ Y$ Y$ Z$ Z$ `$  %  % .%  % +% +% +% +% @% @% @% @% #% $% $% $% $% %% %% %% %% &% &% &% &% &% &% *% *% *% *% *% *% *% *% *% =% =% =% =% =% =% =% =% =% =% =% =% =% =% =% *% *% *% *% *% *% *% *% *% *% &% &% &% &% &% %% %% %% %% $% $% $% #% #% @% @% @% +% +% +% +% @%  % .%  % -%  % Z$ Z$ Y$ G$ G$ G$ F$ E$ E$ E$ E$ E$ C$ _$ _$ _$ <$ :$ _$ _$ _$ _$ _$ _$ _$ _$ _$ _$ _$ _$ _$ _$ _$ _$ _$ _$ _$ _$ _$ _$ _$ _$ _$ _$ _$ _$ _$ _$ _$ _$ _$ _$ _$ _$ _$ _$ _$ _$ _$ _$ _$ _$ _$ _$ _$ _$ _$ _$ _$ _$ _$ _$ _$ _$ _$ _$ _$ _$ _$ _$ _$ _$ _$ _$ _$ _$ _$ _$ _$ _$ _$ _$ _$ _$ _$ _$ _$ _$ _$ _$ _$ _$ _$ _$ _$ _$ _$ _$ _$ _$ _$ _$ _$ _$ _$ _$ _$ _$ _$ _$ _$ _$ _$ _$ _$ <$ <$ [$ S# A# [$ S# B# _$ T# p$ I$ I$ T# B# =$ =$ ^# Z@ W@ 0@ ;% $# j# Z  Z  Z  Z  Z  Z  Z  Z  w+ _+ _+ _+ _+ _+ _+ _+ _+ _+ _+ _+ _+ _+ f@ f@ f@ f@ f@ f@ N$ $. $. $. $. $. $. $. $. $. $. %# &. &. &. &. &. &. &. &. &. &. &. &. &. &. &. &. &. &. &. &. t. $. $. J# Z# Z# Z# Z# ",
"@  @  @  @  @  @  @  @  @  K@ $  $  >% ,% M@ M@ M@ M@ M@ '% *  *  ,  ,  ,  ,  )  )  )  )  )  )  )  ,  ,  ,  ,  ,  ,  ,  ,. )  )  )  )  )  )  )   @ G+ ~  ~  ~  ~  ~  ~  ~  ~  ]  ]  ]  ]  )% j$ j$ j$ j$ !% ~% {% E. (  <  <  <  <  <  <  <  :  <  <  <  <  <  }  }  }  <  <  <  <  <  <  <  <  <  <  <  5+ <  <  <  <  ]% ^% A# _$ _$ _$ _$ _$ _$ _$ _$ _$ _$ _$ _$ _$ _$ _$ _$ _$ _$ _$ _$ _$ _$ _$ _$ _$ _$ _$ _$ _$ _$ _$ _$ _$ _$ _$ _$ _$ _$ _$ _$ _$ _$ _$ _$ _$ _$ _$ _$ _$ _$ _$ _$ _$ _$ _$ _$ _$ _$ _$ _$ _$ _$ _$ _$ _$ _$ _$ _$ _$ _$ _$ _$ _$ B# _$ E$ E$ E$ F$ /% `$ `$ `$  % .% @% @% @% @% $% #% (% (% &% _% _% =% =% =% :% <% <% <% <% [% [% }% |% |% |% |% |% |% 1% 1% 2% 2% 2% 2% 2% 3% 2% 2% 2% 2% 4% 5% 5% 5% 5% 5% 5% 5% 5% 5% 5% 6% 6% 6% 6% 6% 6% 6% 6% 6% 6% 6% 6% 6% 6% 6% 5% 5% 5% 5% 5% 5% 5% 5% 5% 5% 4% 2% 2% 2% 2% 3% 2% 2% 2% 2% 2% 1% |% |% |% |% |% |% |% }% [% [% <% <% <% <% :% =% =% _% _% _% &% &% %% #% $% @% @% @% @% .%  % `$ `$ `$ /% F$ E$ E$ E$ _$ _$ B# _$ _$ _$ _$ _$ _$ _$ _$ _$ _$ _$ _$ _$ _$ _$ _$ _$ _$ _$ _$ _$ _$ _$ _$ _$ _$ _$ _$ _$ _$ _$ _$ _$ _$ _$ _$ _$ _$ _$ _$ _$ _$ _$ _$ _$ _$ _$ _$ _$ _$ _$ _$ _$ _$ _$ _$ _$ _$ _$ _$ _$ _$ _$ _$ _$ _$ _$ _$ _$ _$ _$ _$ _$ _$ _$ _$ _$ _$ _$ _$ _$ _$ _$ _$ _$ _$ _$ _$ _$ _$ _$ _$ _$ _$ _$ _$ _$ _$ _$ <$ <$ <$ [$ S# [$ S# _$ B# I$ I$ B# B# B# A# {# Z@ B@ A@ A@ 7% 8% 1$ Z  Z  Z  Z  Z  Z  Z  Z  Z  _+ _+ _+ _+ _+ _+ _+ _+ _+ _+ _+ _+ _+ f@ f@ f@ f@ f@ f@ N$ $. $. $. $. $. $. $. $. $. k@ %# m# |# m# %# &. &. &. &. &. &. &. &. &. &. &. &. &. &. &. &. %. $. $. Z# Z# Z# Z# Z# ",
"@  @  @  @  @  @  @  @  @  $  $  9% 0% t$ M@ M@ M@ M@ M@ !$ *  *  ,  ,  ,  ,  )  )  )  )  )  )  )  '  ,  ,  ,  ,  ,  ,  <@ )  )  )  )  )  )  )  a% ~  ~  ~  ~  ~  ~  ~  ~  ~  ]  ]  ]  ]  )% j$ j$ j$ j$ b% c% P# u@ :  <  <  <  <  <  <  <  <  <  <  <  <  <  }  }  <  <  <  <  <  <  <  <  <  <  <  <  5+ <  <  <  A$ d% A# _$ _$ _$ _$ _$ _$ _$ _$ _$ _$ _$ _$ _$ _$ _$ _$ _$ _$ _$ _$ _$ _$ _$ _$ _$ _$ _$ _$ _$ _$ _$ _$ _$ _$ _$ _$ _$ _$ _$ _$ _$ _$ _$ _$ _$ _$ _$ _$ _$ _$ _$ _$ _$ _$ _$ _$ _$ _$ _$ _$ _$ :$ S# T# _$ _$ C$ F$ H$ H$ /% -%  %  %  % $% $% %% e% *% =% f% <% <% [% |% |% |% |% |% |% g% h% 2% 2% 2% 3% 3% i% 6% j% k% k% k% k% l% m% n% n% n% o% o% o% o% p% p% q% q% q% q% q% q% q% r% r% s% t% u% t% t% t% t% t% t% t% t% t% t% v% v% w% w% w% w% w% w% w% w% w% v% v% t% t% t% t% t% t% t% t% t% t% u% u% s% r% r% q% q% q% q% q% q% q% p% o% o% o% o% o% n% n% n% m% l% k% k% k% k% j% 6% i% 3% 2% 2% 2% 2% h% g% |% |% |% |% |% |% [% <% <% f% =% *% %% (% #% $% +%  % -% Z$ /% H$ H$ F$ D$ _$ _$ S# S# :$ _$ _$ _$ _$ _$ _$ _$ _$ _$ _$ _$ _$ _$ _$ _$ _$ _$ _$ _$ _$ _$ _$ _$ _$ _$ _$ _$ _$ _$ _$ _$ _$ _$ _$ _$ _$ _$ _$ _$ _$ _$ _$ _$ _$ _$ _$ _$ _$ _$ _$ _$ _$ _$ _$ _$ _$ _$ _$ _$ _$ _$ _$ _$ _$ _$ _$ _$ _$ _$ _$ _$ _$ _$ _$ _$ _$ _$ _$ _$ _$ _$ _$ _$ _$ _$ _$ _$ _$ _$ _$ _$ <$ [$ S# A# _$ _$ B# T# <$ A# S# A# D# B@ Z@ ^# x% y% z% Z  Z  Z  Z  Z  Z  Z  Z  Z  {@ _+ _+ _+ _+ _+ _+ _+ _+ _+ _+ _+ _+ f@ f@ f@ f@ f@ A% B% $. $. $. $. $. $. $. $. $. $. $. $. $. $. $. $# &. &. &. &. &. &. &. &. &. &. &. &. &. &. &. $. $. +# Z# Z# Z# Z# Z# ",
"@  @  @  @  @  @  @  @  )$ $  $  C% 0% t$ M@ M@ M@ M@ M@ !$ *  D% ,  ,  ,  ,. )  )  )  )  )  )  )  <@ ,  ,  ,  ,  ,  ,  `+ )  )  )  )  )  )  )  )  ~  ~  ~  ~  ~  ~  ~  ~  }@ ]  ]  ]  ]  )% j$ j$ j$ E% F% G% E. :  <  <  <  <  <  <  <  <  <  <  <  <  <  <  }  }  }  <  <  <  <  <  <  <  <  <  <  <  <  <  <  u@ X$ g# _$ _$ _$ _$ _$ _$ _$ _$ _$ _$ _$ _$ _$ _$ _$ _$ _$ _$ _$ _$ _$ _$ _$ _$ _$ _$ _$ _$ _$ _$ _$ _$ _$ _$ _$ _$ _$ _$ _$ _$ _$ _$ _$ _$ _$ _$ _$ _$ _$ _$ _$ _$ _$ _$ _$ _$ [$ [$ _$ _$ E$ G$ /% Z$  % @% $% (% (% _% =% :% <% [% |% |% 2% 2% 2% 4% 5% 6% 6% 6% j% l% l% l% m% n% o% o% o% p% q% q% q% u% u% u% t% v% v% v% H% I% I% I% J% K% K% K% K% K% K% L% M% M% M% M% N% N% O% P% P% P% Q% Q% R% Q% Q% Q% Q% Q% S% S% S% S% S% S% S% S% S% S% S% S% S% S% S% S% S% S% S% S% S% S% S% T% Q% Q% Q% Q% R% R% U% P% P% N% O% N% N% M% M% M% M% L% K% K% K% K% K% V% V% I% I% I% H% v% v% v% t% u% u% r% q% q% q% p% o% o% o% n% m% l% l% l% j% 6% 6% 6% 5% 4% 2% 2% h% W% |% }% <% :% =% _% (% (% $% @%  % Z$ /% H$ E$ _$ _$ T# :$ _$ _$ _$ _$ _$ _$ _$ _$ _$ _$ _$ _$ _$ _$ _$ _$ _$ _$ _$ _$ _$ _$ _$ _$ _$ _$ _$ _$ _$ _$ _$ _$ _$ _$ _$ _$ _$ _$ _$ _$ _$ _$ _$ _$ _$ _$ _$ _$ _$ _$ _$ _$ _$ _$ _$ _$ _$ _$ _$ _$ _$ _$ _$ _$ _$ _$ _$ _$ _$ _$ _$ _$ _$ _$ _$ _$ _$ _$ _$ _$ _$ :$ _$ _$ _$ _$ B# S# S# [$ _$ B# B# _$ A# A# A# B# ^# B@ ^# ^# X% $# Z  Z  Z  Z  Z  Z  Z  Z  Z  Z  v+ _+ _+ _+ _+ _+ _+ _+ _+ _+ o. _+ f@ f@ f@ f@ f@ Y% Z% $. $. $. $. $. $. $. $. $. $. $. $. $. $. $. $. $# &. &. &. &. &. &. &. &. &. &. &. &. &. t. $. $. Z# Z# Z# Z# Z# Z# ",
"@  @  @  @  @  @  @  @  K# $  $  `% 0% t$ M@ M@ M@ M@ M@ !$ *   & ,  ,  ,  ,. )  )  )  )  )  )  )  <@ ,  ,  ,  ,  ,  ,  )  )  )  )  )  )  )  )  )   @ ~  ~  ~  ~  ~  ~  ~  H+ ]  ]  ]  ]  )% j$ j$ j$ .& +& <  ~. :  <  <  <  <  <  <  <  <  <  <  <  <  <  <  <  }  }  <  <  <  <  <  <  <  <  <  <  <  <  <  <  @& #& _$ _$ _$ _$ _$ _$ _$ _$ _$ _$ _$ _$ _$ _$ _$ _$ _$ _$ _$ _$ _$ _$ _$ _$ _$ _$ _$ _$ _$ _$ _$ _$ _$ _$ _$ _$ _$ _$ _$ _$ _$ _$ _$ _$ _$ _$ _$ _$ _$ _$ _$ :$ _$ _$ E$ F$ H$ /% /%  % $% #% =% <% |% W% W% 2% 2% 2% 3% 6% 6% 6% j% l% l% n% o% $& p% p% u% u% t% v% v% %& && I% I% J% K% K% K% M% M% M% N% N% P% P% Q% *& *& =& -& ;& >& ,& '& '& '& )& !& !& ~& {& ]& ]& ^& ^& /& /& (& (& (& _& _& _& _& :& <& <& <& <& [& [& [& [& [& [& }& }& |& |& |& |& |& }& }& [& [& [& [& [& 1& 1& <& <& <& :& :& _& _& 2& (& (& /& /& /& ^& ^& ]& ]& {& {& ~& !& )& '& '& 3& ,& >& ;& ;& S% *& *& Q% 4& P% N% N% M% M% M% 5& K% K% J% I% I% && %& v% w% t% u% u% p% p% $& o% n% l% l% k% j% 6% 6% 3% 2% 2% 2% W% |% [% <% =% #% $%  % /% /% H$ G$ E$ _$ _$ :$ _$ _$ _$ _$ _$ _$ _$ _$ _$ _$ _$ _$ _$ _$ _$ _$ _$ _$ _$ _$ _$ _$ _$ _$ _$ _$ _$ _$ _$ _$ _$ _$ _$ _$ _$ _$ _$ _$ _$ _$ _$ _$ _$ _$ _$ _$ _$ _$ _$ _$ _$ _$ _$ _$ _$ _$ _$ _$ _$ _$ _$ _$ _$ _$ _$ _$ _$ _$ _$ _$ _$ _$ _$ _$ _$ :$ :$ _$ _$ _$ B# T# [$ S# S# <$ <$ B# B# A# A# A# B# }$ ]# ^# 6& 7& 1$ Z  Z  Z  Z  Z  Z  Z  Z  Z  G# _+ _+ _+ _+ _+ _+ _+ _+ _+ 8& _+ f@ f@ f@ f@ f@ 9& 0& a& $. $. $. $. $. $. $. $. $. $. $. $. $. $. $. $. <+ &. &. &. &. &. &. &. &. &. &. &. &. %. $. $. Y# Z# Z# Z# Z# Z# ",
"@  @  @  @  @  @  @  @  %  $  $  b& 0% t$ M@ M@ M@ M@ M@ !$ *   & ,  ,  ,  '  )  )  )  )  )  )  )  `+ ,. ,  ,  ,  ,  c& )  )  )  )  )  )  )  )  )  )  d& ~  ~  ~  ~  ~  ~  ]  ]  ]  ]  ]  )% j$ j$ j$ e& f& (  <  <  <  <  <  <  <  <  <  <  <  <  <  <  <  <  <  <  <  <  <  <  <  <  <  <  <  <  <  <  <  <  5+ g& g# _$ _$ _$ _$ _$ _$ _$ _$ _$ _$ _$ _$ _$ _$ _$ _$ _$ _$ _$ _$ _$ _$ _$ _$ _$ _$ _$ _$ _$ _$ _$ _$ _$ _$ _$ _$ _$ _$ _$ _$ _$ _$ _$ _$ _$ _$ _$ _$ E$ F$ G$ /%  % .% (% _% <% |% h% 2% 6% 6% 6% 6% l% l% l% n% o% $& p% q% u% u% w% v% %& I% I% h& K% K% M% M% P% P% P% Q% Q% S% ;& >& i& '& j& !& !& {& k& l& l& m& n& _& o& 1& [& }& |& p& q& q& r& s& t& t& u& v& w& x& y& z& A& B& C& C& D& E& E& F& G& G& H& I& J& J& K& K& K& K& K& K& K& L& L& L& L& L& L& L& M& K& K& K& K& K& J& J& J& J& H& G& G& N& F& O& O& C& C& B& A& y& x& x& w& v& u& t& t& s& r& P& p& Q& R& |& [& 1& <& _& n& S& l& l& k& {& !& !& T& '& '& >& ;& S% Q% Q% 4& P% P% M% M% U& K% V& I% I% %& v% w% u% u% r% p% $& n% n% l% l% j% j% 6% 6% 6% 2% W% |% <% =% (% W&  % /% G$ F$ D$ _$ _$ _$ _$ _$ _$ _$ _$ _$ _$ _$ _$ _$ _$ _$ _$ _$ _$ _$ _$ _$ _$ _$ _$ _$ _$ _$ _$ _$ _$ _$ _$ _$ _$ _$ _$ _$ _$ _$ _$ _$ _$ _$ _$ _$ _$ _$ _$ _$ _$ _$ _$ _$ _$ _$ _$ _$ _$ _$ _$ _$ _$ _$ _$ _$ _$ _$ _$ _$ _$ _$ _$ _$ _$ _$ _$ _$ _$ B# B# <$ <$ <$ [$ [$ <$ A# p$ _$ _$ }$ ^# ]# X& Y& Z& Z  Z  Z  Z  Z  Z  Z  Z  Z  W+ _+ _+ _+ _+ _+ _+ _+ _+ `&  * v+ f@ f@ f@ f@ .* 0& 0& +* $. $. $. $. $. $. $. $. $. $. $. $. $. $. $. $. $. &. &. &. &. &. &. &. &. &. &. &. W# $. $. $. Y# Z# Z# Z# Z# Z# ",
"@  @  @  @  @  @  @  @  $  $  $  b& 0% ,% M@ M@ M@ M@ M@ !$ *   & ,  ,  ,  <@ )  )  )  )  )  )  )  )  )  <@ ,  ,  ,  `+ )  )  )  )  )  )  )  )  )  )  )  ~  ~  ~  ~  ~  ;# ]  ]  ]  ]  ]  z. j$ j$ @* #* <  <  <  }  }  <  <  <  <  <  <  <  <  <  <  <  <  <  <  <  <  <  <  <  <  <  <  <  <  <  <  <  <  <  5+ $* A# _$ _$ _$ _$ _$ _$ _$ _$ _$ _$ _$ _$ _$ _$ _$ _$ _$ _$ _$ _$ _$ _$ _$ _$ _$ _$ _$ _$ _$ _$ _$ _$ _$ _$ _$ _$ _$ _$ _$ _$ _$ _$ _$ _$ _$ D$ H$ .% %* _% <% g% g% h% 2% 3% 6% j% k% l% n% o% o% p% q% &* u% v% v% ** I% h& K% K% M% M% P% P% Q% S% =& >& ,& '& !& !& {& =* l& (& n& _& 1& [& R& p& -* ;* t& t& v& >* y& z& B& D& E& ,* '* J& )* K& !* ~* {* ]* ^* /* (* _* :* <* [* [* }* }* |* 1* 2* 3* 4* 5* 6* 7* 8* 8* 9* 0* 0* 0* 0* 0* a* b* b* b* b* b* b* b* a* 0* 0* 0* 0* 0* 8* 8* 8* 7* 6* 5* 5* c* 3* 1* 1* d* }* [* [* <* e* _* (* /* ^* ]* ]* ~* !* L& )* J& G& E& E& O& C& z& x& v& f* g* h* i* -* j* R& [& 1& :& _& (& l& k* ]& !& )& '& >& >& -& S% R% P% P% M% M% K% K% h& I% %& v% v% t% &* q% p% o% o% m% l% l% j% 6% 3% 2% 2% |% [% =% #% `$ G$ C$ S# S# _$ _$ _$ _$ _$ _$ _$ _$ _$ _$ _$ _$ _$ _$ _$ _$ _$ _$ _$ _$ _$ _$ _$ _$ _$ _$ _$ _$ _$ _$ _$ _$ _$ _$ _$ _$ _$ _$ _$ _$ _$ _$ _$ _$ _$ _$ _$ _$ _$ _$ _$ _$ _$ _$ _$ _$ _$ _$ _$ _$ _$ _$ _$ _$ _$ _$ _$ _$ _$ _$ _$ _$ :$ _$ _$ _$ _$ B# <$ <$ <$ [$ [$ S# B# _$ B# B# l* X& X% m# Z  Z  Z  Z  Z  Z  Z  Z  (+ _+ _+ _+ _+ _+ _+ _+ _+ _+ m*  * n* f@ f@ f@ f@ .* 0& o* $. $. $. J# '$ Y# Z# Y# '$ J# $. $. $. $. $. $. $. $. m# &. &. &. &. &. &. &. &. &. &. k@ $. $. $. Z# Z# Z# Z# Z# Z# ",
"@  @  @  @  @  @  @  )$ $  $  $  0% 0% M@ M@ M@ M@ M@ M@ !$ *  p* ,  ,  ,  `+ )  )  )  )  )  )  )  )  )  )  )  y. c& )  )  )  )  )  )  )  )  )  )  )  )  [@ ~  ~  ~  ~  {  ]  ]  ]  ]  ]  '. j$ j$ q* r* <  <  }  <  <  <  <  <  <  <  <  <  <  <  <  <  <  <  <  <  <  <  <  <  <  <  <  <  <  <  <  <  <  <  <  s* g# _$ _$ _$ _$ _$ _$ _$ _$ _$ _$ _$ _$ _$ _$ _$ _$ _$ _$ _$ _$ _$ _$ _$ _$ _$ _$ _$ _$ _$ _$ _$ _$ _$ _$ _$ _$ _$ _$ _$ _$ _$ _$ C$ E$ /% &% |% i% i% 6% l% R% G& G& G& G& t* t* J& J& K& M& M& L& !* u* v* w* ~* x* ]* y* y* z* ^* (* (* _* :* <* A* B* C* }* D* 1* 3* 3* 4* 6* 7* E* F* 0* b* G* H* H* I* J* K* L* M* N* O* P* Q* R* S* T* U* V* W* X* Y* Z* `*  = .= += @= #= $= %= &= *= == -= -= ;= >= ,= '= )= )= != ~= {= ]= ^= /= /= /= /= /= (= (= (= /= /= /= /= /= ]= ]= {= ~= != )= )= '= ,= ,= _= := -= <= *= &= %= [= $= @= += .=  = `* Z* Y* X* W* }= U* T* |= 1= Q* P* N* 2= 3= L* K* 4= I* H* H* G* a* 0* F* 8* 7* 6* 4* 5= 3* 1* 1* }* C* B* 6= <* :* _* (* (* ^* ^* z* ]* ]* {* ~* ~* v* u* !* L& M& M& K& J& J& t* t* t* G& G& G& F& E& E& E& O& C& >* 7= 8= D$ _$ _$ _$ _$ _$ _$ _$ _$ _$ _$ _$ _$ _$ _$ _$ _$ _$ _$ _$ _$ _$ _$ _$ _$ _$ _$ _$ _$ _$ _$ _$ _$ _$ _$ _$ _$ _$ _$ _$ _$ _$ _$ _$ _$ _$ _$ _$ _$ _$ _$ _$ _$ _$ _$ _$ _$ _$ _$ _$ _$ _$ _$ _$ _$ _$ _$ _$ _$ _$ _$ :$ :$ _$ _$ _$ B# B# B# _$ <$ <$ [$ <$ J$ _$ 8= 9= 0= a= b= F# Z  Z  Z  Z  Z  Z  Z  v+ _+ _+ _+ _+ _+ _+ _+ _+ _+ 8&  * n* f@ f@ f@ f@ .* c= J# $. J# Z# Z# Z# Z# Z# Z# Z# Z# Z# J# $. $. $. $. $. $. $. &. &. &. &. &. &. &. &. &. %. $. $. $. d= Z# Z# Z# Z# Z# Z# ",
"@  @  @  @  @  @  @  v. $  $  9% 0% 0% M@ M@ M@ M@ M@ M@ !$ *  e= ,  ,  ,  )  )  )  )  )  )  )  )  )  )  )  )  )  )  )  )  )  )  )  )  )  )  )  )  )  )  !  ~  ~  ~  ~  ># ]  ]  ]  ]  ]  ]  f= j$ g= h= D. <  :  :  <  <  :  <  <  <  <  <  <  <  <  <  <  <  <  <  <  <  <  <  <  <  <  <  <  <  <  <  <  <  <  @& #& _$ _$ _$ _$ _$ _$ _$ _$ _$ _$ _$ _$ _$ _$ _$ _$ _$ _$ _$ _$ _$ _$ _$ _$ _$ _$ _$ _$ _$ _$ _$ _$ _$ _$ _$ _$ _$ _$ _$ _$ _$ E$ .% <% 2% 6% 6% k% l% l% w% |* i= j= k= k= k= k= k= k= l= k= k= k= k= k= k= m= k= k= n= n= n= o= o= i= i= i= p= q= r= s= s= s= t= u= v= w= w= x= x= y= y= z= A= A= B= C= C= D= E= F= G= H= I= I= J= K= K= L= M= N= O= P= Q= R= S= T= U= V= W= X= Y= Z= `=  - .- +- +- @- #- $- %- &- *- =- -- ;- ;- >- ,- '- '- '- )- )- )- )- !- '- '- '- '- >- ;- ;- -- -- &- &- $- $- #- ~- {- ]- ^-  - `= /- Y= (- W= V= U= T= _- R= Q= P= :- N= <- L= [- K= J= }- |- G= G= F= F= D= C= C= 1- A= 2- z= y= y= x= x= w= w= v= u= t= s= s= s= r= q= p= i= i= i= n= o= n= n= n= k= k= k= n= k= k= k= k= k= l= k= k= k= k= k= k= k= 3- k= k= k= o= 3- 3- 3- 4- #% @% F$ _$ _$ _$ _$ _$ _$ _$ _$ _$ _$ _$ _$ _$ _$ _$ _$ _$ _$ _$ _$ _$ _$ _$ _$ _$ _$ _$ _$ _$ _$ _$ _$ _$ _$ _$ _$ _$ _$ _$ _$ _$ _$ _$ _$ _$ _$ _$ _$ _$ _$ _$ _$ _$ _$ _$ _$ _$ _$ _$ _$ _$ _$ _$ _$ _$ _$ _$ _$ _$ _$ _$ _$ _$ _$ _$ _$ B# _$ _$ _$ <$ [$ p$ C$ C$ 5- 6- 7- 8- $# Z  Z  Z  Z  Z  Z  w+ _+ _+ _+ _+ _+ _+ _+ _+ _+ _+ 9-  * n* f@ f@ f@ f@ 0- $. $. 3$ Z# Z# Z# Z# Z# Z# Z# Z# Z# Z# Z# J# $. $. $. $. $. $. m# &. &. &. &. &. &. &. $# $. $. $. $. Z# Z# Z# Z# Z# Z# Z# ",
"@  @  @  @  @  @  =. $  $  $  a- 0% b- M@ M@ M@ M@ M@ M@ !$ *  c- <@ ,. y. )  )  )  )  )  )  )  )  )  )  )  )  )  )  )  )  )  )  )  )  )  )  )  )  )  )  )  ~  ~  ~  ~  ]  ]  ]  ]  ]  ]  ]  '. d- e- <  (  }  :  <  <  <  <  <  <  <  <  <  <  <  <  <  <  <  <  <  <  <  <  <  <  <  <  <  <  <  <  <  <  <  <  <  (# A# _$ _$ _$ _$ _$ _$ _$ _$ _$ _$ _$ _$ _$ _$ _$ _$ _$ _$ _$ _$ _$ _$ _$ _$ _$ _$ _$ _$ _$ _$ _$ _$ _$ _$ _$ _$ _$ _$ _$ /% |% 3% j% l% l% l% o% o% f- K% g- h- i- j- k- k- k- l- m- m- m- n- o- o- o- p- p- p- p- q- r- q- q- q- s- s- s- s- s- s- s- s- s- s- s- s- s- s- s- s- t- t- s- q- q- q- p- p- u- o- o- m- m- v- v- k- w- j- x- y- h- z- z- A- B- C- D- E- F- G- H- I- J- K- L- M- N- O- P- Q- R- S- T- U- V- W- X- Y- Z- `-  ; .; +; @; @; @; @; @; .; .;  ; `- Z- Y- #; W- V- U- S- S- $; Q- %; &; *; M- =; -; J- I- H- ;; >; E- D- C- B- A- z- ,; h- y- '; j- j- w- k- v- m- m- o- o- u- ); p- p- p- r- s- s- s- s- s- s- s- s- s- s- s- s- s- s- s- s- s- s- s- s- q- q- r- p- p- p- p- p- o- o- o- n- n- m- m- l- v- k- k- j- x- x- x- y- h- h- !; z- ~; {; <% 2% <% H$ _$ _$ _$ _$ _$ _$ _$ _$ _$ _$ _$ _$ _$ _$ _$ _$ _$ _$ _$ _$ _$ _$ _$ _$ _$ _$ _$ _$ _$ _$ _$ _$ _$ _$ _$ _$ _$ _$ _$ _$ _$ _$ _$ _$ _$ _$ _$ _$ _$ _$ _$ _$ _$ _$ _$ _$ _$ _$ _$ _$ _$ _$ _$ _$ _$ _$ _$ _$ _$ _$ _$ _$ _$ _$ _$ _$ B# B# _$ <$ _$ A# ]; E$ 5- ^; /; (; _; Z  Z  Z  Z  Z  Z  _+ _+ _+ _+ _+ _+ _+ _+ _+ _+ _+  *  * :; f@ f@ f@ f@ <; $. $. '$ Z# Z# Z# Z# Z# Z# Z# Z# Z# Z# Z# Z# $. $. $. $. $. $. $. &. &. &. &. &. &. k@ $. $. $. $. F# Z# Z# Z# Z# Z# Z# Z# ",
"@  @  @  l@ l@ l@ $  $  $  $  [; 0% b- M@ M@ M@ M@ M@ M@ *  *  }; )  )  )  )  )  )  )  )  )  )  )  )  )  )  )  )  )  )  )  )  )  )  )  )  )  )  )  )  )  )  ~  ~  ~  }@ ]  ]  ]  ]  ]  ]  ]  ]  |; 2+ ^. }  <  <  <  <  <  <  <  <  <  <  <  <  <  <  <  <  <  <  <  <  <  <  <  <  <  <  <  <  <  <  <  <  <  <  <  1; Z@ _$ _$ _$ _$ _$ _$ _$ _$ _$ _$ _$ _$ _$ _$ _$ _$ _$ _$ _$ _$ _$ _$ _$ _$ _$ _$ _$ _$ _$ _$ _$ _$ _$ _$ _$ _$ _$ _$ _$ =% 2% j% l% n% o% o% o% q% q% 2; [= E- 3; C- B- 4; A- z- z- z- z- 5; 5; h- h- '; x- x- x- w- w- w- w- w- w- k- k- k- k- w- k- k- k- k- k- k- k- k- k- w- w- w- w- x- x- x- '; h- h- h- h- h- z- 4; 4; B- C- D- E- F- ;; 6; 6; H- I- J- K- =; M- N- &; Q- R- 7; 8; U- W- 9; 0;  ; a; b; c; d; e; f; g; h; i; j; k; l; m; n; o; o; n; p; m; l; k; j; q; h; r; f; e; d; s; t; a; u; Z- Y- v; w; 8; 7; R- Q- &; N- x; =; L- J- I- H- 6; G- F- F- y; y; C- B- B- 4; z- z- h- h- h- '; '; x- x- x- w- w- w- w- k- k- k- k- k- k- k- k- w- w- k- k- k- k- w- w- w- x- w- w- x- x- '; '; h- h- h- h- z- z- z- z- A- 4; B- C- 3; D- y; E- E- E- F- ;; z; A; B; j% 3% <% _$ _$ _$ _$ _$ _$ _$ _$ _$ _$ _$ _$ _$ _$ _$ _$ _$ _$ _$ _$ _$ _$ _$ _$ _$ _$ _$ _$ _$ _$ _$ _$ _$ _$ _$ _$ _$ _$ _$ _$ _$ _$ _$ _$ _$ _$ _$ _$ _$ _$ _$ _$ _$ _$ _$ _$ _$ _$ _$ _$ _$ _$ _$ _$ _$ _$ _$ _$ _$ _$ _$ _$ _$ _$ _$ _$ :$ :$ _$ B# _$ <$ J$ D$ C; D; q$ E; s. F# Z  Z  Z  Z  {@ _+ _+ _+ _+ _+ _+ _+ _+ _+ _+ _+  *  * F; f@ f@ f@ f@ G; $. J# Z# Z# Z# Z# Z# Z# Z# Z# Z# Z# Z# Z# Z# $. $. $. $. $. $. $. $. $# m# m# %. $. $. $. $. $. +# Z# Z# Z# Z# Z# Z# Z# Z# ",
"@  @  @  l@ $  $  $  $  $  $  H; 0% I; M@ M@ M@ M@ J; M@ *  *  }; )  )  )  )  )  )  )  )  )  )  )  )  )  )  )  )  )  )  )  )  )  )  )  )  )  )  )  )  )  )  a% ~  ~  H+ ]  ]  ]  ]  ]  ]  ]  ]  K; L; ^. <  <  <  <  <  <  <  <  <  <  <  <  <  <  <  <  <  <  <  <  <  <  <  <  <  <  <  <  <  <  <  <  <  <  <  <  <  M; _$ _$ _$ _$ _$ _$ _$ _$ _$ _$ _$ _$ _$ _$ _$ _$ _$ _$ _$ _$ _$ _$ _$ _$ _$ _$ _$ _$ _$ _$ _$ _$ _$ _$ _$ _$ _$ _$ _$ &% 2% j% l% l% n% o% o% p% q% 2; N; O; E- C- B- B- 4; A- z- z- z- z- 5; h- h- '; x- x- x- w- w- w- w- w- w- w- w- k- k- k- k- k- k- k- k- k- k- k- k- w- w- w- w- w- x- x- x- '; y- h- h- z- z- A- 4; B- C- 3; y; E- F- ;; G- H- P; J- -; L- =; *; N- &; Q- Q; 7; U- R; W- Y- 0; S; T; U; t; c; d; e; f; V; r; h; q; i; W; j; j; j; W; X; q; h; Y; V; f; e; d; c; b; U; .;  ; 0; Y- X- v; 8; 7; Q; %; &; N- *; =; L- Z; J- `; I- 6; ;; F- E- 3; 3; B- B- B- z- z- z- h- h- h- '; x- x- x- w- w- w- w- w- k- k- k- k- k- k- k- k- k- k- k- k- k- w- w- w- w- w- w- w- x- x- x- '; h- h- h- z- z- z- z- A-  > B- B- C- 3; D- y; E- E- F- ;; G- ;; V= B; j% 2% _% _$ _$ _$ _$ _$ _$ _$ _$ _$ _$ _$ _$ _$ _$ _$ _$ _$ _$ _$ _$ _$ _$ _$ _$ _$ _$ _$ _$ _$ _$ _$ _$ _$ _$ _$ _$ _$ _$ _$ _$ _$ _$ _$ _$ _$ _$ _$ _$ _$ _$ _$ _$ _$ _$ _$ _$ _$ _$ _$ _$ _$ _$ _$ _$ _$ _$ _$ _$ _$ _$ _$ _$ _$ _$ _$ _$ :$ :$ _$ :$ B# _$ <$ p$ C$ .> +> @> #> <+ Z  Z  Z  Z  (+ v+ v+ _+ _+ _+ _+ _+ _+ _+ _+ _+  *  * $> f@ f@ f@ %> Y# F# Z# Z# Z# Z# Z# Z# Z# Z# Z# Z# Z# Z# Z# +# $. $. $. $. $. $. $. $. $. $. $. $. $. $. $. $. +# Z# Z# Z# Z# Z# Z# Z# Z# Z# ",
"@  @  @  l@ $  $  $  $  $  m@ 0% 0% &> M@ M@ M@ *> => -> *  *  }; )  )  )  )  )  )  )  )  )  )  )  )  )  )  )  )  )  )  )  )  )  )  )  )  )  )  )  )  )  )  a% ~  ~  w$ ]  ]  ]  ]  ]  ]  ]  ;> >> }  :  <  <  <  <  <  <  <  <  <  <  <  <  <  <  <  <  <  <  <  <  <  <  <  <  <  <  <  <  <  <  <  <  <  <  <  <  <  n$ Z@ _$ _$ _$ _$ _$ _$ _$ _$ _$ _$ _$ _$ _$ _$ _$ _$ _$ _$ _$ _$ _$ _$ _$ _$ _$ _$ _$ _$ _$ _$ _$ _$ _$ _$ _$ _$ _$ _$ E$ $% }% 6% 6% j% l% l% o% o% ,> %= '> H- ;; ;; ;; E- E- E- y; D- D- D- 3; 3; B-  > z- z- )> )> 5; 5; h- h- '; '; '; '; '; '; '; '; '; x- x- '; x- x- '; '; '; x- '; h- h- h- h- h- h- h- ~; z- z- z-  >  > B- C- D- D- D- E- O; F- !> 6; I- P; J- J- K- L- =; M- *; N- ~> {> Q- $; R- ]> 8; U- w; w; v; W- #; #; Y- Y- ^> /> /> /> Y- Y- Y- #; #; W- V- w; w; 8; 8; 7; R- R- Q- {> ~> N- *; M- =; =; K- J- '> P; I- 6; !> F- O; O; D- D- D- B- B-  >  > A- z- z- !; h- h- h- h- h- h- h- '; x- '; x- x- x- x- '; '; '; '; '; '; '; '; '; '; '; '; (> (> 5; 5; )> z- z- z-  > B- 3; 3; 3; D- D- y; y; E- E- ;; ;; ;; G- H- H- I- I- `; -; -; J- /- :% [% $% D$ _$ _$ _$ _$ _$ _$ _$ _$ _$ _$ _$ _$ _$ _$ _$ _$ _$ _$ _$ _$ _$ _$ _$ _$ _$ _$ _$ _$ _$ _$ _$ _$ _$ _$ _$ _$ _$ _$ _$ _$ _$ _$ _$ _$ _$ _$ _$ _$ _$ _$ _$ _$ _$ _$ _$ _$ _$ _$ _$ _$ _$ _$ _$ _$ _$ _$ _$ _$ _$ _$ _$ _$ _$ _$ _$ _$ _$ _$ _$ _$ B# B# _$ <$ p$ _> _> :> <> [> Z  Z  Z  Z  Z  Z  Z  Z  (+ W+ v+ _+ _+ _+ _+ o.  *  * }> f@ f@ f@ %> Z# Z# Z# Z# Z# Z# Z# Z# Z# Z# Z# Z# Z# Z# F# $. $. $. $. $. $. $. $. $. $. $. $. $. $. $. $. +# Z# Z# Z# Z# Z# Z# Z# Z# Z# Z# ",
"@  @  @  $  $  $  $  $  $  |> 0% 0% &> M@ M@ M@ 1> 2> u$ *  *  ~  )  )  )  )  )  )  )  )  )  )  )  )  )  )  )  )  )  )  )  )  )  )  )  )  )  )  )  )  )  )  a% ~  ~  w$ ]  ]  ]  ]  ]  ]  ]  3> Q@ <  <  <  <  <  <  <  <  <  <  <  <  <  <  <  <  <  <  <  <  <  <  <  <  <  <  <  <  <  <  <  <  <  <  <  <  <  <  <  _  W@ _$ _$ _$ _$ _$ _$ _$ _$ _$ _$ _$ _$ _$ _$ _$ _$ _$ _$ _$ _$ _$ _$ _$ _$ _$ _$ _$ _$ _$ _$ _$ _$ _$ _$ _$ _$ _$ _$ _$ E$ E$ @% |% 6% 6% 6% k% l% q% 4> )= 5> 5> 5> 5> 5> 5> 6> 5> 5> 5> 5> 7> 7> 7> 7> 8> 8> 7> 9> 8> 8> != ~= 0> 0> 0> a> ^= b> c> c> d> e> e> f> g> g> h> i> i> j> k> l> m> n> o> p> q> r> s> t> u> v> w> w> x> y> z> A> B> C> D> E> F> G> H> m= n= i= p= I> J> K> w= L> y= A= B= C= D= D= M> N> N> N> O> O> |- P> P> P> P> P> P> P> P> Q> P> P> |- O> R> G= G= F= M> D= S> C= B= A= y= T> w= K> J> I> q= i= n= U> H> G> F> E> D> V> B> A> W> W> x> w> w> v> X> t> Y> Z> q> p> o> `> `> l> k> j> i> i> h> g> g> g> e> e> d> c> b>  , ^= ^= ]= 0> 0> 9> 9> 8> 8> 9> 7> 8> ., 7> 7> 7> 7> 6> 5> 5> 5> 5> 5> 5> 5> '= 5> 5> 5> 5> +, '= @, )= 5> 5> #, /% E$ E$ _$ _$ _$ _$ _$ _$ _$ _$ _$ _$ _$ _$ _$ _$ _$ _$ _$ _$ _$ _$ _$ _$ _$ _$ _$ _$ _$ _$ _$ _$ _$ _$ _$ _$ _$ _$ _$ _$ _$ _$ _$ _$ _$ _$ _$ _$ _$ _$ _$ _$ _$ _$ _$ _$ _$ _$ _$ _$ _$ _$ _$ _$ _$ _$ _$ _$ _$ _$ _$ _$ _$ _$ _$ _$ _$ _$ _$ _$ _$ _$ _$ C$ C$ B# B# p$ _> $, :> %, b= F# Z  Z  Z  Z  Z  Z  Z  Z  Z  Z  (+ W+ v+ _+ &, *, p. F@ f@ f@ f@ %> Z# Z# Z# Z# Z# Z# Z# Z# Z# Z# Z# Z# Z# Z# $. $. $. $. $. $. $. $. $. $. $. $. $. $. $. $. J# Z# Z# Z# Z# Z# Z# Z# Z# Z# Z# Z# ",
"@  @  O$ $  $  $  $  $  $  0% 0% 0% &> M@ M@ =, 2> 2> -, *  *  )  )  )  )  )  )  )  )  )  )  )  )  )  )  )  )  )  )  )  )  )  )  )  )  )  )  )  )  )  )  )  ~  ~  ~  w$ ]  ]  ]  ]  ]  ]  ]  ;, B. <  <  <  <  <  <  <  <  <  <  <  <  <  <  <  <  <  <  <  <  <  <  <  <  <  <  <  <  <  <  <  <  <  <  <  <  <  <  <  ]. >, A# _$ _$ _$ _$ _$ _$ _$ _$ _$ _$ _$ _$ _$ _$ _$ _$ _$ _$ _$ _$ _$ _$ _$ _$ _$ _$ _$ _$ _$ _$ _$ _$ _$ _$ _$ _$ _$ _$ _$ _$ ]; G$  % &% <% g% 3% 6% o% I% ,, ,, K% 2; ', ), ), R% R% R% !, S% ;& >& ~, '& )& !& {& ]& ^& ^& (& _& :& 1& }& |& p& q& r& {, g* g* w& x& z& C& ], E& N& H& )* M& !* ~* {* ]* ^* (* _* :* <* [* }* 1* 2* c* 4* 7* 8* 0* b* ^, /, (, 4= L* _, :, <, N* P* Q* R* [, T* }, |, 1, W* W* 2, 3, 4, 4, 5, 5, 5, 6, 6, 6, 6, 6, 6, 6, 6, 6, 5, 7, 8, 4, 4, X* 2, 9, W* 0, |, }, T* [, R* Q* P* N* N* :, _, L* 4= (, a, /, b* 0* 8* 6* 4* 3* 2* 1* }* [* <* :* _* (* ^* ]* {* w* L& M& )* H& N& E& ], C& z& y& >* u& g* s& ;* q& p& R& |& 1& :& n& (& ^& ^& ]& b, !& T& '& ~, >& -& S% S% c, R% R% ), ), ), 2; U& ,, V& I% H% d, e, f, g, h, 1% i, _$ _$ _$ _$ _$ _$ _$ _$ _$ _$ _$ _$ _$ _$ _$ _$ _$ _$ _$ _$ _$ _$ _$ _$ _$ _$ _$ _$ _$ _$ _$ _$ _$ _$ _$ _$ _$ _$ _$ _$ _$ _$ _$ _$ _$ _$ _$ _$ _$ _$ _$ _$ _$ _$ _$ _$ _$ _$ _$ _$ _$ _$ _$ _$ _$ _$ _$ _$ _$ _$ _$ _$ _$ _$ _$ _$ _$ _$ _$ _$ _$ _$ _$ _$ C$ C$ C$ B# C$ 8= j, ^; @> k, _; Z  Z  Z  Z  Z  Z  Z  Z  Z  Z  Z  Z  Z  Z  Z  Z  M$ f@ f@ f@ f@ %> Z# Z# Z# Z# Z# Z# Z# Z# Z# Z# Z# Z# Z# +# $. $. $. $. $. $. $. $. $. $. $. $. $. $. $. J# Z# Z# Z# Z# Z# Z# Z# Z# Z# Z# Z# Z# ",
"@  @  =. $  $  $  $  $  $  0% 0% 0% t$ M@ M@ l, 2> 2> m, *  *  )  )  )  )  )  )  )  )  )  )  `+ s# n, )  )  )  )  )  )  )  )  )  )  )  )  )  )  )  )  )  )  ~  ~  ~  w$ ]  ]  ]  ]  ]  ]  o, p, <  :  <  <  <  <  <  <  <  <  <  <  <  <  <  <  <  <  <  <  <  <  <  <  <  <  <  <  <  <  <  <  <  <  <  <  <  <  <  <  <  1; #& _$ _$ _$ _$ _$ _$ _$ _$ _$ _$ _$ _$ _$ _$ _$ _$ _$ _$ _$ _$ _$ _$ _$ _$ _$ _$ _$ _$ _$ _$ _$ _$ _$ _$ _$ _$ _$ _$ _$ _$ _$ _$ _$ E$ G$ /% -% W& &% =% }% |% 2% 6% 6% j% k% l% m% n% o% o% q% q% r% u% v% v% q, I% I% ,, K% M% M% N% P% P% Q% *& S% ;& ,& r, '& s, !& ]& =* l& S& m& :& <& }& |& R& p& P& ;* s& {, g* v& >* z& z& t, C& E& F& G& G& J& )* L& !* !* ~* ]* ]* ]* u, ^* /* (* (* _* e* <* <* A* v, v, [* [* w, w, w, }* }* }* }* }* }* }* }* }* w, x, x, [* [* v, v, A* <* <* e* _* (* (* /* ^* u, y, ]* ]* ~* !* !* K& )* J& G& G& N& O& C& t, z& x& >* v& g* {, {, ;* P& p& Q& |& z, <& :& m& S& l& =* ]& ~& !& s, '& >& ;& S% *& *& 4& P% P% M% M% K% ,, I% I% H% v% A, u% r% q% p% o% o% n% l% l% k% 6% 6% 6% 3% |% [% =% _% W& Z$ H$ F$ E$ _$ :$ _$ _$ _$ _$ _$ _$ _$ _$ _$ _$ _$ _$ _$ _$ _$ _$ _$ _$ _$ _$ _$ _$ _$ _$ _$ _$ _$ _$ _$ _$ _$ _$ _$ _$ _$ _$ _$ _$ _$ _$ _$ _$ _$ _$ _$ _$ _$ _$ _$ _$ _$ _$ _$ _$ _$ _$ _$ _$ _$ _$ _$ _$ _$ _$ _$ _$ _$ _$ _$ _$ _$ _$ _$ _$ _$ _$ _$ _$ _$ _$ _$ _$ _$ _$ _$ _$ _$ C$ B# C$ F$ Y$ B, C, D, Z  Z  Z  Z  Z  Z  Z  Z  Z  Z  Z  Z  Z  Z  Z  Z  E, f@ f@ f@ f@ %> Z# Z# Z# Z# Z# Z# Z# Z# Z# Z# Z# Z# Z# F, $. $. $. $. $. $. $. $. $. $. $. $. $. $. d= Z# Z# Z# Z# G, H, I, J, Z  Z# Z# Z# Z# ",
"@  @  %  $  $  $  $  $  $  0% 0% 0% &> M@ M@ l, 2> 2> K, *  *  )  )  )  )  )  )  )  )  )  c& L, L, L, n, )  )  )  )  )  )  )  )  )  )  )  )  )  )  )  )  )  ~  ~  ~  ># ]  ]  ]  ]  ]  M, N, O, <  <  <  <  <  <  <  <  <  <  <  <  <  <  <  <  <  <  <  <  <  <  <  <  <  <  <  <  <  <  <  <  <  <  <  <  <  <  <  <  <  <  ^% _$ _$ _$ _$ _$ _$ _$ _$ _$ _$ _$ _$ _$ _$ _$ _$ _$ _$ _$ _$ _$ _$ _$ _$ _$ _$ _$ _$ _$ _$ _$ _$ _$ _$ _$ _$ _$ _$ _$ _$ _$ _$ _$ _$ _$ :$ :$ _$ E$ G$ H$ Z$  % $% (% :% P, |% 2% 2% 2% 3% 6% 6% 6% l% l% n% o% o% o% p% q% u% u% A, v% v% I% I% ,, K% 5& L% M% M% P% P% 4& Q% *& S% =& >& ,& r, '& '& !& !& {& ]& k& k& ^& /& n& m& _& Q, 1& [& [& |& |& R, p& q& q& ;* ;* s& {, t& g* f* f* v& v& S, x& x& x& x& >* T, y& y& y& z& z& z& z& z& z& z& z& y& y& y& y& y& >* >* x& x& w& v& v& v& f* f* g* t& {, s& ;* ;* q& q& p& U, |& |& [& [& 1& <& o& m& /& /& l& ^& k& ]& {& !& !& j& '& ,& ,& >& =& S% *& Q% 4& P% P% O% M% M% K% K% ,, I% I% v% v% v% u% u% q% p% p% o% n% n% l% k% 6% 6% 6% 3% 2% 2% 2% W% B; =% (% $% -% /% H$ G$ E$ _$ [$ S# _$ _$ _$ _$ _$ _$ _$ _$ _$ _$ _$ _$ _$ _$ _$ _$ _$ _$ _$ _$ _$ _$ _$ _$ _$ _$ _$ _$ _$ _$ _$ _$ _$ _$ _$ _$ _$ _$ _$ _$ _$ _$ _$ _$ _$ _$ _$ _$ _$ _$ _$ _$ _$ _$ _$ _$ _$ _$ _$ _$ _$ _$ _$ _$ _$ _$ _$ _$ _$ _$ _$ _$ _$ _$ _$ _$ _$ _$ _$ _$ _$ _$ _$ _$ _$ _$ _$ _$ _$ _$ _$ _$ _$ <$ D$ V, W, X, Y, Z# Z  Z  Z  Z  Z  Z  Z  Z  Z  Z  Z  Z  Z, `, `, q@ f@ f@ f@ f@ %> Z# Z# Z# Z# Z# Z# Z# Z# Z# Z# Z# Z# Y# $. $. $. $. $. $. $. $. $. $. $. $. $. $. $. Z# Z# j#  ' .' +' +' +' +' +' @' #' n. Z# ",
"@  #  $  $  $  $  $  $  $  $' 0% 0% &> M@ M@ %' 2> 2> &' *  *' )  )  )  )  )  )  )  =' s# L, L, L, L, L, `+ )  )  )  )  )  )  )  )  )  )  )  )  )  )  )  )  G+ ~  ~  {  ]  ]  ]  8# -' ;' >' @@ <  :  <  <  <  <  <  <  <  <  <  <  <  <  <  <  <  <  <  <  <  <  <  <  <  <  <  <  <  <  <  <  <  <  <  <  <  <  <  <  <  ]. n$ g# _$ _$ _$ _$ _$ _$ _$ _$ _$ _$ _$ _$ _$ _$ _$ _$ _$ _$ _$ _$ _$ _$ _$ _$ _$ _$ _$ _$ _$ _$ _$ _$ _$ _$ _$ _$ _$ _$ _$ _$ _$ _$ _$ _$ _$ _$ _$ _$ _$ :$ S# _$ _$ E$ H$ /%  % W& #% #% &% :% ,' <% |% g% h% 2% 5% 5% 6% 6% 6% k% l% l% n% o% o% o% p% q% r% q% u% A, w% v% ** %& I% I% I% V% K% '' K% 2; M% )' O% ), P% P% R% Q% Q% Q% T% =& ;& ;& ;& >& ,& ,& '& '& s, s, !& !& !& !& !' ]& ]& ]& k& =* =* =* =* ^& l& l& l& l& l& /& /& /& /& /& /& /& l& l& l& l& l& l& k& k& =* k& ]& ]& ]& ]& !' !& !& !& !& s, s, '& r, ,& >& >& ;& ;& ;& =& *& *& Q% Q% 4& P% P% P% O% )' M% 2; K% '' V% V% I% I% I% %& ** v% w% t% u% &* q% q% p% o% o% o% n% m% l% k% 6% 6% 6% 5% 2% 2% 2% g% |% <% <% :% &% #% #% $%  % /% H$ E$ _$ [$ S# :$ _$ _$ _$ _$ _$ _$ _$ _$ _$ _$ _$ _$ _$ _$ _$ _$ _$ _$ _$ _$ _$ _$ _$ _$ _$ _$ _$ _$ _$ _$ _$ _$ _$ _$ _$ _$ _$ _$ _$ _$ _$ _$ _$ _$ _$ _$ _$ _$ _$ _$ _$ _$ _$ _$ _$ _$ _$ _$ _$ _$ _$ _$ _$ _$ _$ _$ _$ _$ _$ _$ _$ _$ _$ _$ _$ _$ _$ _$ _$ _$ _$ _$ _$ _$ _$ _$ _$ _$ _$ _$ _$ _$ _$ _$ _$ _$ _$ _$ C$ C$ D$ ~' ~' E@ {' Z  Z  Z  Z  Z  Z  Z  Z  Z  Z  Z  ]' ^' ^' ^' ^' /' (' _' f@ :' Z# Z# Z# Z# Z# Z# Z# Z# Z# Z# Z# Z# F# $. $. $. $. $. $. $. $. $. $. $. $. $. $. +# Z# j# +' +' +' +' +' +' +' +' +' +' +' +' ",
"@  K# $  $  $  $  $  $  $  b& 0% 0% <' M@ M@ [' 2> 2> *  *  }' )  )  )  )  )  )  n, L, L, L, L, L, L, L, |' )  )  )  )  )  )  )  )  )  )  )  )  )  )  )  )  !  ~  ~  ~  ]  1' 2' 3' 4' 5' 6' <  <  <  <  <  <  <  <  <  <  <  <  <  <  <  <  <  <  <  <  <  <  <  <  <  <  <  <  <  <  <  <  <  <  <  <  <  <  <  <  <  <  <  1; o$ _$ _$ _$ _$ _$ _$ _$ _$ _$ _$ _$ _$ _$ _$ _$ _$ _$ _$ _$ _$ _$ _$ _$ _$ _$ _$ _$ _$ _$ _$ _$ _$ _$ _$ _$ _$ _$ _$ _$ _$ _$ _$ _$ _$ _$ _$ _$ _$ _$ _$ _$ _$ _$ _$ _$ :$ B# _$ 7' E$ F$ H$ /% `$  %  % $% #% &% &% &% =% :% [% |% |% g% h% 2% 2% 2% 3% 3% 2% 6% j% j% k% k% l% m% n% n% n% o% $& p% p% q% q% q% u% t% t% t% v% v% v% v% %& && I% I% I% I% J% V& ,, K% K% K% K% 2; M% M% M% 8' M% M% M% M% M% M% M% )' M% M% )' N% M% M% ', ', M% M% M% N% )' M% M% M% M% M% M% M% M% M% M% 8' M% M% M% 2; 5& K% K% K% V& V& I% I% I% I% I% && %& v% v% v% A, t% t% t% u% q% q% q% p% p% $& o% n% n% m% l% l% k% k% j% 6% 5% 3% 2% i% 2% 2% 2% h% g% |% |% [% ,' =% &% &% &% #% $%  %  % 9' /% H$ F$ E$ ]; _$ B# :$ _$ _$ _$ _$ _$ _$ _$ _$ _$ _$ _$ _$ _$ _$ _$ _$ _$ _$ _$ _$ _$ _$ _$ _$ _$ _$ _$ _$ _$ _$ _$ _$ _$ _$ _$ _$ _$ _$ _$ _$ _$ _$ _$ _$ _$ _$ _$ _$ _$ _$ _$ _$ _$ _$ _$ _$ _$ _$ _$ _$ _$ _$ _$ _$ _$ _$ _$ _$ _$ _$ _$ _$ _$ _$ _$ _$ _$ _$ _$ _$ _$ _$ _$ _$ _$ _$ _$ _$ _$ _$ _$ _$ _$ _$ _$ _$ _$ _$ _$ _$ _$ _$ _$ _$ C$ C$ D$ Y$ +% 0' a' Z  Z  Z  Z  Z  Z  Z  Z  Z  Z  b' c' ^' ^' ^' ^' ^' ^' ^' d' f@ Z# Z# Z# Z# Z# Z# Z# Z# Z# Z# Z# Z# +# $. $. $. $. $. $. $. $. $. $. $. $. $. d= Z# Z# e' +' +' +' +' +' +' +' +' +' +' +' +' ",
"O$ $  $  $  $  $  $  $  $  H; 0% 0% f' M@ M@ [' 2> g' *  *  }' )  )  )  )  `+ L, L, L, L, L, L, L, L, L, h' )  )  )  )  )  )  )  )  )  )  )  )  )  )  )  )  )  G+ ~  ~  i' 3' 3' 3' j' k' O# <  <  <  <  <  <  <  <  <  <  <  <  <  <  <  <  <  <  <  <  <  <  <  <  <  <  <  <  <  <  <  <  <  <  <  <  <  <  <  <  <  <  <  _  U# _$ _$ _$ _$ _$ _$ _$ _$ _$ _$ _$ _$ _$ _$ _$ _$ _$ _$ _$ _$ _$ _$ _$ _$ _$ _$ _$ _$ _$ _$ _$ _$ _$ _$ _$ _$ _$ _$ _$ _$ _$ _$ S# z@ :# :# :# :# :# :# :# :# :# :# :# :# :# :# :# :# :# :# :# :# :# !# :# -@ -@ ;@ V@ 8@ Z@ l' l' x% m' n' n' 9= o' o' o' D; ^; :> :> p' ~' ~' q' r' X, X, s' s' t' t' t' u' u' v' v' v' v' <% <% w' B; B; B; B; B; B; W% W% W% W% W% W% W% W% x' y' y' y' y' y' y' y' y' y' y' y' y' y' y' y' y' y' 4% 4% 4% 4% y' y' y' y' y' y' y' y' y' y' y' y' y' y' y' y' y' y' x' W% W% W% W% W% W% W% W% B; B; B; B; B; B; w' f% <% v' v' v' v' u' u' t' t' t' s' z' X, X, r' ~' ~' ~' p' :> :> ^; D; .> o' o' 9= 9= n' m' m' A' l' #& 8@ V@ ;@ -@ -@ :# !# ~# :# :# :# :# :# :# :# :# :# :# :# :# :# :# :# :# :# :# :# :# :# :# :# :# :# :# :# :# :# :# f# _$ _$ _$ _$ _$ _$ _$ _$ _$ _$ _$ _$ _$ _$ _$ _$ _$ _$ _$ _$ _$ _$ _$ _$ _$ _$ _$ _$ _$ _$ _$ _$ _$ _$ _$ _$ _$ _$ _$ _$ _$ _$ _$ _$ _$ _$ _$ _$ _$ _$ _$ _$ _$ _$ _$ _$ _$ _$ _$ _$ _$ _$ _$ _$ _$ _$ _$ _$ _$ _$ _$ _$ _$ _$ _$ _$ _$ _$ _$ _$ _$ _$ C$ C$ C$ F$ B' C' D' j# Z  Z  Z  Z  Z  Z  Z  Z  Z  E' F' ^' ^' ^' ^' ^' ^' G' f@ f@ G# H' (+ Z# Z# Z# Z# Z# Z# Z# Z# Z# +# $. $. $. $. $. $. $. $. $. $. $. $. $. '$ Z# Z# .' +' +' +' +' +' +' +' +' +' +' +' +' ",
"=. $  $  $  $  $  $  $  $  I' 0% 0% 0% n@ M@ [' 2> J' *  *  }' )  )  )  <@ L, L, L, L, L, L, L, L, L, L, s# )  )  )  )  )  )  )  )  )  )  )  )  )  )  )  )  )  !  ~  ~  K' ;' ;' L' {  M' V$ :  <  <  <  <  <  <  <  <  <  <  <  <  <  <  <  <  <  <  <  <  <  <  <  <  <  <  <  <  <  <  <  <  <  <  <  <  <  <  <  <  <  <  A$ o$ _$ _$ _$ _$ _$ _$ _$ _$ _$ _$ _$ _$ _$ _$ _$ _$ _$ _$ _$ _$ _$ _$ _$ _$ _$ _$ _$ _$ _$ _$ _$ _$ _$ _$ _$ _$ _$ _$ _$ _$ _$ S# y@ N' O' P' P' P' P' P' P' P' P' P' P' P' P' P' P' P' P' P' P' P' P' P' P' P' P' P' P' Q' Q' Q' R' Q' Q' Q' S' T' T' U' V' p  q  q  V. d+ W' W' e+ X' Y' Z' Z' `' `'  ) .) .)  ) .) .) .) .) +) @) @) e$ e$ e$ e$ e$ e$ b$ g& g& $* $* $* b$ #) #) #) c$ n$ n$ n$ n$ $) $) $) $) $) $) $) $) n$ n$ n$ n$ n$ n$ n$ n$ n$ n$ n$ $) $) $) $) $) $) $) $) n$ n$ n$ n$ c$ #) #) #) #) $* $* $* g& g& b$ e$ e$ e$ e$ e$ e$ @) @) %) .) .) .) .)  ) .) .) `' `' `' Z' Z' Y' X' e+ e+ e+ d+ V. q  q  p  o  V' T' T' P' Q' Q' Q' Q' Q' Q' Q' P' P' P' P' P' P' P' P' P' P' P' P' P' P' P' P' P' P' P' P' P' P' P' P' P' P' P' P' P' P' P' P' P' P' P' O' U' &) y# _$ _$ _$ _$ _$ _$ _$ _$ _$ _$ _$ _$ _$ _$ _$ _$ _$ _$ _$ _$ _$ _$ _$ _$ _$ _$ _$ _$ _$ _$ _$ _$ _$ _$ _$ _$ _$ _$ _$ _$ _$ _$ _$ _$ _$ _$ _$ _$ _$ _$ _$ _$ _$ _$ _$ _$ _$ _$ _$ _$ _$ _$ _$ _$ _$ _$ _$ _$ _$ _$ _$ _$ _$ _$ _$ _$ _$ _$ _$ _$ _$ C$ C$ C$ *) Y$ B, =) $# Z  Z  Z  Z  Z  Z  Z  Z  Z  -) F' ^' ^' ^' ^' ^' ;) f@ f@ f@ >) ,) `  Z# Z# Z# Z# Z# Z# Z# Z# Z# Y# $. $. $. $. $. $. $. $. $. $. $. $. J# Z# Z# Z  +' +' ') )) +' +' +' +' +' +' +' +' +' ",
"`# $  $  $  $  $  $  $  $  a- 0% 0% 0% !) M@ [' 2> ~) *  *  {) )  )  <@ L, L, L, L, L, L, L, L, L, L, L, s# )  )  )  )  )  )  )  )  )  )  )  )  )  )  )  )  )  )  G+ ~  ~  ~  ~  }@ ]) ^) <  <  <  <  <  <  <  <  <  <  <  <  <  <  <  <  <  <  <  <  <  <  <  <  <  <  <  <  <  <  <  <  <  <  <  <  <  <  <  <  <  <  <  (  n$ Z@ _$ _$ _$ _$ _$ _$ _$ _$ _$ _$ _$ _$ _$ _$ _$ _$ _$ _$ _$ _$ _$ _$ _$ _$ _$ _$ _$ _$ _$ _$ _$ _$ _$ _$ _$ _$ _$ _$ _$ _$ _$ :# /) () _) :) :) :) :) :) :) :) :) :) :) :) :) :) :) :) :) :) :) :) :) :) :) :) :) :) :) :) :) :) :) :) :) :) :) :) :) :) :) :) :) :) :) :) :) :) <) <) <) [) :) }) |) }) }) 1) 1) 1) 1) _) 2) 2) 3) 4) 4) 4) 4) 4) 4) 5) 5) 5) 5) 6) 6) 6) 6) 6) 6) 6) 6) 6) 7) 7) 7) 7) 7) 7) 7) 7) 7) 7) 7) 7) 7) 7) 7) 7) 7) 7) 7) 7) 7) 7) 7) 7) 7) 7) 7) 7) 7) 7) 7) 7) 7) 6) 6) 6) 6) 6) 6) 6) 6) 6) 5) 5) 5) 5) 8) 4) 4) 4) 4) 4) 9) 2) 2) _) 1) 1) 1) 1) }) }) }) }) :) [) <) <) <) :) :) :) :) :) :) :) :) :) :) :) :) :) :) :) :) :) :) :) :) :) :) :) :) :) :) :) :) :) :) :) :) :) :) :) :) :) :) :) :) :) :) :) :) :) :) :) :) :) :) :) :) :) :) 0) () a) y  {# _$ _$ _$ _$ _$ _$ _$ _$ _$ _$ _$ _$ _$ _$ _$ _$ _$ _$ _$ _$ _$ _$ _$ _$ _$ _$ _$ _$ _$ _$ _$ _$ _$ _$ _$ _$ _$ _$ _$ _$ _$ _$ _$ _$ _$ _$ _$ _$ _$ _$ _$ _$ _$ _$ _$ _$ _$ _$ _$ _$ _$ _$ _$ _$ _$ _$ _$ _$ _$ _$ _$ _$ _$ _$ _$ _$ _$ _$ _$ _$ _$ C$ 8= D$ /% W, b) c) Z  Z  Z  Z  Z  Z  Z  Z  Z  F' F' ^' ^' ^' ^' ^' _' f@ f@ f@ d) ,) e) Z# Z# Z# Z# Z# Z# Z# Z# Z# Z# $. $. $. $. $. $. $. $. $. $. $. $. Z# Z# Z# e' +' ') n# n# f) g) +' +' +' +' +' +' +' ",
"$  $  $  $  $  $  $  $  $  9% 0% 0% 0% f' n@ [' 2> h) *  *  i) )  <@ L, L, L, L, L, L, L, L, L, L, L, L, c& )  )  )  )  )  )  )  )  )  )  )  )  )  )  )  )  )  )   @ ~  ~  ~  ~  H+ j) &$ <  <  <  <  <  <  <  <  <  <  <  <  <  <  <  <  <  <  <  <  <  <  <  <  <  <  <  <  (  <  <  <  <  <  <  <  <  <  <  <  <  <  _  W$ o$ _$ _$ _$ _$ _$ _$ _$ _$ _$ _$ _$ _$ _$ _$ _$ _$ _$ _$ _$ _$ _$ _$ _$ _$ _$ _$ _$ _$ _$ _$ _$ _$ _$ _$ _$ _$ _$ _$ _$ _$ _$ {# k) l) l) () m) :) :) :) :) :) :) :) :) :) :) :) :) :) :) :) :) :) :) :) :) :) :) :) :) :) :) :) :) :) :) :) :) :) :) :) :) :) :) :) :) :) :) :) :) :) :) :) :) :) :) :) :) :) :) :) :) :) :) :) :) :) :) :) :) :) :) :) :) :) :) :) :) :) <) <) <) <) <) <) <) <) <) <) <) <) <) <) :) :) :) :) :) :) :) :) :) :) :) :) :) :) :) :) :) :) :) <) <) <) <) <) <) <) <) <) <) <) <) <) <) :) :) :) :) :) :) :) :) :) :) :) :) :) :) :) :) :) :) :) :) :) :) :) :) :) :) :) :) :) :) :) :) :) :) :) :) :) :) :) :) :) :) :) :) :) :) :) :) :) :) :) :) :) :) :) :) :) :) :) :) :) :) :) :) :) :) :) :) :) :) :) :) :) :) :) :) :) :) :) :) :) :) :) n) l) l) o) %+ A# _$ _$ _$ _$ _$ _$ _$ _$ _$ _$ _$ _$ _$ _$ _$ _$ _$ _$ _$ _$ _$ _$ _$ _$ _$ _$ _$ _$ _$ _$ _$ _$ _$ _$ _$ _$ _$ _$ _$ _$ _$ _$ _$ _$ _$ _$ _$ _$ _$ _$ _$ _$ _$ _$ _$ _$ _$ _$ _$ _$ _$ _$ _$ _$ _$ _$ _$ _$ _$ _$ _$ _$ _$ _$ _$ _$ _$ _$ _$ _$ C$ 8= _$ E$ p) q) r) Z  Z  Z  Z  Z  Z  Z  Z  s) F' F' ^' ^' ^' ^' ^' f@ f@ f@ f@ f@ ,) t) Z# Z# Z# Z# Z# Z# Z# Z# Z# Z# +# $. $. $. $. $. $. $. $. $. $. +# Z# Z# Z# H, +' ') n# n# n# n# u) )) +' +' +' +' +' ",
"$  $  $  $  $  $  $  $  $  $  H; 0% 0% 0% v) 2> 2> K, *  *  w) )  L, L, L, L, L, L, L, L, L, L, L, L, L, c& )  )  )  )  )  )  )  )  )  )  )  )  )  )  )  )  )  )  )  ~  ~  ~  ~  x) y) <  <  <  <  <  <  <  <  <  <  <  <  <  <  <  <  <  <  <  <  <  <  <  <  <  <  <  <  <  <  <  <  u@ u@ 5+ _  _  A$ A$ W$ W$ 1; 1; n$ #& _$ _$ _$ _$ _$ _$ _$ _$ _$ _$ _$ _$ _$ _$ _$ _$ _$ _$ _$ _$ _$ _$ _$ _$ _$ _$ _$ _$ _$ _$ _$ _$ _$ _$ _$ _$ _$ _$ _$ _$ _$ z@ k) l) l) l) l) _) :) :) :) :) :) :) :) :) :) :) :) :) :) :) :) :) :) :) :) :) :) :) :) :) :) :) :) :) :) :) :) :) :) :) :) :) :) :) :) :) :) :) :) :) :) :) :) :) :) :) :) :) :) :) :) :) :) :) :) :) :) :) :) :) :) :) :) :) :) :) :) :) :) :) :) :) :) :) :) :) :) :) :) :) :) :) :) :) :) :) :) :) :) :) :) :) :) :) :) :) :) :) :) :) :) :) :) :) :) :) :) :) :) :) :) :) :) :) :) :) :) :) :) :) :) :) :) :) :) :) :) :) :) :) :) :) :) :) :) :) :) :) :) :) :) :) :) :) :) :) :) :) :) :) :) :) :) :) :) :) :) :) :) :) :) :) :) :) :) :) :) :) :) :) :) :) :) :) :) :) :) :) :) :) :) :) :) :) :) :) :) :) :) :) :) :) :) :) :) :) :) :) 0) () l) l) z) A) P+ A# _$ _$ _$ _$ _$ _$ _$ _$ _$ _$ _$ _$ _$ _$ _$ _$ _$ _$ _$ _$ _$ _$ _$ _$ _$ _$ _$ _$ _$ _$ _$ _$ _$ _$ _$ _$ _$ _$ _$ _$ _$ _$ _$ _$ _$ _$ _$ _$ _$ _$ _$ _$ _$ _$ _$ _$ _$ _$ _$ _$ _$ _$ _$ _$ _$ _$ _$ _$ _$ _$ _$ _$ _$ _$ _$ _$ _$ _$ _$ _$ B) C$ C$ $, C) D) E) Z  Z  Z  Z  Z  Z  Z  F) F' G) ^' ^' ^' ^' H) f@ f@ f@ f@ f@ I) ,) (+ Z# Z# Z# Z# Z# Z# Z# Z# Z# Z# J# $. $. $. $. $. $. $. $. d= Z# Z# Z# Z# J) +' ') n# n# n# n# n# n# K) +' +' +' +' ",
"$  $  $  $  $  $  $  $  $  $  C% 0% 0% 0% L) 2> 2> K, *  *  }; n, L, L, L, L, L, L, L, L, L, L, L, L, L, |' )  )  )  )  )  )  )  )  )  )  )  )  )  )  )  )  )  )  !  ~  ~  ~  H+ M) J+ <  <  <  <  <  <  <  <  <  <  <  <  <  <  <  <  <  <  <  <  <  <  <  <  <  <  <  <  <  <  _  1; X$ o$ #& A# A# A# A# A# A# A# A# <$ _$ _$ _$ _$ _$ _$ _$ _$ _$ _$ _$ _$ _$ _$ _$ _$ _$ _$ _$ _$ _$ _$ _$ _$ _$ _$ _$ _$ _$ _$ _$ _$ _$ _$ _$ _$ _$ _$ _$ _$ _$ {# N) O) l) l) l) l) l) P) :) :) :) :) :) :) :) :) :) :) :) :) :) :) :) :) :) :) :) :) :) :) :) :) :) :) :) :) :) :) :) :) :) :) :) :) :) :) :) :) :) :) :) :) :) :) :) :) :) :) :) :) :) :) :) :) :) :) :) :) :) :) :) :) :) :) :) :) :) :) :) :) :) :) :) :) :) :) :) :) :) :) :) :) :) :) :) :) :) :) :) :) :) :) :) :) :) :) :) :) :) :) :) :) :) :) :) :) :) :) :) :) :) :) :) :) :) :) :) :) :) :) :) :) :) :) :) :) :) :) :) :) :) :) :) :) :) :) :) :) :) :) :) :) :) :) :) :) :) :) :) :) :) :) :) :) :) :) :) :) :) :) :) :) :) :) :) :) :) :) :) :) :) :) :) :) :) :) :) :) :) :) :) :) :) :) :) :) :) :) :) :) :) :) :) :) :) :) :) :) 0) () l) l) l) l) l) P' %+ S# _$ _$ _$ _$ _$ _$ _$ _$ _$ _$ _$ _$ _$ _$ _$ _$ _$ _$ _$ _$ _$ _$ _$ _$ _$ _$ _$ _$ _$ _$ _$ _$ _$ _$ _$ _$ _$ _$ _$ _$ _$ _$ _$ _$ _$ _$ _$ _$ _$ _$ _$ _$ _$ _$ _$ _$ _$ _$ _$ _$ _$ _$ _$ _$ _$ _$ _$ _$ _$ _$ _$ _$ _$ _$ _$ _$ _$ _$ _$ _$ _$ I$ Q) R) S) s. Z  Z  Z  Z  Z  Z  Z  F) F' T) ^' ^' U) V) W) f@ f@ f@ f@ f@ X) ,) Y) Z# Z# Z# Z# Z# Z# Z# Z# Z# Z# Z# Z# Z# Y# F# +# J# d= J# Z# Z# Z# Z# Z# .' +' ') n# n# n# n# n# n# n# K) +' +' +' ",
"$  $  $  $  $  $  $  $  $  $  $  $' 0% 0% L) 2> 2> K, *  *  d& Z) L, L, L, L, L, L, L, L, L, L, L, L, L, =' )  )  )  )  )  )  )  )  )  )  )  )  )  )  )  )  )  )  G+ ~  ~  ~  ]  +@ V$ <  <  <  <  <  <  <  <  <  <  <  <  <  <  <  <  <  <  <  <  <  <  <  <  <  <  <  <  <  $* #& A# A# _$ _$ _$ _$ _$ _$ _$ _$ _$ _$ _$ _$ _$ _$ _$ _$ _$ _$ _$ _$ _$ _$ _$ _$ _$ _$ _$ _$ _$ _$ _$ _$ _$ _$ _$ _$ _$ _$ _$ _$ _$ _$ _$ _$ _$ _$ _$ _$ _$ _$ _$ S# `)  ! l) l) l) l) l) l) () n) :) :) :) :) :) :) :) :) :) :) :) :) :) :) :) :) :) :) :) :) :) :) :) :) :) :) :) :) :) :) :) :) :) :) :) :) :) :) :) :) :) :) :) :) :) :) :) :) :) :) :) :) :) :) :) :) :) :) :) :) :) :) :) :) :) :) :) :) :) :) :) :) :) :) :) :) :) :) :) :) :) :) :) :) :) :) :) :) :) :) :) :) :) :) :) :) :) :) :) :) :) :) :) :) :) :) :) :) :) :) :) :) :) :) :) :) :) :) :) :) :) :) :) :) :) :) :) :) :) :) :) :) :) :) :) :) :) :) :) :) :) :) :) :) :) :) :) :) :) :) :) :) :) :) :) :) :) :) :) :) :) :) :) :) :) :) :) :) :) :) :) :) :) :) :) :) :) :) :) :) :) :) :) :) :) :) :) :) :) :) :) :) :) :) :) :) :) :) .! +! l) l) l) l) l) l) l) @! P+ _$ _$ _$ _$ _$ _$ _$ _$ _$ _$ _$ _$ _$ _$ _$ _$ _$ _$ _$ _$ _$ _$ _$ _$ _$ _$ _$ _$ _$ _$ _$ _$ _$ _$ _$ _$ _$ _$ _$ _$ _$ _$ _$ _$ _$ _$ _$ _$ _$ _$ _$ _$ _$ _$ _$ _$ _$ _$ _$ _$ _$ _$ _$ _$ _$ _$ _$ _$ _$ _$ _$ _$ _$ _$ _$ _$ _$ _$ _$ _$ _$ C$ Q) D$ C' #! Z  Z  Z  Z  Z  Z  Z  b' F' $! ^' %! &! W) W) f@ f@ f@ f@ f@ *! ,) =! Z# Z# Z# Z# Z# Z# Z# Z# Z# Z# Z# Z# Z# Z# Z# Z# Z# Z# Z# Z# Z# Z# Z# Z# +' +' ') n# n# n# n# n# n# n# n# K) +' +' ",
"$  $  $  $  $  $  $  $  $  $  $  C% 0% 0% -! 2> 2> K, *  *  ;! >! >! ,! '! L, L, L, L, L, L, L, L, L, L, =' )  )  )  )  )  )  )  )  )  )  )  )  )  )  )  )  )  )  ~  ~  ~  ~  f= )! <  <  <  <  <  <  <  <  <  <  <  <  <  <  <  <  <  <  <  <  <  <  <  <  <  <  <  <  W$ ^% g# _$ _$ _$ _$ _$ _$ _$ _$ _$ _$ _$ _$ _$ _$ _$ _$ _$ _$ _$ _$ _$ _$ _$ _$ _$ _$ _$ _$ _$ _$ _$ _$ _$ _$ _$ _$ _$ _$ _$ _$ _$ _$ _$ _$ _$ _$ _$ _$ _$ _$ _$ _$ _$ S# i+  ! l) l) l) l) l) l) l) l) () :) :) :) :) :) :) :) :) :) :) :) :) :) :) :) :) :) :) :) :) :) :) :) :) :) :) :) :) :) :) :) :) :) :) :) :) :) :) :) :) :) :) :) :) :) :) :) :) :) :) :) :) :) :) :) :) :) :) :) :) :) :) :) :) :) :) :) :) :) :) :) :) :) :) :) :) :) :) :) :) :) :) :) :) :) :) :) :) :) :) :) :) :) :) :) :) :) :) :) :) :) :) :) :) :) :) :) :) :) :) :) :) :) :) :) :) :) :) :) :) :) :) :) :) :) :) :) :) :) :) :) :) :) :) :) :) :) :) :) :) :) :) :) :) :) :) :) :) :) :) :) :) :) :) :) :) :) :) :) :) :) :) :) :) :) :) :) :) :) :) :) :) :) :) :) :) :) :) :) :) :) :) :) :) :) :) :) :) :) :) :) :) :) :) :) :) :) :) 0) () l) l) l) l) l) l) l) l) !! R# _$ _$ _$ _$ _$ _$ _$ _$ _$ _$ _$ _$ _$ _$ _$ _$ _$ _$ _$ _$ _$ _$ _$ _$ _$ _$ _$ _$ _$ _$ _$ _$ _$ _$ _$ _$ _$ _$ _$ _$ _$ _$ _$ _$ _$ _$ _$ _$ _$ _$ _$ _$ _$ _$ _$ _$ _$ _$ _$ _$ _$ _$ _$ _$ _$ _$ _$ _$ _$ _$ _$ _$ _$ _$ _$ _$ _$ _$ _$ C$ C$ C$ D$ D$ ~! {! Z  Z  Z  Z  Z  Z  Z  F' ]! ^' ^! W) W) W) f@ f@ f@ f@ f@ /! ,) (! Z# Z# Z# Z# Z# Z# Z# Z# Z# Z# Z# Z# Z# Z# Z# Z# Z# Z# Z# Z# Z# Z# Z# Z# .' +' K) n# n# n# n# n# n# n# n# n# K) +' ",
"$  $  $  $  $  $  $  $  $  $  $  $  _! 0% :! 2> 2> <! [! }! |! >! >! >! >! '! L, L, L, L, L, L, L, L, L, <@ )  )  )  )  )  )  )  )  )  )  )  )  )  )  )  )  )  )  ~  ~  ~  w$ 1! 2! <  <  <  <  <  <  <  <  <  <  <  <  <  <  <  <  <  <  <  <  <  <  <  <  <  <  <  n$ #& A# _$ _$ _$ _$ _$ _$ _$ _$ _$ _$ _$ _$ _$ _$ _$ _$ _$ _$ _$ _$ _$ _$ _$ _$ _$ _$ _$ _$ _$ _$ _$ _$ _$ _$ _$ _$ _$ _$ _$ _$ _$ _$ _$ _$ _$ _$ _$ _$ _$ _$ _$ _$ _$ S# &) 3! l) l) l) l) l) l) l) l) l) l) P) :) :) :) :) :) :) :) :) :) :) :) :) :) :) :) :) :) :) :) :) :) :) :) :) :) :) :) :) :) :) :) :) :) :) :) :) :) :) :) :) :) :) :) :) :) :) :) :) :) :) :) :) :) :) :) :) :) :) :) :) :) :) :) :) :) :) :) :) :) :) :) :) :) :) :) :) :) :) :) :) :) :) :) :) :) :) :) :) :) :) :) :) :) :) :) :) :) :) :) :) :) :) :) :) :) :) :) :) :) :) :) :) :) :) :) :) :) :) :) :) :) :) :) :) :) :) :) :) :) :) :) :) :) :) :) :) :) :) :) :) :) :) :) :) :) :) :) :) :) :) :) :) :) :) :) :) :) :) :) :) :) :) :) :) :) :) :) :) :) :) :) :) :) :) :) :) :) :) :) :) :) :) :) :) :) :) :) :) :) :) :) :) :) :) :) :) 0) () l) l) l) l) l) l) l) l) l) o) k) 4! _$ _$ _$ _$ _$ _$ _$ _$ _$ _$ _$ _$ _$ _$ _$ _$ _$ _$ _$ _$ _$ _$ _$ _$ _$ _$ _$ _$ _$ _$ _$ _$ _$ _$ _$ _$ _$ _$ _$ _$ _$ _$ _$ _$ _$ _$ _$ _$ _$ _$ _$ _$ _$ _$ _$ _$ _$ _$ _$ _$ _$ _$ _$ _$ _$ _$ _$ _$ _$ _$ _$ _$ _$ _$ _$ _$ _$ _$ _$ C$ I$ C$ 8= 5! 6! Z  Z  Z  Z  Z  Z  Z  F' 7! ^' W) W) W) W) f@ f@ f@ f@ f@ f@ ,) H' Z# Z# Z# Z# Z# Z# Z# Z# Z# Z# Z# Z# Z# Z# Z# Z# Z# Z# Z# Z# Z# Z# Z# Z# J) +' +' n# n# n# n# n# n# n# n# n# n# g) ",
"$  $  $  $  $  $  $  $  $  $  $  $  m@ 0% 1> 2> 2> 8! <! <! 9! >! >! >! >! >! '! L, L, L, L, L, L, L, L, n, )  )  )  )  )  )  )  )  )  )  )  )  )  )  )  )  )  )  )  )  [@ 0! a! V$ <  <  <  <  <  <  <  <  <  <  }  <  <  {. {. {. <  <  <  <  <  <  <  <  <  _  ^% g# _$ _$ _$ _$ _$ _$ _$ _$ _$ _$ _$ _$ _$ _$ _$ _$ _$ _$ _$ _$ _$ _$ _$ _$ _$ _$ _$ _$ _$ _$ _$ _$ _$ _$ _$ _$ _$ _$ _$ _$ _$ _$ _$ _$ _$ _$ _$ _$ _$ _$ _$ _$ _$ _$ A# k. P' l) l) l) l) l) l) l) l) l) l) l) l) b! :) :) 0) 0) 0) 0) 0) 0) 0) 0) 0) 0) 0) 0) 0) 0) 0) 0) 0) 0) 0) 0) 0) 0) 0) 0) 0) 0) 0) 0) 0) 0) 0) 0) 0) 0) 0) 0) 0) 0) 0) 0) 0) 0) 0) 0) 0) 0) 0) 0) 0) 0) 0) 0) 0) 0) 0) 0) 0) 0) 0) 0) 0) 0) 0) 0) 0) 0) 0) 0) 0) 0) 0) 0) 0) 0) 0) 0) 0) 0) 0) 0) 0) 0) 0) 0) 0) 0) 0) 0) 0) 0) 0) 0) 0) 0) 0) 0) 0) 0) 0) 0) 0) 0) 0) 0) 0) 0) 0) 0) 0) 0) 0) 0) 0) 0) 0) 0) 0) 0) 0) 0) 0) 0) 0) 0) 0) 0) 0) 0) 0) 0) 0) 0) 0) 0) 0) 0) 0) 0) 0) 0) 0) 0) 0) 0) 0) 0) 0) 0) 0) 0) 0) 0) 0) 0) 0) 0) 0) 0) 0) 0) 0) 0) 0) 0) 0) 0) 0) 0) 0) 0) 0) 0) 0) 0) 0) 0) 0) 0) 0) 0) 0) 0) 0) 0) 0) 0) 0) 0) 0) 0) 0) :) 0) P) l) l) l) l) l) l) l) l) l) l) l) o) u  z@ _$ _$ _$ _$ _$ _$ _$ _$ _$ _$ _$ _$ _$ _$ _$ _$ _$ _$ _$ _$ _$ _$ _$ _$ _$ _$ _$ _$ _$ _$ _$ _$ _$ _$ _$ _$ _$ _$ _$ _$ _$ _$ _$ _$ _$ _$ _$ _$ _$ _$ _$ _$ _$ _$ _$ _$ _$ _$ _$ _$ _$ _$ _$ _$ _$ _$ _$ _$ _$ _$ _$ _$ _$ _$ _$ _$ _$ _$ C$ I$ I$ 8= C' c! Z  Z  Z  Z  Z  Z  Z  F' d! H) W) W) W) W) f@ f@ f@ f@ f@ f@ e! f! Z# Z# Z# Z# Z# Z# Z# Z# Z# Z# Z# Z# Z# Z# Z# Z# Z# Z# Z# Z# Z# Z# Z# Z# J) +' +' n# n# n# n# n# n# n# n# n# n# n# ",
"m@ $  $  $  $  $  $  $  $  $  $  $  $  g! 2> 2> 2> h! <! <! <! i! >! >! >! >! ,! j! L, L, L, L, L, L, L, L, )  )  )  )  )  )  )  )  )  )  )  )  )  )  )  )  )  )  )  )  !  k! J+ <  <  <  <  <  <  <  <  }  }  ^. {. {. {. (  ]. <  <  <  <  <  <  <  <  <  s* U# <$ _$ _$ _$ _$ _$ _$ _$ _$ _$ _$ _$ _$ _$ _$ _$ _$ _$ _$ _$ _$ _$ _$ _$ _$ _$ _$ _$ _$ _$ _$ _$ _$ _$ _$ _$ _$ _$ _$ _$ _$ _$ _$ _$ _$ _$ _$ _$ _$ _$ _$ _$ _$ _$ _$ _$ -@ l! l) l) l) l) l) l) l) l) l) l) l) l) l) l) m! d$ n! n! V@ V@ V@ V@ V@ 8@ 8@ 8@ o! o! o! o! o! f# f# f# f# f# f# f# f# f# f# f# f# f# f# f# f# f# f# f# f# f# f# f# f# f# f# f# f# f# f# f# f# f# f# f# f# f# f# f# f# f# f# f# f# f# f# f# f# f# f# f# f# f# f# f# f# f# f# f# f# f# f# f# f# f# f# f# f# f# f# f# f# f# f# f# f# f# f# f# f# f# f# f# f# f# f# f# f# f# f# f# f# f# f# f# f# f# f# f# f# f# f# f# f# f# f# f# f# f# f# f# f# f# f# f# f# f# f# f# f# f# f# f# f# f# f# f# f# f# f# f# f# f# f# f# f# f# f# f# f# f# f# f# f# f# {# o! o! V@ V@ V@ V@ V@ 8@ 8@ o! o! o! o! o! o! o! f# f# f# f# f# f# f# f# f# f# f# f# f# f# {# O+ p! O) l) l) l) l) l) l) l) l) l) l) l) q! r! {# _$ _$ _$ _$ _$ _$ _$ _$ _$ _$ _$ _$ _$ _$ _$ _$ _$ _$ _$ _$ _$ _$ _$ _$ _$ _$ _$ _$ _$ _$ _$ _$ _$ _$ _$ _$ _$ _$ _$ _$ _$ _$ _$ _$ _$ _$ _$ _$ _$ _$ _$ _$ _$ _$ _$ _$ _$ _$ _$ _$ _$ _$ _$ _$ _$ _$ _$ _$ _$ _$ _$ _$ _$ _$ _$ _$ _$ _$ C$ C$ I$ F$ ~! F# Z  Z  Z  Z  Z  Z  T) ^' s! W) W) W) W) f@ f@ f@ f@ f@ f@ t! ,) Z# Z# Z# Z# Z# Z# Z# Z# Z# Z# Z# Z# Z# Z# Z# Z# Z# Z# Z# Z# Z# Z# Z# Z# J) +' +' f) n# n# n# n# n# n# n# n# n# n# ",
"u! v! a- $  $  $  $  $  $  $  $  $  $  w! 2> 2> 2> x! <! <! <! y! >! >! >! >! >! z! L, L, L, L, L, L, L, L, n, )  )  )  )  )  )  )  )  )  )  )  )  )  )  )  )  )  )  )  H+ A! B. <  <  <  <  <  <  <  <  ^. ^. ^. ^. ]. 1  ^. ^. ]. <  <  <  <  <  <  _  X$ #& _$ _$ _$ _$ _$ _$ _$ _$ _$ _$ _$ _$ _$ _$ _$ _$ _$ _$ _$ _$ _$ _$ _$ _$ _$ _$ _$ _$ _$ _$ _$ _$ _$ _$ _$ _$ _$ _$ _$ _$ _$ _$ _$ _$ _$ _$ _$ _$ _$ _$ _$ _$ _$ _$ _$ _$ z@ B! l) l) l) l) l) l) l) l) l) l) l) l) l) O) C! D! C' E! E! E! E! F! E! E! G! 7- H! q' r' (% &% _% I! J! K! K! K! L! L! L! L! L! L! L! L! L! L! L! L! L! L! L! L! L! L! L! L! L! L! L! L! L! L! L! L! L! L! L! L! L! L! L! L! L! L! L! L! L! L! L! L! L! L! L! L! L! L! L! L! L! L! L! L! L! L! L! L! L! L! L! L! L! L! L! L! L! L! L! L! L! L! L! L! L! L! L! L! L! L! L! L! L! L! L! L! L! L! L! L! L! L! L! L! L! L! L! L! L! L! L! L! L! L! L! L! L! L! L! L! L! L! L! L! L! L! L! L! L! L! L! L! L! L! L! L! L! L! L! L! L! L! L! L! L! L! L! K! I! (% B, M! F! N! N! E! M! G! 7- B, q' r' (% _% _% I! J! K! K! K! K! K! O! L! L! L! L! L! K! P! Q! R! O) l) l) l) l) l) l) l) l) l) l) l) l) S! y  S# _$ _$ _$ _$ _$ _$ _$ _$ _$ _$ _$ _$ _$ _$ _$ _$ _$ _$ _$ _$ _$ _$ _$ _$ _$ _$ _$ _$ _$ _$ _$ _$ _$ _$ _$ _$ _$ _$ _$ _$ _$ _$ _$ _$ _$ _$ _$ _$ _$ _$ _$ _$ _$ _$ _$ _$ _$ _$ _$ _$ _$ _$ _$ _$ _$ _$ _$ _$ _$ _$ _$ _$ _$ _$ _$ _$ _$ :$ _$ I$ B# k, T! U! V! W! X! (+ Z  Y! ^' Z! W) W) W) W) f@ f@ f@ f@ f@ f@ `! ,) (+ Z# Z# Z# Z# Z# Z# Z# Z# Z# Z# Z# Z# Z# Z# Z# Z# Z# Z# Z# Z# Z# Z# Z# I, +' +' f) n# n# n# n# n# n# n# n# n# n# ",
"u! u! u! u! f)  ~  ~ .~ v! u! u!  ~ $  w! 2> 2> 2> +~ <! <! <! @~ #~ >! >! >! >! >! $~ L, L, L, L, L, L, L, L, =' )  )  )  )  )  )  )  )  )  )  )  )  )  )  )  )  )  )  %~ &~ V$ <  <  <  <  <  }  <  {. ($ H. H. (. 3  3  H. 1  1  <  <  <  <  <  1; ^% g# _$ _$ _$ _$ _$ _$ _$ _$ _$ _$ _$ _$ _$ _$ _$ _$ _$ _$ _$ _$ _$ _$ _$ _$ _$ _$ _$ _$ _$ _$ _$ _$ _$ _$ _$ _$ _$ _$ _$ _$ _$ _$ _$ _$ _$ _$ _$ _$ _$ _$ _$ _$ _$ _$ _$ _$ x# 9. l) l) l) l) l) l) l) l) l) l) l) l) l) O) C! *~ =~ -~ ;~ ;~ ;~ ;~ >~ >~ ,~ ;~ ;~ ;~ '~ )~ !~ ~~ {~ ]~ ^~ s' :% /~ (~ _~ _~ _~ _~ _~ _~ _~ _~ _~ _~ _~ _~ _~ _~ _~ _~ _~ _~ _~ _~ _~ _~ _~ _~ _~ _~ _~ _~ _~ _~ _~ _~ _~ _~ _~ _~ _~ _~ _~ _~ _~ _~ _~ _~ _~ _~ _~ _~ _~ _~ _~ _~ _~ _~ _~ _~ _~ _~ _~ _~ _~ _~ _~ _~ _~ _~ _~ _~ _~ _~ _~ _~ _~ _~ _~ _~ _~ _~ _~ _~ _~ _~ _~ _~ _~ _~ _~ _~ _~ _~ _~ _~ _~ _~ _~ _~ _~ _~ _~ _~ _~ _~ _~ _~ _~ _~ _~ _~ _~ _~ _~ _~ _~ _~ _~ _~ _~ _~ _~ _~ _~ _~ _~ _~ _~ _~ _~ _~ _~ _~ _~ _~ _~ _~ _~ _~ _~ _~ ,' X, !~ :~ ;~ >~ >~ >~ ,~ ;~ <~ <~ '~ )~ [~ !~ ~~ {~ ]~ @> X, }~ |~ =% ,' /~ 1~ (~ (~ 2~ 2~ _~ P! 3~ 4~ q! l) l) l) l) l) l) l) l) l) l) l) l) 5~ q! i+ S# _$ _$ _$ _$ _$ _$ _$ _$ _$ _$ _$ _$ _$ _$ _$ _$ _$ _$ _$ _$ _$ _$ _$ _$ _$ _$ _$ _$ _$ _$ _$ _$ _$ _$ _$ _$ _$ _$ _$ _$ _$ _$ _$ _$ _$ _$ _$ _$ _$ _$ _$ _$ _$ _$ _$ _$ _$ _$ _$ _$ _$ _$ _$ _$ _$ _$ _$ _$ _$ _$ _$ _$ _$ _$ _$ :$ :$ _$ C$ C$ 6~ 7~ *# *# *# *# *# *# 8~ ^' 9~ W) W) W) W) f@ f@ f@ f@ f@ f@ 0~ ,) Y) Z# Z# Z# Z# Z# Z# Z# Z# Z# Z# Z# Z# Z# Z# Z# Z# Z# Z# Z# Z# Z# Z# Z# +' +' +'  ~ n# n# n# n# n# n# n# n# n# n# ",
"u! u! u! u! u! u! u! u! u! u! u! u!  ~ w! 2> 2> 2> +~ a~ <! b~ c~ d~ #~ >! >! >! >! >! '! L, L, L, L, L, L, L, c& )  )  )  )  )  )  )  )  )  )  )  )  )  )  )  )  )  ~  e~ 2! <  <  <  <  <  <  ^. H. /. /. (. f~ 5  _. 3  3  1  1  <  <  _  s* X$ W@ A# _$ _$ _$ _$ _$ _$ _$ _$ _$ _$ _$ _$ _$ _$ _$ _$ _$ _$ _$ _$ _$ _$ _$ _$ _$ _$ _$ _$ _$ _$ _$ _$ _$ _$ _$ _$ _$ _$ _$ _$ _$ _$ _$ _$ _$ _$ _$ _$ _$ _$ _$ _$ _$ _$ _$ _$ {# g~ o) l) l) l) l) l) l) l) l) l) l) l) l) l) h~ i~ j~ -~ ;~ ;~ ;~ ;~ ;~ ;~ ;~ ;~ ;~ ,~ >~ >~ >~ ;~ ;~ k~ ;~ :~ l~ {~ ^~ s' ,' (~ 2~ _~ _~ _~ _~ _~ _~ _~ _~ _~ _~ _~ _~ _~ _~ _~ _~ _~ _~ _~ _~ _~ _~ _~ _~ _~ _~ _~ _~ _~ _~ _~ _~ _~ _~ _~ _~ _~ _~ _~ _~ _~ _~ _~ _~ _~ _~ _~ _~ _~ _~ _~ _~ _~ _~ _~ _~ _~ _~ _~ _~ _~ _~ _~ _~ _~ _~ _~ _~ _~ _~ _~ _~ _~ _~ _~ _~ _~ _~ _~ _~ _~ _~ _~ _~ _~ _~ _~ _~ _~ _~ _~ _~ _~ _~ _~ _~ _~ _~ _~ _~ _~ _~ _~ _~ _~ _~ _~ _~ _~ _~ _~ _~ _~ _~ _~ _~ _~ _~ _~ _~ _~ _~ _~ _~ _~ _~ _~ _~ _~ _~ _~ _~ _~ 2~ /~ X, !~ ;~ ,~ ;~ ;~ ;~ ;~ ;~ ;~ >~ >~ >~ >~ ;~ ;~ ;~ ;~ ;~ '~ '~ )~ !~ ~~ {~ ]~ ^~ X, s' s' s' =% =% (% n' m~ O) l) l) l) l) l) l) l) l) l) l) l) l) l) P' P+ _$ _$ _$ _$ _$ _$ _$ _$ _$ _$ _$ _$ _$ _$ _$ _$ _$ _$ _$ _$ _$ _$ _$ _$ _$ _$ _$ _$ _$ _$ _$ _$ _$ _$ _$ _$ _$ _$ _$ _$ _$ _$ _$ _$ _$ _$ _$ _$ _$ _$ _$ _$ _$ _$ _$ _$ _$ _$ _$ _$ _$ _$ _$ _$ _$ _$ _$ _$ _$ _$ _$ _$ _$ _$ _$ _$ :$ :$ _$ C$ F$ n~ o~ *# *# *# *# p~ ^' ^' 9~ W) W) W) W) f@ f@ f@ f@ f@ f@ 0~ ,) Y) Z# Z# Z# Z# Z# Z# Z# Z# Z# Z# Z# Z# Z# Z# Z# Z# Z# Z# Z# Z# Z# Z# q~ +' +' +' r~ n# n# n# n# n# n# n# n# n# n# ",
"u! u! u! u! u! u! u! u! u! u! u! u! v! w! 2> 2> s~ +~ a~ <! t~ u~ u~ d~ v~ >! >! >! >! ,! L, L, L, L, L, L, L, s# )  )  )  )  )  )  )  )  )  )  )  )  )  )  )  )  G+ '. 1! &$ <  <  }  ^. ^. H. w~ x~ 6+ :. d# d# 5  5  f~ b# 1  1  <  W$ X$ #& _$ _$ _$ _$ _$ _$ _$ _$ _$ _$ _$ _$ _$ _$ _$ _$ _$ _$ _$ _$ _$ _$ _$ _$ _$ _$ _$ _$ _$ _$ _$ _$ _$ _$ _$ _$ _$ _$ _$ _$ _$ _$ _$ _$ _$ _$ _$ _$ _$ _$ _$ _$ _$ _$ _$ _$ _$ _$ f# &) q! l) l) l) l) l) l) l) l) l) l) l) l) z) y~ z~ A~ B~ ;~ ;~ ;~ ;~ ;~ ;~ ;~ ;~ ;~ ;~ ;~ ;~ ;~ ;~ ;~ ;~ >~ >~ >~ ,~ ;~ :~ !~ 7% z' =% ,' (~ (~ 2~ _~ _~ _~ _~ _~ _~ _~ _~ _~ _~ _~ _~ _~ _~ _~ _~ _~ _~ _~ _~ _~ _~ _~ _~ _~ _~ _~ _~ _~ _~ _~ _~ _~ _~ _~ _~ _~ _~ _~ _~ _~ _~ _~ _~ _~ _~ _~ _~ _~ _~ _~ _~ _~ _~ _~ _~ _~ _~ _~ _~ _~ _~ _~ _~ _~ _~ _~ _~ _~ _~ _~ _~ _~ _~ _~ _~ _~ _~ _~ _~ _~ _~ _~ _~ _~ _~ _~ _~ _~ _~ _~ _~ _~ 2~ 2~ (~ (~ (~ (~ (~ (~ 1~ /~ /~ /~ ,' ,' ,' ,' /~ /~ (~ (~ (~ _~ _~ _~ _~ _~ _~ _~ _~ _~ _~ _~ _~ _~ _~ (~ ,' X, C~ '~ ;~ ;~ ;~ ;~ ;~ ;~ ;~ ;~ ;~ ;~ ;~ ;~ ;~ ;~ ;~ >~ >~ >~ >~ >~ ;~ ;~ ;~ k~ :~ :~ [~ [~ l~ !~ !~ ~~ F! D~ E~ O) l) l) l) l) l) l) l) l) l) l) l) l) l) F~ y@ <$ _$ _$ _$ _$ _$ _$ _$ _$ _$ _$ _$ _$ _$ _$ _$ _$ _$ _$ _$ _$ _$ _$ _$ _$ _$ _$ _$ _$ _$ _$ _$ _$ _$ _$ _$ _$ _$ _$ _$ _$ _$ _$ _$ _$ _$ _$ _$ _$ _$ _$ _$ _$ _$ _$ _$ _$ _$ _$ _$ _$ _$ _$ _$ _$ _$ _$ _$ _$ _$ _$ _$ _$ _$ _$ _$ _$ _$ p$ A# G~ H~ *# *# I~ *# J~ ^' ^' W) W) W) W) K~ f@ f@ f@ f@ f@ f@ 0~ ,) Y) Z# Z# Z# Z# Z# Z# Z# Z# Z# Z# Z# Z# Z# Z# Z# Z# Z# Z# Z# Z# Z# Z# L~ +' +' +' r~ n# n# n# n# n# n# n# n# n# n# ",
"u! u! u! u! u! u! u! u! u! u! u! u! u! M~ 2> 2> s~ +~ 8! <! N~ u~ u~ u~ O~ >! P~ >! >! >! $~ L, L, L, L, L, L, s# )  )  )  )  )  )  )  )  )  )  )  )  )  )  )  )  ~  P@ ^) 3+ {. 1  /. w~ _. 9  Q~ I. b  R~ S~ S~ 8  d# 5  f~ }  a$ $* o$ <$ _$ _$ _$ _$ _$ _$ _$ _$ _$ _$ _$ _$ _$ _$ _$ _$ _$ _$ _$ _$ _$ _$ _$ _$ _$ _$ _$ _$ _$ _$ _$ _$ _$ _$ _$ _$ _$ _$ _$ _$ _$ _$ _$ _$ _$ _$ _$ _$ _$ _$ _$ _$ _$ _$ _$ _$ _$ _$ S# $+ q! () l) l) l) l) l) l) l) l) l) l) l) () T~ U~ V~ W~ ;~ ;~ ;~ ;~ ;~ ;~ ;~ ;~ ;~ ;~ ;~ ;~ ;~ ;~ ;~ ;~ ;~ ;~ ;~ ;~ ;~ ;~ >~ <~ '~ )~ !~ 7% }~ *% =% /~ (~ (~ (~ _~ _~ _~ _~ _~ _~ _~ _~ _~ _~ _~ _~ _~ _~ _~ _~ _~ _~ _~ _~ _~ _~ _~ _~ _~ _~ _~ _~ _~ _~ _~ _~ _~ _~ _~ _~ _~ _~ _~ _~ _~ _~ _~ _~ _~ _~ _~ _~ _~ _~ _~ _~ _~ _~ _~ _~ _~ _~ _~ _~ _~ _~ _~ _~ _~ _~ _~ _~ _~ _~ _~ _~ _~ _~ _~ _~ _~ _~ _~ _~ _~ _~ _~ _~ (~ 1~ /~ /~ ,' X~ =% *% *% *% *% }~ X, X, ^~ @> @> q$ 7% 7% 7% @> X, z' s' *% :% /~ /~ (~ _~ _~ _~ _~ _~ _~ _~ _~ Y~ Z~ *% 7% )~ ;~ ;~ ;~ ;~ ;~ ;~ ;~ ;~ ;~ ;~ ;~ ;~ ;~ ;~ ;~ ;~ ;~ ;~ ;~ ;~ ;~ ;~ ;~ ,~ >~ >~ >~ `~ >~ >~ >~ >~ ,~ ;~ ;~  { g& .{ q! O) l) l) l) l) l) l) l) l) l) l) l) l) +{ :# _$ _$ _$ _$ _$ _$ _$ _$ _$ _$ _$ _$ _$ _$ _$ _$ _$ _$ _$ _$ _$ _$ _$ _$ _$ _$ _$ _$ _$ _$ _$ _$ _$ _$ _$ _$ _$ _$ _$ _$ _$ _$ _$ _$ _$ _$ _$ _$ _$ _$ _$ _$ _$ _$ _$ _$ _$ _$ _$ _$ _$ _$ _$ _$ _$ _$ _$ _$ _$ _$ _$ _$ _$ _$ _$ _$ _$ _$ B# @{ #{ ${ *# ${ *# %{ ^' ^' W) W) W) W) &{ f@ f@ f@ f@ f@ f@ 0~ ,) *{ Z# Z# Z# Z# Z# Z# Z# Z# Z# Z# Z# Z# Z# Z# Z# Z# Z# Z# Z# Z# Z# Z# .' +' +' +' ={ n# n# n# n# n# n# n# n# n# n# ",
"u! u! u! u! u! u! u! u! u! u! u! u! u! M~ 2> 2> -{ +~ <! ;{ u~ u~ u~ u~ u~ >{ ,{ '{ ){ >! >! j! L, L, L, L, L, c& )  )  )  )  )  )  )  )  )  )  )  )  )  )  )  d& ;# !{ ~{ D. {{ ]{ <. 7  R~ $@ |. L. |. v@ b  R~ 8  :. 2  ^{ #) V@ A# _$ _$ _$ _$ _$ _$ _$ _$ _$ _$ _$ _$ _$ _$ _$ _$ _$ _$ _$ _$ _$ _$ _$ _$ _$ _$ _$ _$ _$ _$ _$ _$ _$ _$ _$ _$ _$ _$ _$ _$ _$ _$ _$ _$ _$ _$ _$ _$ _$ _$ _$ _$ _$ _$ _$ _$ _$ _$ _$ S# %+ O' () l) l) l) l) l) l) l) l) l) l) l) /{ k) ({ _{ :{ <{ [{ [{ [{ [{ [{ [{ [{ [{ [{ [{ [{ [{ [{ [{ [{ [{ [{ [{ [{ [{ [{ [{ [{ }{ |{ |{ 1{ 2{ 3{ 4{ 5{ 6{ t' f% f% }% 7{ 7{ 7{ 8{ 9{ 9{ 9{ 9{ 9{ 9{ 9{ 9{ 9{ 9{ 9{ 9{ 9{ 9{ 9{ 9{ 9{ 9{ 9{ 9{ 9{ 9{ 9{ 9{ 9{ 9{ 9{ 9{ 9{ 9{ 9{ 9{ 9{ 9{ 9{ 9{ 9{ 9{ 9{ 9{ 9{ 9{ 9{ 9{ 9{ 9{ 9{ 9{ 9{ 9{ 9{ 9{ 9{ 9{ 9{ 9{ 9{ 9{ 9{ 9{ 9{ 9{ 9{ 9{ 9{ 9{ 9{ 9{ 9{ 9{ 9{ 9{ 9{ 9{ 9{ 9{ 9{ 9{ 8{ 7{ [% <% v' 0{ 6{ 6{ a{ b{ c{ c{ c{ d{ B~ B~ B~ B~ B~ 4{ 4{ 4{ B~ B~ d{ B~ b{ e{ C' v' [% }% 7{ f{ f{ f{ f{ 7{ 7{ [% u' b{ 3{ <{ <{ <{ <{ <{ <{ <{ <{ <{ <{ <{ <{ <{ <{ <{ <{ <{ <{ 2{ 2{ <{ <{ <{ <{ <{ <{ <{ <{ <{ <{ <{ <{ <{ 2{ 2{ 2{ 2{ ;~ g& +{ q! l) l) l) l) l) l) l) l) l) l) l) l) l) B! 4! _$ _$ _$ _$ _$ _$ _$ _$ _$ _$ _$ _$ _$ _$ _$ _$ _$ _$ _$ _$ _$ _$ _$ _$ _$ _$ _$ _$ _$ _$ _$ _$ _$ _$ _$ _$ _$ _$ _$ _$ _$ _$ _$ _$ _$ _$ _$ _$ _$ _$ _$ _$ _$ _$ _$ _$ _$ _$ _$ _$ _$ _$ _$ _$ _$ _$ _$ _$ _$ _$ _$ _$ _$ _$ _$ _$ _$ _$ R) g{ o~ *# ') _! h{ ^' ^' V) W) W) W) i{ f@ f@ f@ f@ f@ j{ 0~ ,) k{ Z# Z# Z# Z# Z# Z# Z# Z# Z# Z# Z# Z# Z# Z# Z# Z# Z# Z# Z# Z# Z# n. +' +' +' +' ') n# n# n# n# n# n# n# n# n# n# ",
"u! u! u! u! u! u! u! u! u! u! u! u! u! u! 2> 2> 2> +~ <! [! u~ u~ u~ u~ u~ l{ >! m{ n{ o{ >! p{ L, L, L, L, L, c& )  )  )  )  )  )  )  )  )  )  )  )  )  )  )  ~  '. q{ r{ s{ t{ u{ v{ 8+ 1. 1. 9+ w{ 1. |. x{ y{ Y' z{ Q# z@ {# S# _$ _$ _$ _$ _$ _$ _$ _$ _$ _$ _$ _$ _$ _$ _$ _$ _$ _$ _$ _$ _$ _$ _$ _$ _$ _$ _$ _$ _$ _$ _$ _$ _$ _$ _$ _$ _$ _$ _$ _$ _$ _$ _$ _$ _$ _$ _$ _$ _$ _$ _$ _$ _$ _$ _$ _$ _$ _$ _$ S# %+ A{ a) l) l) l) l) l) l) l) l) l) l) l) z) B{ C{ s& D{ E{ E{ E{ E{ E{ E{ E{ E{ E{ E{ E{ E{ E{ E{ E{ E{ E{ E{ E{ E{ E{ E{ E{ E{ F{ G{ F{ F{ F{ H{ I{ H{ F{ J{ K{ L{ M{ N{ O{ P{ Q{ R{ S{ T{ U{ V{ V{ W{ W{ W{ W{ W{ W{ W{ W{ X{ X{ X{ X{ X{ X{ X{ X{ X{ X{ X{ X{ X{ X{ X{ X{ X{ X{ X{ X{ X{ W{ W{ W{ W{ W{ W{ W{ W{ W{ W{ W{ W{ W{ W{ W{ W{ W{ W{ W{ W{ W{ W{ W{ W{ W{ W{ W{ W{ W{ W{ W{ W{ W{ W{ W{ W{ W{ W{ W{ W{ W{ W{ W{ W{ V{ Y{ Z{ `{  ] .] +] +] @] @] #] $] $] $] $] $] %] %] %] %] %] %] %] &] *] *] *] %] $] @] =] =] -]  ]  ]  ] ;] ;] -] .] #] &] >] >] >] >] ,] ,] ,] '] '] '] '] '] '] '] '] )] )] )] )] !] !] !] !] !] !] !] !] !] !] !] !] !] ~] ~] ~] ~] ~] !] ~] {] ]] p  l) l) l) l) l) l) l) l) l) l) l) l) l) l) 8. z@ _$ _$ _$ _$ _$ _$ _$ _$ _$ _$ _$ _$ _$ _$ _$ _$ _$ _$ _$ _$ _$ _$ _$ _$ _$ _$ _$ _$ _$ _$ _$ _$ _$ _$ _$ _$ _$ _$ _$ _$ _$ _$ _$ _$ _$ _$ _$ _$ _$ _$ _$ _$ _$ _$ _$ _$ _$ _$ _$ _$ _$ _$ _$ _$ _$ _$ :$ B# _$ B# _$ _$ _$ _$ _$ _$ _$ _$ ^] /] (] _] :] <] ^' ^' [] W) W) W) }] f@ f@ f@ f@ f@ %> 0~ ,) k{ Z# Z# Z# Z# Z# Z# Z# Z# Z# Z# Z# Z# Z# Z# Z# Z# Z# Z# Z# Z# Z# #' +' +' +' +' g) n# n# n# n# n# n# n# n# n# n# ",
"u! u! u! u! u! u! u! u! u! u! u! u! u! u! |] 2> 2> +~ <! [! u~ u~ u~ u~ u~ u~ v~ 1] m{ m{ 2] >! '! L, L, L, L, c& )  )  )  )  )  )  )  )  )  )  )  )  )  )  d& ~  3] 4] 5] 6] c  e  7] e  2. d  1. 7+ a+ d+ 5@ =+ y@ :# ;@ z@ {# S# _$ _$ _$ _$ _$ _$ _$ _$ _$ _$ _$ _$ _$ _$ _$ _$ _$ _$ _$ _$ _$ _$ _$ _$ _$ _$ _$ _$ _$ _$ _$ _$ _$ _$ _$ _$ _$ _$ _$ _$ _$ _$ _$ _$ _$ _$ _$ _$ _$ _$ _$ _$ _$ _$ _$ _$ _$ _$ _$ P+ F~ p! l) l) l) l) l) l) l) l) l) l) O) O) o) 8] 9] 0] a] b] b] b] b] b] b] b] b] b] b] b] b] b] b] b] b] b] b] b] b] b] b] b] c] c] c] d] a] a] a] a] a] a] a] b] a] e] f] g] h] h] i] j] k] l] m] n] n] n] n] n] n] n] n] o] o] o] o] o] o] o] o] o] o] o] o] o] o] o] o] o] o] o] o] o] o] o] o] n] n] n] n] n] n] n] n] n] n] n] n] n] n] n] n] n] n] n] n] n] n] n] n] n] n] n] n] n] o] o] o] n] n] n] n] n] n] n] n] n] n] n] n] n] n] o] o] o] o] p] p] q] n] n] n] m] m] m] m] m] m] r] r] r] r] r] s] s] t] t] u] u] v] w] x] x] s] t] t] u] y] u] x] x] x] x] u] u] u] z] z] z] z] z] A] A] A] A] B] C] C] C] C] B] B] B] B] B] B] B] B] B] B] D] E] E] E] E] E] E] E] E] F] G] H] I] a) l) l) l) l) l) l) l) l) l) l) l) l) l) 0. {# _$ _$ _$ _$ _$ _$ _$ _$ _$ _$ _$ _$ _$ _$ _$ _$ _$ _$ _$ _$ _$ _$ _$ _$ _$ _$ _$ _$ _$ _$ _$ _$ _$ _$ _$ _$ _$ _$ _$ _$ _$ _$ _$ _$ _$ _$ _$ _$ _$ _$ _$ _$ _$ _$ _$ _$ _$ _$ _$ _$ _$ _$ <$ <$ <$ S# _$ }$ B# A# _$ _$ _$ _$ _$ p$ _$ J] K] g) J) d! <] ^' ^' L] W) W) W) }] f@ f@ f@ f@ M] N] 0~ ,) k{ Z# Z# Z# Z# Z# Z# Z# Z# Z# Z# Z# Z# Z# Z# Z# Z# Z# Z# Z# Z# Z# H, +' +' +' +' r~ n# n# n# n# n# n# n# n# n# n# ",
"u! u! u! u! u! u! u! u! u! u! u! u! u! u! O] 2> 2> P] <! Q] u~ u~ u~ u~ u~ u~ R] S] m{ m{ m{ T] U] L, L, L, L, n, )  )  )  )  )  )  )  )  )  )  )  )  )  )  ~  ~  !{ V] W] f  X] e  i  O. Q. Y] Z] `] g~ i+ J  P+ Q+ :# ;@ z@ {# S# _$ _$ _$ _$ _$ _$ _$ _$ _$ _$ _$ _$ _$ _$ _$ _$ _$ _$ _$ _$ _$ _$ _$ _$ _$ _$ _$ _$ _$ _$ _$ _$ _$ _$ _$ _$ _$ _$ _$ _$ _$ _$ _$ _$ _$ _$ _$ _$ _$ _$ _$ _$ _$ _$ _$ _$ _$ _$ ;@ B! l) l) l) l) l) l) l) l) l) l) l) l) O) o)  ^ .^ +^ @^ #^ $^ %^ &^ *^ *^ *^ *^ *^ *^ *^ *^ *^ *^ *^ *^ *^ *^ *^ *^ *^ *^ &^ =^ -^ ;^ >^ ,^ '^ '^ '^ '^ '^ '^ '^ '^ '^ >^ >^ )^ !^ ~^ {^ ]^ ^^ /^ (^ _^ _^ _^ _^ _^ :^ <^ [^ }^ |^ |^ |^ |^ |^ |^ |^ |^ |^ |^ |^ |^ |^ |^ |^ |^ |^ |^ |^ |^ |^ 1^ /^ 2^ 3^ 3^ 3^ 3^ 3^ 3^ 3^ 3^ 3^ 3^ 3^ 3^ 3^ 3^ 3^ 3^ 3^ 3^ 3^ 3^ 3^ 3^ 3^ 3^ 3^ 3^ 4^ <^ 1^ 5^ 5^ 6^ 6^ 6^ 6^ 6^ 6^ 6^ 6^ 6^ 6^ 6^ 6^ 7^ 7^ 7^ 7^ 7^ 7^ 8^ 9^ 0^ 4^ a^ a^ a^ a^ a^ a^ a^ a^ a^ a^ a^ a^ a^ b^ c^ d^ e^ /^ 3^ f^ g^ h^ a^ b^ i^ j^ 5^ k^ l^ l^ m^ m^ m^ m^ m^ m^ l^ l^ l^ l^ l^ m^ m^ m^ m^ l^ l^ l^ j^ n^ o^ o^ p^ p^ q^ p^ r^ 2^ s^ t^ u^ v^ w^ w^ x^ x^ x^ (^ <^ <^ y^ z^ A^ B^ o) O) l) l) l) l) l) l) l) l) l) l) l) C^ 0. {# _$ _$ _$ _$ _$ _$ _$ _$ _$ _$ _$ _$ _$ _$ _$ _$ _$ _$ _$ _$ _$ _$ _$ _$ _$ _$ _$ _$ _$ _$ _$ _$ _$ _$ _$ _$ _$ _$ _$ _$ _$ _$ _$ _$ _$ _$ _$ _$ _$ _$ _$ _$ _$ _$ _$ _$ _$ _$ _$ _$ <$ D^ A# S# S# {# f# C# B# S# A# B# B# B# B# B# D$ {+ J) E^ F^ <] ^' ^' G^ W) W) W) H^ I^ f@ f@ f@ J^ K^ 0~ ,) k{ Z# Z# Z# Z# Z# Z# Z# Z# Z# Z# Z# Z# Z# Z# Z# Z# Z# Z# Z# Z# Z# J) +' +' +' +'  ~ n# n# n# n# n# n# n# n# n# n# ",
"u! u! u! u! u! u! u! u! u! u! u! u! u! u! L^ 2> 2> M^ <! N^ u~ u~ u~ u~ u~ u~ O^ ){ m{ m{ m{ m{ P^ '  L, L, L, L, n, =' )  )  )  )  )  )  )  )  )  )  )  [@ ~  ~  Q^ t{ R^ S^ S^ T^ U^ q  7. Y. @+ A  0. #+ -+ P+ Q+ :# ;@ z@ {# S# _$ _$ _$ _$ _$ _$ _$ _$ _$ _$ _$ _$ _$ _$ _$ _$ _$ _$ _$ _$ _$ _$ _$ _$ _$ _$ _$ _$ _$ _$ _$ _$ _$ _$ _$ _$ _$ _$ _$ _$ _$ _$ _$ _$ _$ _$ _$ _$ _$ _$ _$ _$ _$ _$ _$ _$ _$ R# V^ C^ l) l) l) l) l) l) l) l) l) l) l) l) l) W^ X^ Y^ Z^ `^  / ./ +/ @/ #/ #/ #/ #/ #/ #/ #/ #/ #/ #/ #/ #/ #/ #/ #/ #/ #/ $/ @/ %/ &/ */ =/ -/ ;/ Z^ Z^ Z^ Z^ Z^ Z^ Z^ Z^ >/ ;/ ,/ '/ )/ !/ ~/ ~/ {/ ]/ ]/ ]/ ]/ ]/ ]/ ^/ // (/ _/ :/ </ </ </ </ </ </ </ </ </ </ </ </ </ </ [/ [/ }/ }/ }/ |/ 1/ 2/ '/ 3/ 3/ ,/ ,/ ,/ ,/ ,/ ,/ ,/ ,/ ,/ ,/ ,/ ,/ ,/ ,/ ,/ ,/ ,/ ,/ ,/ ,/ ,/ ,/ 4/ 3/ 5/ 6/ (/ 7/ 7/ 8/ 8/ 8/ 8/ 8/ 8/ 8/ 8/ 8/ 8/ 8/ 8/ 8/ 8/ 8/ 9/ 0/ 0/ a/ b/ c/ d/ ;/ e/ ,/ ,/ ,/ ,/ ,/ ,/ ,/ ,/ ,/ ,/ ,/ f/ g/ h/ i/ j/ e/ k/ l/ m/ n/ o/ p/ q/ r/ s/ t/ u/ v/ [/ [/ [/ [/ [/ [/ [/ [/ [/ v/ v/ w/ w/ x/ y/ z/ A/ B/ C/ D/ E/ o/ F/ G/ H/ d/ I/ I/ 5/ J/ K/ L/ M/ N/ O/ P/ Q/ R/ R/ S/ T/ U/ V/ W/ O) l) l) l) l) l) l) l) l) l) l) l) l) O) i+ S# _$ _$ _$ _$ _$ _$ _$ _$ _$ _$ _$ _$ _$ _$ _$ _$ _$ _$ _$ _$ _$ _$ _$ _$ _$ _$ _$ _$ _$ _$ _$ _$ _$ _$ _$ _$ _$ _$ _$ _$ _$ _$ _$ _$ _$ _$ _$ _$ _$ _$ _$ _$ _$ _$ _$ _$ _$ _$ A# A# f# f# f# x# A@ x# x# y# {# Z@ `@ `@ S# A# ^# A# <# X/ Y/ F^ <] Z/ ^' %! W) W) W) H^ `/ f@ f@ M] N]  ( 0~ ,) `  Z# Z# Z# Z# Z# Z# Z# Z# Z# Z# Z# Z# Z# Z# Z# Z# Z# Z# Z# Z# Z# J) +' +' +' +' f) n# n# n# n# n# n# n# n# n# n# ",
"u! u! u! u! u! u! u! u! u! u! u! u! u! u! .( 2> 2> +( <! N^ u~ u~ u~ u~ u~ u~ u~ @( #( m{ m{ m{ m{ $( j! L, L, %( s# L, L, &( )  )  )  )  )  )  )  )   @ ~  ~  ~  *( S^ =( -( ;( >( r  s  v  `. ++ 0. 0. #+ -+ P+ Q+ :# ;@ z@ {# S# _$ _$ _$ _$ _$ _$ _$ _$ _$ _$ _$ _$ _$ _$ _$ _$ _$ _$ _$ _$ _$ _$ _$ _$ _$ _$ _$ _$ _$ _$ _$ _$ _$ _$ _$ _$ _$ _$ _$ _$ _$ _$ _$ _$ _$ _$ _$ _$ _$ _$ _$ _$ _$ _$ _$ _$ x# !! l) l) l) l) l) l) l) l) l) l) l) l) l) l) O) ,( '( )( !( ~( {( ]( ^( /( (( (( (( (( (( (( (( (( (( (( (( (( (( (( (( (( (( _( :( <( [( }( |( 1( 2( 2( 2( 2( 2( 2( 2( 2( 2( 2( 3( 4( 5( 6( 7( 8( 8( 9( 9( 8( 8( 8( 0( a( b( c( d( e( f( f( f( f( f( f( f( f( f( f( f( f( f( f( f( f( g( h( i( e( j( k( l( m( 3( 3( n( 3( 3( 3( 3( 3( 3( 3( 3( 3( 3( 3( 3( 3( 3( 3( 3( 3( 3( 3( 3( o( p( q( r( s( t( u( u( v( w( w( w( w( w( w( w( w( w( w( w( w( w( w( /( /( x( y( z( A( B( C( 2( n( 3( 3( 3( 3( 3( 3( 3( 3( 3( n( 4( D( E( F( G( H( I( J( K( L( M( N( O( P( Q( R( S( e( T( i( i( i( U( h( h( i( i( T( e( e( V( W( V( X( Y( Z( `(  _ ._ +_ @_ #_ m( $_ %_ 5( &_ *_ *_ =_ -_ ;_ +/ >_ 8/ r/ ,_ '_ s/ )_ !_ ~_ o) l) l) l) l) l) l) l) l) l) l) l) l) l) {_ Q+ _$ _$ _$ _$ _$ _$ _$ _$ _$ _$ _$ _$ _$ _$ _$ _$ _$ _$ _$ _$ _$ _$ _$ _$ _$ _$ _$ _$ _$ _$ _$ _$ _$ _$ _$ _$ _$ _$ _$ _$ _$ _$ _$ _$ _$ _$ _$ _$ _$ _$ _$ _$ _$ _$ _$ _$ _$ _$ A# {# #& {# ]_ ]_ ^_ z@ U+ 4! -@ R# U+ U+ A@ A@ B@ Z@ /_ (_ __ :_ <] <_ ^' ^' W) W) W) H^ `/ f@ f@ [_ N] }_ |_ 1_ Y) Z# Z# Z# Z# Z# Z# Z# Z# Z# Z# Z# Z# Z# Z# Z# Z# Z# Z# Z# Z# Z# J) +' +' +' +' 2_ n# n# n# n# n# n# n# n# n# n# ",
"u! u! u! u! u! u! u! u! u! u! u! u! u! u! 3_ 2> 2> +( <! N^ u~ u~ u~ u~ u~ u~ u~ 4_ P~ 5_ m{ m{ m{ 6_ 7_ s# 8_ 8_ 8_ j! 9_ 0_ a_ )  !  G+ ~  a% !  )  G+ ~  ~  ~  b_ c_ d_ e_ f_ g_ B! u  v  `. ++ 0. 0. #+ -+ P+ Q+ :# ;@ z@ {# S# _$ _$ _$ _$ _$ _$ _$ _$ _$ _$ _$ _$ _$ _$ _$ _$ _$ _$ _$ _$ _$ _$ _$ _$ _$ _$ _$ _$ _$ _$ _$ _$ _$ _$ _$ _$ _$ _$ _$ _$ _$ _$ _$ _$ _$ _$ _$ _$ _$ _$ _$ _$ _$ _$ _$ S# h_ O) l) l) l) l) l) l) l) l) l) l) l) l) l) A{ i_ j_ k_ l_ m_ n_ P( o_ p_ q_ o_ o_ o_ o_ o_ o_ o_ o_ o_ o_ o_ o_ o_ o_ o_ o_ r_ s_ t_ u_ v_ #_ B( $_ w_ w_ w_ w_ w_ w_ w_ w_ w_ w_ w_ w_ 5( x_ y_ z_ A_ B_ C_ D_ D_ C_ E_ F_ G_ H_ I_ J_ K_ J_ J_ J_ J_ J_ J_ J_ K_ K_ K_ L_ M_ N_ O_ P_ I_ Q_ R_ S_ T_ U_ V_ W_ $_ w_ w_ w_ w_ w_ w_ w_ w_ w_ w_ w_ w_ w_ w_ w_ w_ w_ w_ w_ $_ $_ X_ w_ D( Y_ Z_ `_  : o_ .: o_ o_ o_ o_ o_ o_ o_ o_ o_ o_ o_ o_ o_ o_ o_ o_ +: @: #: $: %: B( $_ w_ w_ w_ w_ w_ w_ w_ w_ w_ w_ w_ w_ w_ l_ &: *: =: -: ;: >: c/ ,: ': ): !: q_ ~: ~: ~: o_ o_ {: ]: ^: ^: ^:  : /: (: o_ _: q_ ~: o_ :: <: [: }: |: #_ $_ 1: 1: w_ w_ $_ w_ w_ 5( 5( W_ W_ $_ $_ w_ 5( |: x_ 2: >_ 3: 4: 5: 6: 7: 8: l) l) l) l) l) l) l) l) l) l) l) l) l) F~ P+ _$ _$ _$ _$ _$ _$ _$ _$ _$ _$ _$ _$ _$ _$ _$ _$ _$ _$ _$ _$ _$ _$ _$ _$ _$ _$ _$ _$ _$ _$ _$ _$ _$ _$ _$ _$ _$ _$ _$ _$ _$ _$ _$ _$ _$ _$ _$ _$ _$ _$ _$ _$ _$ _$ _$ _$ _$ A# f# x# 7@ z@ >@ w# w# N  M  Q+ g. g. m+ m+ o+ 9: 8@  # S. 0: a: <] b: ^' ^' 9~ W) W) H^ `/ f@ f@ c: N] d: e: f: Y) Z# Z# Z# Z# Z# Z# Z# Z# Z# Z# Z# Z# Z# Z# Z# Z# Z# Z# Z# Z# Z# J) +' +' +' +' +'  ~ n# n# n# n# n# n# n# n# n# ",
"u! u! u! u! u! u! u! u! u! u! u! u! u! u! g: 2> 2> h: <! t~ u~ u~ u~ u~ u~ u~ u~ l{ >! ,{ i: m{ m{ j: >! k: 8_ 8_ 8_ l: 0_ 0_ m: a% ~  ~  ~  ~  ~  G+ ~  ~  ~  ~  b_ c_ d_ e_ f_ g_ B! u  v  `. ++ 0. 0. #+ -+ P+ Q+ :# ;@ z@ {# S# _$ _$ _$ _$ _$ _$ _$ _$ _$ _$ _$ _$ _$ _$ _$ _$ _$ _$ _$ _$ _$ _$ _$ _$ _$ _$ _$ _$ _$ _$ _$ _$ _$ _$ _$ _$ _$ _$ _$ _$ _$ _$ _$ _$ _$ _$ _$ _$ _$ _$ _$ _$ _$ _$ _$ i+ A{ l) l) l) l) l) l) l) l) l) l) l) O) O) 8: n: o: p: x_ q: r: _( :: +: s: s: s: s: s: s: s: s: s: s: s: s: s: s: s: s: !: s: t: u: v: w: x: L( B( B( B( B( B( B( B( B( B( B( B( B( B( B( B( B( y: 7/ 8( z: A: A: A: B: C: D: E: F: G: H: H: H: H: H: H: H: H: H: I: I: I_ Q_ J: p_ _: K: +: L: M: N: O: P: B( B( B( B( B( B( B( B( B( B( B( B( B( B( B( B( B( B( B( B( B( B( B( Q: $_ R: S: T: U: V: W: s: s: s: s: s: s: s: s: s: s: s: s: s: s: s: s: s: X: Y: Z: `: *_  < B( B( B( B( B( B( B( B( B( B( B( B( B( B( B( B( &_ .< +< @< #< $< -_ %< &< X: !: s: s: s: s: s: s: s: s: s: s: s: s: s: s: s: s: s: *< =< -< ;< >< $_ x: B( B( B( B( B( B( B( B( B( B( B( B( x: x: x: x: x: ,< ,< B( '< )< !< ~< {< ]< ^< C^ l) l) l) l) l) l) l) l) l) l) l) l) l) /< y@ _$ _$ _$ _$ _$ _$ _$ _$ _$ _$ _$ _$ _$ _$ _$ _$ _$ _$ _$ _$ _$ _$ _$ _$ _$ _$ _$ _$ _$ _$ _$ _$ _$ _$ _$ _$ _$ _$ _$ _$ _$ _$ _$ _$ _$ _$ _$ _$ _$ _$ _$ _$ _$ _$ _$ _$ S# {# z@ -@ m+ ~+ P+ =+ $+ 0. A  y  x  9. u  u  (< N' _< :< << [< <] }< ^' ^' Z! W) W) H^ `/ f@ f@ J^ N]  ( N] N] |< Z# Z# Z# Z# Z# Z# Z# Z# Z# Z# Z# Z# Z# Z# Z# Z# Z# Z# Z# Z# Z# e' +' +' +' +' +' +' ') u) n# n# n# n# n# n# n# ",
"u! u! u! u! u! u! u! u! u! u! u! u! u! u! 1< 2> 2> 2> <! 2< u~ u~ u~ u~ u~ u~ u~ u~ @( >! >! o{ o{ o{ >! 7_ 8_ 8_ 3< 4< 0_ 9_ `+ ~  ~  ~  ~  ~  ~  ~  ~  ~  ~  ~  {_ c_ d_ e_ f_ g_ B! u  v  `. ++ 0. 0. #+ -+ P+ Q+ :# ;@ z@ {# S# _$ _$ _$ _$ _$ _$ _$ _$ _$ _$ _$ _$ _$ _$ _$ _$ _$ _$ _$ _$ _$ _$ _$ _$ _$ _$ _$ _$ _$ _$ _$ _$ _$ _$ _$ _$ _$ _$ _$ _$ _$ _$ _$ _$ _$ _$ _$ _$ _$ _$ _$ _$ _$ <$ =+ S' l) l) l) l) l) l) l) l) l) l) l) l) O) O) 6- 5< 6< 7< `: 8< 9< 0< *< s: s: s: s: s: s: s: s: s: s: s: s: s: s: s: s: !: s: @: a< b< V_ x: Q: B( B( B( B( B( B( B( B( B( B( B( B( B( B( B( B( B( B( y: c< d< A: e< f< g< h< i< I_ G: H: H: H: H: H: H: j< k< I: I: l< m< p_ ~: *< *< !: !: n< P( o< ,: W_ p< B( B( B( B( B( B( B( B( B( B( B( B( B( B( B( B( B( B( B( B( B( B( Q: m( >< q< r< s< W: 0< s: s: s: s: s: s: s: s: s: s: s: s: s: s: s: s: t< X: u< z( v< w< L( x< B( B( B( B( B( B( B( B( B( B( B( B( B( B( B( y< z< A< B< 7( C< D< E< F< G< !: s: s: s: s: s: s: s: s: s: s: s: s: s: s: s: s: s: H< X: I< N( J< B( Q: B( B( B( B( B( B( B( B( B( B( B( B( B( B( B( B( B( B( B( Q: 5( D< K< L< M< N< O< P< A{ O) O) Q< l) l) l) l) l) l) l) l) l) l) C^ B! :# _$ _$ _$ _$ _$ _$ _$ _$ _$ _$ _$ _$ _$ _$ _$ _$ _$ _$ _$ _$ _$ _$ _$ _$ _$ _$ _$ _$ _$ _$ _$ _$ _$ _$ _$ _$ _$ _$ _$ _$ _$ _$ _$ _$ _$ _$ _$ _$ _$ _$ _$ _$ _$ _$ _$ S# {# z@ -@ m+ Q+ -+ $+ 0. y  `. u  N' _< R< ;( O' R' S< :< T< U< <] h{ ^' ^' ^! W) V< H^ `/ f@ f@ W< N] N] N] N] X< Z& Z# Z# Z# Z# Z# Z# Z# Z# Z# Z# Z# Z# Z# Z# Z# Z# Z# Z# Z# Z# j# +' +' +' +' +' +' +' +' Y< 2_ Z< n# n# n# n# ",
"f) u! u! u! u! u! u! u! u! u! u! u! u! u! -, `< |] 2> b~ u~ u~ u~ u~ u~ u~ u~ u~ u~ R] >! >! >! >! >! >! >!  [ .[ +[ 4< 9_ @[ ~  ~  ~  ~  ~  ~  ~  ~  ~  ~  ~  ~  {_ c_ d_ e_ f_ g_ B! u  v  `. ++ 0. 0. #+ -+ P+ Q+ :# ;@ z@ {# S# _$ _$ _$ _$ _$ _$ _$ _$ _$ _$ _$ _$ _$ _$ _$ _$ _$ _$ _$ _$ _$ _$ _$ _$ _$ _$ _$ _$ _$ _$ _$ _$ _$ _$ _$ _$ _$ _$ _$ _$ _$ _$ _$ _$ _$ _$ _$ _$ _$ _$ _$ _$ A# %+ +{ l) l) l) l) l) l) l) l) l) l) l) l) l) O) #[ $[ %[ &[ *[ =[ @: ~: H< s: s: s: s: s: s: s: s: s: s: s: s: s: s: s: s: s: -[ ;[ >[ ,[ x_  < L( B( B( B( B( B( B( B( B( B( B( B( B( B( B( B( B( B( B( B( y< =_ '[ )[ ![ ~[ {[ ][ H: G: H: H: H: I: I: I: ^[ /[ ([ F: _[ q_ W: *< s: s: s: s: ][ /( :[ D< $_ x: B( B( B( B( B( B( B( B( B( B( B( B( B( B( B( B( B( B( B( B( B( B( x: X_ <[ [[ }[ |[ ~: *< s: s: s: s: s: s: s: s: s: s: s: s: s: s: s: s: s: |[ 1[ 2[ O: B( 3[ x: B( B( B( B( B( B( B( B( B( B( B( B( B( B( B( B( W_ 4[ A< 5[ 6[ 7[ 8[ X( H< *< s: s: s: s: s: s: s: s: s: s: s: s: s: s: s: s: s: s: ][ 9[ {( J< p< Q: B( B( B( B( B( B( B( B( B( B( B( B( B( B( B( B( B( B( p< B( %: 0[ r: P( *< +: a[ s: b[ c[ {_ O) O) l) l) l) l) l) l) l) l) l) l) l) O) B! m+ _$ _$ _$ _$ _$ _$ _$ _$ _$ _$ _$ _$ _$ _$ _$ _$ _$ _$ _$ _$ _$ _$ _$ _$ _$ _$ _$ _$ _$ _$ _$ _$ _$ _$ _$ _$ _$ _$ _$ _$ _$ _$ _$ _$ _$ _$ _$ _$ _$ _$ _$ _$ _$ _$ S# {# z@ -@ m+ Q+ -+ $+ 0. y  `. u  N' N' _< f_ e_ d[ S< m  e[ U< <] f[ ^' ^' G^ W) g[ H^ `/ f@ f@ W< N] N] N] N] N] h[ i[ '$ Z# Z# Z# Z# Z# Z# Z# Z# Z# Z# Z# Z# Z# Z# Z# Z# Z# Z# Z# G, +' +' +' +' +' +' +' +' +' +' +' ')  ~ j[ ",
"H, ]' u! u! u! u! u! u! u! u! u! u! u! g) k[ l[ l[ l[ m[ u~ u~ u~ u~ u~ u~ u~ u~ u~ n[ o[ o[ o[ >! >! >! >! >! p[ >! c& ~  ~  ~  ~  ~  ~  ~  ~  ~  ~  ~  ~  ~  ~  q[ c_ d_ e_ f_ g_ B! u  v  `. ++ 0. 0. #+ -+ P+ Q+ :# ;@ z@ {# S# _$ _$ _$ _$ _$ _$ _$ _$ _$ _$ _$ _$ _$ _$ _$ _$ _$ _$ _$ _$ _$ _$ _$ _$ _$ _$ _$ _$ _$ _$ _$ _$ _$ _$ _$ _$ _$ _$ _$ _$ _$ _$ _$ _$ _$ _$ _$ _$ _$ _$ _$ _$ :# F~ l) l) l) l) l) l) l) l) l) l) l) l) l) o) r[ s[ t[ u[ v[ w[ x[ y[ H< s: s: s: s: s: s: s: s: s: s: s: s: s: s: s: s: s: X: 9< z[ A[ =_ B[ Q: B( B( B( B( B( B( B( B( B( B( B( B( B( B( B( B( B( B( B( B( B( W_ 6( C[ D[ E[ F[ I: k< I_ I_ I_ ([ G[ F: H[ I[ (: .: +: *< s: s: s: s: !: !: J[ K[ L[ M[ $_ x: B( B( B( B( B( B( B( B( B( B( B( B( B( B( B( B( B( B( B( B( B( x: B( *_ N[ O[ K[ s_ ~: *< s: s: s: s: s: s: s: s: s: s: s: s: s: t< !: *< s: ][ (( P[ Q[ R[ 3[ B( B( B( B( B( B( B( B( B( B( B( B( B( B( B( B( B( B( S[ T[ J< U[ V[ W[ X[ *< s: s: s: s: s: s: s: s: s: s: s: s: s: s: s: s: s: !: s: X[ O( Y[ R: m( x: B( B( B( B( B( B( B( B( B( B( B( B( B( B( B( B( B( B( x: m( Z[ `[  } Y: +: +: s: s: s: .} +} I] A{ O) l) l) l) l) l) l) l) l) l) l) l) l) l) k) y# _$ _$ _$ _$ _$ _$ _$ _$ _$ _$ _$ _$ _$ _$ _$ _$ _$ _$ _$ _$ _$ _$ _$ _$ _$ _$ _$ _$ _$ _$ _$ _$ _$ _$ _$ _$ _$ _$ _$ _$ _$ _$ _$ _$ _$ _$ _$ _$ _$ _$ _$ _$ _$ S# {# z@ -@ m+ Q+ -+ $+ 0. y  `. u  N' N' _< f_ e_ d[ S< R. e[ U< <] <] @} ^' ^' W) g[ H^ `/ f@ f@ W< N] N] N] N] N] #} $} %} F, &} 9& *} =} Z# Z# Z# Z# Z# Z# Z# Z# Z# Z# Z# Z# Z# Z# Z# q~ +' +' +' +' +' +' +' +' +' +' +' +' +' ",
"H, H, f) u! u! u! u! u! u! u! u! -, -} l[ l[ l[ l[ l[ ;} u~ u~ u~ u~ u~ u~ u~ u~ u~ >} ,} '} '} '} '} '} >! >! )} !} ~} ~  ~  ~  ~  ~  ~  ~  ~  ~  ~  ~  ~  ~  ~  q[ c_ d_ e_ f_ g_ B! u  v  `. ++ 0. 0. #+ -+ P+ Q+ :# ;@ z@ {# S# _$ _$ _$ _$ _$ _$ _$ _$ _$ _$ _$ _$ _$ _$ _$ _$ _$ _$ _$ _$ _$ _$ _$ _$ _$ _$ _$ _$ _$ _$ _$ _$ _$ _$ _$ _$ _$ _$ _$ _$ _$ _$ _$ _$ _$ _$ _$ _$ _$ _$ _$ z@ {} l) l) l) l) l) l) l) l) l) l) l) l) l) ]} ^} /} (} _} :} y( <} +: *< s: s: s: s: s: s: s: s: s: s: s: s: s: s: s: s: !: -[ 9< [} q: l_ L( Q: B( B( B( B( B( B( B( B( B( B( B( B( B( B( B( B( B( B( B( B( B( B( 5( }} |} 1} *< ([ 2} 3} 3} 4} 5} .: +: ~: H< *< !: s: L: L: s: s: s: !: *< 6} 7} 8} 9} p< x: B( B( B( B( B( B( B( B( B( B( B( B( B( B( B( B( B( B( B( B( B( x: x: 0} 7[ a} b} s_ W: *< s: s: s: s: s: s: s: s: s: s: s: s: s: *< q_ c} V: ][ d} K< D< 5( L( x: B( B( B( B( B( B( B( B( B( B( B( B( B( B( B( B( B( B( W_ }( e} f} -< i< *< !: s: s: s: s: s: s: s: s: s: s: s: s: s: s: s: s: *< s: g} h} ,[ 2: B( x: B( B( B( B( B( B( B( B( B( B( B( B( B( B( B( B( B( B( Q: B( M( [( i} j} *< *< s: s: s: s: s: t< k} l} S! l) l) l) l) l) l) l) l) l) l) l) l) l) S! g~ {# _$ _$ _$ _$ _$ _$ _$ _$ _$ _$ _$ _$ _$ _$ _$ _$ _$ _$ _$ _$ _$ _$ _$ _$ _$ _$ _$ _$ _$ _$ _$ _$ _$ _$ _$ _$ _$ _$ _$ _$ _$ _$ _$ _$ _$ _$ _$ _$ _$ _$ _$ _$ S# {# z@ -@ m+ Q+ -+ $+ 0. y  `. u  N' N' _< f_ e_ d[ S< a+ e[ [< <] <] m} ^' ^' Z! g[ H^ `/ f@ f@ W< N] N] N] N] N] N] h[ $} $} n} o} p} q} 0& r} Z# Z# Z# Z# Z# Z# Z# Z# Z# Z# Z# Z# Z# Z# j# #' @' +' +' +' +' +' +' +' +' +' +' ",
"H, H, H, n# u! u! u! u! u! u! s} t} u} u} v} l[ l[ l[ w} u~ u~ u~ u~ u~ u~ u~ u~ u~ u~ x} y} '} '} '} '} @( !} )} z} A} ~  ~  ~  ~  ~  ~  ~  ~  ~  ~  ~  ~  ;# #$ {_ c_ d_ e_ f_ g_ B! u  v  `. ++ 0. 0. #+ -+ P+ Q+ :# ;@ z@ {# S# _$ _$ _$ _$ _$ _$ _$ _$ _$ _$ _$ _$ _$ _$ _$ _$ _$ _$ _$ _$ _$ _$ _$ _$ _$ _$ _$ _$ _$ _$ _$ _$ _$ _$ _$ _$ _$ _$ _$ _$ _$ _$ _$ _$ _$ _$ _$ _$ _$ _$ R# r! l) l) l) l) l) l) l) l) l) l) l) l) l) z) B} C} D} E} F} ): G} H< !: s: s: s: s: s: s: s: s: s: s: s: s: s: s: s: s: 0< L: H} 8< q: $_ L( B( B( B( B( B( B( B( B( B( B( B( B( B( B( B( B( B( B( B( B( B( B( B( 5( 9} I} d} s: (: ~: +: J} *< *< :: s: L: G< s: s: s: s: s: s: s: s: !: H< J[ K} L} M( p< Q: B( B( B( B( B( B( B( B( B( B( B( B( B( B( B( B( B( B( B( B( B( ,< B( M} N} O} P} V: H< s: s: s: s: s: s: s: s: s: s: s: s: s: !: H< p_ F: I[ |[ ): Q} <[ Q: B[ B( B( B( B( B( B( B( B( B( B( B( B( B( B( B( B( B( B( B( B( *_ O: R} S} |[ *< s: s: s: s: s: s: s: s: s: s: s: s: s: s: s: s: s: !: :: T} Z: U} %: B( B( B( B( B( B( B( B( B( B( B( B( B( B( B( B( B( B( B( B( Q: V} M( S: W} X} _: W: s: s: s: s: s: s: s: Y} Z} `} q! l) l) l) l) l) l) l) l) l) l) l) l) l)  ! &) x# _$ _$ _$ _$ _$ _$ _$ _$ _$ _$ _$ _$ _$ _$ _$ _$ _$ _$ _$ _$ _$ _$ _$ _$ _$ _$ _$ _$ _$ _$ _$ _$ _$ _$ _$ _$ _$ _$ _$ _$ _$ _$ _$ _$ _$ _$ _$ _$ _$ _$ _$ S# {# z@ -@ m+ Q+ -+ $+ 0. y  `. u  N' N' _< f_ e_ d[ S< a+ e[  | <] <] .| ^' ^' H) g[ H^ f@ f@ f@ W< N] N] N] N] N] N] +| $} $} $} $} @| q} p} p} #| $| Z# Z# Z# Z# Z# Z# Z# Z# Z# Z# Z# Z# Z# Z# Z# Z# j# q~ q~ q~  '  ' H, I, +' ",
"H, H, H, %| u! u! u! u! &| *| =| =| =| =| =| -| ;| l[ >| u~ u~ u~ u~ u~ u~ u~ u~ u~ u~ x} x} y} '} '} '} o[ !} )} ,| p* ~  ~  ~  ~  ~  ~  ~  ~  {  #$ w$ ]  ]  ]  {_ c_ d_ e_ f_ g_ B! u  v  `. ++ 0. 0. #+ -+ P+ Q+ :# ;@ z@ {# S# _$ _$ _$ _$ _$ _$ _$ _$ _$ _$ _$ _$ _$ _$ _$ _$ _$ _$ _$ _$ _$ _$ _$ _$ _$ _$ _$ _$ _$ _$ _$ _$ _$ _$ _$ _$ _$ _$ _$ _$ _$ _$ _$ _$ _$ _$ _$ _$ _$ y# 8. l) l) l) l) l) l) l) l) l) l) l) l) l) l) '| X{ )| !| ~| {| |[ H< !: s: s: s: s: s: s: s: s: s: s: s: s: s: s: s: s: *< X: ]| ^| 7[ 5( L( B( B( B( B( B( B( B( B( B( B( B( B( B( B( B( B( B( B( B( B( B( B( $_ /| &: (| Y( X: *< L: s: s: s: s: s: s: s: s: s: s: s: s: s: s: s: s: s: s: x[ _| :| <| B( x: B( B( B( B( B( B( 1: *_ [| &_ R[ $_ $_ B( B( B( B( B( B( B( B( x: X_ }| $: || j} y[ W: s: s: s: s: s: s: s: s: s: s: s: s: s: *< ~: I[ I_ 1| 2| d( [[ <[ Q: L( B( B( B( B( B( B( B( B( B( B( B( B( B( B( B( B( B( B( B( $_ }( 0[ 3| /( !: *< s: s: s: s: s: s: s: s: s: s: s: s: s: s: s: s: s: s: |[ 4| 5| 6| &_ 7| B( B( B( B( B( B( B( B( B( B( B( B( B( B( B( B( B( B( B( Q: W_ <[ 8| K} i< 9| *< s: s: s: s: s: s: s: s: s: Y} 0| a| q! l) l) l) l) l) l) l) l) l) l) l) l) l) q! &) S# _$ _$ _$ _$ _$ _$ _$ _$ _$ _$ _$ _$ _$ _$ _$ _$ _$ _$ _$ _$ _$ _$ _$ _$ _$ _$ _$ _$ _$ _$ _$ _$ _$ _$ _$ _$ _$ _$ _$ _$ _$ _$ _$ _$ _$ _$ _$ _$ _$ _$ S# {# z@ -@ m+ Q+ -+ $+ 0. y  `. u  N' N' _< f_ e_ d[ S< b| e[ c| <] <] f[ ^' ^' ^' d| H^ f@ f@ f@ W< N] N] N] N] N] N] N] e| $} $} $} $} f| g| o} p} h| Z# Z# Z# Z# Z# Z# Z# Z# Z# Z# Z# Z# Z# Z# Z# Z# Z# Z# Z# Z# Z# Z# Z# Z# n. ",
"H, H, H, H,  ~ u! Y< i| =| =| =| =| =| =| =| =| =| j| u~ u~ u~ u~ u~ u~ u~ u~ u~ u~ u~ x} x} x} k| '} '} v~ l| )} k' m| H+ ~  ~  ~  ~  ~  ~  ]  ]  ]  ]  ]  ]  ]  {_ c_ d_ e_ f_ g_ B! u  v  `. ++ 0. 0. #+ -+ P+ Q+ :# ;@ z@ {# S# _$ _$ _$ _$ _$ _$ _$ _$ _$ _$ _$ _$ _$ _$ _$ _$ _$ _$ _$ _$ _$ _$ _$ _$ _$ _$ _$ _$ _$ _$ _$ _$ _$ _$ _$ _$ _$ _$ _$ _$ _$ _$ _$ _$ _$ _$ _$ _$ {# i+ l) l) l) l) l) l) l) l) l) l) l) l) l) l) S' n| o| p| ^| q| s: W: s: s: s: s: s: s: s: s: s: s: s: s: s: s: s: s: s: *< X: (( r: }: V} L( B( B( B( B( B( B( B( B( B( B( B( B( B( B( B( B( B( B( B( B( B( B( $_ }( A( [: r| X} *< s: s: s: s: s: s: s: s: s: s: s: s: s: s: s: s: s: s: s: X( s| t| R: y< B( B( B( B( B( B( x: W_ u| v| )< w| y: 5( $_ B( B( B( B( B( B( B( Q: $_ R: x| W} y| ~: *< s: s: s: s: s: s: s: s: s: s: s: s: *< ~: /: F: I: k< z| A| B| M( L( L( B( B( B( B( B( B( B( B( B( B( B( B( B( B( B( B( B( B( B( $_ M( C| D| M: L: *< s: s: s: s: s: s: s: s: s: s: s: s: s: s: s: s: s: *< X: ]| [} 6| M} B( B( B( B( B( B( B( B( B( B( B( B( B( B( B( B( B( B( B( B( Q: W_ }} F} 9[ X} H< *< s: s: s: s: s: s: s: s: s: s: s: E| F| a| S! O) l) l) l) l) l) l) l) l) l) l) l) l)  ! y@ _$ _$ _$ _$ _$ _$ _$ _$ _$ _$ _$ _$ _$ _$ _$ _$ _$ _$ _$ _$ _$ _$ _$ _$ _$ _$ _$ _$ _$ _$ _$ _$ _$ _$ _$ _$ _$ _$ _$ _$ _$ _$ _$ _$ _$ _$ _$ _$ _$ _$ S# {# z@ -@ m+ Q+ -+ $+ 0. y  `. u  N' N' _< f_ e_ d[ S< 4@ e[ G| <] <] <] H| ^' ^' I| H^ f@ f@ f@ N] N] N] N] N] N] N] N] N] h[ $} $} $} $} $} $} J| Y# Z# Z# Z# Z# Z# Z# Z# Z# Z# Z# Z# Z# Z# Z# Z# Z# Z# Z# Z# Z# Z# Z# Z# Z# Z# ",
"H, H, H, H, %| K| =| =| =| =| =| =| =| =| =| =| L| M| u~ u~ u~ u~ u~ u~ u~ u~ u~ u~ u~ x} x} x} '{ '} N| O| )} )} P| P| Q| H+ ~  ~  ~  ~  ~  ]  ]  ]  R| R| R| S| S< c_ d_ e_ f_ g_ B! u  v  `. ++ 0. 0. #+ -+ P+ Q+ :# ;@ z@ {# S# _$ _$ _$ _$ _$ _$ _$ _$ _$ _$ _$ _$ _$ _$ _$ _$ _$ _$ _$ _$ _$ _$ _$ _$ _$ _$ _$ _$ _$ _$ _$ _$ _$ _$ _$ _$ _$ _$ _$ _$ _$ _$ _$ _$ _$ _$ _$ {# y  o) l) l) l) l) l) l) l) l) l) l) l) l) l) o) T| U| V| W| P} *< *< s: s: s: s: s: s: s: s: s: s: s: s: s: s: s: s: s: s: X: /( X| v|  _ ._ B( B( B( B( B( B( B( B( B( B( B( B( B( B( B( B( B( B( B( B( B( B( B( =_ Y| Z| E: *< *< s: s: s: s: s: s: s: s: s: s: s: s: s: s: s: s: s: s: !: X[ `|  1 x_ x: x: B( B( B( B( B( x: L( .1 A[ +1 @1 #1 $1 W_ $_ B( B( B( B( B( B( Q: y< 9} %1 &1 ][ H< *< s: s: s: s: s: s: s: s: s: s: s: s: W: o_ F: I: H: k< *1 =1 8| -1 ._ L( B( B( B( B( B( B( B( B( B( B( B( B( B( B( B( B( B( B( B( $_ Z[ *[ >[ ;1 !: !: s: s: s: s: s: s: s: s: s: s: s: s: s: s: s: s: s: *< L: /( >1 0[ 5( x: x: B( B( B( B( B( B( B( B( B( B( B( B( B( B( B( B( B( B( x: #_ ,1 K< b} s: H< s: s: s: s: s: s: s: s: s: s: s: s: s: s: '1 /$ +{ q! l) l) l) l) l) l) l) l) l) l) l) l) l) +{ :# A# _$ _$ _$ _$ _$ _$ _$ _$ _$ _$ _$ _$ _$ _$ _$ _$ _$ _$ _$ _$ _$ _$ _$ _$ _$ _$ _$ _$ _$ _$ _$ _$ _$ _$ _$ _$ _$ _$ _$ _$ _$ _$ _$ _$ _$ _$ _$ _$ S# {# z@ -@ m+ Q+ -+ $+ 0. y  `. u  N' N' _< f_ e_ d[ S< 4@ e[ )1 <] <] <] .| ^' ^' ){ !1 f@ f@ ~1 N] N] N] N] N] N] N] N] N] {1 $} $} $} $} $} ]1 ^1 ^1 /1 E) Z# Z# Z# Z# Z# Z# Z# Z# Z# Z# Z# Z# Z# Z# Z# Z# Z# Z# Z# Z# Z# Z# Z# ",
"H, H, H, H, (1 =| =| =|  (  (  (  ( _1 :1 <1 [1 u~ u~ u~ u~ u~ u~ u~ u~ u~ u~ u~ u~ u~ }1 x} x} x} |1 11 )} )} 21 P| P| P| 31 41 51 61 71 81 91 91 91 91 91 91 91 S< c_ d_ e_ f_ g_ B! u  v  `. ++ 0. 0. #+ -+ P+ Q+ :# ;@ z@ {# S# _$ _$ _$ _$ _$ _$ _$ _$ _$ _$ _$ _$ _$ _$ _$ _$ _$ _$ _$ _$ _$ _$ _$ _$ _$ _$ _$ _$ _$ _$ _$ _$ _$ _$ _$ _$ _$ _$ _$ _$ _$ _$ _$ _$ _$ _$ S# i+ O) l) l) l) l) l) l) l) l) l) l) l) l) l) () 01 a1 b1 c1 @: 0< *< s: s: s: s: s: s: s: s: s: s: s: s: s: s: s: s: s: *< ][ d1 3| e1 x: ._ x: x: x: x: x: x: x: x: x: x: x: x: x: x: x: x: x: x: x: x: x: x: B( }( Q[ a} f1 H< s: s: s: s: s: s: s: s: s: s: s: s: s: s: s: s: s: s: s: s: g1 h1 A[ x_ x: x: x: x: x: x: x: x:  _  _ m_ i1 j1 k1 l1 2( B( B( x: x: x: x: x: L( B( m1 n1 o1 X: H< *< s: s: s: s: s: s: s: s: s: s: s: W: _: I[ ([ H: O_ H: +: =1 v[ p1 ._ L( x: x: x: x: x: x: x: x: x: x: x: x: x: x: x: x: x: x: x: X_ .1 E( ]( q1 s: s: s: s: s: s: s: s: s: s: s: s: s: s: s: s: s: s: s: *< s: r1 s1 t1 w_ x: x: x: x: x: x: x: x: x: x: x: x: x: x: x: x: x: x: x: x:  _ 5( e1 u1 v1 |[ *< s: s: s: s: s: s: s: s: s: s: s: s: s: s: s: .} w1 x1 T' l) l) l) l) l) l) l) l) l) l) l) l) l) l) P' y@ <$ _$ _$ _$ _$ _$ _$ _$ _$ _$ _$ _$ _$ _$ _$ _$ _$ _$ _$ _$ _$ _$ _$ _$ _$ _$ _$ _$ _$ _$ _$ _$ _$ _$ _$ _$ _$ _$ _$ _$ _$ _$ _$ _$ _$ _$ _$ _$ S# {# z@ -@ m+ Q+ -+ $+ 0. y  `. u  N' N' _< f_ e_ d[ S< 4@ y1 <] <] <] <] f[ ^' ^' U) !1 f@ f@ z1 N] N] N] N] N] N] N] N] N] N] A1 $} $} B1 C1 D1 A% E1 E1 ^1 F1 G1 Z# Z# Z# Z# Z# Z# Z# Z# Z# Z# Z# Z# Z# Z# Z# Z# Z# Z# Z# Z# Z# ",
"H, H, H1 I1 J1 K1 u~ u~ u~ u~ u~ u~ u~ u~ u~ u~ u~ u~ u~ u~ u~ u~ u~ u~ u~ u~ u~ u~ u~ L1 M1 ,} N| 11 )} )} )} K@ u~ N1 O1 91 91 91 91 91 91 91 91 91 91 91 91 91 S< c_ d_ e_ f_ g_ B! u  v  `. ++ 0. 0. #+ -+ P+ Q+ :# ;@ z@ {# S# _$ _$ _$ _$ _$ _$ _$ _$ _$ _$ _$ _$ _$ _$ _$ _$ _$ _$ _$ _$ _$ _$ _$ _$ _$ _$ _$ _$ _$ _$ _$ _$ _$ _$ _$ _$ _$ _$ _$ _$ _$ _$ _$ _$ _$ _$ %+ P' l) l) l) l) l) l) l) l) l) l) l) O) O) O) P1 Q1 R1 S1 g1 !: t< s: s: s: s: s: s: s: s: s: s: s: s: s: s: s: s: s: *< G< x( %< ><  _ L( x: x: x: x: x: x: x: x: x: x: x: x: x: x: x: x: x: x: x: x: x: x: #_ -1 6| T1 U1 s: s: s: s: s: s: s: s: s: s: s: s: s: s: s: s: s: s: s: s: s: ;[ V1 E( W1 #_ x: x: x: x: x: x: x: x: ._ X1 Y1 Z1 `1  2 .2  _ x: x: x: x: x: x: L( Q: <[ Q} ): |[ H< *< s: s: s: s: s: s: s: s: s: s: *< +: 3} /[ j< H: H: +2 4} @2 #2 /| ._ Q: x: x: x: x: x: x: x: x: x: x: x: x: x: x: x: x: x: x: x: $_ <| $2 %2 &2 s: s: s: s: s: s: s: s: s: s: s: s: s: s: s: s: s: s: s: *< s: q| D| A( X1  _ x: x: x: x: x: x: x: x: x: x: x: x: x: x: x: x: x: x: x: L( w_ 0[ *2 Y: s: !: s: s: s: s: s: s: s: s: s: s: s: s: s: s: s: s: s: t< =2 -2 ^< l) l) l) l) l) l) l) l) l) l) l) l) l) l) ;2 R# _$ _$ _$ _$ _$ _$ _$ _$ _$ _$ _$ _$ _$ _$ _$ _$ _$ _$ _$ _$ _$ _$ _$ _$ _$ _$ _$ _$ _$ _$ _$ _$ _$ _$ _$ _$ _$ _$ _$ _$ _$ _$ _$ _$ _$ _$ _$ S# {# z@ -@ m+ Q+ -+ $+ 0. y  `. u  N' N' _< f_ e_ d[ S< 4@ >2 <] <] <] <] <] b: ^' ^' ,2 f@ f@ A+ N] N] N] N] N] N] N] N] N] N] N] '2 s. )2 D1 D1 !2 E1 E1 E1 E1 E1 ~2 {2 G1 Z# Z# Z# Z# Z# Z# Z# Z# Z# Z# Z# Z# Z# Z# Z# Z# Z# Z# ",
"]2 u~ u~ u~ u~ u~ u~ u~ u~ u~ u~ u~ u~ u~ u~ u~ u~ u~ u~ u~ u~ u~ u~ u~ u~ u~ u~ u~ u~ u~ ^2 /2 )} )} )} (2 _2 u~ u~ u~ :2 91 91 91 91 91 91 91 91 91 91 91 91 91 S< c_ d_ e_ f_ g_ B! u  v  `. ++ 0. 0. #+ -+ P+ Q+ :# ;@ z@ {# S# _$ _$ _$ _$ _$ _$ _$ _$ _$ _$ _$ _$ _$ _$ _$ _$ _$ _$ _$ _$ _$ _$ _$ _$ _$ _$ _$ _$ _$ _$ _$ _$ _$ _$ _$ _$ _$ _$ _$ _$ _$ _$ _$ _$ _$ P+ +{ l) l) l) l) l) l) l) l) l) l) l) l) O) O) V^ <2 [2 }2 t: !: !: s: s: s: s: s: s: s: s: s: s: s: s: s: s: s: s: s: 0< s_ u< |2 e1  _ 12 x: x: x: x: x: x: x: x: x: x: x: x: x: x: x: x: x: x: x: x: x: x: #_ 22 32 5| @: *< s: s: s: s: s: s: s: s: s: s: s: s: s: s: s: s: s: s: s: s: 42 52 62 72 #_ x: x: x: x: x: x: x: x: x: 12 }| %1 82 92 02 a2 x: x: x: x: x: x: Q: y< b2 c2 d} ][ *< !: s: s: s: s: s: s: s: s: s: s: *< ~: m< d2 H: H: H: H: 4} e2 f2 22 g2 L( x: x: x: x: x: x: x: x: x: x: x: x: x: x: x: x: x: x: x: $_ h2 8| i2 ][ s: s: s: s: s: s: s: s: s: s: s: s: s: s: s: s: s: s: s: *< j2 k2 z( l2 X1 x: x: x: x: x: x: x: x: x: x: x: x: #_ $_ X_ x: L( x: x:  _ x: 1: m_ m2 1[ !: *< s: s: s: s: s: s: s: s: s: s: s: s: s: s: s: s: s: s: :: x[ n2 o2 p2 l) l) l) l) l) l) l) l) l) l) l) l) l) l) r! y# _$ _$ _$ _$ _$ _$ _$ _$ _$ _$ _$ _$ _$ _$ _$ _$ _$ _$ _$ _$ _$ _$ _$ _$ _$ _$ _$ _$ _$ _$ _$ _$ _$ _$ _$ _$ _$ _$ _$ _$ _$ _$ _$ _$ _$ _$ S# {# z@ -@ m+ Q+ -+ $+ 0. y  `. u  N' N' _< f_ e_ d[ S< 4@ q2 <] <] <] <] <] f[ ^' ^' r2 f@ f@ W< N] N] N] N] N] N] N] N] N] N] N] s2 D1 D1 D1 t2 u2 E1 E1 E1 E1 E1 E1 E1 E1 ^1 v2 w2 x2 y2 E) Z# Z# Z# Z# Z# Z# G1 y2 {2 z2 A% E1 ",
"u~ u~ u~ u~ u~ u~ u~ u~ u~ N1 A2 A2 A2 N1 u~ u~ u~ u~ u~ u~ u~ u~ u~ u~ u~ u~ u~ u~ u~ u~ u~ w} _2 _2 u~ u~ u~ u~ u~ u~ u~ B2 91 91 91 91 91 C2 D2 E2 F2 G2 H2 H2 S< c_ d_ e_ f_ g_ B! u  v  `. ++ 0. 0. #+ -+ P+ Q+ :# ;@ z@ {# S# _$ _$ _$ _$ _$ _$ _$ _$ _$ _$ _$ _$ _$ _$ _$ _$ _$ _$ _$ _$ _$ _$ _$ _$ _$ _$ _$ _$ _$ _$ _$ _$ _$ _$ _$ _$ _$ _$ _$ _$ _$ _$ _$ _$ %+ F~ l) l) l) l) l) l) l) l) l) l) l) l) l) l) P' I2 J2 K2 &2 s: s: s: s: s: s: s: s: s: s: s: s: s: s: s: s: s: s: *< *< ][ L2 %< e1 w_ L( x: x: x: x: x: x: x: x: x: x: x: x: x: x: x: x: x: x: x: x: x: x: $_ u| b< V1 ;[ *< s: s: s: s: s: s: s: s: s: s: s: s: s: s: s: s: s: s: s: L: M2 5| N2 72 #_ x: x: x: x: x: x: x: x: x: L( ,< A( O2 P2 Q2 R2 S2 x: x: x: x: x: L( w< B< N: d1 T2 !: !: s: s: s: s: s: s: s: s: s: s: *< ~: F: I: H: H: O_ H: J} L< ;< U2  _  _ x: x: x: x: x: x: x: x: x: x: x: x: x: x: x: x: x: x: p< '< V2 %1 W2 X} !: s: s: s: s: s: s: s: s: s: s: s: s: s: s: s: s: s: s: *< L: j( X2 }: w< x: x: x: x: x: x: x: x: x: x: x:  _  _ &_ Y2 Z2 Q2 .2 ._ x:  _ x_ `2 [}  3 G} *< s: s: s: s: s: s: s: s: s: s: s: s: s: s: s: s: s: !: L: 4| s| L} .3 +3 q! O) l) l) l) l) l) l) l) l) l) l) l) l) o) Z. z@ _$ _$ _$ _$ _$ _$ _$ _$ _$ _$ _$ _$ _$ _$ _$ _$ _$ _$ _$ _$ _$ _$ _$ _$ _$ _$ _$ _$ _$ _$ _$ _$ _$ _$ _$ _$ _$ _$ _$ _$ _$ _$ _$ _$ _$ S# {# z@ -@ m+ Q+ -+ $+ 0. y  `. u  N' N' _< f_ e_ d[ S< d# @3 #3 <] <] <] <] <] ^' ^' $3 f@ f@ W< N] N] N] N] N] N] N] N] N] N] %3 D1 D1 &3 *3 N] =3 -3 E1 E1 E1 E1 E1 E1 E1 E1 E1 E1 E1 E1 E1 E1 E1 E1 E1 E1 E1 E1 E1 E1 E1 E1 E1 ",
"u~ u~ u~ u~ ;3 >3 @  ,3 '3 '3 '3 '3 '3 '3 )3 !3 ~3 {3 -. ]3 u~ u~ u~ u~ u~ u~ u~ u~ u~ u~ u~ u~ u~ u~ u~ u~ u~ u~ u~ u~ ^3 /3 (3 >  _3 -' -' -' :3 H2 H2 H2 H2 H2 S< c_ d_ e_ f_ g_ B! u  v  `. ++ 0. 0. #+ -+ P+ Q+ :# ;@ z@ {# S# _$ _$ _$ _$ _$ _$ _$ _$ _$ _$ _$ _$ _$ _$ _$ _$ _$ _$ _$ _$ _$ _$ _$ _$ _$ _$ _$ _$ _$ _$ _$ _$ _$ _$ _$ _$ _$ _$ _$ _$ _$ _$ _$ 4! <3 l) l) l) l) l) l) l) l) l) l) l) l) l) l) () n& [3 }3 y| s: s: s: s: s: s: s: s: s: s: s: s: s: s: s: s: s: s: *< H< ][ ~< |3 13 #_ +_ x: x: x: x: x: x: x: x: x: x: x: x: x: x: x: x: x: x: x: x: x:  _ $_ m1 23 33 g1 s: s: s: s: s: s: s: s: s: s: s: s: s: s: s: s: s: s: s: s: L: 43 [} 7[ M} #_ x: x: x: x: x: x: x: x: x: x: n( *_ 8| Z1 53 63 73 83 ,< x: x:  _ ._ w_ 7[ 93 q| 2| s: s: s: s: s: s: s: s: s: s: s: s: !: ~: H[ I: H: H: O_ O_ +: 03 a3 M} x: x: x: x: x: x: x: x: x: x: x: x: x: x: x: x: x: x: x: x: x: *_ b3 u1 d} M< s: s: s: s: s: s: s: s: s: s: s: s: s: s: s: s: s: s: s: *< |[ S} c3 N[ w< x: x: x: x: x: x: x: x: x: x: x: L(  _ $_ }} :| d3 e3 f3 g3 L( -1 $2 ]( S_ G< a[ s: s: s: s: s: s: s: s: s: s: s: s: s: s: s: s: s: *< a[ 1[ k( h3 l_ }( i3 j3  ! l) l) l) l) l) l) l) l) l) l) l) l) l) o) y  y# _$ _$ _$ _$ _$ _$ _$ _$ _$ _$ _$ _$ _$ _$ _$ _$ _$ _$ _$ _$ _$ _$ _$ _$ _$ _$ _$ _$ _$ _$ _$ _$ _$ _$ _$ _$ _$ _$ _$ _$ _$ _$ _$ _$ S# {# z@ -@ m+ Q+ -+ $+ 0. y  `. u  N' N' _< f_ e_ d[ S< d# k3 l3 m3 <] <] <] n3 ^' ^' o3 f@ f@ W< N] N] N] N] N] N] N] N] N] p3 D1 q3 r3 N] N] s$ {@ s3 E1 E1 E1 E1 E1 E1 E1 E1 E1 E1 E1 E1 E1 E1 E1 E1 E1 E1 E1 E1 E1 E1 E1 E1 E1 ",
"]3 t3 u3 v3 w3 w3 w3 w3 w3 w3 w3 w3 w3 w3 w3 w3 w3 w3 w3 x3 u~ u~ u~ u~ u~ u~ u~ u~ u~ u~ u~ u~ u~ u~ u~ n[ y3 z3 A3 B3 -' -' -' -' -' -' -' -' -' C3 H2 H2 H2 H2 S< c_ d_ e_ f_ g_ B! u  v  `. ++ 0. 0. #+ -+ P+ Q+ :# ;@ z@ {# S# _$ _$ _$ _$ _$ _$ _$ _$ _$ _$ _$ _$ _$ _$ _$ _$ _$ _$ _$ _$ _$ _$ _$ _$ _$ _$ _$ _$ _$ _$ _$ _$ _$ _$ _$ _$ _$ _$ _$ _$ _$ _$ y# N) o) l) l) l) l) l) l) l) l) l) l) l) l) l) P) D3 E3 F3 G3 *< s: s: s: s: s: s: s: s: s: s: s: s: s: s: s: s: s: *< H< X} H3 I3 J3 x: L( x: x: x: x: x: x: x: x: x: x: x: x: x: x: x: x: x: x: x: x: x:  _ @_ m1 Z( K[ X} *< s: s: s: s: s: s: s: s: s: s: s: s: s: s: s: s: s: s: !: L: K3 L3 M3 |: B( x: x: x: x: x: x: L( L( L( L(  _ ._ 13 %< N3 O3 P3 Q3 ,< ,< x:  _  _ l_ R3 S3 E: s: *< s: s: s: s: s: s: s: s: s: s: *< W: q_ m< I: T3 T3 O_ G: r_ U3 t| *_ ._  _ x: x: x: x: x: x: x: x: x: x: x: x: x: x: x: x: x: x: 7| l_ 0[ r: ]| |[ s: s: s: s: s: s: s: s: s: s: s: s: s: s: s: s: s: s: s: *< L: L2 Z( V3 5( x: x: x: x: x: x: x: 7| L( L( L( L( x: w< ,1 W3 X3 Y3 Z3 f3 a2 .1 S: %2 6} *< *< s: s: s: s: s: s: s: s: s: s: s: s: s: s: s: s: s: t< G< q|  } l( 1: ._ `3  4 .4 +4 q! l) l) l) l) l) l) l) l) l) l) l) l) l) S! &) {# _$ _$ _$ _$ _$ _$ _$ _$ _$ _$ _$ _$ _$ _$ _$ _$ _$ _$ _$ _$ _$ _$ _$ _$ _$ _$ _$ _$ _$ _$ _$ _$ _$ _$ _$ _$ _$ _$ _$ _$ _$ _$ _$ S# {# z@ -@ m+ Q+ -+ $+ 0. y  `. u  N' N' _< f_ e_ d[ S< d# k3 @4 #4 $4 <] <] Z/ ^' ^' f@ f@ f@ W< N] N] N] N] N] N] N] %4 A1 r3 N] N] N] =| F# &4 &4 &4 A% E1 E1 E1 E1 E1 E1 E1 E1 E1 E1 E1 E1 E1 E1 E1 E1 E1 E1 E1 E1 I^ I^ I^ I^ ",
"w3 w3 w3 w3 w3 w3 w3 w3 w3 w3 w3 w3 w3 w3 w3 w3 w3 w3 w3 w3 I1 u~ u~ u~ u~ u~ u~ u~ u~ u~ u~ *4 =4 -4 ;4 >4 >4 >4 >4 ,4 '4 -' -' -' -' -' -' -' -' )4 H2 H2 H2 H2 {_ c_ d_ e_ f_ g_ B! u  v  `. ++ 0. 0. #+ -+ P+ Q+ :# ;@ z@ {# S# _$ _$ _$ _$ _$ _$ _$ _$ _$ _$ _$ _$ _$ _$ _$ _$ _$ _$ _$ _$ _$ _$ _$ _$ _$ _$ _$ _$ _$ _$ _$ _$ _$ _$ _$ _$ _$ _$ _$ _$ _$ {# 8. O) l) l) l) l) l) l) l) l) l) l) l) O) O) l) !4 ~4 {4 ][ !: s: s: s: s: s: s: s: s: s: s: s: s: s: s: s: s: s: *< +: y| ]4 L} ^4 x: L( L( L( L( L(  _ ._ L( L( L( x: x: x: x: x: x: x: x: x: x: x: x: x: l_ /4 Z( K[ <} *< s: s: s: s: s: s: s: s: s: s: s: s: s: s: s: s: s: s: s: ][ _( (4 _4 X1 x: x: x: L(  _ :4 1: *_ }( V_ <4 [4 h2 V2 [( k( }4 |4  / 14 #_ x: L(  _ 24 34 V1 X( s: !: s: s: s: s: s: s: s: s: s: *< +: o_ ^: ([ k< H: T3 44 G: 0< 54 64 -1 ._ L( @_ #_ #_ $_ R[ 5( 5( 5( 5( 5( $_ X_ 74 84  _ x: x: x: @_ 94 q: N: ]| s: *< s: s: s: s: s: s: s: s: s: s: s: s: s: s: s: s: s: s: s: M< 04 a4 b4 5( x: x: x: L( 83  _ #_ 5( l_ 0} c4 .1 <| d4 e4 f4 g4 h4 i4 V} j4 [4 {( k4 l4 *< *< s: s: s: s: s: s: s: s: s: s: s: s: s: s: s: s: s: *< m4 d1 n_ n4 w_  _ ._ `3 o4 p4 q4 B{ o) l) l) l) l) l) l) l) l) l) l) l) l) l)  ! i+ S# _$ _$ _$ _$ _$ _$ _$ _$ _$ _$ _$ _$ _$ _$ _$ _$ _$ _$ _$ _$ _$ _$ _$ _$ _$ _$ _$ _$ _$ _$ _$ _$ _$ _$ _$ _$ _$ _$ _$ _$ _$ _$ S# {# z@ -@ m+ Q+ -+ $+ 0. y  `. u  N' N' _< f_ e_ d[ S< d# k3 @4 @4 r4 h{ H| ^' ^' s4 f@ f@ f@ W< N] N] N] N] N] z1 e@ f@ f@ t4 N] N] u4 &4 &4 &4 &4 &4 v4 E1 E1 E1 E1 E1 w4 x4 y4 y4 w4 w4 w4 E1 E1 z4 A4 B4 C4 D4 D4 D4 D4 D4 D4 ",
"w3 w3 E4 F4 F4 F4 F4 F4 F4 F4 G4 H4 H4 H4 H4 H4 H4 H4 H4 H4 [+ I4 J4 K4 L4 n[ M4 N4 O4 P4 Q4 R4 S4 >4 >4 >4 >4 >4 >4 >4 >4 T4 U4 5' V4 V4 5' U4 W4 >4 H2 H2 H2 X4 Q' c_ d_ e_ f_ g_ B! u  v  `. ++ 0. 0. #+ -+ P+ Q+ :# ;@ z@ {# S# _$ _$ _$ _$ _$ _$ _$ _$ _$ _$ _$ _$ _$ _$ _$ _$ _$ _$ _$ _$ _$ _$ _$ _$ _$ _$ _$ _$ _$ _$ _$ _$ _$ _$ _$ _$ _$ _$ _$ _$ S# g~ q! p! l) l) l) l) l) l) l) l) l) l) l) O) l) Y4 Z4 `4  5 H< W: *< *< *< *< *< *< *< *< *< *< *< *< *< *< *< W: H< *< X[ >[ 34 72 ._ 83 #_ 5( [| V_ M( J3 W1 M} =_ &_ 1: #_  _ 4( 4( 4( 4( 4( 4( 4( ._ L( =_ .5 +5 v1 ][ H< W: *< *< *< *< *< *< *< *< *< *< *< *< *< *< *< *< *< !: @5 W2 23 U[ 5( L( 4(  _ X_ &_ 22 w: #5 $5 V[ B| q< %5 &5 K< *5 G( =5 -5 ;5 g3 L( ._ 7| >5 ,5 '5 `_ *< W: *< *< *< *< *< *< *< +: V: o_ I[ ([ )5 H: G: G: N_ !5 +2 `_ T_ 32 V_ B( B( 5( *_ =_ c4 2: 4[ ~5 ~5 {5 ]5 ^5 2: c4 *_ 5( m( B( L( x: J3 a3 T_ r1 s: W: *< *< *< *< *< *< *< *< *< *< *< *< *< *< *< *< *< W: *< @: s| a3 u| B( 4( L( ,< $_ &_ x_ }| m1 #5 /5 (5 _5 :5 !< <5 [5 }5 |5 |5 i1 )< N[ c3 o1 @5 H< W: *< *< *< *< *< *< *< *< *< *< *< *< *< *< *< *< H< 9| X: }[ [[ 9} x: g2 3[ 3( 15 25 35 45 55 P' O) 8: l) l) l) l) l) l) l) l) l) l) l) z) P' 65 _$ _$ _$ _$ _$ _$ _$ _$ _$ _$ _$ _$ _$ _$ _$ _$ _$ _$ _$ _$ _$ _$ _$ _$ _$ _$ _$ _$ _$ _$ _$ _$ _$ _$ _$ _$ _$ _$ _$ _$ _$ _$ S# {# z@ -@ m+ Q+ -+ $+ 0. y  `. u  N' N' _< f_ e_ d[ S< d# k3 @4 @4 @4 75 ^' ^' ^' 85 f@ f@ f@ 95 N] N] N] %4 ~1 f@ f@ f@ f@ f@ [_ 05 &4 &4 &4 &4 &4 &4 &4 a5 E1 E1 z4 b5 c5 c5 c5 c5 c5 c5 c5 c5 c5 c5 c5 c5 c5 c5 c5 c5 c5 c5 d5 ",
"e5 e5 e5 e5 e5 e5 e5 e5 e5 e5 e5 e5 e5 e5 e5 e5 e5 e5 e5 e5 e5 e5 e5 e5 e5 f5 g5 Q4 Q4 Q4 h5 S4 >4 >4 >4 >4 >4 >4 >4 >4 >4 >4 >4 >4 >4 >4 >4 >4 >4 >4 i5 H2 H2 j5 Q' c_ d_ e_ f_ g_ B! u  v  `. ++ 0. 0. #+ -+ P+ Q+ :# ;@ z@ {# S# _$ _$ _$ _$ _$ _$ _$ _$ _$ _$ _$ _$ _$ _$ _$ _$ _$ _$ _$ _$ _$ _$ _$ _$ _$ _$ _$ _$ _$ _$ _$ _$ _$ _$ _$ _$ _$ _$ _$ _$ %+ A{ l) l) l) l) l) l) l) l) l) l) l) l) l) O) y~ k5 l5 m5 T2 n5 o5 n5 n5 n5 n5 n5 n5 n5 n5 n5 n5 n5 n5 n5 n5 o5 p5 |[ l4 O( q5 9} *_ *_ V_ <[ 0[ $: r5 q< q< B| Y1 s5 t5 u5 h2 p1 %: v5 v5 v5 v5 v5 v5 w5 p1 Q[ x5 y5 n5 ][ n5 o5 n5 n5 n5 n5 n5 n5 n5 n5 n5 n5 n5 n5 n5 n5 n5 n5 n5 @5 d1 z5 D< A5 %: v5 %: V_ U[ B5 x| [[ C5 a} O} W| D5 E5 |5 W| G( F5 G5 H5 I5 l_ w5 &_ w: J5 K5 &2 T2 ][ n5 n5 n5 n5 n5 n5 o5 ][ L: J} (:  : m< F: F: F: F: ([ L5 M5 <( *[ A< ]5 ,_ N5 w/ O5 P5 Q5 Q5 z_ R5 S5 S5 S5 z_ Q5 T5 O5 .< U5 V5 2: J< a3 W5 P} ][ ][ o5 n5 n5 n5 n5 n5 n5 n5 n5 n5 n5 n5 n5 n5 n5 n5 n5 o5 ][ i< X5 N( >< M} %: %: }( R: N[ $5 Y1 f4 Y5 Z5 `5  6 .6 W| =[ W5 E5 =[ |5 =[ +6 @6 #6 (( @5 m4 ][ n5 n5 n5 n5 n5 n5 n5 n5 n5 n5 n5 n5 n5 n5 n5 n5 o5 m4 m4 u< N: $6 %: P: %: %: '< '< %6 &6 *6 =6 N' S' S! O) l) l) l) l) l) l) l) l) l) l) l) l) ;2 y@ _$ _$ _$ _$ _$ _$ _$ _$ _$ _$ _$ _$ _$ _$ _$ _$ _$ _$ _$ _$ _$ _$ _$ _$ _$ _$ _$ _$ _$ _$ _$ _$ _$ _$ _$ _$ _$ _$ _$ _$ _$ S# {# z@ -@ m+ Q+ -+ $+ 0. y  `. u  N' N' _< f_ e_ d[ S< d# k3 @4 @4 @4 @4 -6 ^' ^' (' f@ f@ e@ N] N] N] %4 e@ f@ f@ f@ f@ f@ f@ ;6 &4 &4 &4 &4 &4 &4 &4 &4 >6 ,6 '6 )6 c5 c5 c5 d5 !6 !6 ~6 {6 {6 {6 t! ]6 ]6 ]6 ]6 ]6 s3 s3 s3 s3 ",
"e5 e5 e5 e5 e5 e5 e5 e5 e5 e5 e5 e5 e5 e5 e5 e5 e5 e5 e5 e5 e5 e5 e5 e5 e5 ^6 /6 (6 Q4 h5 S4 >4 >4 >4 >4 >4 >4 >4 >4 >4 >4 >4 >4 >4 >4 >4 >4 >4 >4 _6 :6 H2 31 <6 Q' c_ d_ e_ f_ g_ B! u  v  `. ++ 0. 0. #+ -+ P+ Q+ :# ;@ z@ {# S# _$ _$ _$ _$ _$ _$ _$ _$ _$ _$ _$ _$ _$ _$ _$ _$ _$ _$ _$ _$ _$ _$ _$ _$ _$ _$ _$ _$ _$ _$ _$ _$ _$ _$ _$ _$ _$ _$ A# %+ P' l) l) l) l) l) l) l) l) l) l) l) l) l) l) O) [6 }6 |6 16 16 16 16 16 16 16 16 16 16 16 16 16 16 16 16 16 16 16 d} ): 9[ X3 @6 *[ a3 S: 8| 26 c( x5 36 =[ =[ 36 T1 z( [: n1 8} 46 V[ 56 66 66 66 66 56 56 76 z5 86 96 96 16 16 16 16 16 16 16 16 16 16 16 16 16 16 16 16 16 16 16 16 06 a6 b6 46 56 66 66 c6 q5 i1 *5 d6 D: =[ =[ =[ =[ E5 E5 =[ d6 @< e6 f6 g6 V[ [( a3 *[ q< h6 i6 L2 j6 16 16 16 16 16 16 16 16 d} :( (( /( ]| /( /( /( /( /( u< k6 d( Z| l6 m6 n6 N3 o6 p6 q6 q6 q6 r6 o6 o6 o6 r6 r6 o6 o6 r6 p6 o6 s6 t6 q5 u6 v6 X5 96 d} 16 16 16 16 16 16 16 16 16 16 16 16 16 16 16 16 16 16 16 d} 06 w6 x6 y6 V[ V[ z6 L} (| A6 B6 d6 V1 W5 E5 =[ =[ =[ E5 =[ V1 C6 C6 =[ C6 X3 D6 k4 d} 96 16 16 16 16 16 16 16 16 16 16 16 16 16 16 16 16 16 16 16 96 d} E6 3| m6 g6 c6 c6 c6 F6 G6 H6 I6 J6 K6 y  N' P' O) l) l) l) l) l) l) l) l) l) l) l) l) l) a| k. _$ _$ _$ _$ _$ _$ _$ _$ _$ _$ _$ _$ _$ _$ _$ _$ _$ _$ _$ _$ _$ _$ _$ _$ _$ _$ _$ _$ _$ _$ _$ _$ _$ _$ _$ _$ _$ _$ _$ _$ S# {# z@ -@ m+ Q+ -+ $+ 0. y  `. u  N' N' _< f_ e_ d[ S< 4@ L6 @4 @4 @4 @4 M6 <_ ^' _' f@ f@ [_ N] N] N6 e@ f@ f@ f@ f@ f@ f@ f@ E, &4 &4 &4 &4 &4 &4 &4 O6 >6 >6 =| 0~ ]6 s3 s3 s3 s3 s3 s3 s3 s3 s3 s3 s3 s3 s3 s3 s3 s3 s3 s3 s3 ",
"e5 e5 e5 e5 e5 e5 e5 e5 e5 e5 e5 e5 e5 e5 e5 e5 e5 e5 e5 e5 e5 e5 e5 e5 e5 P6 Q6 g5 R6 S6 T6 U6 U6 V6 >4 >4 >4 >4 >4 >4 >4 >4 >4 >4 >4 >4 >4 W6 X6 Y6 Z6 *' `6 <6 Q' c_ d_ e_ f_ g_ B! u  v  `. ++ 0. 0. #+ -+ P+ Q+ :# ;@ z@ {# S# _$ _$ _$ _$ _$ _$ _$ _$ _$ _$ _$ _$ _$ _$ _$ _$ _$ _$ _$ _$ _$ _$ _$ _$ _$ _$ _$ _$ _$ _$ _$ _$ _$ _$ _$ _$ _$ _$ y@ A{ l) l) l) l) l) l) l) l) l) l) l) l) l) l) () G$  7 .7 +7 @7 @7 @7 @7 @7 @7 @7 @7 @7 @7 @7 @7 @7 @7 @7 @7 @7 @7 @7 @7 #7 =[ C6 $7 %7 36 C6 &7 =[ @7 @7 @7 #7 @7 =[ *7 V1 36 w6 w6 36 36 36 36 36 36 36 36 36 36 *7 #7 #7 @7 @7 @7 @7 @7 @7 @7 @7 @7 @7 @7 @7 @7 @7 @7 @7 @7 @7 @7 @7 @7 @7 *7 w6 w6 w6 w6 w6 w6 C6 C6 *7 *7 =[ #7 #7 #7 #7 #7 @7 *7 w6 =7 =7 %7 $7 w6 w6 36 36 C6 #7 >[ >[ @7 @7 @7 @7 @7 @7 @7 @7 @7 #7 >[ h4 -7 -7 ;7 ;7 ;7 ;7 ;7 +7 |5 =[ 36 >7 >7 36 %7 %7 %7 36 36 %7 %7 %7 %7 %7 %7 %7 %7 %7 %7 %7 %7 >7 >7 36 w6 D: #7 #7 @7 @7 @7 @7 @7 @7 @7 @7 @7 @7 @7 @7 @7 @7 @7 @7 @7 @7 @7 @7 @7 =[ C6 %7 36 36 36 w6 C6 =[ D: D: D: E5 E5 E5 E5 E5 E5 E5 =[ ,7 D: D: ,7 ,7 ,7 ,7 =[ #7 #7 @7 @7 @7 @7 @7 @7 @7 @7 @7 @7 @7 @7 @7 @7 @7 @7 @7 @7 @7 #7 E5 &7 36 36 %7 36 36 36 =7 =7 '7 )7 !7 ~7 {7 y  B! {_ l) l) l) l) l) l) l) l) l) l) l) l) l) l) <3 4! _$ _$ _$ _$ _$ _$ _$ _$ _$ _$ _$ _$ _$ _$ _$ _$ _$ _$ _$ _$ _$ _$ _$ _$ _$ _$ _$ _$ _$ _$ _$ _$ _$ _$ _$ _$ _$ _$ _$ S# {# z@ -@ m+ Q+ -+ $+ 0. y  `. u  N' N' _< f_ e_ d[ S< S< ]7 ^7 /7 @( >! (7 _7 U) f@ f@ e@ 95 95 [_ f@ f@ f@ f@ f@ f@ f@ f@ ;6 &4 &4 &4 &4 &4 &4 &4 &4 :7 >6 >6 <7 s3 s3 s3 s3 s3 s3 s3 s3 s3 s3 s3 s3 s3 s3 s3 s3 s3 s3 s3 s3 s3 ",
"e5 e5 e5 e5 e5 e5 e5 e5 e5 e5 e5 e5 e5 e5 e5 e5 e5 e5 e5 e5 e5 e5 e5 e5 e5 [7 U6 T6 }7 |7 U6 U6 U6 17 >4 >4 >4 >4 >4 >4 >4 >4 >4 >4 >4 >4 >4 X6 27 37 Z6 47 <6 <6 Q' c_ d_ e_ f_ g_ B! u  v  `. ++ 0. 0. #+ -+ P+ Q+ :# ;@ z@ {# S# _$ _$ _$ _$ _$ _$ _$ _$ _$ _$ _$ _$ _$ _$ _$ _$ _$ _$ _$ _$ _$ _$ _$ _$ _$ _$ _$ _$ _$ _$ _$ _$ _$ _$ _$ _$ A# y@ ;2 l) l) l) l) l) l) l) l) l) l) l) l) l) l) S! 57 67 77 87 97 07 07 07 07 07 07 07 07 07 a7 a7 a7 a7 a7 a7 a7 a7 a7 a7 a7 a7 07 07 07 b7 b7 b7 b7 b7 b7 b7 b7 b7 b7 07 07 07 07 a7 b7 c7 c7 c7 c7 c7 c7 c7 c7 c7 c7 c7 c7 d7 d7 d7 d7 d7 d7 a7 a7 a7 e7 07 07 07 07 07 07 07 07 07 07 07 07 07 07 07 f7 f7 f7 f7 f7 f7 f7 g7 g7 g7 f7 f7 f7 f7 f7 f7 07 07 07 b7 f7 f7 f7 f7 f7 f7 f7 c7 d7 d7 d7 d7 d7 h7 d7 d7 d7 d7 d7 d7 c7 c7 c7 c7 c7 c7 c7 c7 c7 i7 i7 d7 e7 j7 j7 j7 j7 j7 j7 j7 j7 j7 j7 j7 j7 j7 j7 j7 j7 j7 j7 j7 j7 j7 j7 k7 k7 c7 c7 d7 h7 h7 h7 h7 h7 h7 h7 h7 h7 h7 h7 h7 h7 h7 h7 h7 h7 h7 h7 h7 h7 d7 d7 c7 c7 k7 c7 c7 c7 c7 c7 c7 c7 c7 c7 c7 c7 c7 c7 c7 c7 e7 j7 j7 j7 e7 e7 e7 h7 h7 h7 h7 h7 h7 h7 h7 h7 h7 h7 h7 h7 h7 h7 h7 h7 h7 h7 h7 h7 h7 h7 h7 h7 k7 k7 k7 k7 k7 k7 d7 d7 l7 m7 !7 ~7 {7 {7 `. l! S! l) l) l) l) l) l) l) l) l) l) l) l) l) o) {} z@ _$ _$ _$ _$ _$ _$ _$ _$ _$ _$ _$ _$ _$ _$ _$ _$ _$ _$ _$ _$ _$ _$ _$ _$ _$ _$ _$ _$ _$ _$ _$ _$ _$ _$ _$ _$ _$ _$ S# {# z@ -@ m+ Q+ -+ $+ 0. y  `. u  N' N' _< f_ e_ d[ S< S< ]7 f@ f@ f@ f@ f@ f@ f@ f@ f@ e@ ~1 f@ f@ f@ f@ f@ n7 o7 o7 o7 o7 p7 q7 r7 Z& &4 &4 &4 s7 t7 u7 >6 >6 v7 w7 w7 x7 s3 s3 s3 s3 s3 s3 s3 s3 s3 s3 s3 s3 s3 s3 s3 s3 s3 s3 ",
"e5 e5 e5 e5 e5 e5 e5 e5 e5 e5 e5 e5 e5 e5 e5 e5 e5 e5 e5 e5 e5 e5 e5 e5 P6 U6 U6 U6 U6 U6 U6 U6 U6 y7 >4 >4 >4 >4 >4 >4 >4 >4 >4 >4 >4 >4 W6 27 27 {) Z6 Z6 <6 <6 Q' c_ d_ e_ f_ g_ B! u  v  `. ++ 0. 0. #+ -+ P+ Q+ :# ;@ z@ {# S# _$ _$ _$ _$ _$ _$ _$ _$ _$ _$ _$ _$ _$ _$ _$ _$ _$ _$ _$ _$ _$ _$ _$ _$ _$ _$ _$ _$ _$ _$ _$ _$ _$ _$ _$ A# k. +{ l) l) l) l) l) l) l) l) l) l) l) l) l) O) A{ D^ z7 G$ A7 B7 C7 D7 D7 D7 D7 D7 D7 D7 D7 D7 E7 E7 E7 E7 E7 E7 E7 E7 E7 E7 E7 E7 F7 F7 F7 E7 E7 F7 F7 F7 D7 D7 E7 D7 G7 H7 H7 H7 I7 I7 I7 J7 J7 J7 J7 J7 J7 J7 J7 K7 K7 L7 L7 L7 M7 M7 N7 O7 K7 P7 Q7 R7 S7 T7 T7 T7 T7 T7 T7 T7 T7 T7 T7 T7 T7 T7 T7 T7 T7 T7 T7 T7 T7 T7 T7 T7 T7 T7 T7 T7 T7 T7 T7 T7 T7 T7 T7 T7 T7 T7 T7 T7 T7 S7 S7 R7 Q7 U7 V7 K7 W7 W7 X7 X7 Y7 Y7 Y7 M7 M7 Y7 Z7 Z7 Z7 Z7 Z7 Z7 Z7 Z7 Z7 Z7 Z7 `7 `7 `7 `7 `7 `7 `7 `7 `7 `7 `7 `7 `7 `7 `7 `7 `7 `7 `7 `7 `7 `7 `7 `7 Z7 Z7 Z7 `7 `7 `7 `7 `7 `7 `7 `7 `7 `7 `7 `7 `7 `7 `7 `7 `7 `7 `7 `7 `7 Z7 Z7 Z7 Z7 `7 Z7 Z7 Z7 Z7 Z7 Z7 Z7 Z7 Z7 Z7 Z7 Z7 Z7 Z7 Z7 Z7 `7 `7 `7 Z7 Z7 Z7 `7 `7 `7 `7 `7 `7 `7 `7 `7 `7 `7 `7 `7 `7 `7 `7 `7 `7 `7 `7 `7 `7 `7 `7 `7 `7 `7 `7 `7 `7 Z7  8 X7 .8 +8 &+ {7 {7 {7 0. y  /<  ! l) l) l) l) l) l) l) l) l) l) l) l) l) @8 `. {# _$ _$ _$ _$ _$ _$ _$ _$ _$ _$ _$ _$ _$ _$ _$ _$ _$ _$ _$ _$ _$ _$ _$ _$ _$ _$ _$ _$ _$ _$ _$ _$ _$ _$ _$ _$ _$ S# {# z@ -@ m+ Q+ -+ $+ 0. y  `. u  N' N' _< f_ e_ d[ S< S< ]7 f@ f@ f@ f@ f@ f@ f@ f@ f@ f@ f@ f@ f@ f@ f@ f@ #8 o7 o7 o7 o7 o7 o7 o7 $8 ;6 %8 &8 *8 *8 =8 >6 >6 v7 w7 w7 w7 r7 s3 s3 s3 s3 s3 s3 s3 s3 s3 s3 s3 s3 s3 s3 s3 s3 s3 ",
"e5 e5 e5 e5 e5 e5 e5 e5 e5 e5 e5 e5 e5 e5 e5 e5 e5 e5 e5 e5 e5 e5 e5 e5 -8 U6 U6 U6 U6 U6 U6 U6 U6 Q6 >4 >4 >4 >4 >4 >4 >4 ;8 >8 ,8 '8 )8 !8 27 27 ~8 Z6 Z6 <6 <6 Q' c_ d_ e_ f_ g_ B! u  v  `. ++ 0. 0. #+ -+ P+ Q+ :# ;@ z@ {# S# _$ _$ _$ _$ _$ _$ _$ _$ _$ _$ _$ _$ _$ _$ _$ _$ _$ _$ _$ _$ _$ _$ _$ _$ _$ _$ _$ _$ _$ _$ _$ _$ _$ _$ _$ -@ /) l) l) l) l) l) l) l) l) l) l) l) l) l) l) O) g~ {8 ]8 65 C$ ,' 1% 2% 2% 2% 2% 2% x' x' x' x' x' x' ^8 ^8 ^8 /8 (8 (8 (8 (8 _8 (8 (8 :8 (8 (8 _8 _8 _8 _8 <8 _8 _8 [8 [8 [8 [8 }8 }8 }8 }8 |8 |8 18 18 28 28 |8 }8 }8 }8 38 48 58 68 68 78 _8 88 :8 y' 6% 6% j% k% k% k% k% k% k% k% k% k% k% k% k% k% k% k% k% k% k% k% k% k% k% k% k% k% k% k% k% k% k% k% k% k% k% k% k% k% k% k% k% 6% 98 4% 4% 08 (8 78 78 a8 |8 38 38 b8 b8 c8 W~ W~ d8 e8 f8 f8 f8 f8 e8 f8 f8 f8 f8 e8 e8 e8 e8 e8 e8 e8 e8 e8 e8 e8 e8 e8 e8 e8 e8 e8 e8 e8 e8 e8 e8 e8 e8 e8 e8 e8 e8 e8 e8 e8 e8 e8 f8 f8 f8 f8 f8 f8 f8 f8 f8 f8 f8 f8 f8 f8 f8 e8 e8 e8 e8 e8 e8 e8 e8 e8 e8 e8 e8 e8 e8 e8 e8 e8 e8 e8 e8 e8 e8 e8 e8 e8 e8 e8 e8 e8 e8 e8 e8 e8 e8 e8 e8 e8 e8 e8 e8 e8 e8 e8 f8 f8 f8 e8 e8 e8 e8 e8 e8 e8 e8 e8 e8 e8 g8 g8 h8 i8 N+ {7 {7 {7 i+ 65 0. l! S! O) l) l) l) l) l) l) l) l) l) l) l) l) S! &) {# _$ _$ _$ _$ _$ _$ _$ _$ _$ _$ _$ _$ _$ _$ _$ _$ _$ _$ _$ _$ _$ _$ _$ _$ _$ _$ _$ _$ _$ _$ _$ _$ _$ _$ _$ _$ S# {# z@ -@ m+ Q+ -+ $+ 0. y  `. u  N' N' _< f_ e_ d[ S< q[ j8 k8 k8 l8 f@ f@ f@ f@ f@ f@ f@ f@ f@ f@ f@ f@ m8 o7 o7 o7 o7 o7 o7 o7 n8 *8 *8 *8 *8 *8 *8 o8 >6 p8 v7 w7 w7 w7 w7 E, s3 s3 s3 s3 s3 s3 s3 s3 s3 s3 s3 s3 s3 s3 s3 s3 ",
"e5 e5 e5 e5 e5 e5 e5 e5 e5 e5 e5 e5 e5 e5 e5 e5 e5 e5 e5 e5 e5 e5 e5 q8 U6 U6 U6 r8 s8 U6 U6 U6 U6 t8 >4 >4 >4 >4 >4 u8 v8 w8 x8 y8 y8 y8 y8 y8 z8 Z6 Z6 Z6 A8 <6 Q' c_ d_ e_ f_ g_ B! u  v  `. ++ 0. 0. #+ -+ P+ Q+ :# ;@ z@ {# S# _$ _$ _$ _$ _$ _$ _$ _$ _$ _$ _$ _$ _$ _$ _$ _$ _$ _$ _$ _$ _$ _$ _$ _$ _$ _$ _$ _$ _$ _$ _$ _$ _$ _$ z@ r! l) l) l) l) l) l) l) l) l) l) l) l) l) l) C^ V^ B8 E$ i+ %+ l' ~' X, ^~ ^~ ^~ ^~ ^~ @> ]~ ]~ ]~ ]~ C8 C8 {~ {~ D8 ~~ ~~ !~ !~ !~ l~ l~ l~ l~ l~ )~ )~ l~ ~~ -$ {~ 7% {~ -$ -$ -$ -$ -$ ~~ ~~ ~~ ~~ ~~ -$ {~ C8 ]~ E8 F8 }~ s' =% :% /~ (~ (~ _~ 8{ 8{ 8{ 3~ 3~ 3~ 3~ 3~ 3~ 3~ 3~ 3~ 3~ 3~ 3~ 3~ 3~ 3~ 3~ 3~ 3~ 3~ 3~ 3~ 3~ 3~ 3~ 3~ 3~ 3~ 3~ 3~ 3~ 3~ 3~ 3~ 3~ 3~ 3~ 3~ 3~ 3~ 3~ 3~ 3~ 3~ 3~ 3~ 3~ G8 8{ 8{ _~ _~ _~ Y~ (~ (~ ,' =% s' X, @> 7% 7% ~~ ~~ l~ H8 I8 J8  {  { J8 J8 J8 J8 J8 J8 J8 J8 J8 J8 J8 J8 J8 J8 J8 J8 J8 J8 J8 J8 J8 J8 J8 J8 J8 J8 J8 J8 J8 J8 K8 K8 K8 K8  {  {  {  {  {  {  {  {  {  {  {  {  {  { K8 K8 K8 J8 J8 J8 J8 J8 J8 J8 J8 J8 J8 J8 J8 J8 J8 J8 J8 J8 J8 J8 J8 J8 J8 J8 J8 J8 J8 J8 J8 J8 J8 J8 J8 J8 J8 J8 J8 J8 J8 J8 J8 K8 K8  {  { K8 J8 J8 J8 J8 J8 J8 J8 J8 J8 J8 ;~ ;~ L8 M8 N+ {7 {7 {7 i+ R# A# A  /< S! l) l) l) l) l) l) l) l) l) l) l) l) l) q! $+ S# _$ _$ _$ _$ _$ _$ _$ _$ _$ _$ _$ _$ _$ _$ _$ _$ _$ _$ _$ _$ _$ _$ _$ _$ _$ _$ _$ _$ _$ _$ _$ _$ _$ _$ _$ S# {# z@ -@ m+ Q+ -+ $+ 0. y  `. u  N' N' _< f_ e_ d[ S< b_ N8 O8 O8 O8 O8 O8 O8 P8 Q8 R8 S8 T8 .* .* .* U8 #8 o7 o7 o7 o7 o7 o7 o7 #8 V8 *8 *8 *8 *8 *8 W8 >6 r3 v7 w7 w7 w7 w7 X8 s3 s3 s3 s3 s3 s3 s3 s3 s3 s3 s3 s3 s3 s3 s3 s3 ",
"e5 e5 e5 e5 e5 e5 e5 e5 e5 e5 e5 e5 e5 e5 e5 e5 e5 e5 e5 e5 e5 e5 I1 U6 U6 U6 Y8 )4 U6 U6 U6 U6 U6 17 >4 >4 >4 >4 v8 w8 w8 w8 w8 Z8 y8 y8 y8 y8 z8 Z6 Z6 Z6 `8 <6 {_ c_ d_ e_ f_ g_ B! u  v  `. ++ 0. 0. #+ -+ P+ Q+ :# ;@ z@ {# S# _$ _$ _$ _$ _$ _$ _$ _$ _$ _$ _$ _$ _$ _$ _$ _$ _$ _$ _$ _$ _$ _$ _$ _$ _$ _$ _$ _$ _$ _$ _$ _$ _$ y# r! o) l) l) l) l) l) l) l) l) l) l) l) l) l) l) a| G$  9 %+ .9 %+ +9 @9 :~ :~ :~ :~ :~ :~ :~ :~ :~ :~ :~ :~ :~ '~ '~ '~ ;~ ;~ ;~ ;~ ;~ ;~ ;~ <~ ;~ [~ l~ -$ ]~ z' |~ ,' #9 }% }% [% [% [% <% ,' ,' X~ ,' <% [% }% }% f{ 8{ 8{ 8{ 8{ 8{ 8{ 3~ 3~ 3~ 3~ 3~ 3~ 3~ 3~ 3~ 3~ 3~ 3~ 3~ 3~ 3~ 3~ 3~ 3~ 3~ 3~ 3~ 3~ 3~ 3~ 3~ 3~ 3~ 3~ 3~ 3~ 3~ 3~ 3~ 3~ 3~ 3~ 3~ 3~ 3~ 3~ 3~ 3~ 3~ 3~ 3~ 3~ 3~ 3~ 3~ 3~ 3~ 3~ 3~ 3~ 3~ 3~ 3~ 3~ 3~ 3~ 3~ 3~ 8{ 8{ 8{ 8{ 8{ 8{ f{ f{ }% v' z' ]~ ~~ [~ :~ [~ )~ :~ '~ ;~ ;~ ;~ ;~ <~ <~ <~ <~ ;~ ;~ ;~ ;~ ;~ '~ '~ '~ '~ '~ )~ )~ )~ )~ )~ )~ )~ [~ $9 $9 $9 $9 $9 $9 :~ :~ :~ )~ )~ )~ :~ :~ )~ )~ :~ :~ $9 $9 [~ )~ )~ )~ :~ '~ ;~ <~ <~ <~ <~ >~ ;~ ;~ '~ '~ )~ )~ :~ '~ ;~ ;~ ;~ ;~ ;~ ;~ ;~ ;~ ;~ ;~ ;~ ;~ ;~ ;~ ;~ ;~ >~ ;~ :~ )~ [~ [~ [~ )~ $9 $9 $9 :~ ;~ <~ ;~ ;~ ;~ ;~ ;~ ;~ }{ }{ L8 %9 N+ {7 {7 {7 i+ R# &9 -% r! a| o) l) l) l) l) l) l) l) l) l) l) l) l) l) S! P+ S# _$ _$ _$ _$ _$ _$ _$ _$ _$ _$ _$ _$ _$ _$ _$ _$ _$ _$ _$ _$ _$ _$ _$ _$ _$ _$ _$ _$ _$ _$ _$ _$ _$ _$ S# {# z@ -@ m+ Q+ -+ $+ 0. y  `. u  N' N' _< f_ e_ d[ S< n  *9 =9 =9 =9 =9 =9 =9 =9 =9 =9 =9 -9 ;9 ;9 ;9 ;9 ;9 ;9 ;9 ;9 ;9 ;9 ;9 ;9 ;9 ;9 *8 *8 *8 *8 *8 >6 >6 r3 v7 >9 w7 w7 w7 w7 E, s3 s3 s3 s3 s3 s3 s3 s3 s3 s3 s3 s3 s3 s3 s3 ",
"e5 e5 e5 e5 e5 e5 e5 e5 e5 e5 e5 e5 e5 e5 e5 e5 e5 e5 e5 e5 e5 P6 ,9 U6 U6 '9 >4 y7 U6 U6 U6 U6 U6 )9 >4 >4 >4 !9 w8 w8 ~9 {9 w8 ]9 y8 y8 y8 y8 Z6 Z6 Z6 Z6 ^9 /9 q[ c_ d_ e_ f_ g_ B! u  v  `. ++ 0. 0. #+ -+ P+ Q+ :# ;@ z@ {# S# _$ _$ _$ _$ _$ _$ _$ _$ _$ _$ _$ _$ _$ _$ _$ _$ _$ _$ _$ _$ _$ _$ _$ _$ _$ _$ _$ _$ _$ _$ _$ _$ {# g~ l) l) l) l) l) l) l) l) l) l) l) l) l) l) l) A{ G$ z7 :# {7 .9 %+ +9 (9 ;~ ;~ ;~ ;~ ;~ ;~ ;~ ;~ ;~ ;~ ;~ ;~ ;~ ;~ ;~ ;~ ;~ ;~ ;~ ;~ ;~ ;~ ,~ :~ !~ ^~ =% [% 7{ 8{ 8{ 9{ 3~ 3~ 3~ 3~ 3~ 3~ 3~ 3~ 3~ 3~ 3~ 3~ 3~ 3~ 3~ 3~ 3~ 3~ 3~ 3~ 3~ 3~ 3~ 3~ 3~ 3~ 3~ 3~ 3~ 3~ 3~ 3~ 3~ 3~ 3~ 3~ 3~ 3~ 3~ 3~ 3~ 3~ 3~ 3~ 3~ 3~ 3~ 3~ 3~ 3~ 3~ 3~ 3~ 3~ 3~ 3~ 3~ 3~ 3~ 3~ 3~ 3~ 3~ 3~ 3~ 3~ 3~ 3~ 3~ 3~ 3~ 3~ 3~ 3~ 3~ 3~ 3~ 3~ 3~ 3~ 3~ 3~ 3~ 3~ 3~ 3~ 3~ 3~ 3~ 3~ 3~ 3~ 3~ 3~ 8{ 7{ }% _9 |~ X, @> 7% {~ D8 ~~ ~~ ~~ C~ C~ C~ C~ ~~ ~~ ~~ ~~ D8 {~ {~ {~ {~ {~ 7% 7% ]~ ]~ @> @> ^~ X, X, X, z' z' z'  ^ |~ |~ |~ |~ =% X~ X~ X~ =% |~ |~ |~ z' X, X, @> @> @> 7% {~ ~~ C~ C~ C~ l~ l~ C~ ~~ -$ 7% ]~ ]~ ]~ D8 [~ :~ ;~ ;~ ;~ ;~ ;~ ;~ ;~ ;~ ;~ ;~ ;~ ;~ ,~ ;~ )~ l~ {~ ]~ X, s' =% =% |~ z' ^~ {~ )~ ;~ >~ ;~ ;~ ;~ ;~ ;~ }{ }{ L8 %9 N+ {7 {7 {7 i+ R# W& (~ :9 8. B{ o) l) l) l) l) l) l) l) l) l) l) l) l) l) P' R# _$ _$ _$ _$ _$ _$ _$ _$ _$ _$ _$ _$ _$ _$ _$ _$ _$ _$ _$ _$ _$ _$ _$ _$ _$ _$ _$ _$ _$ _$ _$ _$ _$ _$ S# {# z@ -@ m+ Q+ -+ $+ 0. y  `. u  N' N' _< f_ e_ d[ S< b_ <9 [9 =9 =9 =9 =9 =9 =9 =9 =9 =9 }9 ;9 ;9 ;9 ;9 ;9 ;9 ;9 ;9 ;9 ;9 ;9 ;9 ;9 ;9 *8 *8 *8 *8 V8 >6 >6 r3 v7 =} >9 w7 w7 w7 &. s3 s3 s3 s3 s3 s3 s3 s3 s3 s3 s3 s3 s3 s3 s3 ",
"e5 e5 e5 e5 e5 e5 e5 e5 e5 e5 e5 e5 e5 e5 e5 e5 e5 e5 e5 e5 e5 >3 U6 U6 U6 }7 |9 U6 U6 U6 U6 U6 U6 19 >4 >4 >4 >4 >4 >4 >4 >4 29 w8 y8 y8 y8 39 Z6 Z6 49 Z6 ^9 /9 q[ c_ d_ e_ f_ g_ B! u  v  `. ++ 0. 0. #+ -+ P+ Q+ :# ;@ z@ {# S# _$ _$ _$ _$ _$ _$ _$ _$ _$ _$ _$ _$ _$ _$ _$ _$ _$ _$ _$ _$ _$ _$ _$ _$ _$ _$ _$ _$ _$ _$ _$ _$ $+ S! l) l) l) l) l) l) l) l) l) l) l) l) l) O) O) E$ 59 H$ j+ {7 .9 %+ +9 (9 ;~ ;~ ;~ ;~ ;~ ;~ >~ >~ >~ ,~ >~ >~ >~ >~ >~ >~ >~ >~ >~ >~ >~ ,~ $9 69 <% 7{ 8{ 3~ 3~ 3~ 3~ 3~ 3~ 3~ 3~ 3~ 3~ 3~ 3~ 3~ 3~ 3~ 3~ 3~ 3~ 3~ 3~ 3~ 3~ 3~ 3~ 3~ 3~ 3~ 3~ 3~ 3~ 3~ 3~ 3~ 3~ 3~ 3~ 3~ 3~ 3~ 3~ 3~ 3~ 3~ 3~ 3~ 3~ 3~ 3~ 3~ 3~ 3~ 3~ 3~ 3~ 3~ 3~ 3~ 3~ 3~ 3~ 3~ 3~ 3~ 3~ 3~ 3~ 3~ 3~ 3~ 3~ 3~ 3~ 3~ 3~ 3~ 3~ 3~ 3~ 3~ 3~ 3~ 3~ 3~ 3~ 3~ 3~ 3~ 3~ 3~ 3~ 3~ 3~ 3~ 3~ 3~ 3~ 3~ 3~ 3~ 3~ 3~ 3~ 3~ 8{ 7{ 7{ 7{ }% }% }% }% [% [% [% [% [% }% }% }% }% }% }% }% }% }% }% 7{ 7{ 7{ 7{ 7{ 7{ 7{ 7{ 7{ 7{ f{ f{ f{ f{ f{ 79 79 9{ 9{ 9{ 9{ 9{ 9{ 9{ 79 f{ f{ 7{ 7{ 7{ 7{ 7{ }% }% }% [% [% [% [% f% [% }% }% }% 7{ 7{ 7{ <% X, l~ ;~ ;~ ;~ ;~ ;~ ;~ ;~ ;~ ,~ >~ ;~ :~ [~ {~ t' <% }% }% 7{ 8{ 8{ 9{ 9{ f{ 7{ <% 69 [~ ,~ >~ ;~ ;~ ;~ ;~ }{ }{ L8 %9 N+ {7 {7 {7 i+ 4! W& G8 (~ #& N'  ! l) l) l) l) l) l) l) l) l) l) l) l) l) l) U' m+ <$ _$ _$ _$ _$ _$ _$ _$ _$ _$ _$ _$ _$ _$ _$ _$ _$ _$ _$ _$ _$ _$ _$ _$ _$ _$ _$ _$ _$ _$ _$ _$ _$ S# {# z@ -@ m+ Q+ -+ $+ 0. y  `. u  N' N' _< f_ e_ d[ S< b_ 89 99 09 ;9 a9 =9 =9 =9 =9 =9 =9 b9 ;9 ;9 ;9 ;9 ;9 ;9 ;9 ;9 ;9 ;9 ;9 ;9 ;9 ;9 *8 *8 *8 *8 c9 >6 >6 r3 v7 =} +# w7 w7 w7 w7 s3 s3 s3 s3 s3 s3 s3 s3 s3 s3 s3 s3 s3 s3 s3 ",
"e5 e5 e5 e5 e5 e5 e5 e5 e5 e5 e5 e5 e5 e5 e5 e5 e5 e5 e5 e5 e5 e5 q8 U6 U6 d9 19 |9 Y8 17 y7 17 |9 >4 >4 >4 >4 >4 >4 >4 >4 >4 29 e9 y8 y8 y8 f9 Z6 Z6 g9 49 h9 /9 q[ c_ d_ e_ f_ g_ B! u  v  `. ++ 0. 0. #+ -+ P+ Q+ :# ;@ z@ {# S# _$ _$ _$ _$ _$ _$ _$ _$ _$ _$ _$ _$ _$ _$ _$ _$ _$ _$ _$ _$ _$ _$ _$ _$ _$ _$ _$ _$ _$ _$ B) y@ +{ l) l) l) l) l) l) l) l) l) l) l) l) l) Q< z) i9 j9 }% R# i+ {7 .9 %+ +9 (9 ;~ ;~ ;~ ;~ ;~ ;~ '~ )~ [~ [~ [~ )~ '~ '~ '~ '~ '~ '~ '~ '~ )~ l~ 6{ <% 8{ 3~ 3~ 3~ 3~ 3~ 3~ 3~ 3~ 3~ 3~ 3~ 3~ 3~ 3~ 3~ 3~ 3~ 3~ 3~ 3~ 3~ 3~ 3~ 3~ 3~ 3~ 3~ 3~ 3~ 3~ 3~ 3~ 3~ 3~ 3~ 3~ 3~ 3~ 3~ 3~ 3~ 3~ 3~ 3~ 3~ 3~ 3~ 3~ 3~ 3~ 3~ 3~ 3~ 3~ 3~ 3~ 3~ 3~ 3~ 3~ 3~ 3~ 3~ 3~ 3~ 3~ 3~ 3~ 3~ 3~ 3~ 3~ 3~ 3~ 3~ 3~ 3~ 3~ 3~ 3~ 3~ 3~ 3~ 3~ 3~ 3~ 3~ 3~ 3~ 3~ 3~ 3~ 3~ 3~ 3~ 3~ 3~ 3~ 3~ 3~ 3~ 3~ 3~ 3~ 3~ 3~ 3~ 3~ 3~ 3~ 3~ 3~ 3~ 3~ 3~ 3~ 3~ 3~ 3~ 3~ 3~ 3~ 3~ 3~ 3~ 3~ 3~ 3~ 3~ 3~ 3~ 3~ 3~ 3~ 3~ 3~ 3~ 3~ 3~ 3~ 3~ 3~ 3~ 3~ 3~ 3~ 3~ 3~ 3~ 3~ 3~ 3~ 3~ 3~ 3~ 3~ 3~ 3~ 3~ 3~ 3~ 3~ 3~ 3~ 3~ 3~ 3~ 3~ 3~ 3~ 3~ 3~ 3~ 3~ 3~ 3~ [% 7% '~ >~ ;~ ;~ ;~ ;~ >~ ,~ ;~ :~ B~ 6{ v' [% 8{ 3~ 3~ 3~ 3~ 3~ 3~ 3~ 3~ 3~ 3~ G8 [% 69 k9 ;~ >~ >~ >~ >~ }{ }{ L8 %9 N+ {7 {7 {7 i+ 4! W& G8 l9 J! k. k) A{ O) l) l) l) l) l) l) l) l) l) l) l) l) C^ <3 R# _$ _$ _$ _$ _$ _$ _$ _$ _$ _$ _$ _$ _$ _$ _$ _$ _$ _$ _$ _$ _$ _$ _$ _$ _$ _$ _$ _$ _$ _$ _$ _$ S# {# z@ -@ m+ Q+ -+ $+ 0. y  `. u  N' N' _< f_ e_ d[ S< b_ m9 99 99 99 99 99 n9 o9 o9 o9 p9 ;9 ;9 ;9 ;9 ;9 ;9 ;9 ;9 ;9 ;9 ;9 ;9 ;9 ;9 q9 *8 *8 *8 *8 r9 >6 >6 r3 v7 =} =} s9 w7 w7 w7 &. s3 s3 s3 s3 s3 s3 s3 s3 s3 s3 s3 s3 s3 s3 ",
"e5 e5 e5 e5 e5 e5 e5 e5 e5 e5 e5 e5 e5 e5 e5 e5 e5 e5 e5 e5 e5 e5 e5 t9 u9 U6 U6 v9 19 >4 >4 >4 >4 >4 >4 >4 >4 >4 >4 >4 >4 >4 w9 x9 y8 y8 39 y9 Z6 47 z9 A9 /9 /9 q[ c_ d_ e_ f_ g_ B! u  v  `. ++ 0. 0. #+ -+ P+ Q+ :# ;@ z@ {# S# _$ _$ _$ _$ _$ _$ _$ _$ _$ _$ _$ _$ _$ _$ _$ _$ _$ _$ _$ _$ _$ _$ _$ _$ _$ _$ _$ _$ _$ _$ k. /< l) l) l) l) l) l) l) l) l) l) l) l) l) l) /{ <$ B9 C9 D9 w# i+ {7 .9 %+ +9 (9 ;~ ;~ ;~ ;~ [~ {~ C' u' u' u' u' u' u' t' s' }~ }~ }~ }~ t' u' _9 }% 8{ 3~ 3~ 3~ 3~ 3~ 3~ 3~ 3~ 3~ 3~ 3~ 3~ 3~ 3~ 3~ 3~ 3~ 3~ 3~ 3~ 3~ 3~ 3~ 3~ 3~ 3~ 3~ 3~ 3~ 3~ 3~ 3~ 3~ 3~ 3~ 3~ 3~ 3~ 3~ 3~ 3~ 3~ 3~ 3~ 3~ 3~ 3~ 3~ 3~ 3~ 3~ 3~ 3~ 3~ 3~ 3~ 3~ 3~ 3~ 3~ 3~ 3~ 3~ 3~ 3~ 3~ 3~ 3~ 3~ 3~ 3~ 3~ 3~ 3~ 3~ 3~ 3~ 3~ 3~ 3~ 3~ 3~ 3~ 3~ 3~ 3~ 3~ 3~ 3~ 3~ 3~ 3~ 3~ 3~ 3~ 3~ 3~ 3~ 3~ 3~ 3~ 3~ 3~ 3~ 3~ 3~ 3~ 3~ 3~ 3~ 3~ 3~ 3~ 3~ 3~ 3~ 3~ 3~ 3~ 3~ 3~ 3~ 3~ 3~ 3~ 3~ 3~ 3~ 3~ 3~ 3~ 3~ 3~ 3~ 3~ 3~ 3~ 3~ 3~ 3~ 3~ 3~ 3~ 3~ 3~ 3~ 3~ 3~ 3~ 3~ 3~ 3~ 3~ 3~ 3~ 3~ 3~ 3~ 3~ 3~ 3~ 3~ 3~ 3~ 3~ 3~ 3~ 3~ 3~ 3~ 3~ 3~ 3~ 3~ 3~ 3~ E9 3~ =% C~ ;~ >~ >~ >~ ,~ ;~ )~ c{ F9 f% 7{ 8{ 3~ 3~ 3~ 3~ 3~ 3~ 3~ 3~ 3~ 3~ 3~ 3~ 3~ 9{ }% 0{ d{ :~ ;~ ;~ ;~ 1{ }{ L8 %9 N+ {7 {7 {7 i+ 4! W& G8 l9 3~ i, %+ B! A{ l) l) l) l) l) l) l) l) l) l) l) l) l) C^ r! o! _$ _$ _$ _$ _$ _$ _$ _$ _$ _$ _$ _$ _$ _$ _$ _$ _$ _$ _$ _$ _$ _$ _$ _$ _$ _$ _$ _$ _$ _$ _$ S# {# z@ -@ m+ Q+ -+ $+ 0. y  `. u  N' N' _< f_ e_ d[ S< b_ G9 H9 99 99 99 99 99 n9 ;9 ;9 ;9 ;9 ;9 ;9 ;9 ;9 ;9 ;9 ;9 ;9 ;9 ;9 ;9 ;9 ;9 I9 J9 *8 *8 *8 o8 >6 >6 p3 v7 =} =} =} >9 w7 w7 w7 r7 s3 s3 s3 s3 s3 s3 s3 s3 s3 s3 s3 s3 s3 ",
"e5 e5 e5 e5 e5 e5 e5 e5 e5 e5 e5 e5 e5 e5 e5 e5 e5 e5 e5 e5 e5 e5 e5 e5 e5 [7 U6 U6 U6 }7 >4 >4 >4 >4 >4 >4 >4 >4 >4 >4 >4 K9 L9 y8 y8 y8 M9 Z6 Z6 N9 z9 A9 /9 /9 q[ c_ d_ e_ f_ g_ B! u  v  `. ++ 0. 0. #+ -+ P+ Q+ :# ;@ z@ {# S# _$ _$ _$ _$ _$ _$ _$ _$ _$ _$ _$ _$ _$ _$ _$ _$ _$ _$ _$ _$ _$ _$ _$ _$ _$ _$ _$ _$ _$ y@ /< l) l) l) l) l) l) l) l) l) l) l) l) l) l) /{ O9 P9 U~ ^~ Q9 R9 i+ {7 .9 %+ +9 (9 ;~ ;~ >~ )~ 6{ <% 8{ 8{ 8{ 8{ 8{ 8{ 8{ 8{ 8{ 8{ 8{ 8{ 8{ 8{ 8{ 9{ 3~ 3~ 3~ 3~ 3~ 3~ 3~ 3~ 3~ 3~ 3~ 3~ 3~ 3~ 3~ 3~ 3~ 3~ 3~ 3~ 3~ 3~ 3~ 3~ 3~ 3~ 3~ 3~ 3~ 3~ 3~ 3~ 3~ 3~ 3~ 3~ 3~ 3~ 3~ 3~ 3~ 3~ 3~ 3~ 3~ 3~ 3~ 3~ 3~ 3~ 3~ 3~ 3~ 3~ 3~ 3~ 3~ 3~ 3~ 3~ 3~ 3~ 3~ 3~ 3~ 3~ 3~ 3~ 3~ 3~ 3~ 3~ 3~ 3~ 3~ 3~ 3~ 3~ 3~ 3~ 3~ 3~ 3~ 3~ 3~ 3~ 3~ 3~ 3~ 3~ 3~ 3~ 3~ 3~ 3~ 3~ 3~ 3~ 3~ 3~ 3~ 3~ 3~ 3~ 3~ 3~ 3~ 3~ 3~ 3~ 3~ 3~ 3~ 3~ 3~ 3~ 3~ 3~ 3~ 3~ 3~ 3~ 3~ 3~ 3~ 3~ 3~ 3~ 3~ 3~ 3~ 3~ 3~ 3~ 3~ 3~ 3~ 3~ 3~ 3~ 3~ 3~ 3~ 3~ 3~ 3~ 3~ 3~ 3~ 3~ 3~ 3~ 3~ 3~ 3~ 3~ 3~ 3~ 3~ 3~ 3~ 3~ 3~ 3~ 3~ 3~ 3~ 3~ 3~ 3~ 3~ 3~ 3~ 3~ 3~ 3~ 3~ 3~ 3~ 3~ S9 X, [~ ;~ ;~ ;~ k9 b{ t' [% 8{ G8 3~ 3~ 3~ 3~ 3~ 3~ 3~ 3~ 3~ 3~ 3~ 3~ 3~ 3~ 3~ 3~ 3~ f{ _9 0{ 6{ e{ B~ <{ >~ L8 M8 N+ {7 {7 {7 i+ 4! W& G8 l9 3~ 3~ T9 $+ l! q! l) l) l) l) l) l) l) l) l) l) l) l) l) S! r! y# _$ _$ _$ _$ _$ _$ _$ _$ _$ _$ _$ _$ _$ _$ _$ _$ _$ _$ _$ _$ _$ _$ _$ _$ _$ _$ _$ _$ _$ _$ S# {# z@ -@ m+ Q+ -+ $+ 0. y  `. u  N' N' _< f_ e_ d[ S< b_ G9 U9 V9 99 99 99 99 99 n9 ;9 ;9 ;9 ;9 ;9 ;9 ;9 ;9 ;9 ;9 ;9 ;9 ;9 ;9 ;9 ;9 W9 X9 *8 *8 *8 Y9 >6 >6 n} v7 =} =} =} Z# w7 w7 w7 w7 X8 E, s3 s3 s3 s3 s3 s3 s3 s3 s3 s3 s3 ",
"e5 e5 e5 e5 e5 e5 e5 e5 e5 e5 e5 e5 e5 e5 e5 e5 e5 e5 e5 e5 e5 e5 e5 e5 e5 e5 P6 Z9 s3 t. v4 `9 >4 >4 >4 >4 >4 >4 >4 S4  0 .0 y8 y8 y8 y8 +0 Z6 Z6 @0 z9 #0 /9 /9 q[ c_ d_ e_ f_ g_ B! u  v  `. ++ 0. 0. #+ -+ P+ Q+ :# ;@ z@ {# S# _$ _$ _$ _$ _$ _$ _$ _$ _$ _$ _$ _$ _$ _$ _$ _$ _$ _$ _$ _$ _$ _$ _$ _$ _$ _$ _$ _$ z@ !! l) l) l) l) l) l) l) l) l) l) l) l) l) O) l) A{ .% $0 <% 5{ @9 R9 i+ {7 .9 %+ +9 (9 ;~ >~ '~ b{ <% 9{ 3~ 3~ 3~ 3~ 3~ 3~ 3~ 3~ 3~ 3~ 3~ 3~ 3~ 3~ 3~ 3~ 3~ 3~ 3~ 3~ 3~ 3~ 3~ 3~ 3~ 3~ 3~ 3~ 3~ 3~ 3~ 3~ 3~ 3~ 3~ 3~ 3~ 3~ 3~ 3~ 3~ 3~ 3~ 3~ 3~ 3~ 3~ 3~ 3~ 3~ 3~ 3~ 3~ 3~ 3~ 3~ 3~ 3~ 3~ 3~ 3~ 3~ 3~ 3~ 3~ 3~ 3~ 3~ 3~ 3~ 3~ 3~ 3~ 3~ 3~ 3~ 3~ 3~ 3~ 3~ 3~ 3~ 3~ 3~ 3~ 3~ 3~ 3~ 3~ 3~ 3~ 3~ 3~ 3~ 3~ 3~ 3~ 3~ 3~ 3~ 3~ 3~ 3~ 3~ 3~ 3~ 3~ 3~ 3~ 3~ 3~ 3~ 3~ 3~ 3~ 3~ 3~ 3~ 3~ 3~ 3~ 3~ 3~ 3~ 3~ 3~ 3~ 3~ 3~ 3~ 3~ 3~ 3~ 3~ 3~ 3~ 3~ 3~ 3~ 3~ 3~ 3~ 3~ 3~ 3~ 3~ 3~ 3~ 3~ 3~ 3~ 3~ 3~ 3~ 3~ 3~ 3~ 3~ 3~ 3~ 3~ 3~ 3~ 3~ 3~ 3~ 3~ 3~ 3~ 3~ 3~ 3~ 3~ 3~ 3~ 3~ 3~ 3~ 3~ 3~ 3~ 3~ 3~ 3~ 3~ 3~ 3~ 3~ 3~ 3~ 3~ 3~ 3~ 3~ 3~ 3~ G8 [% X, {~ 5{ e{ %0 [% 8{ 3~ 3~ 3~ 3~ 3~ 3~ 3~ 3~ 3~ 3~ 3~ 3~ 3~ 3~ 3~ 3~ 3~ 3~ 3~ 3~ 3~ 9{ 8{ f{ 7{ v' 5{ ;~ &0 %9 N+ {7 {7 {7 i+ 4! W& G8 l9 3~ 3~ 3~  % g~ +{ q! l) l) l) l) l) l) l) l) l) l) l) l) l) q! g~ {# _$ _$ _$ _$ _$ _$ _$ _$ _$ _$ _$ _$ _$ _$ _$ _$ _$ _$ _$ _$ _$ _$ _$ _$ _$ _$ _$ _$ _$ S# {# z@ -@ m+ Q+ -+ $+ 0. y  `. u  N' N' _< f_ e_ d[ S< b_ G9 U9 U9 *0 99 99 99 99 99 q9 ;9 ;9 ;9 ;9 ;9 ;9 ;9 ;9 ;9 ;9 ;9 ;9 ;9 ;9 ;9 W9 =0 *8 *8 *8 Y9 >6 >6 F, v7 =} =} =} =} F# w7 w7 w7 w7 w7 X8 s3 s3 s3 s3 s3 s3 s3 s3 s3 s3 ",
"e5 e5 e5 e5 e5 e5 e5 e5 e5 e5 e5 e5 e5 e5 e5 e5 e5 e5 e5 e5 e5 e5 e5 e5 e5 e5 e5 P6 s3 &. t. t. -0 ;0 >0 ,0 S6 '0 )0 !0 !0 ~0 y8 y8 y8 y8 {0 ]0 g9 z9 z9 ^0 /9 /9 q[ c_ d_ e_ f_ g_ B! u  v  `. ++ 0. 0. #+ -+ P+ Q+ :# ;@ z@ {# S# _$ _$ _$ _$ _$ _$ _$ _$ _$ _$ _$ _$ _$ _$ _$ _$ _$ _$ _$ _$ _$ _$ _$ _$ _$ _$ _$ {# r! q! l) l) l) l) l) l) l) l) l) l) l) l) O) O) /0 Z$ ({ (0 X, k9 _0 R9 i+ {7 .9 %+ +9 _0 ,~ ;~ B~ v' 8{ 3~ 3~ 3~ 3~ 3~ 3~ 3~ 3~ 3~ 3~ 3~ 3~ 3~ 3~ 3~ 3~ 3~ 3~ 3~ 3~ 3~ 3~ 3~ 3~ 3~ 3~ 3~ 3~ 3~ 3~ 3~ 3~ 3~ 3~ 3~ 3~ 3~ 3~ 3~ 3~ 3~ 3~ 3~ 3~ 3~ 3~ 3~ 3~ 3~ 3~ 3~ 3~ 3~ 3~ 3~ 3~ 3~ 3~ 3~ 3~ 3~ 3~ 3~ 3~ 3~ 3~ 3~ 3~ 3~ 3~ 3~ 3~ 3~ 3~ 3~ 3~ 3~ 3~ 3~ 3~ 3~ 3~ 3~ 3~ 3~ 3~ 3~ 3~ 3~ 3~ 3~ 3~ 3~ 3~ 3~ 3~ 3~ 3~ 3~ 3~ 3~ 3~ 3~ 3~ 3~ 3~ 3~ 3~ 3~ 3~ 3~ 3~ 3~ 3~ 3~ 3~ 3~ 3~ 3~ 3~ 3~ 3~ 3~ 3~ 3~ 3~ 3~ 3~ 3~ 3~ 3~ 3~ 3~ 3~ 3~ 3~ 3~ 3~ 3~ 3~ 3~ 3~ 3~ 3~ 3~ 3~ 3~ 3~ 3~ 3~ 3~ 3~ 3~ 3~ 3~ 3~ 3~ 3~ 3~ 3~ 3~ 3~ 3~ 3~ 3~ 3~ 3~ 3~ 3~ 3~ 3~ 3~ 3~ 3~ 3~ 3~ 3~ 3~ 3~ 3~ 3~ 3~ 3~ 3~ 3~ 3~ 3~ 3~ 3~ 3~ 3~ 3~ 3~ 3~ 3~ 3~ 3~ 3~ 8{ }% [% [% 7{ 8{ 3~ 3~ 3~ 3~ 3~ 3~ 3~ 3~ 3~ 3~ 3~ 3~ 3~ 3~ 3~ 3~ 3~ 3~ 3~ 3~ 3~ 3~ 3~ 3~ 3~ 3~ 3~ 8{ t' l~ &0 %9 N+ {7 {7 {7 i+ 4! W& G8 l9 3~ 3~ 3~ 8{ D$ ++ +{ q! Q< l) l) l) l) l) l) l) l) l) l) l) p! {_ $+ S# _$ _$ _$ _$ _$ _$ _$ _$ _$ _$ _$ _$ _$ _$ _$ _$ _$ _$ _$ _$ _$ _$ _$ _$ _$ _$ _$ _$ S# {# z@ -@ m+ Q+ -+ $+ 0. y  `. u  N' N' _< f_ e_ d[ S< b_ G9 U9 U9 H9 99 99 99 99 99 99 q9 ;9 ;9 ;9 ;9 ;9 o9 :0 v7 <0 [0 [0 }0 v7 |0 10 =0 t4 *8 *8 W8 >6 >6 '$ v7 =} =} =} =} =} z% w7 w7 w7 w7 w7 w7 20 s3 s3 s3 s3 s3 s3 s3 s3 ",
"e5 e5 e5 e5 e5 e5 e5 e5 e5 e5 e5 e5 e5 e5 e5 e5 e5 e5 e5 e5 e5 e5 e5 e5 e5 e5 e5 e5 t} s3 %# t. t. 30 40 40 50 !0 !0 !0 !0 60 y8 y8 y8 y8 70 Y6 z9 z9 z9 ^0 /9 /9 q[ c_ d_ e_ f_ g_ B! u  v  `. ++ 0. 0. #+ -+ P+ Q+ :# ;@ z@ {# S# _$ _$ _$ _$ _$ _$ _$ _$ _$ _$ _$ _$ _$ _$ _$ _$ _$ _$ _$ _$ _$ _$ _$ _$ _$ _$ z@ y   ! l) l) l) l) l) l) l) l) l) l) l) l) l) O) O) G$ {8 $0 :% -$ <{ _0 R9 i+ {7 .9 %+ +9 80 ,~ 90 t' f{ 3~ 3~ 3~ 3~ 3~ 3~ 3~ 3~ 3~ 3~ 3~ 3~ 3~ 3~ 3~ 3~ 3~ 3~ 3~ 3~ 3~ 3~ 3~ 3~ 3~ 3~ 3~ 3~ 3~ 3~ 3~ 3~ 3~ 3~ 3~ 3~ 3~ 3~ 3~ 3~ 3~ 3~ 3~ 3~ 3~ 3~ 3~ 3~ 3~ 3~ 3~ 3~ 3~ 3~ 3~ 3~ 3~ 3~ 3~ 3~ 3~ 3~ 3~ 3~ 3~ 3~ 3~ 3~ 3~ 3~ 3~ 3~ 3~ 3~ 3~ 3~ 3~ 3~ 3~ 3~ 3~ 3~ 3~ 3~ 3~ 3~ 3~ 3~ 3~ 3~ 3~ 3~ 3~ 3~ 3~ 3~ 3~ 3~ 3~ 3~ 3~ 3~ 3~ 3~ 3~ 3~ 3~ 3~ 3~ 3~ 3~ 3~ 3~ 3~ 3~ 3~ 3~ 3~ 3~ 3~ 3~ 3~ 3~ 3~ 3~ 3~ 3~ 3~ 3~ 3~ 3~ 3~ 3~ 3~ 3~ 3~ 3~ 3~ 3~ 3~ 3~ 3~ 3~ 3~ 3~ 3~ 3~ 3~ 3~ 3~ 3~ 3~ 3~ 3~ 3~ 3~ 3~ 3~ 3~ 3~ 3~ 3~ 3~ 3~ 3~ 3~ 3~ 3~ 3~ 3~ 3~ 3~ 3~ 3~ 3~ 3~ 3~ 3~ 3~ 3~ 3~ 3~ 3~ 3~ 3~ 3~ 3~ 3~ 3~ 3~ 3~ 3~ 3~ 3~ 3~ 3~ 3~ 3~ 3~ 3~ 3~ 3~ 3~ 3~ 3~ 3~ 3~ 3~ 3~ 3~ 3~ 3~ 3~ 3~ 3~ 3~ 3~ 3~ 3~ 3~ 3~ 3~ 3~ 3~ 3~ 3~ 3~ 3~ 3~ 3~ 3~ 3~ 3~ <% {~ 00 c$ i+ {7 {7 {7 i+ 4! W& G8 l9 3~ 3~ 3~ 3~ (~ g# r! +{ p2 Q< l) l) l) l) l) l) l) l) l) l) l) l) a0 i+ {# _$ _$ _$ _$ _$ _$ _$ _$ _$ _$ _$ _$ _$ _$ _$ _$ _$ _$ _$ _$ _$ _$ _$ _$ _$ _$ _$ S# {# z@ -@ m+ Q+ -+ $+ 0. y  `. u  N' N' _< f_ e_ d[ S< b_ G9 U9 U9 b0 99 99 99 99 99 99 99 c0 ;9 ;9 ;9 ;9 d0 e0 e0 e0 e0 e0 e0 e0 e0 e0 =0 G@ *8 *8 >6 >6 >6 '$ f0 =} =} =} =} =} =} g0 w7 w7 w7 w7 w7 w7 r7 s3 s3 s3 s3 s3 s3 s3 ",
"e5 e5 e5 e5 e5 e5 e5 e5 e5 e5 e5 e5 e5 e5 e5 e5 e5 e5 e5 e5 e5 e5 e5 e5 e5 e5 e5 e5 h0 s3 s3 t. t. t. 30 40 40 i0 !0 !0 j0 y8 y8 y8 y8 k0 70 l0 z9 z9 z9 g9 /9 /9 q[ c_ d_ e_ f_ g_ B! u  v  `. ++ 0. 0. #+ -+ P+ Q+ :# ;@ z@ {# S# _$ _$ _$ _$ _$ _$ _$ _$ _$ _$ _$ _$ _$ _$ _$ _$ _$ _$ _$ _$ _$ _$ _$ _$ _$ S# y  o) l) l) l) l) l) l) l) l) l) l) l) l) l) l) /{ <$ m0 n0 2~ X, )~ 2{ o0 R9 i+ {7 .9 %+ +9 80 :~ 69 }% 3~ 3~ 3~ 3~ 3~ 3~ 3~ 3~ 3~ 3~ 3~ 3~ 3~ 3~ 3~ 3~ 3~ 3~ 3~ 3~ 3~ 3~ 3~ 3~ 3~ 3~ 3~ 3~ 3~ 3~ 3~ 3~ 3~ 3~ 3~ 3~ 3~ 3~ 3~ 3~ 3~ 3~ 3~ 3~ 3~ 3~ 3~ 3~ 3~ 3~ 3~ 3~ 3~ 3~ 3~ 3~ 3~ 3~ 3~ 3~ 3~ 3~ 3~ 3~ 3~ 3~ 3~ 3~ 3~ 3~ 3~ 3~ 3~ 3~ 3~ 3~ 3~ 3~ 3~ 3~ 3~ 3~ 3~ 3~ 3~ 3~ 3~ 3~ 3~ 3~ 3~ 3~ 3~ 3~ 3~ 3~ 3~ 3~ 3~ 3~ 3~ 3~ 3~ 3~ 3~ 3~ 3~ 3~ 3~ 3~ 3~ 3~ 3~ 3~ 3~ 3~ 3~ 3~ 3~ 3~ 3~ 3~ 3~ 3~ 3~ 3~ 3~ 3~ 3~ 3~ 3~ 3~ 3~ 3~ 3~ 3~ 3~ 3~ 3~ 3~ 3~ 3~ 3~ 3~ 3~ 3~ 3~ 3~ 3~ 3~ 3~ 3~ 3~ 3~ 3~ 3~ 3~ 3~ 3~ 3~ 3~ 3~ 3~ 3~ 3~ 3~ 3~ 3~ 3~ 3~ 3~ 3~ 3~ 3~ 3~ 3~ 3~ 3~ 3~ 3~ 3~ 3~ 3~ 3~ 3~ 3~ 3~ 3~ 3~ 3~ 3~ 3~ 3~ 3~ 3~ 3~ 3~ 3~ 3~ 3~ 3~ 3~ 3~ 3~ 3~ 3~ 3~ 3~ 3~ 3~ 3~ 3~ 3~ 3~ 3~ 3~ 3~ 3~ 3~ 3~ 3~ 3~ 3~ 3~ 3~ 3~ 3~ 3~ 3~ 3~ 3~ 3~ 3~ 3~ }% ^~ 00 c$ i+ {7 {7 {7 i+ 4! W& G8 l9 3~ 3~ 3~ 3~ 3~ J! V@ Z. U' q! l) l) l) l) l) l) l) l) l) l) l) l) ()  ! %+ _$ _$ _$ _$ _$ _$ _$ _$ _$ _$ _$ _$ _$ _$ _$ _$ _$ _$ _$ _$ _$ _$ _$ _$ _$ _$ _$ S# {# z@ -@ m+ Q+ -+ $+ 0. y  `. u  N' N' _< f_ e_ d[ S< b_ G9 U9 U9 U9 p0 99 99 99 99 99 99 99 q0 r0 ;9 ;9 ;9 p9 [0 [0 [0 [0 s0 e0 e0 e0 =0 G@ *8 *8 >6 >6 >6 =} =} =} =} =} =} =} =} =} Y# >9 w7 w7 w7 w7 w7 r7 s3 s3 s3 s3 s3 s3 ",
"e5 e5 e5 e5 e5 e5 e5 e5 e5 e5 e5 e5 e5 e5 e5 e5 e5 e5 e5 e5 e5 e5 e5 e5 e5 e5 e5 e5 h0 s3 s3 E, t. t. t. 30 40 40 i0 !0 !0 j0 y8 y8 y8 t0 70 z9 z9 z9 z9 u0 /9 /9 q[ c_ d_ e_ f_ g_ B! u  v  `. ++ 0. 0. #+ -+ P+ Q+ :# ;@ z@ {# S# _$ _$ _$ _$ _$ _$ _$ _$ _$ _$ _$ _$ _$ _$ _$ _$ _$ _$ _$ _$ _$ _$ _$ _$ S# v0 S! l) l) l) l) l) l) l) l) l) l) l) l) l) l) () k. 67 m0 3~ }% C8 k~ 2{ o0 R9 i+ {7 .9 %+ w0 _0 D8 v' 8{ 3~ 3~ 3~ 3~ 3~ 3~ 3~ 3~ 3~ 3~ 3~ 3~ 3~ 3~ 3~ 3~ 3~ 3~ 3~ 3~ 3~ 3~ 3~ 3~ 3~ 3~ 3~ 3~ 3~ 3~ 3~ 3~ 3~ 3~ 3~ 3~ 3~ 3~ 3~ 3~ 3~ 3~ 3~ 3~ 3~ 3~ 3~ 3~ 3~ 3~ 3~ 3~ 3~ 3~ 3~ 3~ 3~ 3~ 3~ 3~ 3~ 3~ 3~ 3~ 3~ 3~ 3~ 3~ 3~ 3~ 3~ 3~ 3~ 3~ 3~ 3~ 3~ 3~ 3~ 3~ 3~ 3~ 3~ 3~ 3~ 3~ 3~ 3~ 3~ 3~ 3~ 3~ 3~ 3~ 3~ 3~ 3~ 3~ 3~ 3~ 3~ 3~ 3~ 3~ 3~ 3~ 3~ 3~ 3~ 3~ 3~ 3~ 3~ 3~ 3~ 3~ 3~ 3~ 3~ 3~ 3~ 3~ 3~ 3~ 3~ 3~ 3~ 3~ 3~ 3~ 3~ 3~ 3~ 3~ 3~ 3~ 3~ 3~ 3~ 3~ 3~ 3~ 3~ 3~ 3~ 3~ 3~ 3~ 3~ 3~ 3~ 3~ 3~ 3~ 3~ 3~ 3~ 3~ 3~ 3~ 3~ 3~ 3~ 3~ 3~ 3~ 3~ 3~ 3~ 3~ 3~ 3~ 3~ 3~ 3~ 3~ 3~ 3~ 3~ 3~ 3~ 3~ 3~ 3~ 3~ 3~ 3~ 3~ 3~ 3~ 3~ 3~ 3~ 3~ 3~ 3~ 3~ 3~ 3~ 3~ 3~ 3~ 3~ 3~ 3~ 3~ 3~ 3~ 3~ 3~ 3~ 3~ 3~ 3~ 3~ 3~ 3~ 3~ 3~ 3~ 3~ 3~ 3~ 3~ 3~ 3~ 3~ 3~ 3~ 3~ 3~ 3~ 3~ 3~ f{ z' (9 c$ i+ {7 {7 {7 i+ 4! W& G8 l9 3~ 3~ 3~ 3~ 3~ 3~ x0 y0 k) a0 l) l) l) l) l) l) l) l) l) l) l) l) l) () ;2 :# _$ _$ _$ _$ _$ _$ _$ _$ _$ _$ _$ _$ _$ _$ _$ _$ _$ _$ _$ _$ _$ _$ _$ _$ _$ _$ S# {# z@ -@ m+ Q+ -+ $+ 0. y  `. u  N' N' _< f_ e_ d[ S< b_ G9 U9 U9 U9 U9 z0 99 99 99 99 99 99 99 99 A0 ;9 ;9 ;9 ;9 ;9 ;9 ;9 ;9 o9 e0 e0 =0 G@ *8 *8 >6 >6 >6 =} =} =} =} =} =} =} =} =} =} n. z% w7 w7 w7 w7 w7 r7 s3 s3 s3 s3 s3 ",
"e5 e5 e5 e5 e5 e5 e5 e5 e5 e5 e5 e5 e5 e5 e5 e5 e5 e5 e5 e5 e5 e5 e5 e5 e5 e5 e5 e5 B0 s3 s3 s3 x7 t. t. t. 30 40 40 C0 !0 !0 ~0 y8 y8 t0 70 z9 z9 z9 z9 @0 /9 /9 q[ c_ d_ e_ f_ g_ B! u  v  `. ++ 0. 0. #+ -+ P+ Q+ :# ;@ z@ {# S# _$ _$ _$ _$ _$ _$ _$ _$ _$ _$ _$ _$ _$ _$ _$ _$ _$ _$ E$ F$ E$ _$ _$ S# P+ S! l) l) l) l) l) l) l) l) l) l) l) l) l) l) l) &+ n0 ({ 3~ 3~ <% D8 :~ 2{ o0 R9 i+ {7 .9 %+ D0 Q9 X, 7{ 3~ 3~ 3~ 3~ 3~ 3~ 3~ 3~ 3~ 3~ 3~ 3~ 3~ 3~ 3~ 3~ 3~ 3~ 3~ 3~ 3~ 3~ 3~ 3~ 3~ 3~ 3~ 3~ 3~ 3~ 3~ 3~ 3~ 3~ 3~ 3~ 3~ 3~ 3~ 3~ 3~ 3~ 3~ 3~ 3~ 3~ 3~ 3~ 3~ 3~ 3~ 3~ 3~ 3~ 3~ 3~ 3~ 3~ 3~ 3~ 3~ 3~ 3~ 3~ 3~ 3~ 3~ 3~ 3~ 3~ 3~ 3~ 3~ 3~ 3~ 3~ 3~ 3~ 3~ 3~ 3~ 3~ 3~ 3~ 3~ 3~ 3~ 3~ 3~ 3~ 3~ 3~ 3~ 3~ 3~ 3~ 3~ 3~ 3~ 3~ 3~ 3~ 3~ 3~ 3~ 3~ 3~ 3~ 3~ 3~ 3~ 3~ 3~ 3~ 3~ 3~ 3~ 3~ 3~ 3~ 3~ 3~ 3~ 3~ 3~ 3~ 3~ 3~ 3~ 3~ 3~ 3~ 3~ 3~ 3~ 3~ 3~ 3~ 3~ 3~ 3~ 3~ 3~ 3~ 3~ 3~ 3~ 3~ 3~ 3~ 3~ 3~ 3~ 3~ 3~ 3~ 3~ 3~ 3~ 3~ 3~ 3~ 3~ 3~ 3~ 3~ 3~ 3~ 3~ 3~ 3~ 3~ 3~ 3~ 3~ 3~ 3~ 3~ 3~ 3~ 3~ 3~ 3~ 3~ 3~ 3~ 3~ 3~ 3~ 3~ 3~ 3~ 3~ 3~ 3~ 3~ 3~ 3~ 3~ 3~ 3~ 3~ 3~ 3~ 3~ 3~ 3~ 3~ 3~ 3~ 3~ 3~ 3~ 3~ 3~ 3~ 3~ 3~ 3~ 3~ 3~ 3~ 3~ 3~ 3~ 3~ 3~ 3~ 3~ 3~ 3~ 3~ 3~ 3~ E9 3~ _9 E0 c$ i+ {7 {7 {7 i+ 4! W& G8 l9 3~ 3~ 3~ 3~ 3~ 3~ F0 W& P+ B!  ! C^ l) l) l) l) l) l) l) l) l) l) l) l) C^ {} Y@ _$ _$ _$ _$ _$ _$ _$ _$ _$ _$ _$ _$ _$ _$ _$ _$ _$ _$ _$ _$ _$ _$ _$ _$ _$ S# {# z@ -@ m+ Q+ -+ $+ 0. y  `. u  N' N' _< f_ e_ d[ S< b_ G9 U9 U9 U9 U9 b0 z0 99 99 99 99 99 99 99 99 09 n9 ;9 ;9 ;9 ;9 ;9 ;9 ;9 G0 e0 =0 G@ *8 *8 >6 >6 >6 =} =} =} =} =} =} =} =} =} =} =} =} Z# w7 w7 w7 w7 w7 r7 s3 s3 s3 s3 ",
"e5 e5 e5 e5 e5 e5 e5 e5 e5 e5 e5 e5 e5 e5 e5 e5 e5 e5 e5 e5 e5 e5 e5 e5 e5 e5 e5 e5 s3 s3 s3 s3 s3 t. t. t. t. 30 H0 I0 !0 !0 J0 y8 y8 t0 70 z9 z9 z9 z9 z9 /9 /9 q[ c_ d_ e_ f_ g_ B! u  v  `. ++ 0. 0. #+ -+ P+ Q+ :# ;@ z@ {# S# _$ _$ _$ _$ _$ _$ _$ _$ _$ _$ _$ _$ _$ _$ _$ _$ _$ G$ _% [% .% _$ _$ f# Z.  ! l) l) l) l) l) l) l) l) l) l) l) l) O) O) V^ P! K0 F0 F0 3~ f% -$ :~ 2{ o0 R9 i+ {7 .9 %+ o$ 7- f% G8 F0 F0 F0 F0 F0 F0 F0 F0 F0 F0 F0 F0 F0 F0 F0 F0 F0 F0 F0 F0 F0 F0 F0 F0 F0 F0 F0 F0 F0 F0 F0 F0 F0 F0 F0 F0 F0 F0 F0 F0 F0 F0 F0 F0 F0 F0 F0 F0 F0 F0 F0 F0 F0 F0 F0 F0 F0 F0 F0 F0 F0 F0 F0 F0 F0 F0 F0 F0 F0 F0 F0 F0 F0 F0 F0 F0 F0 F0 F0 F0 F0 F0 F0 F0 F0 F0 F0 F0 F0 F0 F0 F0 F0 F0 F0 F0 F0 F0 F0 F0 F0 F0 F0 F0 F0 F0 F0 F0 F0 F0 F0 F0 F0 F0 F0 F0 F0 F0 F0 F0 F0 F0 F0 F0 F0 F0 F0 F0 F0 F0 F0 F0 F0 F0 F0 F0 F0 F0 F0 F0 F0 F0 F0 F0 F0 F0 F0 F0 F0 F0 F0 F0 F0 F0 F0 F0 F0 F0 F0 F0 F0 F0 F0 F0 F0 F0 F0 F0 F0 F0 F0 F0 F0 F0 F0 F0 F0 F0 F0 F0 F0 F0 F0 F0 F0 F0 F0 F0 F0 F0 F0 F0 F0 F0 F0 F0 F0 F0 F0 F0 F0 F0 F0 F0 F0 F0 F0 F0 F0 F0 F0 F0 F0 F0 F0 F0 F0 F0 F0 F0 F0 F0 F0 F0 F0 F0 F0 F0 F0 F0 F0 F0 F0 F0 L0 L0 M0 D9 M8 &) {7 {7 {7 i+ 4! N0 O0 P9 F0 F0 F0 F0 F0 F0 F0 F0 W& $+ /< P' l) l) l) l) l) l) l) l) l) l) l) l) l) a0 &+ _$ G$ P0 _$ _$ _$ _$ _$ _$ _$ _$ _$ _$ _$ _$ _$ _$ _$ _$ _$ _$ _$ _$ _$ _$ S# {# z@ -@ m+ Q+ -+ $+ 0. y  `. u  N' N' _< f_ e_ d[ S< b_ Q0 g| R0 U9 U9 U9 b0 99 99 99 99 99 99 99 99 99 99 c0 f0 ;9 ;9 ;9 ;9 ;9 p9 e0 =0 G@ *8 *8 >6 >6 >6 =} =} =} =} =} =} =} =} =} =} =} =} S0 w7 w7 w7 w7 w7 w7 r7 s3 s3 s3 ",
"e5 e5 e5 e5 e5 e5 e5 e5 e5 e5 e5 e5 e5 e5 e5 e5 e5 e5 e5 e5 e5 e5 e5 e5 e5 e5 e5 T0 s3 s3 s3 s3 s3 t. t. t. t. t. q~ U0 V0 !0 J0 y8 y8 t0 70 z9 z9 z9 z9 z9 W0 /9 q[ c_ d_ e_ f_ g_ B! u  v  `. ++ 0. 0. #+ -+ P+ Q+ :# ;@ z@ {# S# _$ _$ _$ _$ _$ _$ _$ _$ _$ _$ _$ _$ _$ _$ _$ _$ _$ &% 6% j% [% F$ _$ S# ++ /< S! l) l) l) l) l) l) l) l) l) l) l) O) +{ G$ X0 F0 F0 F0 F0 M0 7% :~ 2{ o0 R9 i+ {7 .9 j+ Z@ Y0 S9 F0 F0 F0 F0 F0 F0 F0 F0 F0 F0 F0 F0 F0 F0 F0 F0 F0 F0 F0 F0 F0 F0 F0 F0 F0 F0 F0 F0 F0 F0 F0 F0 F0 F0 F0 F0 F0 F0 F0 F0 F0 F0 F0 F0 F0 F0 F0 F0 F0 F0 F0 F0 F0 F0 F0 F0 F0 F0 F0 F0 F0 F0 F0 F0 F0 F0 F0 F0 F0 F0 F0 F0 F0 F0 F0 F0 F0 F0 F0 F0 F0 F0 F0 F0 F0 F0 F0 F0 F0 F0 F0 F0 F0 F0 F0 F0 F0 F0 F0 F0 F0 F0 F0 F0 F0 F0 F0 F0 F0 F0 F0 F0 F0 F0 F0 F0 F0 F0 F0 F0 F0 F0 F0 F0 F0 F0 F0 F0 F0 F0 F0 F0 F0 F0 F0 F0 F0 F0 F0 F0 F0 F0 F0 F0 F0 F0 F0 F0 F0 F0 F0 F0 F0 F0 F0 F0 F0 F0 F0 F0 F0 F0 F0 F0 F0 F0 F0 F0 F0 F0 F0 F0 F0 F0 F0 F0 F0 F0 F0 F0 F0 F0 F0 F0 F0 F0 F0 F0 F0 F0 F0 F0 F0 F0 F0 F0 F0 F0 F0 F0 F0 F0 F0 F0 F0 F0 F0 F0 F0 F0 F0 F0 F0 F0 F0 F0 F0 F0 F0 F0 F0 F0 F0 F0 F0 F0 F0 F0 F0 F0 F0 F0 F0 F0 F0 F0 F0 M0 :> M8 &) {7 {7 {7 i+ 4! N0 O0 P9 F0 F0 F0 F0 F0 F0 F0 F0 F0 Z0 ++ <3 A{ O) l) l) l) l) l) l) l) l) l) l) S! /) %+ E$ <% 2% .% _$ _$ _$ _$ _$ _$ _$ _$ _$ _$ _$ _$ _$ _$ _$ _$ _$ _$ _$ _$ _$ S# {# z@ -@ m+ Q+ -+ $+ 0. y  `. u  N' N' _< f_ e_ d[ S< b_ Q0 {' `0 U9 U9 U9 U9 H9 99 99 99 99 99 99 99 99 99 99 q0 f0 ;9 ;9 ;9 ;9 ;9  a =0 *8 *8 *8 >6 >6 >6 =} =} =} =} =} =} =} =} =} =} =} =} M$ w7 w7 w7 w7 w7 w7 w7 r7 s3 s3 ",
"e5 e5 e5 e5 e5 e5 e5 e5 e5 e5 e5 e5 e5 e5 e5 e5 e5 e5 e5 e5 e5 e5 e5 e5 e5 e5 e5 s3 s3 s3 s3 s3 &. t. t. t. t. t. t. .a +a !0 J0 y8 y8 @a 70 z9 z9 z9 z9 z9 #a /9 q[ c_ d_ e_ f_ g_ B! u  v  `. ++ 0. 0. #+ -+ P+ Q+ :# ;@ z@ {# S# _$ _$ _$ _$ _$ _$ _$ _$ _$ _$ _$ _$ _$ _$ _$ _$ G$ <% j% j% 2% $% T# S# ++ B! /<  ! C^ l) l) l) l) l) l) l) l) l) S! $a %a F0 F0 F0 F0 F0 S9 X, [~ 2{ o0 R9 i+ {7 .9 j+ B# &a G8 F0 F0 F0 F0 F0 F0 F0 F0 F0 F0 F0 F0 F0 F0 F0 F0 F0 F0 F0 F0 F0 F0 F0 F0 F0 F0 F0 F0 F0 F0 F0 F0 F0 F0 F0 F0 F0 F0 F0 F0 F0 F0 F0 F0 F0 F0 F0 F0 F0 F0 F0 F0 F0 F0 F0 F0 F0 F0 F0 F0 F0 F0 F0 F0 F0 F0 F0 F0 F0 F0 F0 F0 F0 F0 F0 F0 F0 F0 F0 F0 F0 F0 F0 F0 F0 F0 F0 F0 F0 F0 F0 F0 F0 F0 F0 F0 F0 F0 F0 F0 F0 F0 F0 F0 F0 F0 F0 F0 F0 F0 F0 F0 F0 F0 F0 F0 F0 F0 F0 F0 F0 F0 F0 F0 F0 F0 F0 F0 F0 F0 F0 F0 F0 F0 F0 F0 F0 F0 F0 F0 F0 F0 F0 F0 F0 F0 F0 F0 F0 F0 F0 F0 F0 F0 F0 F0 F0 F0 F0 F0 F0 F0 F0 F0 F0 F0 F0 F0 F0 F0 F0 F0 F0 F0 F0 F0 F0 F0 F0 F0 F0 F0 F0 F0 F0 F0 F0 F0 F0 F0 F0 F0 F0 F0 F0 F0 F0 F0 F0 F0 F0 F0 F0 F0 F0 F0 F0 F0 F0 F0 F0 F0 F0 F0 F0 F0 F0 F0 F0 F0 F0 F0 F0 F0 F0 F0 F0 F0 F0 F0 F0 F0 F0 F0 F0 F0 F0 S9 +% i8 &) {7 {7 {7 i+ 4! N0 O0 P9 F0 F0 F0 F0 F0 F0 F0 F0 F0 _~ F$ 8. /< S! l) l) l) l) l) l) l) l) l) O) F~ {} 65 Z$ 2% 6% }% E$ _$ _$ _$ _$ _$ _$ _$ _$ _$ _$ _$ _$ _$ _$ _$ _$ _$ _$ _$ _$ S# {# z@ -@ m+ Q+ -+ $+ 0. y  `. u  N' N' _< f_ e_ d[ S< b_ Q0 {' {' {' *a U9 U9 U9 =a -a 99 99 99 99 99 99 99 99 99 ;a ;9 ;9 ;9 ;9 ;9 >a =0 *8 *8 *8 ,a >6 >6 =} =} =} =} =} =} =} =} =} =} =} =} 'a w7 w7 w7 w7 w7 w7 w7 )a s3 s3 ",
"e5 e5 e5 e5 e5 e5 e5 e5 e5 e5 e5 e5 e5 e5 e5 e5 e5 e5 e5 e5 e5 e5 e5 e5 e5 e5 B0 s3 s3 s3 s3 %# t. t. t. t. t. t. t. &| !a ~a '8 y8 y8 y8 70 z9 z9 z9 z9 z9 #a /9 q[ c_ d_ e_ f_ g_ B! u  v  `. ++ 0. 0. #+ -+ P+ Q+ :# ;@ z@ {# S# _$ _$ _$ _$ _$ _$ _$ _$ _$ _$ _$ _$ _$ _$ _$ _$ .% |% l% l% j% [% _$ S# ++ B! B! <3 {_ C^ l) l) l) l) l) l) l) O) g~ K0 {a F0 F0 F0 F0 {a F0 *% !~ <{ o0 R9 i+ {7 .9 j+ _$ ]a F0 F0 F0 F0 F0 F0 F0 F0 F0 F0 F0 F0 F0 F0 F0 F0 F0 F0 F0 F0 F0 F0 F0 F0 F0 F0 F0 F0 F0 F0 F0 F0 F0 F0 F0 F0 F0 F0 F0 F0 F0 F0 F0 F0 F0 F0 F0 F0 F0 F0 F0 F0 F0 F0 F0 F0 F0 F0 F0 F0 F0 F0 F0 F0 F0 F0 F0 F0 F0 F0 F0 F0 F0 F0 F0 F0 F0 F0 F0 F0 F0 F0 F0 F0 F0 F0 F0 F0 F0 F0 F0 F0 F0 F0 F0 F0 F0 F0 F0 F0 F0 F0 F0 F0 F0 F0 F0 F0 F0 F0 F0 F0 F0 F0 F0 F0 F0 F0 F0 F0 F0 F0 F0 F0 F0 F0 F0 F0 F0 F0 F0 F0 F0 F0 F0 F0 F0 F0 F0 F0 F0 F0 F0 F0 F0 F0 F0 F0 F0 F0 F0 F0 F0 F0 F0 F0 F0 F0 F0 F0 F0 F0 F0 F0 F0 F0 F0 F0 F0 F0 F0 F0 F0 F0 F0 F0 F0 F0 F0 F0 F0 F0 F0 F0 F0 F0 F0 F0 F0 F0 F0 F0 F0 F0 F0 F0 F0 F0 F0 F0 E9 L0 F0 F0 F0 F0 F0 F0 F0 F0 F0 F0 F0 L0 L0 {a L0 F0 F0 F0 F0 F0 F0 F0 F0 F0 F0 F0 F0 F0 F0 F0 F0 F0 F0 F0 F0 ^a /a %% U# &) {7 {7 {7 i+ 4! N0 O0 P9 F0 F0 F0 F0 F0 F0 F0 F0 F0 F0 Q! g# N) U' (a l) l) l) l) l) l) l) O) F~ B! k) ~+ &% 2% 6% 3% Z$ _$ _$ _$ _$ _$ _$ _$ _$ _$ _$ _$ _$ _$ _$ _$ _$ _$ _$ _$ _$ S# {# z@ -@ m+ Q+ -+ $+ 0. y  `. u  N' N' _< f_ e_ d[ S< Q' _a {' {' {' {' y4 U9 U9 U9 U9 U9 :a V9 *0 99 99 99 99 99 99 A0 ;9 ;9 ;9 ;9 q9 <a *8 *8 *8 Y9 >6 >6 /+ =} =} =} =} =} =} =} =} =} =} =} >9 w7 w7 w7 w7 w7 w7 w7 E, s3 s3 ",
"e5 e5 e5 e5 e5 e5 e5 e5 e5 e5 e5 e5 e5 e5 e5 e5 e5 e5 e5 e5 e5 e5 e5 e5 e5 T0 s3 s3 s3 E, t. t. t. t. t. t. t. t. [a !a !a !a }a y8 y8 y8 |a z9 z9 z9 z9 z9 1a /9 q[ c_ d_ e_ f_ g_ B! u  v  `. ++ 0. 0. #+ -+ P+ Q+ :# ;@ z@ {# S# _$ _$ _$ _$ _$ _$ _$ _$ _$ _$ _$ _$ _$ _$ _$ S# (% 6% l% l% k% |% H$ S# ++ B! B! B! /< Q' C^ l) l) l) l) l) l) V^ K! {a F0 F0 F0 F0 F0 {a %a X, [~ 2{ o0 R9 i+ {7 .9 j+ _$ ]a F0 F0 F0 F0 F0 F0 F0 F0 F0 F0 F0 F0 F0 F0 F0 F0 F0 F0 F0 F0 F0 F0 F0 F0 F0 F0 F0 F0 F0 F0 F0 F0 F0 F0 F0 F0 F0 F0 F0 F0 F0 F0 F0 F0 F0 F0 F0 F0 F0 F0 F0 F0 F0 F0 F0 F0 F0 F0 F0 F0 F0 F0 F0 F0 F0 F0 F0 F0 F0 F0 F0 F0 F0 F0 F0 F0 F0 F0 F0 F0 F0 F0 F0 F0 F0 F0 F0 F0 F0 F0 F0 F0 F0 F0 F0 F0 F0 F0 F0 F0 F0 F0 F0 F0 F0 F0 F0 F0 F0 F0 F0 F0 F0 F0 F0 F0 F0 F0 F0 F0 F0 F0 F0 F0 F0 F0 F0 F0 F0 F0 F0 F0 F0 F0 F0 F0 F0 F0 F0 F0 F0 F0 F0 F0 F0 F0 F0 F0 F0 F0 F0 F0 F0 F0 F0 F0 F0 F0 F0 F0 F0 F0 F0 F0 F0 F0 F0 F0 F0 F0 F0 F0 F0 F0 F0 F0 F0 F0 F0 F0 F0 F0 F0 F0 F0 F0 F0 F0 F0 F0 F0 F0 F0 F0 F0 F0 F0 F0 F0 F0 F0 F0 F0 F0 L0 F0 F0 F0 F0 F0 L0 {a E9 F0 O0 G8 G8 G8 F0 F0 F0 F0 F0 F0 F0 F0 F0 F0 F0 F0 F0 F0 F0 F0 F0 F0 F0 P9 2a 3a W@ &) {7 {7 {7 i+ 4! N0 O0 P9 F0 F0 F0 F0 F0 F0 F0 F0 F0 F0 F0 J! V@ k) O' C^ l) l) l) l) l) q! F~ B! B! {} k. ,' 3% j% j% #% E$ _$ _$ _$ _$ _$ _$ _$ _$ _$ _$ _$ _$ _$ _$ _$ _$ _$ _$ _$ S# {# z@ -@ m+ Q+ -+ $+ 0. y  `. u  N' N' _< f_ e_ d[ S< b_ 4a 5a 6a {' {' {' y4 U9 U9 U9 U9 U9 U9 U9 b0 V9 z0 99 99 99 99 n9 ;9 ;9 ;9 ;9 7a *8 *8 *8 Y9 >6 >6 8a =} =} =} =} =} =} =} =} =} =} =} w7 w7 w7 w7 w7 w7 w7 r7 s3 s3 s3 ",
"e5 e5 e5 e5 e5 e5 e5 e5 e5 e5 e5 e5 e5 e5 e5 e5 e5 e5 e5 e5 e5 e5 e5 e5 T0 s3 s3 s3 E, t. t. t. t. t. t. t. t. ]6 &| !a !a !a 9a y8 y8 y8 0a z9 z9 z9 z9 z9 o3 /9 q[ c_ d_ e_ f_ g_ B! u  v  `. ++ 0. 0. #+ -+ P+ Q+ :# ;@ z@ {# S# _$ _$ _$ _$ _$ _$ _$ _$ _$ _$ _$ _$ _$ _$ _$ $, <% k% k% l% l% 2% _% `@ ++ B! B! B! B! l! F~ q! l) l) O) O) h_ aa F0 F0 F0 F0 F0 F0 {a F0 /~ {~ :~ 2{ o0 R9 i+ {7 .9 j+ _$ ]a F0 F0 F0 F0 F0 F0 F0 F0 F0 F0 F0 F0 F0 F0 F0 F0 F0 F0 F0 F0 F0 F0 F0 F0 F0 F0 F0 F0 F0 F0 F0 F0 F0 F0 F0 F0 F0 F0 F0 F0 F0 F0 F0 F0 F0 F0 F0 F0 F0 F0 F0 F0 F0 F0 F0 F0 F0 F0 F0 F0 F0 F0 F0 F0 F0 F0 F0 F0 F0 F0 F0 F0 F0 F0 F0 F0 F0 F0 F0 F0 F0 F0 F0 F0 F0 F0 F0 F0 F0 F0 F0 F0 F0 F0 F0 F0 F0 F0 F0 F0 F0 F0 F0 F0 F0 F0 F0 F0 F0 F0 F0 F0 F0 F0 F0 F0 F0 F0 F0 F0 F0 F0 F0 F0 F0 F0 F0 F0 F0 F0 F0 F0 F0 F0 F0 F0 F0 F0 F0 F0 F0 F0 F0 F0 F0 F0 F0 F0 F0 F0 F0 F0 F0 F0 F0 F0 F0 F0 F0 F0 F0 F0 F0 F0 F0 F0 F0 F0 F0 F0 F0 F0 F0 F0 F0 F0 F0 F0 F0 F0 F0 F0 F0 F0 F0 F0 F0 F0 F0 F0 F0 F0 F0 F0 F0 F0 F0 F0 {a ba Z~ ca :% Y~ O0 F0 L0 {a L0 L0 F0 ba %a /~ s' @> @> *% S9 F0 {a F0 F0 F0 F0 F0 F0 F0 F0 F0 F0 F0 F0 F0 F0 F0 F0 P9 P9 da o! &) {7 {7 {7 i+ 4! N0 O0 P9 F0 F0 F0 F0 F0 F0 F0 F0 F0 F0 F0 F0 i, R  B! O' o) l) l) l) S! U' B! B! B! {} C! g% 6% k% k% [% E$ _$ _$ _$ _$ _$ _$ _$ _$ _$ _$ _$ _$ _$ _$ _$ _$ _$ _$ _$ S# {# z@ -@ m+ Q+ -+ $+ 0. y  `. u  N' N' _< f_ e_ d[ S< b_ 4a 5a 5a 5a ea {' {' *a U9 U9 U9 U9 U9 U9 U9 U9 U9 V9 z0 99 99 09 ;9 ;9 ;9 ;9 fa *8 *8 *8 Y9 >6 >6 ga =} =} =} =} =} =} =} =} =} =} Z# w7 w7 w7 w7 w7 w7 r7 s3 s3 s3 s3 ",
"e5 e5 e5 e5 e5 e5 e5 e5 e5 e5 e5 e5 e5 e5 e5 e5 e5 e5 e5 e5 e5 e5 e5 P6 s3 s3 s3 E, t. t. t. t. t. t. ha ia &| !a !a !a !a !a 9a y8 y8 y8 _3 z9 z9 z9 z9 z9 ja /9 q[ c_ d_ e_ f_ g_ B! u  v  `. ++ 0. 0. #+ -+ P+ Q+ :# ;@ z@ {# S# _$ _$ _$ _$ _$ _$ _$ _$ _$ _$ _$ _$ _$ _$ S# @% 2% k% l% l% l% j% }% T# ++ B! B! B! B! B! B! U'  ! l) l) V^ ka F0 F0 F0 F0 F0 F0 F0 F0 Y~ X, [~ ;~ 2{ o0 R9 i+ {7 .9 j+ _$ ]a F0 F0 F0 F0 F0 F0 F0 F0 F0 F0 F0 F0 F0 F0 F0 F0 F0 F0 F0 F0 F0 F0 F0 F0 F0 F0 F0 F0 F0 F0 F0 F0 F0 F0 F0 F0 F0 F0 F0 F0 F0 F0 F0 F0 F0 F0 F0 F0 F0 F0 F0 F0 F0 F0 F0 F0 F0 F0 F0 F0 F0 F0 F0 F0 F0 F0 F0 F0 F0 F0 F0 F0 F0 F0 F0 F0 F0 F0 F0 F0 F0 F0 F0 F0 F0 F0 F0 F0 F0 F0 F0 F0 F0 F0 F0 F0 F0 F0 F0 F0 F0 F0 F0 F0 F0 F0 F0 F0 F0 F0 F0 F0 F0 F0 F0 F0 F0 F0 F0 F0 F0 F0 F0 F0 F0 F0 F0 F0 F0 F0 F0 F0 F0 F0 F0 F0 F0 F0 F0 F0 F0 F0 F0 F0 F0 F0 F0 F0 F0 F0 F0 F0 F0 F0 F0 F0 F0 F0 F0 F0 F0 F0 F0 F0 F0 F0 F0 F0 F0 F0 F0 F0 F0 F0 F0 F0 F0 F0 F0 F0 F0 F0 F0 F0 F0 F0 F0 F0 F0 F0 F0 F0 F0 F0 F0 F0 F0 F0 {a %a *% C~ C~ E8 :% Z~ G8 F0 %a Y~ /~ =% X, {~ [~ '~ '~ l~ }~ S9 L0 L0 F0 F0 F0 F0 F0 F0 F0 F0 F0 F0 F0 F0 F0 F0 F0 P9 P9 da {# B  {7 {7 {7 i+ 4! N0 O0 P9 F0 F0 F0 F0 F0 F0 F0 F0 F0 F0 F0 F0 3~ T9 g~ la S' O) l) S! U' B! B! B! B! 8. o$ 2% 6% l% l% 3% F$ _$ _$ _$ _$ _$ _$ _$ _$ _$ _$ _$ _$ _$ _$ _$ _$ _$ _$ _$ S# {# z@ -@ m+ Q+ -+ $+ 0. y  `. u  N' N' _< f_ e_ d[ S< b_ 4a 5a 5a 5a 5a B+ {' {' ma U9 U9 U9 U9 U9 U9 U9 U9 U9 na p0 99 99 q9 ;9 ;9 ;9 fa *8 *8 *8 Y9 >6 >6 ga =} =} =} =} =} =} =} =} =} =} z% w7 w7 w7 w7 w7 r7 s3 s3 s3 s3 s3 ",
"e5 e5 e5 e5 e5 e5 e5 e5 e5 e5 e5 e5 e5 e5 e5 e5 e5 e5 e5 e5 e5 e5 e5 B0 s3 s3 s3 %# t. t. t. t. oa !a !a !a !a !a !a !a !a !a pa y8 y8 y8 _3 z9 z9 z9 z9 z9 qa /9 {_ c_ d_ e_ f_ g_ B! u  v  `. ++ 0. 0. #+ -+ P+ Q+ :# ;@ z@ {# S# _$ _$ _$ _$ _$ _$ _$ _$ _$ _$ _$ _$ _$ _$ _$ =% 6% l% l% l% l% j% 1% D$ 0. B! B! B! B! B! B! B! +{ S! O) m! (~ F0 F0 F0 F0 F0 F0 F0 _~ *% C~ '~ ;~ 2{ o0 R9 i+ {7 .9 j+ _$ ]a F0 F0 F0 F0 O0 O0 O0 O0 F0 F0 F0 F0 F0 F0 F0 F0 F0 F0 F0 F0 F0 F0 L0 L0 L0 L0 F0 F0 F0 F0 F0 F0 F0 F0 F0 F0 F0 F0 F0 F0 F0 F0 F0 F0 F0 F0 F0 F0 F0 F0 F0 F0 F0 F0 F0 F0 F0 F0 F0 F0 F0 F0 F0 F0 F0 F0 F0 F0 F0 F0 F0 F0 F0 F0 F0 F0 F0 F0 F0 F0 F0 F0 F0 F0 F0 F0 F0 F0 F0 F0 F0 F0 F0 F0 F0 F0 F0 F0 F0 F0 F0 F0 F0 F0 F0 F0 F0 F0 F0 F0 F0 F0 F0 F0 F0 F0 F0 F0 F0 F0 F0 F0 F0 F0 F0 F0 F0 F0 F0 F0 F0 F0 F0 F0 F0 F0 F0 F0 F0 F0 F0 F0 F0 F0 F0 F0 F0 F0 F0 F0 F0 F0 F0 F0 F0 F0 F0 F0 F0 F0 F0 F0 F0 F0 F0 F0 F0 F0 F0 F0 F0 F0 F0 F0 F0 F0 F0 F0 F0 F0 F0 F0 F0 F0 F0 F0 F0 F0 F0 F0 F0 F0 F0 F0 F0 F0 F0 L0 L0 Y~ @> :~ ;~ :~ l~ 7% X, }~ X, @> {~ [~ :~ :~ ;~ ,~ ,~ ;~ C~ u' G8 {a {a L0 L0 L0 F0 F0 L0 L0 L0 L0 L0 L0 L0 L0 {a P9 P9 Q! S# i+ `) {7 {7 i+ 4! N0 O0 P9 F0 F0 F0 F0 F0 F0 F0 F0 F0 F0 F0 F0 F0 G8 Y$ T~ +{ S! q! F~ B! B! B! B! B! Z. A' 2% 6% l% l% 6% -% _$ _$ _$ _$ _$ _$ _$ _$ _$ _$ _$ _$ _$ _$ _$ _$ _$ _$ _$ S# {# z@ -@ m+ Q+ -+ $+ 0. y  `. u  N' N' _< f_ e_ d[ S< b_ 4a 5a 5a 5a 5a 5a ra n} {' g| R0 U9 U9 U9 U9 U9 U9 U9 U9 U9 p0 99 99 f0 ;9 ;9 sa *8 *8 *8 ta >6 >6 ga /+ =} =} =} =} =} =} =} =} =} >9 w7 w7 w7 w7 r7 s3 s3 s3 s3 s3 s3 ",
"e5 e5 e5 e5 e5 e5 e5 e5 e5 e5 e5 e5 e5 e5 e5 e5 e5 e5 e5 e5 e5 e5 e5 s3 s3 s3 &. t. t. t. t. [a !a !a !a !a !a !a !a !a !a !a ua y8 y8 y8 _3 z9 z9 z9 z9 z9 z9 va b_ c_ d_ e_ f_ g_ B! u  v  `. ++ 0. 0. #+ -+ P+ Q+ :# ;@ z@ {# S# _$ _$ _$ _$ _$ _$ _$ _$ _$ _$ _$ _$ _$ _$ E$ ,' 6% l% l% n% l% k% 2% Z$ m! B! B! B! B! B! B! B! /<  ! wa xa S9 F0 F0 F0 F0 F0 L0 G8 :% {~ :~ ;~ ;~ 2{ o0 R9 i+ {7 .9 N+ <$ &a ya L! K! K! K! ya ya L! _~ _~ _~ %a %a %a %a %a 3~ F0 F0 F0 F0 F0 za za za O0 O0 O0 O0 F0 F0 F0 E9 F0 F0 F0 F0 F0 F0 F0 F0 F0 F0 F0 F0 F0 F0 F0 F0 F0 F0 F0 F0 F0 F0 F0 F0 F0 F0 F0 F0 F0 F0 F0 F0 F0 F0 F0 F0 F0 F0 F0 F0 F0 F0 F0 F0 F0 F0 F0 F0 F0 F0 F0 F0 F0 F0 F0 F0 F0 F0 F0 F0 F0 F0 F0 F0 F0 F0 F0 F0 F0 F0 F0 F0 F0 F0 F0 F0 F0 F0 F0 F0 F0 F0 F0 F0 F0 F0 F0 F0 F0 F0 F0 F0 F0 F0 F0 F0 F0 F0 F0 F0 F0 F0 F0 F0 F0 F0 F0 F0 F0 F0 F0 F0 F0 F0 F0 F0 F0 F0 F0 F0 F0 F0 F0 F0 F0 F0 F0 F0 F0 F0 F0 F0 F0 F0 F0 F0 F0 F0 F0 F0 F0 F0 F0 F0 F0 F0 F0 F0 F0 F0 F0 F0 F0 F0 F0 F0 F0 F0 F0 F0 F0 F0 F0 F0 L0 L0 /~ {~ ;~ ,~ ;~ ;~ :~ :~ :~ :~ '~ k~ ,~ ;~ ;~ ;~ ;~ ,~ ,~ '~ b{ M0 F0 F0 F0 F0 F0 F0 F0 F0 F0 F0 F0 F0 F0 F0 F0 F0 F0 P9 K! S# i+ `) {7 {7 i+ 4! N0 O0 P9 F0 F0 F0 F0 F0 F0 F0 F0 F0 F0 F0 F0 F0 3~ ,' *6 wa {_ +{ l! B! B! B! B! /< Aa D; 3% j% l% n% l% _% D$ _$ _$ _$ _$ _$ _$ _$ _$ _$ _$ _$ _$ _$ _$ _$ _$ _$ _$ S# {# z@ -@ m+ Q+ -+ $+ 0. y  `. u  N' N' _< f_ e_ d[ S< b_ 4a 5a 5a 5a 5a 5a 5a 5a Ba {' {' Ca Da Ea Ea Fa U9 U9 U9 U9 na 99 99 Ga ;9 ;9 o7 *8 *8 *8 r9 >6 >6 ga J# =} =} =} =} =} =} =} =} Z# w7 w7 w7 w7 %# s3 s3 s3 s3 s3 s3 s3 ",
"e5 e5 e5 e5 e5 e5 e5 e5 e5 e5 e5 e5 e5 e5 e5 e5 e5 e5 e5 e5 e5 e5 h0 s3 s3 Ha t. t. t. t. t. Ia !a !a !a !a !a !a !a !a !a !a K@ y8 y8 y8 _3 z9 z9 z9 z9 z9 z9 Ja q[ c_ d_ e_ f_ g_ B! u  v  `. ++ 0. 0. #+ -+ P+ Q+ :# ;@ z@ {# S# _$ _$ _$ _$ _$ _$ _$ _$ _$ _$ _$ _$ _$ _$ H$ <% 6% l% o% o% n% l% 2% @% 0. B! B! B! B! B! B! B! /<  ! `} Ka 7{ F0 F0 F0 F0 F0 F0 (~ ]~ )~ ;~ ;~ ;~ 2{ o0 R9 i+ {7 .9 i+ f# La Ma Na Oa Oa Oa Oa Pa Pa Ma Ma Ma Qa Qa Qa Qa ]a Ra K! O! L! L! ya ya ya Sa ya ya ya ya _~ Ta _~ _~ %a F0 F0 F0 F0 F0 F0 F0 F0 F0 F0 F0 F0 F0 F0 F0 F0 F0 F0 F0 F0 F0 F0 F0 F0 F0 F0 F0 F0 F0 F0 F0 F0 F0 F0 F0 F0 F0 F0 F0 F0 F0 F0 F0 F0 F0 F0 F0 F0 F0 F0 F0 F0 F0 F0 F0 F0 F0 F0 F0 F0 F0 F0 F0 F0 F0 F0 F0 F0 F0 F0 F0 F0 F0 F0 F0 F0 F0 F0 F0 F0 F0 F0 F0 F0 F0 F0 F0 F0 F0 F0 F0 F0 F0 F0 F0 F0 F0 F0 F0 F0 F0 F0 F0 F0 F0 F0 F0 F0 F0 F0 F0 F0 F0 F0 F0 F0 F0 F0 F0 F0 F0 F0 F0 F0 F0 F0 F0 F0 F0 F0 F0 F0 F0 F0 F0 F0 F0 F0 F0 F0 F0 F0 F0 F0 F0 F0 F0 F0 F0 F0 F0 F0 F0 F0 F0 F0 F0 F0 F0 F0 F0 F0 F0 {a F0 ,' -$ '~ ;~ ;~ J8 J8 Ua Ua J8 J8 J8 Ua Ua Va Va Va J8 J8 80 Wa Xa Q! K! K! K! K! K! K! K! Q! Q! Q! Q! K! Q! Q! Q! Q! Q! T9 y# i+ {7 {7 {7 i+ 4! N0 O0 P9 F0 F0 F0 F0 F0 F0 F0 F0 F0 F0 F0 F0 F0 3~ <% N! Ya S' l! B! B! B! B! B! B! Za p' 3% k% n% n% l% |% F$ _$ _$ _$ _$ _$ _$ _$ _$ _$ _$ _$ _$ _$ _$ _$ _$ _$ _$ S# {# z@ -@ m+ Q+ -+ $+ 0. y  `. u  N' N' _< f_ e_ d[ S< Q' 4a 5a 5a 5a 5a 5a 5a 5a 5a Ba {' {' {' {' {' {' Fa U9 U9 U9 U9 *0 99 99 f0 ;9 o7 *8 *8 *8 r9 >6 >6 ga =} =} =} =} =} =} =} =} =} z% w7 w7 w7 w7 E, s3 s3 s3 s3 s3 s3 s3 ",
"e5 e5 e5 e5 e5 e5 e5 e5 e5 e5 e5 e5 e5 e5 e5 e5 e5 e5 e5 e5 e5 P6 s3 s3 s3 %# t. t. t. [a &| !a !a !a !a !a !a !a !a !a !a !a `a y8 y8 y8  b z9 z9 z9 z9 z9 z9 .b q[ c_ d_ e_ f_ g_ B! u  v  `. ++ 0. 0. #+ -+ P+ Q+ :# ;@ z@ {# S# _$ _$ _$ _$ _$ _$ _$ _$ _$ _$ _$ _$ _$ _$ -% }% 6% m% n% o% o% l% 6% (% 0. B! B! B! B! B! B! B! /<  ! `} Ka S9 F0 F0 F0 F0 F0 G8 s' l~ ;~ ;~ ;~ ;~ 2{ o0 R9 i+ {7 +b j+ ]_ @b #b $b $b $b $b $b %b %b %b $b $b &b &b &b %b &b &b *b =b =b =b =b =b =b -b ;b ;b Oa Oa Ma Ma >b ,b  9 %a F0 F0 F0 F0 F0 F0 F0 F0 F0 F0 F0 F0 F0 F0 F0 F0 F0 F0 F0 F0 F0 F0 F0 F0 F0 F0 F0 F0 F0 F0 F0 F0 F0 F0 F0 F0 F0 F0 F0 F0 F0 F0 F0 F0 F0 F0 F0 F0 F0 F0 F0 F0 F0 F0 F0 F0 F0 F0 F0 F0 F0 F0 F0 F0 F0 F0 F0 F0 F0 F0 F0 F0 F0 F0 F0 F0 F0 F0 F0 F0 F0 F0 F0 F0 F0 F0 F0 F0 F0 F0 F0 F0 F0 F0 F0 F0 F0 F0 F0 F0 F0 F0 F0 F0 F0 F0 F0 F0 F0 F0 F0 F0 F0 F0 F0 F0 F0 F0 F0 F0 F0 F0 F0 F0 F0 F0 F0 F0 F0 F0 F0 F0 F0 F0 F0 F0 F0 F0 F0 F0 F0 F0 F0 F0 F0 F0 F0 F0 F0 F0 F0 F0 F0 F0 F0 F0 F0 F0 F0 F0 F0 F0 {a F0 =% ~~ '~ ;~ 'b )b W  !b 6- 6- 6- ~b ~b ~b {b {b {b {b !b Ka {b Y$ La La La ,b ]b ]b ]b ]b ,b ,b ,b ,b ,b ,b ,b ,b ^b @b <$ y@ {7 {7 {7 {7 i+ 4! N0 O0 P9 F0 F0 F0 F0 F0 F0 F0 F0 F0 F0 F0 F0 F0 3~ <% /b (b A) l! B! B! B! B! B! B! _b B, 3% l% n% o% l% 3% H$ :$ _$ _$ _$ _$ _$ _$ _$ _$ _$ _$ _$ _$ _$ _$ _$ _$ _$ S# {# z@ -@ m+ Q+ -+ $+ 0. y  `. u  N' N' _< f_ e_ d[ S< Q' :b 5a 5a 5a 5a 5a 5a 5a 5a 5a Ba {' {' {' {' {' {' R0 U9 U9 U9 V9 99 99 Ga ;9 o7 *8 *8 *8 c9 >6 >6 ga =} =} =} =} =} =} =} =} n. w7 w7 w7 w7 )a s3 s3 s3 s3 s3 s3 s3 s3 ",
"e5 e5 e5 e5 e5 e5 e5 e5 e5 e5 e5 e5 e5 e5 e5 e5 e5 e5 e5 e5 e5 t} s3 s3 Ha t. t. t. ]6 <b !a !a !a !a !a !a !a !a !a !a !a !a !a y8 y8 [b }b z9 z9 z9 z9 z9 z9 P| q[ c_ d_ e_ f_ g_ B! u  v  `. ++ 0. 0. #+ -+ P+ Q+ :# ;@ z@ {# S# _$ _$ _$ _$ _$ _$ _$ _$ _$ _$ _$ _$ _$ _$ $% 1% k% n% o% o% o% l% j% v' |b B! B! B! B! B! B! B! /<  ! `} Ka 7{ F0 F0 F0 F0 F0 [% {~ :~ ;~ ;~ ;~ ;~ 2{ o0 R9 i+ {7 1b 2b 3b @b 4b $b $b $b $b $b $b $b $b $b $b $b $b 5b 6b $b 4b 4b $b 5b $b $b $b 7b 7b 7b 8b *b *b #b 9b 0b 4! ab %a P9 F0 F0 F0 F0 F0 F0 F0 F0 F0 F0 F0 F0 F0 F0 F0 F0 F0 F0 F0 F0 F0 F0 F0 F0 F0 F0 F0 F0 F0 F0 F0 F0 F0 F0 F0 F0 F0 F0 F0 F0 F0 F0 F0 F0 F0 F0 F0 F0 F0 F0 F0 F0 F0 F0 F0 F0 F0 F0 F0 F0 F0 F0 F0 F0 F0 F0 F0 F0 F0 F0 F0 F0 F0 F0 F0 F0 F0 F0 F0 F0 F0 F0 F0 F0 F0 F0 F0 F0 F0 F0 F0 F0 F0 F0 F0 F0 F0 F0 F0 F0 F0 F0 F0 F0 F0 F0 F0 F0 F0 F0 F0 F0 F0 F0 F0 F0 F0 F0 F0 F0 F0 F0 F0 F0 F0 F0 F0 F0 F0 F0 F0 F0 F0 F0 F0 F0 F0 F0 F0 F0 F0 F0 F0 F0 F0 F0 F0 F0 F0 F0 F0 F0 F0 F0 F0 F0 F0 F0 F0 F0 F0 {a F0 =% ~~ '~ ;~ 'b bb h~ y# 3b cb cb db eb eb fb fb fb fb fb fb fb 57 57 @b @b @b @b @b @b @b @b @b @b @b gb gb gb hb hb ib 0b jb kb `) {7 {7 i+ 4! N0 O0 P9 F0 F0 F0 F0 F0 F0 F0 F0 F0 F0 F0 F0 F0 3~ <% /b lb wa l! B! B! B! B! B! k) mb B, i% l% o% o% l% 6% -% _$ _$ _$ _$ _$ _$ _$ _$ _$ _$ _$ _$ _$ _$ _$ _$ _$ _$ S# {# z@ -@ m+ Q+ -+ $+ 0. y  `. u  N' N' _< f_ e_ d[ S< Q' nb ob ob ob ob pb qb 5a 5a 5a 5a {' {' {' {' {' {' rb U9 U9 U9 :a 99 99 sb ;9 $8 *8 *8 *8 V8 >6 >6 ga =} =} =} =} =} =} =} =} z% w7 w7 w7 w7 r7 s3 s3 s3 s3 s3 s3 s3 s3 ",
"e5 e5 e5 e5 e5 e5 e5 e5 e5 e5 e5 e5 e5 e5 e5 e5 e5 e5 e5 e5 T0 s3 s3 s3 tb t. t. t. &| !a !a !a !a !a !a !a !a !a !a !a !a !a !a 9a y8 ub vb z9 z9 z9 z9 z9 z9 wb q[ c_ d_ e_ f_ g_ B! u  v  `. ++ 0. 0. #+ -+ P+ Q+ :# ;@ z@ {# S# _$ _$ _$ _$ _$ _$ _$ _$ _$ _$ _$ _$ _$ T# (% 3% j% n% p% p% f- o% j% <% &+ B! B! B! B! B! B! B! /<  ! `} xb }% F0 F0 F0 F0 F0 v' !~ ;~ ;~ ;~ ;~ ;~ 2{ o0 R9 {7 i+ ~# yb zb hb eb hb hb hb hb hb hb hb hb hb hb hb hb eb eb eb hb hb hb eb hb hb Ab cb $b $b $b $b 6b Bb Cb N+ %+ E$ %a Db F0 F0 F0 F0 F0 F0 F0 F0 F0 F0 F0 F0 F0 F0 F0 F0 F0 F0 F0 F0 F0 F0 F0 F0 F0 F0 F0 F0 F0 F0 F0 F0 F0 F0 F0 F0 F0 F0 F0 F0 F0 F0 F0 F0 F0 F0 F0 F0 F0 F0 F0 F0 F0 F0 F0 F0 F0 F0 F0 F0 F0 F0 F0 F0 F0 F0 F0 F0 F0 F0 F0 F0 F0 F0 F0 F0 F0 F0 F0 F0 F0 F0 F0 F0 F0 F0 F0 F0 F0 F0 F0 F0 F0 F0 F0 F0 F0 F0 F0 F0 F0 F0 F0 F0 F0 F0 F0 F0 F0 F0 F0 F0 F0 F0 F0 F0 F0 F0 F0 F0 F0 F0 F0 F0 F0 F0 F0 F0 F0 F0 F0 F0 F0 F0 F0 F0 F0 F0 F0 F0 F0 F0 F0 F0 F0 F0 F0 F0 F0 F0 F0 F0 F0 F0 F0 F0 F0 F0 F0 F0 F0 {a F0 =% ~~ '~ ;~ 'b Eb &+ Fb 2b ib Gb $b $b $b $b $b $b $b $b $b %b $b cb cb cb cb cb cb cb cb cb cb cb cb Hb Hb Hb Hb 6b Hb ib Ib Jb i+ {7 {7 i+ R# N0 O0 P9 F0 F0 F0 F0 F0 F0 F0 F0 F0 F0 F0 F0 F0 3~ <% /b lb wa l! B! B! B! B! B! X. J6 p' 1% 98 j% k% 6% 6% $% _$ _$ _$ _$ _$ _$ _$ _$ _$ _$ _$ _$ _$ _$ _$ _$ _$ _$ S# {# z@ -@ m+ Q+ -+ $+ 0. y  `. u  N' N' _< f_ e_ d[ S< Q' Kb Lb Lb Lb Lb Lb Lb Lb ob 5a 5a Mb {' {' {' {' {' Nb U9 U9 U9 U9 99 99 99 >a *8 *8 *8 *8 r9 >6 >6 Ob =} =} =} =} =} =} =} n. w7 w7 w7 w7 w7 E, s3 s3 s3 s3 s3 s3 s3 s3 ",
"e5 e5 e5 e5 e5 e5 e5 e5 e5 e5 e5 e5 e5 e5 e5 e5 e5 e5 e5 P6 s3 s3 s3 s3 t. t. t. ha !a !a !a !a !a !a !a !a !a !a !a !a !a !a !a Pb ub vb vb z9 z9 z9 z9 z9 z9  & q[ c_ d_ e_ f_ g_ B! u  v  `. ++ 0. 0. #+ -+ P+ Q+ :# ;@ z@ {# S# _$ _$ _$ _$ _$ _$ _$ _$ _$ _$ _$ _$ _$ _$ _% .= o> j> k> Qb Rb K& o% |% Sb {} B! B! B! B! B! B! /<  ! `} xb [% F0 F0 F0 F0 F0 v' !~ ;~ ;~ ;~ ;~ ;~ ;~ Tb ;@ ~# 0b hb #b *b *b *b *b *b *b *b *b *b *b *b *b *b *b *b *b *b *b *b *b *b *b *b *b Ub %b Ub 7b $b Vb Wb Xb Yb .9 j+ E$ G8 Db F0 F0 F0 F0 F0 F0 F0 F0 F0 F0 F0 F0 F0 F0 F0 F0 F0 F0 F0 F0 F0 F0 F0 F0 F0 F0 F0 F0 F0 F0 F0 F0 F0 F0 F0 F0 F0 F0 F0 F0 F0 F0 F0 F0 F0 F0 F0 F0 F0 F0 F0 F0 F0 F0 F0 F0 F0 F0 F0 F0 F0 F0 F0 F0 F0 F0 F0 F0 F0 F0 F0 F0 F0 F0 F0 F0 F0 F0 F0 F0 F0 F0 F0 F0 F0 F0 F0 F0 F0 F0 F0 F0 F0 F0 F0 F0 F0 F0 F0 F0 F0 F0 F0 F0 F0 F0 F0 F0 F0 F0 F0 F0 F0 F0 F0 F0 F0 F0 F0 F0 F0 F0 F0 F0 F0 F0 F0 F0 F0 F0 F0 F0 F0 F0 F0 F0 F0 F0 F0 F0 F0 F0 F0 F0 F0 F0 F0 F0 F0 F0 F0 F0 F0 F0 F0 F0 F0 F0 F0 F0 F0 {a F0 =% ~~ '~ ;~ 'b Eb &+ Zb `b  c yb hb $b $b Hb Hb Hb cb 5b $b $b $b cb cb Hb Hb Hb Hb Hb Hb Hb Hb Hb Hb Hb Hb Hb Hb 6b Hb Hb hb Ib ~# j+ {7 0. :# N0 O0 P9 F0 F0 F0 F0 F0 F0 F0 F0 F0 F0 F0 F0 F0 3~ <% /b lb wa l! B! B! B! B! B! Z. J6 .c t, ~* +c +c ~* t& @c _$ _$ _$ _$ _$ _$ _$ _$ _$ _$ _$ _$ _$ _$ _$ _$ _$ _$ S# {# z@ -@ m+ Q+ -+ $+ 0. y  `. u  N' N' _< f_ e_ d[ S< Q' Kb Lb Lb Lb Lb Lb Lb Lb Lb Lb #c 5a ea {' {' {' {' Ca U9 U9 U9 U9 -a 99 99 $c *8 *8 *8 *8 %c >6 >6 &c =} =} =} =} =} =} =} T! w7 w7 w7 w7 w7 E, s3 s3 s3 s3 s3 s3 s3 s3 ",
"e5 e5 e5 e5 e5 e5 e5 e5 e5 e5 e5 e5 e5 e5 e5 e5 e5 e5 e5 s3 s3 s3 s3 Ha t. t. t. ha !a !a !a !a !a !a !a !a !a !a !a !a !a !a !a vb vb vb vb *c z9 z9 z9 z9 z9 l0 q[ c_ d_ e_ f_ g_ B! u  v  `. ++ 0. 0. #+ -+ P+ Q+ :# ;@ z@ {# S# _$ _$ _$ _$ _$ _$ _$ _$ _$ _$ _$ _$ _$ C$ [% >- %; K- K- L- =c @= u% <% h~ k) B! B! B! B! B! B! /<  ! `} 00 <% F0 F0 F0 F0 F0 f% ~~ ;~ ;~ ;~ ;~ ;~ <~ -c N0 ;c >c ,c 'c ,c ,c ,c ,c ,c ,c ,c ,c ,c ,c ,c ,c ,c ,c ,c ,c ,c ,c ,c ,c ,c ,c 'c )c !c ~c {c $b ib ]c ^c Yb y  .9 %+ E$ G8 Db F0 F0 F0 F0 F0 F0 F0 F0 F0 F0 F0 F0 F0 F0 F0 F0 F0 F0 F0 F0 F0 F0 F0 F0 F0 F0 F0 F0 F0 F0 F0 F0 F0 F0 F0 F0 F0 F0 F0 F0 F0 F0 F0 F0 F0 F0 F0 F0 F0 F0 F0 F0 F0 F0 F0 F0 F0 F0 F0 F0 F0 F0 F0 F0 F0 F0 F0 F0 F0 F0 F0 F0 F0 F0 F0 F0 F0 F0 F0 F0 F0 F0 F0 F0 F0 F0 F0 F0 F0 F0 F0 F0 F0 F0 F0 F0 F0 F0 F0 F0 F0 F0 F0 F0 F0 F0 F0 F0 F0 F0 F0 F0 F0 F0 F0 F0 F0 F0 F0 F0 F0 F0 F0 F0 F0 F0 F0 F0 F0 F0 F0 F0 F0 F0 F0 F0 F0 F0 F0 F0 F0 F0 F0 F0 F0 F0 F0 F0 F0 F0 F0 F0 F0 F0 F0 F0 F0 F0 F0 F0 F0 {a F0 =% ~~ '~ ;~ 'b Eb &+ `) .9 {7 65 0b zb gb Vb /c /c 9b 9b 9b 9b 9b 9b (c ib ib ib ib ib ib ib ib ib ib ib ib ib ib ib ib ib ib _c :c ~# i+ 0. :# <c F0 P9 F0 F0 F0 F0 F0 F0 F0 F0 F0 F0 F0 F0 F0 3~ <% /b lb wa l! B! B! B! B! B! Z. [c }c r> |c T> w= u= 7> 1c {# _$ _$ _$ _$ _$ _$ _$ _$ _$ _$ _$ _$ _$ _$ _$ _$ _$ S# {# z@ -@ m+ Q+ -+ $+ 0. y  `. u  N' N' _< f_ e_ d[ S< Q' Kb Lb Lb Lb Lb Lb Lb Lb Lb Lb Lb pb 5a {' {' {' {' R0 U9 U9 U9 U9 H9 99 99 99 *8 *8 *8 *8 >6 >6 >6 2c =} =} =} =} =} =} 3c w7 w7 w7 w7 w7 w7 x7 s3 s3 s3 s3 s3 s3 s3 s3 ",
"e5 e5 e5 e5 e5 e5 e5 e5 e5 e5 e5 e5 e5 e5 e5 e5 e5 e5 4c s3 s3 s3 s3 &. t. t. t. t. !a !a !a !a !a !a !a !a !a !a !a !a !a !a !a vb vb vb vb 5c z9 z9 z9 z9 z9 6c q[ c_ d_ e_ f_ g_ B! u  v  `. ++ 0. 0. #+ -+ P+ Q+ :# ;@ z@ {# S# _$ _$ _$ _$ _$ _$ _$ _$ _$ _$ _$ _$ _$ F$ [% 7c L- F- F- ;; 8c 9c u% |% i8 k) B! B! B! B! B! B! /<  ! `} Tb <% F0 F0 F0 F0 {a [% D8 :~ ;~ ;~ ;~ ;~  { 0c ac bc cc cc dc dc dc dc dc dc dc dc dc dc dc dc ec ec ec fc fc fc fc fc fc fc fc gc hc ic jc kc lc  c Yb .9 z  y  y  %+ E$ G8 Db F0 F0 F0 F0 F0 F0 F0 F0 F0 F0 F0 F0 F0 F0 F0 F0 F0 F0 F0 F0 F0 F0 F0 F0 F0 F0 F0 F0 F0 F0 F0 F0 F0 F0 F0 F0 F0 F0 F0 F0 F0 F0 F0 F0 F0 F0 F0 F0 F0 F0 F0 F0 F0 F0 F0 F0 F0 F0 F0 F0 F0 F0 F0 F0 F0 F0 F0 F0 F0 F0 F0 F0 F0 F0 F0 F0 F0 F0 F0 F0 F0 F0 F0 F0 F0 F0 F0 F0 F0 F0 F0 F0 F0 F0 F0 F0 F0 F0 F0 F0 F0 F0 F0 F0 F0 F0 F0 F0 F0 F0 F0 F0 F0 F0 F0 F0 F0 F0 F0 F0 F0 F0 F0 F0 F0 F0 F0 F0 F0 F0 F0 F0 F0 F0 F0 F0 F0 F0 F0 F0 F0 F0 F0 F0 F0 F0 F0 F0 F0 F0 F0 F0 F0 F0 F0 F0 F0 F0 F0 F0 F0 {a F0 *% ~~ '~ ;~ 'b Eb &+ {7 +b .9 z  j+ 4! gb mc nc oc pc pc pc pc pc pc pc qc qc qc rc rc sc sc sc sc rc rc tc tc uc uc uc tc tc tc vc @b ^_ !# S# wc F0 P9 F0 F0 F0 F0 F0 F0 F0 F0 F0 F0 F0 F0 F0 3~ <% /b lb wa l! B! B! B! B! /< xc yc zc >-  > B- B- !; Ac Bc -@ _$ _$ _$ _$ _$ _$ _$ _$ _$ _$ _$ _$ _$ _$ _$ _$ _$ S# {# z@ -@ m+ Q+ -+ $+ 0. y  `. u  N' N' _< f_ e_ d[ S< Q' Kb Lb Lb Lb Lb Lb Lb Lb Lb Lb Lb Lb 5a Cc {' {' Ca U9 U9 U9 U9 U9 b0 99 99 99 *8 *8 *8 Dc >6 >6 >6 n. =} =} =} =} =} F# w7 w7 w7 w7 w7 w7 w7 %# s3 s3 s3 s3 s3 s3 s3 s3 ",
"e5 e5 e5 e5 e5 e5 e5 e5 e5 e5 e5 e5 e5 e5 e5 e5 e5 4c s3 s3 s3 s3 s3 %# t. t. t. t. s9 !a !a !a !a !a !a !a !a !a !a !a !a !a Ec vb vb vb vb 5c z9 z9 z9 z9 z9 z9 q[ c_ d_ e_ f_ g_ B! u  v  `. ++ 0. 0. #+ -+ P+ Q+ :# ;@ z@ {# S# _$ _$ _$ _$ _$ _$ _$ _$ _$ _$ _$ _$ _$ /% }% 7c L- E- E- >; Fc Gc u% W% M; k) B! B! B! B! B! B! /<  ! Hc Ic _9 F0 F0 F0 F0 {a 7{ ^~ [~ ;~ ;~ ;~ ;~ Jc E! Kc Lc Mc Nc Nc Nc Nc Nc Nc Nc Nc Nc Nc Oc Oc Pc Qc Qc Rc Oc Oc Oc Oc Oc Oc Oc Oc Sc Tc Qc Uc Vc _$ Yb .9 y  {7 `) Zb j+ E$ G8 Db F0 F0 F0 F0 F0 F0 F0 F0 F0 F0 F0 F0 F0 F0 F0 F0 F0 F0 F0 F0 F0 F0 F0 F0 F0 F0 F0 F0 F0 F0 F0 F0 F0 F0 F0 F0 F0 F0 F0 F0 F0 F0 F0 F0 F0 F0 F0 F0 F0 F0 F0 F0 F0 F0 F0 F0 F0 F0 F0 F0 F0 F0 F0 F0 F0 F0 F0 F0 F0 F0 F0 F0 F0 F0 F0 F0 F0 F0 F0 F0 F0 F0 F0 F0 F0 F0 F0 F0 F0 F0 F0 F0 F0 F0 F0 F0 F0 F0 F0 F0 F0 F0 F0 F0 F0 F0 F0 F0 F0 F0 F0 F0 F0 F0 F0 F0 F0 F0 F0 F0 F0 F0 F0 F0 F0 F0 F0 F0 F0 F0 F0 F0 F0 F0 F0 F0 F0 F0 F0 F0 F0 F0 F0 F0 F0 F0 F0 F0 F0 F0 F0 F0 F0 F0 F0 F0 F0 F0 F0 F0 F0 {a F0 =% ~~ '~ ;~ 'b Eb &+ {7 {7 {7 {7 9. #+ tc Wc Xc Yc Zc `c `c `c `c `c `c `c `c `c `c `c `c `c  d  d  d  d  d  d  d  d  d  d  d .d +d @d Qa ]b Qa F0 K0 K0 P9 F0 F0 F0 F0 F0 F0 F0 F0 F0 F0 F0 F0 3~ <% /b lb wa l! B! B! B! B! /< Aa e+ #d $d E- F- F- C- :- _* %d :$ _$ _$ _$ _$ _$ _$ _$ _$ _$ _$ _$ _$ _$ _$ _$ _$ S# {# z@ -@ m+ Q+ -+ $+ 0. y  `. u  N' N' _< f_ e_ d[ S< Q' Kb Lb Lb Lb Lb Lb Lb Lb Lb Lb Lb Lb #c 5a {' {' *a U9 U9 U9 U9 U9 U9 z0 99 99 u2 *8 *8 W8 >6 >6 &d =} =} =} =} =} +# w7 w7 w7 w7 w7 w7 w7 w7 w7 s3 s3 s3 s3 s3 s3 s3 s3 ",
"e5 e5 e5 e5 e5 e5 e5 e5 e5 e5 e5 e5 e5 e5 e5 e5 4c s3 s3 s3 s3 s3 s3 x7 t. t. t. t. t. s9 !a !a !a !a !a !a !a !a !a !a !a !a %| vb vb vb vb 5c z9 z9 z9 z9 z9 z9 q[ c_ d_ e_ f_ g_ B! u  v  `. ++ 0. 0. #+ -+ P+ Q+ :# ;@ z@ {# S# _$ _$ _$ _$ _$ _$ _$ _$ _$ _$ _$ _$ _$ -% g% 7c K- E- E- E- *d =d A, 2% -d k) B! B! B! B! B! B! /<  ! Hc 00 _9 l9 l9 l9 l9 l9 3~ =% ~~ ;~ ;~ ;~ ;~  { ~~ ;d >d ,d 'd 'd 'd 'd 'd 'd )d )d )d )d !d !d ~d ~d {d ]d ^d ^d ^d ^d ^d ^d ^d ^d /d (d _d :d <d <$ Yb z  {7 {7 `) .9 j+ E$ G8 [d F0 F0 F0 F0 F0 F0 F0 F0 F0 F0 F0 F0 F0 F0 F0 F0 F0 F0 F0 F0 F0 F0 F0 F0 F0 F0 F0 F0 F0 F0 F0 F0 F0 F0 F0 F0 F0 F0 F0 F0 F0 F0 F0 F0 F0 F0 F0 F0 F0 F0 F0 F0 F0 F0 F0 F0 F0 F0 F0 F0 F0 F0 F0 F0 F0 F0 F0 F0 F0 F0 F0 F0 F0 F0 F0 F0 F0 F0 F0 F0 F0 F0 F0 F0 F0 F0 F0 F0 F0 F0 F0 F0 F0 F0 F0 F0 F0 F0 F0 F0 F0 F0 F0 F0 F0 F0 F0 F0 F0 F0 F0 F0 F0 F0 F0 F0 F0 F0 F0 F0 F0 F0 F0 F0 F0 F0 F0 F0 F0 F0 F0 F0 F0 F0 F0 F0 F0 F0 F0 F0 F0 F0 F0 F0 F0 F0 F0 F0 F0 F0 F0 F0 F0 F0 F0 F0 F0 F0 F0 F0 F0 {a F0 :% ~~ '~ ;~ 'b Eb &+ {7 {7 {7 0. }d |d 1d 2d 3d 4d 5d Qc Qc Qc Qc Qc Qc Qc Qc Qc Qc Rc Rc Rc Rc Rc Rc Rc Rc Rc Rc Rc Rc Rc Rc Oc Lc 6d {8 {a 67 m0 U~ 7d P9 F0 F0 F0 F0 F0 F0 F0 F0 F0 F0 F0 F0 3~ <% /b lb wa l! B! B! B! B! B! Za X' 5* 8d E- E- E- C- 9d <* 7@ :$ _$ _$ _$ _$ _$ _$ _$ _$ _$ _$ _$ _$ _$ _$ _$ _$ S# {# z@ -@ m+ Q+ -+ $+ 0. y  `. u  N' N' _< f_ e_ d[ S< Q' Kb Lb Lb Lb Lb Lb Lb Lb Lb Lb Lb Lb 0d 5a ea {' ad U9 U9 U9 U9 U9 U9 -a 99 99 '6 *8 =8 >6 >6 >6 e: =} =} =} =} +# w7 w7 w7 w7 w7 w7 w7 w7 w7 w7 bd s3 s3 s3 s3 s3 s3 s3 ",
"e5 e5 e5 e5 e5 e5 e5 e5 e5 e5 e5 e5 e5 e5 e5 4c s3 s3 s3 s3 s3 s3 s3 s3 tb t. t. t. t. t. ha !a !a !a !a !a !a !a !a !a !a !a -, vb vb vb vb 5c z9 z9 z9 z9 z9 z9 q[ c_ d_ e_ f_ g_ B! u  v  `. ++ 0. 0. #+ -+ P+ Q+ :# ;@ z@ {# S# _$ _$ _$ _$ _$ _$ _$ _$ _$ _$ _$ _$ _$  % 1% cd K- E- E- E- *d =d v% 2% A' k) B! B! B! B! B! B! /<  ! Hc 00 v' l9 l9 l9 l9 l9 P! }% {~ '~ ;~ ;~ ;~ ;~ :~ dd 6~ ed ed ed ed ed ed fd fd fd fd gd hd id jd e, D! kd ld md md nd nd nd nd nd md od md @d l9 <$ i+ {7 {7 {7 y  .9 j+ pd 3~ 7d l9 l9 l9 l9 l9 l9 l9 l9 l9 l9 l9 l9 l9 l9 l9 l9 l9 l9 l9 l9 l9 l9 l9 l9 l9 l9 l9 l9 l9 l9 l9 l9 l9 l9 l9 l9 l9 l9 l9 l9 l9 l9 l9 l9 l9 l9 l9 l9 l9 l9 l9 l9 l9 l9 l9 l9 l9 l9 l9 l9 l9 l9 l9 l9 l9 l9 l9 l9 l9 l9 l9 l9 l9 l9 l9 l9 l9 l9 l9 l9 l9 l9 l9 l9 l9 l9 l9 l9 l9 l9 l9 l9 l9 l9 l9 l9 l9 l9 l9 l9 l9 l9 l9 l9 l9 l9 l9 l9 l9 l9 l9 l9 l9 l9 l9 l9 l9 l9 l9 l9 l9 l9 l9 l9 l9 l9 l9 l9 l9 l9 l9 l9 l9 l9 l9 l9 l9 l9 l9 l9 l9 l9 l9 l9 l9 l9 l9 l9 l9 l9 l9 l9 l9 l9 l9 l9 l9 l9 l9 l9 l9 P! l9 <% D8 :~ ;~ 'b Eb &+ {7 {7 {7 {7 }d {7 {8 qd rd 3d sd td td td td td td td td td td td td td td td td td td td td td td td ud td vd wd xd yd zd {8 m0 Ad Bd l9 l9 l9 l9 l9 l9 l9 l9 l9 l9 l9 l9 Cd Dd D8 lb wa l! B! B! B! B! B! Za Ed Fd )- E- E- E- B- {; <* 8@ _$ _$ _$ _$ _$ _$ _$ _$ _$ _$ _$ _$ _$ _$ _$ _$ _$ S# {# z@ -@ m+ Q+ -+ $+ 0. y  `. u  N' N' _< f_ e_ d[ S< Q' Kb Lb Lb Lb Lb Lb Lb Lb Lb Lb Lb Lb Lb 5a B+ {' Gd U9 U9 U9 U9 U9 U9 V9 99 99 F@ *8 o8 >6 >6 >6 s$ =} =} =} n. w7 w7 w7 w7 w7 w7 w7 w7 w7 w7 w7 w7 s3 s3 s3 s3 s3 s3 s3 ",
"P6 e5 e5 e5 e5 e5 e5 e5 e5 e5 e5 e5 e5 P6 s3 s3 s3 s3 s3 s3 s3 s3 s3 s3 s3 %# t. t. t. t. t. ]6 !a !a !a !a !a !a !a !a !a !a Hd vb vb vb vb Id z9 z9 z9 z9 z9 z9 q[ c_ d_ e_ f_ g_ B! u  v  `. ++ 0. 0. #+ -+ P+ Q+ :# ;@ z@ {# S# _$ _$ _$ _$ _$ _$ _$ _$ _$ _$ _$ _$ _$ $% 1% cd K- E- E- E- *d =d v% 2% n' 8. B! B! B! B! B! B! /<  ! Hc 00 v' l9 l9 l9 l9 l9 P! Jd 6{ [~ ;~ ;~ ;~ ;~ ;~  { Kd Kd Kd Kd Kd Kd Ld Ld Md  { $9 ~~ a{ t' [% Jd P9 ({ Nd Od Od Od Od Od Od Od Od Pd U~ U~ ya S# #+ {7 {7 {7 y  .9 j+ pd Qd 7d l9 l9 l9 l9 l9 l9 l9 l9 l9 l9 l9 l9 l9 l9 l9 l9 l9 l9 l9 l9 l9 l9 l9 l9 l9 l9 l9 l9 l9 l9 l9 l9 l9 l9 l9 l9 l9 l9 l9 l9 l9 l9 l9 l9 l9 l9 l9 l9 l9 l9 l9 l9 l9 l9 l9 l9 l9 l9 l9 l9 l9 l9 l9 l9 l9 l9 l9 l9 l9 l9 l9 l9 l9 l9 l9 l9 l9 l9 l9 l9 l9 l9 l9 l9 l9 l9 l9 l9 l9 l9 l9 l9 l9 l9 l9 l9 l9 l9 l9 l9 l9 l9 l9 l9 l9 l9 l9 l9 l9 l9 l9 l9 l9 l9 l9 l9 l9 l9 l9 l9 l9 l9 l9 l9 l9 l9 l9 l9 l9 l9 l9 l9 l9 l9 l9 l9 l9 l9 l9 l9 l9 l9 l9 l9 l9 l9 l9 l9 l9 l9 l9 l9 l9 l9 l9 l9 l9 l9 l9 l9 l9 P! l9 <% D8 :~ ;~ 'b Eb &+ {7 {7 {7 {7 Rd {7 ]a Sd Td Ud Vd Wd Wd Wd Wd Wd Wd Wd Wd Wd Wd Wd Wd Wd Wd Wd Wd Wd Wd Wd Wd Wd Wd Wd Vd Xd wd Yd m0 yd m0 m0 m0 Ad Bd l9 l9 l9 l9 l9 l9 l9 l9 l9 l9 l9 l9 Cd Dd D8 lb wa l! B! B! B! B! B! Zd `d #d 8d 3; E- E-  e P= A* {# _$ _$ _$ _$ _$ _$ _$ _$ _$ _$ _$ _$ _$ _$ _$ _$ _$ S# {# z@ -@ m+ Q+ -+ $+ 0. y  `. u  N' N' _< f_ e_ d[ S< Q' Kb Lb Lb Lb Lb Lb Lb Lb Lb Lb Lb Lb Lb pb 5a {' Ca U9 U9 U9 U9 U9 U9 b0 99 99 *8 *8 W8 >6 >6 >6 .e =} =} =} +# w7 w7 w7 w7 w7 w7 w7 w7 w7 w7 w7 w7 r7 s3 s3 s3 s3 s3 s3 ",
"s3 s3 t} T0 e5 e5 e5 e5 e5 e5 e5 e5 T0 s3 s3 s3 s3 s3 s3 s3 s3 s3 s3 s3 s3 E, t. t. t. t. t. t. ]6 !a !a !a !a !a !a !a !a !a }b vb vb vb vb +e z9 z9 z9 z9 z9 l0 q[ c_ d_ e_ f_ g_ B! u  v  `. ++ 0. 0. #+ -+ P+ Q+ :# ;@ z@ {# S# _$ _$ _$ _$ _$ _$ _$ _$ _$ _$ _$ _$ _$ &% @e #e J- y; y; E- $e =d v% i% %e Z. B! B! B! B! B! B! /<  ! Hc 00 v' l9 l9 l9 l9 l9 P9 8{ C' l~ ;~ ;~ ;~ ;~ ;~ ;~ >~ >~ &e &e &e *e >~ )~ 5{ =e |% /a -e 7d ({ n0 m0 m0 U~ U~ U~ U~ U~ U~ U~ U~ U~ m0 ;e m0 %a :$ #+ {7 {7 {7 y  .9 j+ pd Qd yd l9 l9 l9 l9 l9 l9 l9 l9 l9 l9 l9 l9 l9 l9 l9 l9 l9 l9 l9 l9 l9 l9 l9 l9 l9 l9 l9 l9 l9 l9 l9 l9 l9 l9 l9 l9 l9 l9 l9 l9 l9 l9 l9 l9 l9 l9 l9 l9 l9 l9 l9 l9 l9 l9 l9 l9 l9 l9 l9 l9 l9 l9 l9 l9 l9 l9 l9 l9 l9 l9 l9 l9 l9 l9 l9 l9 l9 l9 l9 l9 l9 l9 l9 l9 l9 l9 l9 l9 l9 l9 l9 l9 l9 l9 l9 l9 l9 l9 l9 l9 l9 l9 l9 l9 l9 l9 l9 l9 l9 l9 l9 l9 l9 l9 l9 l9 l9 l9 l9 l9 l9 l9 l9 l9 l9 l9 l9 l9 l9 l9 l9 l9 l9 l9 l9 l9 l9 l9 l9 l9 l9 l9 l9 l9 l9 l9 l9 l9 l9 l9 l9 l9 l9 l9 l9 l9 l9 l9 l9 l9 l9 P! l9 <% D8 k~ ;~ 'b Eb &+ {7 {7 {7 {7 >e +b _$ P! B9 ,e 'e 'e 'e 'e 'e 'e 'e 'e 'e 'e 'e 'e 'e 'e 'e 'e 'e 'e 'e 'e 'e 'e 'e 'e 'e B9 )e xd m0 m0 m0 m0 m0 Ad Bd l9 l9 l9 l9 l9 l9 l9 l9 l9 l9 l9 l9 Cd Dd D8 lb wa l! B! B! B! B! k) _b Ed Fd !e 3; E- y; B- P= A* J$ E$ _$ _$ _$ _$ _$ _$ _$ _$ _$ _$ _$ _$ _$ _$ _$ _$ S# {# z@ -@ m+ Q+ -+ $+ 0. y  `. u  N' N' _< f_ e_ d[ S< Q' Kb Lb Lb Lb Lb Lb Lb Lb Lb Lb Lb Lb Lb 0d 5a ea `0 U9 U9 U9 U9 U9 U9 U9 99 99 *8 *8 >6 >6 >6 >6 |< =} =} =} s9 w7 w7 w7 w7 w7 w7 w7 w7 w7 w7 w7 w7 ~e s3 s3 s3 s3 s3 s3 ",
"s3 s3 s3 s3 s3 t} T0 P6 e5 e5 e5 t} s3 s3 s3 s3 s3 s3 s3 s3 s3 s3 s3 s3 s3 s3 tb t. t. t. t. t. t. {e !a !a !a !a !a !a !a J, vb vb vb vb vb +e z9 z9 z9 z9 z9 ]e {_ c_ d_ e_ f_ g_ B! u  v  `. ++ 0. 0. #+ -+ P+ Q+ :# ;@ z@ {# S# _$ _$ _$ _$ _$ _$ _$ _$ _$ _$ _$ _$ _$ =% 6% #e J- y; y; E- $e =d v% 6% ^e Za B! B! B! B! B! B! /<  ! Hc /e (e Cd l9 l9 l9 l9 l9 S9 ^~ )~ ;~ ;~ ;~ ;~ ;~ ;~ ;~ ,~ >~ ;~ <{ _e :e w' h, <e U~ m0 {8 {8 m0 m0 m0 m0 m0 m0 m0 m0 m0 m0 m0 m0 m0 m0 [e ;e %a :$ #+ {7 {7 {7 y  .9 j+ pd Qd yd l9 l9 l9 l9 l9 l9 l9 l9 l9 l9 l9 l9 l9 l9 l9 l9 l9 l9 l9 l9 l9 l9 l9 l9 l9 l9 l9 l9 l9 l9 l9 l9 l9 l9 l9 l9 l9 l9 l9 l9 l9 l9 l9 l9 l9 l9 l9 l9 l9 l9 l9 l9 l9 l9 l9 l9 l9 l9 l9 l9 l9 l9 l9 l9 l9 l9 l9 l9 l9 l9 l9 l9 l9 l9 l9 l9 l9 l9 l9 l9 l9 l9 l9 l9 l9 l9 l9 l9 l9 l9 l9 l9 l9 l9 l9 l9 l9 l9 l9 l9 l9 l9 l9 l9 l9 l9 l9 l9 l9 l9 l9 l9 l9 l9 l9 l9 l9 l9 l9 l9 l9 l9 l9 l9 l9 l9 l9 l9 l9 l9 l9 l9 l9 l9 l9 l9 l9 l9 l9 l9 l9 l9 l9 l9 l9 l9 l9 l9 l9 l9 l9 l9 l9 l9 l9 l9 l9 l9 l9 l9 l9 P! l9 <% D8 k~ ;~ 'b Eb &+ {7 {7 {7 {7 >e Zb y# Q! K0 7d P! P! P! P! P! P! P! P! P! P! P! P! P! P! P! P! P! P! P! P! P! P! P! P! P! P9 7d U~ }e m0 m0 m0 m0 Ad Bd l9 l9 l9 l9 l9 l9 l9 l9 l9 l9 l9 l9 Cd Dd D8 lb wa l! B! B! B! B! k) mb Ed Fd 8d 3; y; y;  > P= A* Q) F$ _$ _$ _$ _$ _$ _$ _$ _$ _$ _$ _$ _$ _$ _$ _$ _$ S# {# z@ -@ m+ Q+ -+ $+ 0. y  `. u  N' N' _< f_ e_ d[ S< Q' Kb Lb Lb Lb Lb Lb Lb Lb Lb Lb Lb Lb Lb Lb 5a Mb {' R0 U9 U9 U9 U9 U9 U9 99 |e *8 V8 >6 >6 >6 >6 {! =} =} Z# )a %# w7 w7 w7 w7 w7 w7 w7 w7 w7 w7 w7 x7 s3 s3 s3 s3 s3 s3 ",
"s3 s3 s3 s3 s3 s3 s3 s3 s3 t} s3 s3 s3 s3 s3 s3 s3 s3 s3 s3 s3 s3 s3 s3 s3 s3 G1 t. t. t. t. t. t. ha !a !a !a !a !a !a !a 1e vb vb vb vb vb +e z9 z9 z9 z9 z9 ]e {_ c_ d_ e_ f_ g_ B! u  v  `. ++ 0. 0. #+ -+ P+ Q+ :# ;@ z@ {# S# _$ _$ _$ _$ _$ _$ _$ _$ _$ _$ _$ _$ E$ ,' 6% #e '> D- D- D- 2e 3e q, 6% ^e mb k) B! B! B! B! B! /<  ! Hc /e 0{ Cd l9 l9 l9 l9 (0 <% {~ :~ ;~ ;~ ;~ ;~ ;~ ;~ ;~ :~ 4{ 5{ 4e h% 5e Ad m0 6e 6e m0 m0 m0 m0 m0 m0 m0 m0 m0 m0 m0 m0 m0 m0 m0 m0 m0 [e ;e %a :$ #+ {7 {7 {7 y  .9 j+ pd Qd yd l9 l9 l9 l9 l9 l9 l9 l9 l9 l9 l9 l9 l9 l9 l9 l9 l9 l9 l9 l9 l9 l9 l9 l9 l9 l9 l9 l9 l9 l9 l9 l9 l9 l9 l9 l9 l9 l9 l9 l9 l9 l9 l9 l9 l9 l9 l9 l9 l9 l9 l9 l9 l9 l9 l9 l9 l9 l9 l9 l9 l9 l9 l9 l9 l9 l9 l9 l9 l9 l9 l9 l9 l9 l9 l9 l9 l9 l9 l9 l9 l9 l9 l9 l9 l9 l9 l9 l9 l9 l9 l9 l9 l9 l9 l9 l9 l9 l9 l9 l9 l9 l9 l9 l9 l9 l9 l9 l9 l9 l9 l9 l9 l9 l9 l9 l9 l9 l9 l9 l9 l9 l9 l9 l9 l9 l9 l9 l9 l9 l9 l9 l9 l9 l9 l9 l9 l9 l9 l9 l9 l9 l9 l9 l9 l9 l9 l9 l9 l9 l9 l9 l9 l9 l9 l9 l9 l9 l9 l9 l9 l9 P! P9 7{ {~ '~ ;~ 'b Eb &+ {7 {7 {7 {7 >e `) f# _~ U~ }e ({ ({ ({ ({ ({ ({ ({ ({ ({ ({ ({ ({ ({ ({ ({ ({ ({ ({ ({ ({ ({ ({ ({ ({ ({ ({ U~ m0 m0 m0 m0 m0 m0 Ad Bd l9 l9 l9 l9 l9 l9 l9 l9 l9 l9 l9 l9 Cd Dd D8 lb wa l! B! B! B! B! Y. 7e Z' Fd 8d 3; D- D- A- :- A* ^; H$ _$ _$ _$ _$ _$ _$ _$ _$ _$ _$ _$ _$ _$ _$ _$ _$ S# {# z@ -@ m+ Q+ -+ $+ 0. y  `. u  N' N' _< f_ e_ d[ S< Q' Kb Lb Lb Lb Lb Lb Lb Lb Lb Lb Lb Lb Lb Lb ob 5a n} ma U9 U9 U9 U9 U9 b0 99 8e *8 *8 >6 >6 >6 >6 =} =} =} 9e i[ i[ Ha w7 w7 w7 w7 w7 w7 w7 w7 w7 %# s3 s3 s3 s3 s3 s3 s3 ",
"s3 s3 s3 s3 s3 s3 s3 s3 s3 s3 s3 s3 s3 s3 s3 s3 s3 s3 s3 s3 s3 s3 s3 s3 s3 s3 t. t. t. t. t. t. t. s9 !a !a !a !a !a !a !a Hd vb vb vb vb vb 0e z9 z9 z9 z9 z9  & {_ c_ d_ e_ f_ g_ B! u  v  `. ++ 0. 0. #+ -+ P+ Q+ :# ;@ z@ {# S# _$ _$ _$ _$ _$ _$ _$ _$ _$ _$ _$ _$ F$ <% 6% ae '> D- D- D- be g- ** 6% ce de k) B! B! B! B! B! /<  ! Hc /e 0{ Cd l9 l9 l9 l9 Jd t' l~ ;~ ;~ ;~ ;~ ;~ ;~ ;~ )~ a{ w' Jd Bd U~ 67 {8 m0 m0 m0 m0 m0 m0 m0 m0 m0 m0 m0 m0 m0 m0 m0 m0 m0 m0 m0 m0 [e ;e %a :$ #+ {7 {7 {7 y  .9 j+ pd Qd yd l9 l9 l9 l9 l9 l9 l9 l9 l9 l9 l9 l9 l9 l9 l9 l9 l9 l9 l9 l9 l9 l9 l9 l9 l9 l9 l9 l9 l9 l9 l9 l9 l9 l9 l9 l9 l9 l9 l9 l9 l9 l9 l9 l9 l9 l9 l9 l9 l9 l9 l9 l9 l9 l9 l9 l9 l9 l9 l9 l9 l9 l9 l9 l9 l9 l9 l9 l9 l9 l9 l9 l9 l9 l9 l9 l9 l9 l9 l9 l9 l9 l9 l9 l9 l9 l9 l9 l9 l9 l9 l9 l9 l9 l9 l9 l9 l9 l9 l9 l9 l9 l9 l9 l9 l9 l9 l9 l9 l9 l9 l9 l9 l9 l9 l9 l9 l9 l9 l9 l9 l9 l9 l9 l9 l9 l9 l9 l9 l9 l9 l9 l9 l9 l9 l9 l9 l9 l9 l9 l9 l9 l9 l9 l9 l9 l9 l9 l9 l9 l9 l9 l9 l9 l9 l9 l9 l9 l9 l9 l9 l9 l9 ee f{ ]~ :~ ;~ 'b Eb &+ {7 {7 {7 {7 >e `) f# _~ m0 [e m0 m0 m0 m0 m0 m0 m0 m0 m0 m0 m0 m0 m0 m0 m0 m0 m0 m0 m0 m0 m0 m0 m0 m0 m0 m0 m0 m0 m0 m0 m0 m0 m0 Ad Bd l9 l9 l9 l9 l9 l9 l9 l9 l9 l9 l9 l9 Cd Dd D8 lb wa l! B! B! B! B! Y. 7e x@ Fd 8d C- D- D- A- :- <* ~' /% S# _$ _$ _$ _$ _$ _$ _$ _$ _$ _$ _$ _$ _$ _$ _$ S# {# z@ -@ m+ Q+ -+ $+ 0. y  `. u  N' N' _< f_ e_ d[ S< Q' Kb Lb Lb Lb Lb Lb Lb Lb Lb Lb Lb Lb Lb Lb Lb 5a B+ Ca U9 U9 U9 U9 U9 *0 99 fe *8 *8 ge >6 >6 &d =} =} Z& i[ i[ i[ i[ r7 w7 w7 w7 w7 w7 w7 w7 w7 E, s3 s3 s3 s3 s3 s3 s3 ",
"s3 s3 s3 s3 s3 s3 s3 s3 s3 s3 s3 s3 s3 s3 s3 s3 s3 s3 s3 s3 s3 s3 s3 s3 s3 s3 t. t. t. t. t. t. t. -0 !a !a !a !a !a !a %| he vb vb vb vb vb ie z9 z9 z9 z9 z9 je q[ c_ d_ e_ f_ g_ B! u  v  `. ++ 0. 0. #+ -+ P+ Q+ :# ;@ z@ {# S# _$ _$ _$ _$ _$ _$ _$ _$ _$ _$ _$ _$ /% <% 6% ae '> 3; 3; 3; ke g- I% 6% ce d% k) B! B! B! B! B! /<  ! Hc /e 0{ Cd l9 l9 l9 P9 Jd 6{ [~ ;~ ;~ ;~ ;~ ;~ >~ ;~ b{ h% 7d m0 m0 m0 {8 m0 m0 m0 m0 m0 m0 m0 m0 m0 m0 m0 m0 m0 m0 m0 m0 m0 m0 m0 m0 m0 [e ;e %a :$ #+ {7 {7 {7 y  .9 j+ pd Qd yd l9 l9 l9 l9 l9 l9 l9 l9 l9 l9 l9 l9 l9 l9 l9 l9 l9 l9 l9 l9 l9 l9 l9 l9 l9 l9 l9 l9 l9 l9 l9 l9 l9 l9 l9 l9 l9 l9 l9 l9 l9 l9 l9 l9 l9 l9 l9 l9 l9 l9 l9 l9 l9 l9 l9 l9 l9 l9 l9 l9 l9 l9 l9 l9 l9 l9 l9 l9 l9 l9 l9 l9 l9 l9 l9 l9 l9 l9 l9 l9 l9 l9 l9 l9 l9 l9 l9 l9 l9 l9 l9 l9 l9 l9 l9 l9 l9 l9 l9 l9 l9 l9 l9 l9 l9 l9 l9 l9 l9 l9 l9 l9 l9 l9 l9 l9 l9 l9 l9 l9 l9 l9 l9 l9 l9 l9 l9 l9 l9 l9 l9 l9 l9 l9 l9 l9 l9 l9 l9 l9 l9 l9 l9 l9 l9 l9 l9 l9 l9 l9 l9 l9 l9 l9 l9 l9 l9 l9 l9 l9 l9 l9 ee 79 ]~ :~ ;~ 'b Eb &+ {7 {7 {7 {7 .9 Zb R# :% Od 6e 6e m0 m0 m0 m0 m0 m0 m0 m0 m0 m0 m0 m0 m0 m0 m0 m0 m0 m0 m0 m0 m0 m0 m0 m0 m0 m0 m0 m0 m0 m0 m0 m0 Ad Bd l9 l9 l9 l9 l9 l9 l9 l9 l9 l9 l9 l9 Cd Dd D8 lb wa l! B! B! B! B! Z. c$ x@ #d '- B- D- 3; A- :- le %%  % B# _$ _$ _$ _$ _$ _$ _$ _$ _$ _$ _$ _$ _$ _$ _$ S# {# z@ -@ m+ Q+ -+ $+ 0. y  `. u  N' N' _< f_ e_ d[ S< Q' Kb Lb Lb Lb Lb Lb Lb Lb Lb Lb Lb Lb Lb Lb Lb ob 5a n} U9 U9 U9 U9 H9 99 99 '6 *8 *8 &8 ,a >6 e: =} =} r7 i[ i[ i[ i[ i[ w7 w7 w7 w7 w7 w7 w7 w7 s3 s3 s3 s3 s3 s3 s3 s3 ",
"s3 s3 s3 s3 s3 s3 s3 s3 s3 s3 s3 s3 s3 s3 s3 s3 s3 s3 s3 s3 s3 s3 s3 s3 s3 s3 tb t. t. t. t. t. ha !a !a !a !a !a !a %| me ne vb vb vb vb vb oe z9 z9 z9 z9 z9 pe q[ c_ d_ e_ f_ g_ B! u  v  `. ++ 0. 0. #+ -+ P+ Q+ :# ;@ z@ {# S# _$ _$ _$ _$ _$ _$ _$ _$ _$ _$ _$ _$  % [% k% ae `; 3; 3; 3; qe g- I% j% ce d% k) B! B! B! B! B! /<  ! Hc /e %0 Cd l9 l9 l9 l9 Jd 0{ [~ ;~ ;~ ;~ ;~ ,~ ;~ c{ re 7d m0 6e m0 m0 m0 m0 m0 m0 m0 m0 m0 m0 m0 m0 m0 m0 m0 m0 m0 m0 m0 m0 m0 m0 m0 m0 [e ;e %a :$ #+ {7 {7 {7 y  .9 j+ pd Qd yd l9 l9 l9 l9 l9 l9 l9 l9 l9 l9 l9 l9 l9 l9 l9 l9 l9 l9 l9 l9 l9 l9 l9 l9 l9 l9 l9 l9 l9 l9 l9 l9 l9 l9 l9 l9 l9 l9 l9 l9 l9 l9 l9 l9 l9 l9 l9 l9 l9 l9 l9 l9 l9 l9 l9 l9 l9 l9 l9 l9 l9 l9 l9 l9 l9 l9 l9 l9 l9 l9 l9 l9 l9 l9 l9 l9 l9 l9 l9 l9 l9 l9 l9 l9 l9 l9 l9 l9 l9 l9 l9 l9 l9 l9 l9 l9 l9 l9 l9 l9 l9 l9 l9 l9 l9 l9 l9 l9 l9 l9 l9 l9 l9 l9 l9 l9 l9 l9 l9 l9 l9 l9 l9 l9 l9 l9 l9 l9 l9 l9 l9 l9 l9 l9 l9 l9 l9 l9 l9 l9 l9 l9 l9 l9 l9 l9 l9 l9 l9 l9 l9 l9 l9 l9 l9 l9 l9 l9 l9 l9 l9 l9 ee 9{ ^~ :~ ;~ 'b Eb &+ {7 {7 {7 {7 +b +b se M! P, -e U~ U~ m0 m0 m0 m0 m0 m0 m0 m0 m0 m0 m0 m0 m0 m0 m0 m0 m0 m0 m0 m0 m0 m0 m0 m0 m0 m0 m0 m0 m0 m0 m0 Ad Bd l9 l9 l9 l9 l9 l9 l9 l9 l9 l9 l9 l9 Cd Dd D8 lb wa l! B! B! B! B! `] M8 [c #d '- B- 3; 3; z- :- 6= s' $% _$ _$ _$ _$ _$ _$ _$ _$ _$ _$ _$ _$ _$ _$ _$ _$ S# {# z@ -@ m+ Q+ -+ $+ 0. y  `. u  N' N' _< f_ e_ d[ S< Q' Kb Lb Lb Lb Lb Lb Lb Lb te Lb Lb Lb Lb Lb Lb Lb qb Mb U9 U9 U9 U9 *0 99 ue *8 *8 *8 *8 g@ >6 ve =} =} 05 i[ i[ i[ i[ i[ &. w7 w7 w7 w7 w7 w7 ~e s3 s3 s3 s3 s3 s3 s3 s3 ",
"s3 s3 s3 s3 s3 s3 s3 s3 s3 s3 s3 s3 s3 s3 s3 s3 s3 s3 s3 s3 s3 s3 s3 s3 s3 s3 G1 t. t. t. t. t. -0 !a !a !a !a !a %| me we me vb vb vb vb vb vb z9 z9 z9 z9 z9 xe q[ c_ d_ e_ f_ g_ B! u  v  `. ++ 0. 0. #+ -+ P+ Q+ :# ;@ z@ {# S# _$ _$ _$ _$ _$ _$ _$ _$ _$ _$ _$ _$ $% [% k% ye I- C- C- 3; qe 3e V& l% 7- xa X. B! B! B! B! B! /<  ! Hc &0 0{ (0 l9 l9 l9 l9 (0 v' ~~ ;~ ;~ ;~ ;~ ;~ B~ 88 7d m0 m0 m0 m0 m0 m0 m0 m0 m0 m0 m0 m0 m0 m0 m0 m0 m0 m0 m0 m0 m0 m0 m0 m0 m0 m0 m0 [e ;e %a :$ #+ {7 {7 {7 y  .9 j+ pd Qd yd l9 l9 l9 l9 l9 l9 l9 l9 l9 l9 l9 l9 l9 l9 l9 l9 l9 l9 l9 l9 l9 l9 l9 l9 l9 l9 l9 l9 l9 l9 l9 l9 l9 l9 l9 l9 l9 l9 l9 l9 l9 l9 l9 l9 l9 l9 l9 l9 l9 l9 l9 l9 l9 l9 l9 l9 l9 l9 l9 l9 l9 l9 l9 l9 l9 l9 l9 l9 l9 l9 l9 l9 l9 l9 l9 l9 l9 l9 l9 l9 l9 l9 l9 l9 l9 l9 l9 l9 l9 l9 l9 l9 l9 l9 l9 l9 l9 l9 l9 l9 l9 l9 l9 l9 l9 l9 l9 l9 l9 l9 l9 l9 l9 l9 l9 l9 l9 l9 l9 l9 l9 l9 l9 l9 l9 l9 l9 l9 l9 l9 l9 l9 l9 l9 l9 l9 l9 l9 l9 l9 l9 l9 l9 l9 l9 l9 l9 l9 l9 l9 l9 l9 l9 l9 l9 l9 l9 l9 l9 l9 l9 l9 P! Qd X, :~ ;~ 'b Eb &+ {7 {7 {7 {7 +b +b 7e ze B~ Ae P, 5e U~ m0 m0 m0 m0 m0 m0 m0 m0 m0 m0 m0 m0 m0 m0 m0 m0 m0 m0 m0 m0 m0 m0 m0 m0 m0 m0 m0 m0 m0 m0 Ad Bd l9 l9 l9 l9 l9 l9 l9 l9 l9 l9 l9 l9 Cd Dd D8 lb wa l! B! B! B! /< `] X$ [c #d Be B- 3; 3; z- :- A* *% $% _$ _$ _$ _$ _$ _$ _$ _$ _$ _$ _$ _$ _$ _$ _$ _$ S# {# z@ -@ m+ Q+ -+ $+ 0. y  `. u  N' N' _< f_ e_ d[ S< Q' Kb Lb Lb Lb Lb Lb Lb te Ce Ce Lb Lb Lb Lb Lb Lb 0d 5a %3 U9 U9 b0 99 99 De N6 *8 *8 *8 *8 %c .e =} =} i[ i[ i[ i[ i[ i[ 9e w7 w7 w7 w7 w7 w7 &. s3 s3 s3 s3 s3 s3 s3 s3 ",
"s3 s3 s3 s3 s3 s3 s3 s3 s3 s3 s3 s3 s3 s3 s3 s3 s3 s3 s3 s3 s3 s3 s3 s3 s3 s3 G1 t. t. t. t. {e !a !a !a !a Ee Fe me we we we he vb vb vb vb vb qa z9 z9 z9 z9 Ge q[ c_ d_ e_ f_ g_ B! u  v  `. ++ 0. 0. #+ -+ P+ Q+ :# ;@ z@ {# S# _$ _$ _$ _$ _$ _$ _$ _$ _$ _$ _$ _$ (% |% l% ye I- C- B- 3; qe 3e h& l% H! He `] B! B! B! B! B! /<  ! Hc &0 C' (0 l9 l9 l9 l9 l9 [% {~ '~ ;~ ;~ ;~ k9 [8 Bd m0 m0 m0 m0 m0 m0 m0 m0 m0 m0 m0 m0 m0 m0 m0 m0 m0 m0 m0 m0 m0 m0 m0 m0 m0 m0 m0 m0 [e ;e %a :$ #+ {7 {7 {7 y  .9 j+ pd Qd yd l9 l9 l9 l9 l9 l9 l9 l9 l9 l9 l9 l9 l9 l9 l9 l9 l9 l9 l9 l9 l9 l9 l9 l9 l9 l9 l9 l9 l9 l9 l9 l9 l9 l9 l9 l9 l9 l9 l9 l9 l9 l9 l9 l9 l9 l9 l9 l9 l9 l9 l9 l9 l9 l9 l9 l9 l9 l9 l9 l9 l9 l9 l9 l9 l9 l9 l9 l9 l9 l9 l9 l9 l9 l9 l9 l9 l9 l9 l9 l9 l9 l9 l9 l9 l9 l9 l9 l9 l9 l9 l9 l9 l9 l9 l9 l9 l9 l9 l9 l9 l9 l9 l9 l9 l9 l9 l9 l9 l9 l9 l9 l9 l9 l9 l9 l9 l9 l9 l9 l9 l9 l9 l9 l9 l9 l9 l9 l9 l9 l9 l9 l9 l9 l9 l9 l9 l9 l9 l9 l9 l9 l9 l9 l9 l9 l9 l9 l9 l9 l9 l9 l9 l9 l9 l9 l9 l9 l9 l9 l9 l9 l9 P! l9 t' )~ ;~ 'b Eb &+ {7 {7 {7 {7 +b +b Ie Je >~ ;~ B~ Ke Bd m0 m0 m0 m0 m0 m0 m0 m0 m0 m0 m0 m0 m0 m0 m0 m0 m0 m0 m0 m0 m0 m0 m0 m0 m0 m0 m0 m0 m0 m0 Ad Bd l9 l9 l9 l9 l9 l9 l9 l9 l9 l9 l9 l9 Cd |% D8 lb wa l! B! B! B! /< Aa d% Le Fd Be  > C- C- z- :- A* v' (% _$ _$ _$ _$ _$ _$ _$ _$ _$ _$ _$ _$ _$ _$ _$ _$ S# {# z@ -@ m+ Q+ -+ $+ 0. y  `. u  N' N' _< f_ e_ d[ S< Q' Kb Lb Lb Lb Lb te Ce Ce Ce Ce Ce Me Lb Lb Lb Lb Lb #c 5a Ne U9 b0 99 99 Oe {1 *8 *8 *8 *8 &8 t. =} =} E, i[ i[ i[ i[ i[ i[ w7 w7 w7 w7 w7 w7 &. s3 s3 s3 s3 s3 s3 s3 s3 ",
"s3 s3 s3 s3 s3 s3 s3 s3 s3 s3 s3 s3 s3 s3 s3 s3 s3 s3 s3 s3 s3 s3 s3 s3 s3 s3 %# t. t. t. ha !a !a !a Pe Qe Re Se we we we we E' vb vb vb vb vb Te z9 z9 z9 z9 Ue q[ c_ d_ e_ f_ g_ B! u  v  `. ++ 0. 0. #+ -+ P+ Q+ :# ;@ z@ {# S# _$ _$ _$ _$ _$ _$ _$ _$ _$ _$ _$ C$ *% 2% l% Ve I- B- B- 3; qe 3e K% l% H! xa Aa B! B! B! B! B! /<  ! Hc &0 6{ (0 l9 l9 l9 l9 P! 8{ @> )~ ;~ >~ :~ b8 h, $0 m0 m0 m0 m0 m0 m0 m0 m0 m0 m0 m0 m0 m0 m0 m0 m0 m0 m0 m0 m0 m0 m0 m0 m0 m0 m0 m0 m0 [e ;e %a :$ #+ {7 {7 {7 y  .9 j+ pd Qd yd l9 l9 l9 l9 l9 l9 l9 l9 l9 l9 l9 l9 l9 l9 l9 l9 l9 l9 l9 l9 l9 l9 l9 l9 l9 l9 l9 l9 l9 l9 l9 l9 l9 l9 l9 l9 l9 l9 l9 l9 l9 l9 l9 l9 l9 l9 l9 l9 l9 l9 l9 l9 l9 l9 l9 l9 l9 l9 l9 l9 l9 l9 l9 l9 l9 l9 l9 l9 l9 l9 l9 l9 l9 l9 l9 l9 l9 l9 l9 l9 l9 l9 l9 l9 l9 l9 l9 l9 l9 l9 l9 l9 l9 l9 l9 l9 l9 l9 l9 l9 l9 l9 l9 l9 l9 l9 l9 l9 l9 l9 l9 l9 l9 l9 l9 l9 l9 l9 l9 l9 l9 l9 l9 l9 l9 l9 l9 l9 l9 l9 l9 l9 l9 l9 l9 l9 l9 l9 l9 l9 l9 l9 l9 l9 l9 l9 l9 l9 l9 l9 l9 l9 l9 l9 l9 l9 l9 l9 l9 l9 l9 l9 K0 l9 t' [~ ;~ 'b Eb &+ {7 {7 {7 {7 +b |d c$ L8 >~ >~ ;~ a{ We {8 {8 m0 m0 m0 m0 m0 m0 m0 m0 m0 m0 m0 m0 m0 m0 m0 m0 m0 m0 m0 m0 m0 m0 m0 m0 m0 m0 m0 m0 Ad Bd l9 l9 l9 l9 l9 l9 l9 l9 l9 l9 l9 l9 l9 |% D8 (b wa l! B! B! B! /< Aa bb z{ Fd Be  > C- 3; z- :- [* v' _% E$ _$ _$ _$ _$ _$ _$ _$ _$ _$ _$ _$ _$ _$ _$ _$ S# {# z@ -@ m+ Q+ -+ $+ 0. y  `. u  N' N' _< f_ e_ d[ S< Q' Kb Lb Lb Me Ce Ce Ce Ce Ce Ce Ce Ce Ce te Lb Lb Lb Lb qb 5a Xe b0 99 99 Ye Ze *8 *8 *8 *8 *8 m# =} =} &. i[ i[ i[ i[ i[ i[ &. w7 w7 >9 w7 w7 `e s3 s3 s3 s3 s3 s3 s3 s3 ",
"s3 s3 s3 s3 s3 s3 s3 s3 s3 s3 s3 s3 s3 s3 s3 s3 s3 s3 s3 s3 s3 s3 s3 s3 s3 x7 t. t. t. ]6 !a !a W+  f Re Re Re .f we we we +f @f @f @f @f #f vb $f %f z9 z9 z9 Pe q[ c_ d_ e_ f_ g_ B! u  v  `. ++ 0. 0. #+ -+ P+ Q+ :# ;@ z@ {# S# _$ _$ _$ _$ _$ _$ _$ _$ _$ _$ _$ E$ =% 2% l% Ve H- B- B- B- &f 3e K% m% H! *f Za k) B! B! B! B! /<  ! Hc &0 6{ (0 P9 P9 P9 P9 Db F0 u' C~ ;~ ;~ B~ |% yd m0 m0 m0 m0 m0 m0 m0 m0 m0 m0 m0 m0 m0 m0 m0 m0 m0 m0 m0 m0 m0 m0 m0 m0 m0 m0 m0 m0 m0 [e ;e %a :$ #+ {7 {7 {7 y  .9 j+ ab E9 ({ P9 P9 P9 P9 P9 P9 P9 P9 P9 P9 P9 P9 P9 P9 P9 P9 P9 P9 P9 P9 P9 P9 P9 P9 P9 P9 P9 P9 P9 P9 P9 P9 P9 P9 P9 P9 P9 P9 P9 P9 P9 P9 P9 P9 P9 P9 P9 P9 P9 P9 P9 P9 P9 P9 P9 P9 P9 P9 P9 P9 P9 P9 P9 P9 P9 P9 P9 P9 P9 P9 P9 P9 P9 P9 P9 P9 P9 P9 P9 P9 P9 P9 P9 P9 P9 P9 P9 P9 P9 P9 P9 P9 P9 P9 P9 P9 P9 P9 P9 P9 P9 P9 P9 P9 P9 P9 P9 P9 P9 P9 P9 P9 P9 P9 P9 P9 P9 P9 P9 P9 P9 P9 P9 P9 P9 P9 P9 P9 P9 P9 P9 P9 P9 P9 P9 P9 P9 P9 P9 P9 P9 P9 P9 P9 P9 P9 P9 P9 P9 P9 P9 P9 P9 P9 P9 P9 P9 P9 P9 P9 P9 P9 K0 2a t' [~ ;~ 'b Eb &+ {7 {7 {7 {7 +b |d c$ L8 }{ ,~ :~ 69 h, 6e {8 m0 m0 m0 m0 m0 m0 m0 m0 m0 m0 m0 m0 m0 m0 m0 m0 m0 m0 m0 m0 m0 m0 m0 m0 m0 m0 m0 m0 U~ 7d P9 P9 P9 P9 P9 P9 P9 P9 P9 P9 P9 P9 P9 g% {~ (b wa l! B! B! B! /< Ed =f z{ Fd Be  > B- B- !; :- [* =% :% E$ _$ _$ _$ _$ _$ _$ _$ _$ _$ _$ _$ _$ _$ _$ _$ S# {# z@ -@ m+ Q+ -+ $+ 0. y  `. u  N' N' _< f_ e_ d[ S< Q' Kb Lb Lb Ce Ce Ce Ce Ce Ce Ce Ce Ce Ce Ce Ce Lb Lb Lb c) 5a 5a Xe 99 sb -f ;f *8 *8 *8 *8 *8 Y  =} =} Z& i[ i[ i[ i[ i[ i[ 05 w7 w7 'a >f z% )a s3 s3 s3 s3 s3 s3 s3 s3 ",
"s3 s3 s3 s3 s3 s3 s3 s3 s3 s3 s3 s3 s3 s3 s3 s3 s3 s3 s3 s3 s3 s3 s3 s3 G1 t. t. t. [a <b w+  f Re Re Re p. ,f me we 'f )f @f @f @f @f !f ~f vb $f $f {f z9 z9 ]f q[ c_ d_ e_ f_ g_ B! u  v  `. ++ 0. 0. #+ -+ P+ Q+ :# ;@ z@ {# S# _$ _$ _$ _$ _$ _$ _$ _$ _$ _$ _$ E$ v' 2% l% @- H- B- B- B- &f 3e K% n% H! *f _b k) B! B! B! B! /<  ! Hc &0 6{ ^f P9 P9 P9 P9 P9 P9 7{ ]~ )~ B~ Ke -e m0 m0 m0 m0 m0 m0 m0 m0 m0 m0 m0 m0 m0 m0 m0 m0 m0 m0 m0 m0 m0 m0 m0 m0 m0 m0 m0 m0 m0 m0 [e ;e %a :$ #+ {7 {7 {7 y  .9 j+ ab E9 ({ P9 P9 P9 P9 P9 P9 P9 P9 P9 P9 P9 P9 P9 P9 P9 P9 P9 P9 P9 P9 P9 P9 P9 P9 P9 P9 P9 P9 P9 P9 P9 P9 P9 P9 P9 P9 P9 P9 P9 P9 P9 P9 P9 P9 P9 P9 P9 P9 P9 P9 P9 P9 P9 P9 P9 P9 P9 P9 P9 P9 P9 P9 P9 P9 P9 P9 P9 P9 P9 P9 P9 P9 P9 P9 P9 P9 P9 P9 P9 P9 P9 P9 P9 P9 P9 P9 P9 P9 P9 P9 P9 P9 P9 P9 P9 P9 P9 P9 P9 P9 P9 P9 P9 P9 P9 P9 P9 P9 P9 P9 P9 P9 P9 P9 P9 P9 P9 P9 P9 P9 P9 P9 P9 P9 P9 P9 P9 P9 P9 P9 P9 P9 P9 P9 P9 P9 P9 P9 P9 P9 P9 P9 P9 P9 P9 P9 P9 P9 P9 P9 P9 P9 P9 P9 P9 P9 P9 P9 P9 P9 P9 P9 K0 2a t' [~ ;~ 'b Eb &+ {7 {7 {7 {7 +b |d c$ L8 }{ <~ )~ t' Bd 6e {8 m0 m0 m0 m0 m0 m0 m0 m0 m0 m0 m0 m0 m0 m0 m0 m0 m0 m0 m0 m0 m0 m0 m0 m0 m0 m0 m0 m0 U~ 7d P9 P9 P9 P9 P9 P9 P9 P9 P9 P9 P9 P9 P9 g% {~ (b wa l! B! B! B! B! Za xa v# Fd >-  > B- B- h- :- [* =% ,' G$ _$ _$ _$ _$ _$ _$ _$ _$ _$ _$ _$ _$ _$ _$ _$ S# {# z@ -@ m+ Q+ -+ $+ 0. y  `. u  N' N' _< f_ e_ d[ S< Q' Kb Lb Lb te Ce Ce Ce Ce Ce Ce Ce Ce Ce Ce Ce te Lb Lb Lb ob 5a 5a 99 ue -f /f *8 *8 *8 *8 *8 =} =} =} =} i[ i[ i[ i[ i[ i[ i[ r7 w7 w7 >f  f r} s3 s3 s3 s3 s3 s3 s3 s3 ",
"s3 s3 s3 s3 s3 s3 s3 s3 s3 s3 s3 s3 s3 s3 s3 s3 s3 s3 s3 s3 s3 s3 E, %# t. t. t. ha (f p. Re Re Re Re _f $# t. :f <f [f @f @f @f }f |f 1f 2f vb $f $f 3f z9 z9 ]f {_ c_ d_ e_ f_ g_ B! u  v  `. ++ 0. 0. #+ -+ P+ Q+ :# ;@ z@ {# S# _$ _$ _$ _$ _$ _$ _$ _$ _$ _$ _$ E$ =% 2% l% {- H- B- B- B- &f 3e K% n% H! W  _b k) B! B! B! B! /<  ! Hc &0 6{ ^f P9 P9 P9 P9 P9 K0 F0 [% u' 4f -e m0 m0 m0 m0 m0 m0 m0 m0 m0 m0 m0 m0 m0 m0 m0 m0 m0 m0 m0 m0 m0 m0 m0 m0 m0 m0 m0 m0 m0 m0 m0 [e ;e %a :$ #+ {7 {7 {7 y  .9 j+ ab E9 ({ P9 P9 P9 P9 P9 P9 P9 P9 P9 P9 P9 P9 P9 P9 P9 P9 P9 P9 P9 P9 P9 P9 P9 P9 P9 P9 P9 P9 P9 P9 P9 P9 P9 P9 P9 P9 P9 P9 P9 P9 P9 P9 P9 P9 P9 P9 P9 P9 P9 P9 P9 P9 P9 P9 P9 P9 P9 P9 P9 P9 P9 P9 P9 P9 P9 P9 P9 P9 P9 P9 P9 P9 P9 P9 P9 P9 P9 P9 P9 P9 P9 P9 P9 P9 P9 P9 P9 P9 P9 P9 P9 P9 P9 P9 P9 P9 P9 P9 P9 P9 P9 P9 P9 P9 P9 P9 P9 P9 P9 P9 P9 P9 P9 P9 P9 P9 P9 P9 P9 P9 P9 P9 P9 P9 P9 P9 P9 P9 P9 P9 P9 P9 P9 P9 P9 P9 P9 P9 P9 P9 P9 P9 P9 P9 P9 P9 P9 P9 P9 P9 P9 P9 P9 P9 P9 P9 P9 P9 P9 P9 P9 P9 K0 2a t' [~ ;~ 'b Eb &+ {7 {7 {7 {7 +b |d c$ L8 1{ >~ l~ B; yd {8 {8 m0 m0 m0 m0 m0 m0 m0 m0 m0 m0 m0 m0 m0 m0 m0 m0 m0 m0 m0 m0 m0 m0 m0 m0 m0 m0 m0 m0 U~ 7d P9 P9 P9 P9 P9 P9 P9 P9 P9 P9 P9 P9 P9 g% {~ (b wa l! B! B! B! B! Zd =f v# Fd >- z- B- B- h- 5f [* f% [% H$ _$ _$ _$ _$ _$ _$ _$ _$ _$ _$ _$ _$ _$ _$ _$ S# {# z@ -@ m+ Q+ %+ m! g~ y  `. u  N' N' _< f_ e_ d[ S< Q' Kb Lb Me Ce Ce Ce Ce Ce Ce Ce Ce Ce Ce Ce Ce Ce Lb Lb Lb Lb qb 5a 99 ue -f -f *8 *8 *8 *8 *8 =} =} =} =} m# i[ i[ i[ i[ i[ i[ i[ )a w7 n.  f  f {! s3 s3 s3 s3 s3 s3 s3 ",
"s3 s3 s3 s3 s3 s3 s3 s3 s3 s3 s3 s3 s3 s3 s3 s3 s3 s3 s3 s3 s3 &. t. t. t. t. 6f p. Re Re Re Re 7f 8f t. t. t. T! @f @f [f |f 9f P4 P4 0f 2f vb $f $f $f z9 z9 ]f {_ c_ d_ e_ f_ g_ B! u  v  `. ++ 0. 0. #+ -+ P+ Q+ :# ;@ z@ {# S# _$ _$ _$ _$ _$ _$ _$ _$ _$ _$ _$ G$ =% 2% af {- 6; 4; 4;  > &f g- 5& o% @> W  mb k) B! B! B! B! /<  ! Hc &0 6{ ^f P9 P9 P9 P9 P9 P9 P9 P9 P9 Nd m0 m0 m0 m0 m0 m0 m0 m0 m0 m0 m0 m0 m0 m0 m0 m0 m0 m0 m0 m0 m0 m0 m0 m0 m0 m0 m0 m0 m0 m0 m0 m0 [e ;e %a :$ #+ {7 {7 {7 y  .9 j+ ab E9 ({ P9 P9 P9 P9 P9 P9 P9 P9 P9 P9 P9 P9 P9 P9 P9 P9 P9 P9 P9 P9 P9 P9 P9 P9 P9 P9 P9 P9 P9 P9 P9 P9 P9 P9 P9 P9 P9 P9 P9 P9 P9 P9 P9 P9 P9 P9 P9 P9 P9 P9 P9 P9 P9 P9 P9 P9 P9 P9 P9 P9 P9 P9 P9 P9 P9 P9 P9 P9 P9 P9 P9 P9 P9 P9 P9 P9 P9 P9 P9 P9 P9 P9 P9 P9 P9 P9 P9 P9 P9 P9 P9 P9 P9 P9 P9 P9 P9 P9 P9 P9 P9 P9 P9 P9 P9 P9 P9 P9 P9 P9 P9 P9 P9 P9 P9 P9 P9 P9 P9 P9 P9 P9 P9 P9 P9 P9 P9 P9 P9 P9 P9 P9 P9 P9 P9 P9 P9 P9 P9 P9 P9 P9 P9 P9 P9 P9 P9 P9 P9 P9 P9 P9 P9 P9 P9 P9 P9 P9 P9 P9 P9 P9 K0 2a u' [~ ;~ 'b Eb &+ {7 {7 {7 {7 +b |d c$ L8 1{ 1{ {~ Jd n0 {8 m0 m0 m0 m0 m0 m0 m0 m0 m0 m0 m0 m0 m0 m0 m0 m0 m0 m0 m0 m0 m0 m0 m0 m0 m0 m0 m0 m0 m0 U~ 7d P9 P9 P9 P9 P9 P9 P9 P9 P9 P9 P9 P9 P9 g% {~ (b wa l! B! B! B! B! _b xa bf 7* >- z- 4; 4; h- :- [* f% }% /% _$ _$ _$ _$ _$ _$ _$ _$ _$ _$ _$ _$ _$ _$ _$ S# {# z@ -@ m+ P+ cf $@ b| Z. `. u  N' N' _< f_ e_ d[ S< Q' df Ce Ce Ce Ce Ce Ce Ce Ce Ce Ce Ce Ce Ce Ce Ce te Lb Lb Lb Lb ef 99 sb ff gf *8 *8 *8 *8 *8 'a =} =} =} n. 05 i[ i[ i[ i[ i[ i[ 05 w7 w7 hf  f *{ s3 s3 s3 s3 s3 s3 s3 ",
"s3 s3 s3 s3 s3 s3 s3 s3 s3 s3 s3 s3 s3 s3 s3 s3 s3 s3 s3 Ha t. t. t. t. |< `& Re Re Re if _+ |< t. t. t. t. t. t. @f jf kf P4 P4 P4 P4 lf 2f mf $f $f $f nf z9 Pe Q' c_ d_ e_ f_ g_ B! u  v  `. ++ 0. 0. #+ -+ P+ Q+ :# ;@ z@ {# S# _$ _$ _$ _$ _$ _$ _$ _$ _$ _$ _$ /% :% 2% o% {- 6; A- A-  > &f g- M% o% ^~ W  7e k) B! B! B! B! /<  ! Hc &0 6{ (0 P9 P9 P9 P9 P9 P9 P9 K0 of 6e m0 m0 m0 m0 m0 m0 m0 m0 m0 m0 m0 m0 m0 m0 m0 m0 m0 m0 m0 m0 m0 m0 m0 m0 m0 m0 m0 m0 m0 m0 m0 m0 [e ;e %a :$ #+ {7 {7 {7 y  .9 j+ ab E9 ({ P9 P9 P9 P9 P9 P9 P9 P9 P9 P9 P9 P9 P9 P9 P9 P9 P9 P9 P9 P9 P9 P9 P9 P9 P9 P9 P9 P9 P9 P9 P9 P9 P9 P9 P9 P9 P9 P9 P9 P9 P9 P9 P9 P9 P9 P9 P9 P9 P9 P9 P9 P9 P9 P9 P9 P9 P9 P9 P9 P9 P9 P9 P9 P9 P9 P9 P9 P9 P9 P9 P9 P9 P9 P9 P9 P9 P9 P9 P9 P9 P9 P9 P9 P9 P9 P9 P9 P9 P9 P9 P9 P9 P9 P9 P9 P9 P9 P9 P9 P9 P9 P9 P9 P9 P9 P9 P9 P9 P9 P9 P9 P9 P9 P9 P9 P9 P9 P9 P9 P9 P9 P9 P9 P9 P9 P9 P9 P9 P9 P9 P9 P9 P9 P9 P9 P9 P9 P9 P9 P9 P9 P9 P9 P9 P9 P9 P9 P9 P9 P9 P9 P9 P9 P9 P9 P9 P9 P9 P9 P9 P9 P9 K0 2a u' )~ ;~ 'b Eb &+ {7 {7 {7 {7 +b |d c$ L8 }{ <{ 6{ We 6e {8 m0 m0 m0 m0 m0 m0 m0 m0 m0 m0 m0 m0 m0 m0 m0 m0 m0 m0 m0 m0 m0 m0 m0 m0 m0 m0 m0 m0 m0 U~ 7d P9 P9 P9 P9 P9 P9 P9 P9 P9 P9 P9 P9 P9 pf 7% (b wa l! B! B! B! k) mb xa qf Fd >- z- 4; A- h- 5f [* <% |% Z$ :$ _$ _$ _$ _$ _$ _$ _$ _$ _$ _$ _$ _$ _$ _$ S# {# z@ -@ m+ Q  rf |. 1. U. Y. u  N' N' _< f_ e_ d[ S< Q' sf Ce Ce Ce Ce Ce Ce Ce Ce Ce Ce Ce Ce Ce Ce Ce Ce Lb Lb Lb Lb *a 99 99 99 99 *8 *8 *8 *8 *8 :1 h$ [# =} =} E) i[ i[ i[ i[ i[ i[ i[ r7 w7 r}  f  f {! s3 s3 s3 s3 s3 s3 ",
"x7 s3 s3 s3 s3 s3 s3 s3 s3 s3 s3 s3 s3 s3 s3 s3 s3 s3 s3 t. t. t. t. t. t. |< 8f |< t. t. t. t. t. t. t. t. t. t. }f P4 P4 P4 P4 P4 P4 P4 tf uf vf $f $f wf z9 xf Q' c_ d_ e_ f_ g_ B! u  v  `. ++ 0. 0. #+ -+ P+ Q+ :# ;@ z@ {# S# _$ _$ _$ _$ _$ _$ _$ _$ _$ _$ _$ Z$ f% 5% yf {- ;; A- A-  > $d g- M% p% ^~ W  J6 k) B! B! B! B! /<  ! Hc &0 6{ (0 P9 P9 P9 P9 P9 P9 P9 7d U~ m0 m0 m0 m0 m0 m0 m0 m0 m0 m0 m0 m0 m0 m0 m0 m0 m0 m0 m0 m0 m0 m0 m0 m0 m0 m0 m0 m0 m0 m0 m0 m0 m0 [e ;e %a :$ #+ {7 {7 {7 y  .9 j+ ab E9 ({ P9 P9 P9 P9 P9 P9 P9 P9 P9 P9 P9 P9 P9 P9 P9 P9 P9 P9 P9 P9 P9 P9 P9 P9 P9 P9 P9 P9 P9 P9 P9 P9 P9 P9 P9 P9 P9 P9 P9 P9 P9 P9 P9 P9 P9 P9 P9 P9 P9 P9 P9 P9 P9 P9 P9 P9 P9 P9 P9 P9 P9 P9 P9 P9 P9 P9 P9 P9 P9 P9 P9 P9 P9 P9 P9 P9 P9 P9 P9 P9 P9 P9 P9 P9 P9 P9 P9 P9 P9 P9 P9 P9 P9 P9 P9 P9 P9 P9 P9 P9 P9 P9 P9 P9 P9 P9 P9 P9 P9 P9 P9 P9 P9 P9 P9 P9 P9 P9 P9 P9 P9 P9 P9 P9 P9 P9 P9 P9 P9 P9 P9 P9 P9 P9 P9 P9 P9 P9 P9 P9 P9 P9 P9 P9 P9 P9 P9 P9 P9 P9 P9 P9 P9 P9 P9 P9 P9 P9 P9 P9 P9 P9 K0 P9 t' )~ ;~ 'b Eb &+ {7 {7 {7 {7 +b |d c$ L8 1{ 4{ w' zf Af {8 m0 m0 m0 m0 m0 m0 m0 m0 m0 m0 m0 m0 m0 m0 m0 m0 m0 m0 m0 m0 m0 m0 m0 m0 m0 m0 m0 m0 m0 U~ 7d P9 P9 P9 P9 P9 P9 P9 P9 P9 P9 P9 P9 P9 pf 7% (b wa l! B! B! B! k) mb He 7e Fd >- z- A- A- h- 5f [* <% 2% -% :$ _$ _$ _$ _$ _$ _$ _$ _$ _$ _$ _$ _$ _$ _$ S# {# z@ -@ m+ Q  Bf |. 1. M. W. v  N' N' _< f_ e_ d[ S< Q' sf Ce Ce Ce Ce Ce Ce Ce Ce Ce Ce Ce Ce Ce Ce Ce Ce Me Lb Lb Cf 99 99 99 99 99 *8 *8 *8 *8 *8 n8 Df Df h$ ]6 =} &. i[ i[ i[ i[ i[ i[ i[ &. >9 hf  f *{ s3 s3 s3 s3 s3 s3 ",
"t. t. r7 s3 s3 s3 s3 s3 s3 s3 s3 s3 s3 s3 s3 s3 s3 s3 Ha t. t. t. t. t. t. t. t. t. t. t. t. t. t. t. t. t. t. t. @f Ef Ff Ff Gf P4 P4 P4 Hf uf E+ $f $f If z9 Jf Q' c_ d_ e_ f_ g_ B! u  v  `. ++ 0. 0. #+ -+ P+ Q+ :# ;@ z@ {# S# _$ _$ _$ _$ _$ _$ _$ _$ _$ _$ _$  % <% 5% yf {- G- z- z-  > $d g- M% p% ^~ Kf M8 k) B! B! B! B! /<  ! Hc &0 6{ (0 P9 P9 P9 P9 P9 P9 P9 7d U~ m0 m0 m0 m0 m0 m0 m0 m0 m0 m0 m0 m0 m0 m0 m0 m0 m0 m0 m0 m0 m0 m0 m0 m0 m0 m0 m0 m0 m0 m0 m0 m0 m0 [e ;e %a :$ #+ {7 {7 {7 y  .9 j+ ab E9 ({ P9 P9 P9 P9 P9 P9 P9 P9 P9 P9 P9 P9 P9 P9 P9 P9 P9 P9 P9 P9 P9 P9 P9 P9 P9 P9 P9 P9 P9 P9 P9 P9 P9 P9 P9 P9 P9 P9 P9 P9 P9 P9 P9 P9 P9 P9 P9 P9 P9 P9 P9 P9 P9 P9 P9 P9 P9 P9 P9 P9 P9 P9 P9 P9 P9 P9 P9 P9 P9 P9 P9 P9 P9 P9 P9 P9 P9 P9 P9 P9 P9 P9 P9 P9 P9 P9 P9 P9 P9 P9 P9 P9 P9 P9 P9 P9 P9 P9 P9 P9 P9 P9 P9 P9 P9 P9 P9 P9 P9 P9 P9 P9 P9 P9 P9 P9 P9 P9 P9 P9 P9 P9 P9 P9 P9 P9 P9 P9 P9 P9 P9 P9 P9 P9 P9 P9 P9 P9 P9 P9 P9 P9 P9 P9 P9 P9 P9 P9 P9 P9 P9 P9 P9 P9 P9 P9 P9 P9 P9 P9 P9 P9 K0 2a t' )~ ;~ 'b Eb &+ {7 {7 {7 {7 +b |d c$ Lf Mf 5{ Jd of {8 m0 m0 m0 m0 m0 m0 m0 m0 m0 m0 m0 m0 m0 m0 m0 m0 m0 m0 m0 m0 m0 m0 m0 m0 m0 m0 m0 m0 m0 m0 U~ 7d P9 P9 P9 P9 P9 P9 P9 P9 P9 P9 P9 P9 P9 /a 7% (b wa l! B! B! Nf Z. J6 W  c$ Fd >- ,; z- z- h- 5f [* B; 2% -% S# _$ _$ _$ _$ _$ _$ _$ _$ _$ _$ _$ _$ _$ _$ S# {# z@ -@ m+ P+ Ed |. 1. e  S. k) (< N' _< f_ e_ d[ S< Q' sf Ce Ce Ce Ce Ce Ce Ce Ce Ce Ce Ce Ce Ce Ce Ce Ce te Lb Lb !@ 99 99 99 99 ma *8 *8 *8 *8 *8 *8 Of Df Df Df Pf i[ i[ i[ i[ i[ i[ i[ i[ i[ )a r}  f  f n* s3 s3 s3 s3 s3 ",
"t. t. t. %# s3 s3 s3 s3 s3 s3 s3 s3 s3 s3 s3 s3 s3 s3 s3 %# t. %# &. x7 Ha x7 %# t. t. t. t. t. t. t. t. t. t. t. @f @f @f @f [f Qf P4 P4 Hf uf $f $f $f If z9 Rf Q' c_ d_ e_ f_ g_ B! u  v  `. ++ 0. 0. #+ -+ P+ Q+ :# ;@ z@ {# S# _$ _$ _$ _$ _$ _$ _$ _$ _$ _$ _$ .% [% 6% jd Sf ;; z- z- z- !e Tf O% p% ^~ xb X$ k) B! B! B! B! /<  ! Hc &0 0{ Cd P9 P9 P9 P9 P9 P9 P9 7d U~ m0 m0 m0 m0 m0 m0 m0 m0 m0 m0 m0 m0 m0 m0 m0 m0 m0 m0 m0 m0 m0 m0 m0 m0 m0 m0 m0 m0 m0 m0 m0 m0 m0 [e ;e %a :$ #+ {7 {7 {7 y  .9 j+ ab E9 ({ P9 P9 P9 P9 P9 P9 P9 P9 P9 P9 P9 P9 P9 P9 P9 P9 P9 P9 P9 P9 P9 P9 P9 P9 P9 P9 P9 P9 P9 P9 P9 P9 P9 P9 P9 P9 P9 P9 P9 P9 P9 P9 P9 P9 P9 P9 P9 P9 P9 P9 P9 P9 P9 P9 P9 P9 P9 P9 P9 P9 P9 P9 P9 P9 P9 P9 P9 P9 P9 P9 P9 P9 P9 P9 P9 P9 P9 P9 P9 P9 P9 P9 P9 P9 P9 P9 P9 P9 P9 P9 P9 P9 P9 P9 P9 P9 P9 P9 P9 P9 P9 P9 P9 P9 P9 P9 P9 P9 P9 P9 P9 P9 P9 P9 P9 P9 P9 P9 P9 P9 P9 P9 P9 P9 P9 P9 P9 P9 P9 P9 P9 P9 P9 P9 P9 P9 P9 P9 P9 P9 P9 P9 P9 P9 P9 P9 P9 P9 P9 P9 P9 P9 P9 P9 P9 P9 P9 P9 P9 P9 P9 P9 K0 ^a t' )~ ;~ 'b Eb &+ {7 {7 {7 {7 +b |d Ie Lf <{ 0{ -e 6e {8 m0 m0 m0 m0 m0 m0 m0 m0 m0 m0 m0 m0 m0 m0 m0 m0 m0 m0 m0 m0 m0 m0 m0 m0 m0 m0 m0 m0 m0 m0 U~ 7d P9 P9 P9 P9 P9 P9 P9 P9 P9 P9 P9 P9 P9 Jd ]~ (b wa l! B! B! B! Aa c$ W  c$ 7* >- ~; z- z- i- N= C* B; 2%  % S# _$ _$ _$ _$ _$ _$ _$ _$ _$ _$ _$ _$ _$ _$ S# {# z@ -@ m+ Q+ F  K. 1. e  P. la }d N' _< f_ e_ d[ S< Q' sf Ce Ce Ce Ce Ce Ce Ce Ce Ce Ce Ce Ce Ce Ce Ce Ce Ce Lb 0d -a 99 99 99 99 fe *8 *8 *8 *8 *8 n8 Uf Df Df Df Df Vf Wf i[ i[ i[ i[ i[ i[ i[ 05 >9 Xf  f Xf x7 s3 s3 s3 s3 ",
"t. t. t. t. %# s3 s3 s3 s3 s3 s3 s3 s3 s3 s3 s3 s3 s3 s3 s3 s3 s3 s3 s3 s3 s3 x7 t. t. t. t. t. t. t. t. t. t. t. Yf @f @f @f @f Zf P4 P4 `f uf $f $f $f If z9  g Q' c_ d_ e_ f_ g_ B! u  v  `. ++ 0. 0. #+ -+ P+ Q+ :# ;@ z@ {# S# _$ _$ _$ _$ _$ _$ _$ _$ _$ _$ C$ @% }% 6% jd .g ;; z- z- z- !e @= N% q% 0{ Ka bb k) B! B! B! B! /<  ! Hc +g 0{ Cd P9 P9 P9 P9 P9 P9 P9 7d U~ m0 m0 m0 m0 m0 m0 m0 m0 m0 m0 m0 m0 m0 m0 m0 m0 m0 m0 m0 m0 m0 m0 m0 m0 m0 m0 m0 m0 m0 m0 m0 m0 m0 [e ;e %a :$ #+ {7 {7 {7 y  .9 j+ ab E9 ({ P9 P9 P9 P9 P9 P9 P9 P9 P9 P9 P9 P9 P9 P9 P9 P9 P9 P9 P9 P9 P9 P9 P9 P9 P9 P9 P9 P9 P9 P9 P9 P9 P9 P9 P9 P9 P9 P9 P9 P9 P9 P9 P9 P9 P9 P9 P9 P9 P9 P9 P9 P9 P9 P9 P9 P9 P9 P9 P9 P9 P9 P9 P9 P9 P9 P9 P9 P9 P9 P9 P9 P9 P9 P9 P9 P9 P9 P9 P9 P9 P9 P9 P9 P9 P9 P9 P9 P9 P9 P9 P9 P9 P9 P9 P9 P9 P9 P9 P9 P9 P9 P9 P9 P9 P9 P9 P9 P9 P9 P9 P9 P9 P9 P9 P9 P9 P9 P9 P9 P9 P9 P9 P9 P9 P9 P9 P9 P9 P9 P9 P9 P9 P9 P9 P9 P9 P9 P9 P9 P9 P9 P9 P9 P9 P9 P9 P9 P9 P9 P9 P9 P9 P9 P9 P9 P9 P9 P9 P9 P9 P9 P9 K0 ^a 0{ )~ ;~ 'b Eb &+ {7 {7 {7 {7 +b |d 7e Lf d{ @g ({ {8 m0 m0 m0 m0 m0 m0 m0 m0 m0 m0 m0 m0 m0 m0 m0 m0 m0 m0 m0 m0 m0 m0 m0 m0 m0 m0 m0 m0 m0 m0 m0 U~ 7d P9 P9 P9 P9 P9 P9 P9 P9 P9 P9 P9 P9 (0 Dd ~~ (b wa l! B! B! B! Aa c$ W  c$ 7* >- ~; z- z- h- N= C* |% 6% .% [$ _$ _$ _$ _$ _$ _$ _$ _$ _$ _$ _$ _$ _$ _$ S# {# z@ -@ m+ Q+ H  K. 1. e  e  m  B! N' _< f_ e_ d[ S< Q' sf Ce Ce Ce Ce Ce Ce Ce Ce Ce Ce Ce Ce Ce Ce Ce Ce te Lb !@ 99 99 99 99 99 u2 *8 *8 *8 *8 #g Df Df Df Df Df Df Df Df $g i[ i[ i[ i[ i[ i[ i[ %# n.  f  f n* s3 s3 s3 s3 ",
"t. t. t. t. t. %# tb %# t. %# s3 s3 s3 s3 s3 s3 s3 s3 s3 s3 s3 s3 s3 s3 s3 E, t. t. t. t. t. t. t. t. t. t. t. t. t. t. F, %g @f @f &g P4 *g uf $f $f $f =g z9 -g q[ c_ d_ e_ f_ g_ B! u  v  `. ++ 0. 0. #+ -+ P+ Q+ :# ;@ z@ {# S# _$ _$ _$ _$ _$ _$ _$ _$ _$ _$ D$ #% |% 6% q% Sf ;; z- z- z- !e ;g P% r% 0{ Ka xa Z. B! B! B! B! /<  ! Hc +g 0{ l9 P9 P9 P9 P9 P9 P9 P9 7d U~ m0 m0 m0 m0 m0 m0 m0 m0 m0 m0 m0 m0 m0 m0 m0 m0 m0 m0 m0 m0 m0 m0 m0 m0 m0 m0 m0 m0 m0 m0 m0 m0 m0 [e ;e %a :$ #+ {7 {7 {7 y  .9 j+ ab E9 ({ P9 P9 P9 P9 P9 P9 P9 P9 P9 P9 P9 P9 P9 P9 P9 P9 P9 P9 P9 P9 P9 P9 P9 P9 P9 P9 P9 P9 P9 P9 P9 P9 P9 P9 P9 P9 P9 P9 P9 P9 P9 P9 P9 P9 P9 P9 P9 P9 P9 P9 P9 P9 P9 P9 P9 P9 P9 P9 P9 P9 P9 P9 P9 P9 P9 P9 P9 P9 P9 P9 P9 P9 P9 P9 P9 P9 P9 P9 P9 P9 P9 P9 P9 P9 P9 P9 P9 P9 P9 P9 P9 P9 P9 P9 P9 P9 P9 P9 P9 P9 P9 P9 P9 P9 P9 P9 P9 P9 P9 P9 P9 P9 P9 P9 P9 P9 P9 P9 P9 P9 P9 P9 P9 P9 P9 P9 P9 P9 P9 P9 P9 P9 P9 P9 P9 P9 P9 P9 P9 P9 P9 P9 P9 P9 P9 P9 P9 P9 P9 P9 P9 P9 P9 P9 P9 P9 P9 P9 P9 P9 P9 P9 K0 F0 z' )~ ;~ 'b Eb &+ {7 {7 {7 {7 +b |d 7e L8 6{ 5e m0 {8 m0 m0 m0 m0 m0 m0 m0 m0 m0 m0 m0 m0 m0 m0 m0 m0 m0 m0 m0 m0 m0 m0 m0 m0 m0 m0 m0 m0 m0 m0 m0 U~ 7d P9 P9 P9 P9 P9 P9 P9 P9 P9 P9 P9 (0 <% a{ :~ >g wa l! B! B! /< Aa M8 W  c$ ,g 'g h- z- z- (> N= C* |% 6% $% _$ _$ _$ _$ _$ _$ _$ _$ A# #& A# _$ _$ _$ _$ S# {# z@ -@ m+ Q+ |b K. 1. e  f  g  -( _< _< f_ e_ d[ S< Q' sf Ce Ce Ce Ce Ce Ce Ce Ce Ce Ce Ce Ce Ce Ce Ce Ce Lb 0d -a 99 99 99 99 )g *8 *8 *8 *8 !g ~g {g Df Df Df Df Df Df Df Df ]g i[ i[ i[ i[ i[ i[ r7 w7 7f  f ^g s9 [a bd s3 ",
"t. t. t. t. t. t. t. t. t. t. Ha s3 s3 s3 s3 s3 s3 s3 s3 s3 s3 s3 s3 s3 G1 t. t. t. t. t. t. t. t. t. t. t. t. t. t. t. t. t. =} @f @f /g (g uf $f $f $f _g z9 -3 S< c_ d_ e_ f_ g_ B! u  v  `. ++ 0. 0. #+ -+ P+ Q+ :# ;@ z@ {# S# _$ _$ _$ _$ _$ _$ _$ _$ _$ _$ _$ (% |% 6% q% Sf F- z- z- z- !e ;g P% u% 0{ !b xa Aa B! B! B! B! /<  ! Hc +g 0{ l9 P9 P9 P9 P9 P9 P9 P9 7d U~ m0 m0 m0 m0 m0 m0 m0 m0 m0 m0 m0 m0 m0 m0 m0 m0 m0 m0 m0 m0 m0 m0 m0 m0 m0 m0 m0 m0 m0 m0 m0 m0 m0 [e ;e %a :$ #+ {7 {7 {7 y  .9 j+ ab E9 ({ P9 P9 P9 P9 P9 P9 P9 P9 P9 P9 P9 P9 P9 P9 P9 P9 P9 P9 P9 P9 P9 P9 P9 P9 P9 P9 P9 P9 P9 P9 P9 P9 P9 P9 P9 P9 P9 P9 P9 P9 P9 P9 P9 P9 P9 P9 P9 P9 P9 P9 P9 P9 P9 P9 P9 P9 P9 P9 P9 P9 P9 P9 P9 P9 P9 P9 P9 P9 P9 P9 P9 P9 P9 P9 P9 P9 P9 P9 P9 P9 P9 P9 P9 P9 P9 P9 P9 P9 P9 P9 P9 P9 P9 P9 P9 P9 P9 P9 P9 P9 P9 P9 P9 P9 P9 P9 P9 P9 P9 P9 P9 P9 P9 P9 P9 P9 P9 P9 P9 P9 P9 P9 P9 P9 P9 P9 P9 P9 P9 P9 P9 P9 P9 P9 P9 P9 P9 P9 P9 P9 P9 P9 P9 P9 P9 P9 P9 P9 P9 P9 P9 P9 P9 P9 P9 P9 P9 P9 P9 P9 P9 P9 K0 ^a F9 )~ ;~ 'b Eb &+ {7 {7 {7 {7 +b |d Ie _0 Ke 7d {8 {8 m0 m0 m0 m0 m0 m0 m0 m0 m0 m0 m0 m0 m0 m0 m0 m0 m0 m0 m0 m0 m0 m0 m0 m0 m0 m0 m0 m0 m0 m0 m0 U~ 7d P9 P9 P9 P9 P9 P9 P9 P9 P9 P9 /a <% :g :~  { >g wa l! B! B! /< <g [g W  c$ Fd -- h- z- z- }g N= }* W% |g #% _$ _$ _$ _$ _$ _$ _$ A# >, g& n$ W@ _$ _$ _$ S# {# z@ -@ m+ =+ Bf |. 1. e  f  1g 2g _< _< f_ e_ d[ S< Q' sf Ce Ce Ce Ce Ce Ce Ce Ce Ce Ce Ce Ce Ce Ce Ce te Lb !@ 99 99 99 99 99 3g *8 *8 *8 4g 5g 6g t. 7g 8g 9g Df Df Df Df Df Df ]g i[ i[ i[ i[ i[ 0g w7 n. Xf >f 3c 3c 3c 3c ",
"t. t. t. t. t. t. t. t. t. t. &. s3 s3 s3 s3 s3 s3 s3 s3 s3 s3 x7 tb t. t. t. t. t. t. t. t. t. t. t. t. t. t. t. t. t. t. t. t. ag @f @f (g uf $f $f $f bg z9 f@ S< c_ d_ e_ f_ g_ B! u  v  `. ++ 0. 0. #+ -+ P+ Q+ :# ;@ z@ {# S# _$ _$ _$ _$ _$ _$ _$ _$ _$ _$ _$ &% |% 6% q% ]- F- ,; z- z- !e ;g 4& u% %0 cg xa Aa B! B! B! B! /<  ! Hc +g t' l9 P9 P9 P9 P9 P9 P9 P9 7d U~ m0 m0 m0 m0 m0 m0 m0 m0 m0 m0 m0 m0 m0 m0 m0 m0 m0 m0 m0 m0 m0 m0 m0 m0 m0 m0 m0 m0 m0 m0 m0 m0 m0 [e ;e %a :$ #+ {7 {7 {7 y  .9 j+ ab E9 ({ P9 P9 P9 P9 P9 P9 P9 P9 P9 P9 P9 P9 P9 P9 P9 P9 P9 P9 P9 P9 P9 P9 P9 P9 P9 P9 P9 P9 P9 P9 P9 P9 P9 P9 P9 P9 P9 P9 P9 P9 P9 P9 P9 P9 P9 P9 P9 P9 P9 P9 P9 P9 P9 P9 P9 P9 P9 P9 P9 P9 P9 P9 P9 P9 P9 P9 P9 P9 P9 P9 P9 P9 P9 P9 P9 P9 P9 P9 P9 P9 P9 P9 P9 P9 P9 P9 P9 P9 P9 P9 P9 P9 P9 P9 P9 P9 P9 P9 P9 P9 P9 P9 P9 P9 P9 P9 P9 P9 P9 P9 P9 P9 P9 P9 P9 P9 P9 P9 P9 P9 P9 P9 P9 P9 P9 P9 P9 P9 P9 P9 P9 P9 P9 P9 P9 P9 P9 P9 P9 P9 P9 P9 P9 P9 P9 P9 P9 P9 P9 P9 P9 P9 P9 P9 P9 P9 P9 P9 P9 P9 P9 P9 K0 ^a t' )~ ;~ 'b Eb &+ {7 {7 {7 {7 +b dg Ie eg w' Od {8 {8 m0 m0 m0 m0 m0 m0 m0 m0 m0 m0 m0 m0 m0 m0 m0 m0 m0 m0 m0 m0 m0 m0 m0 m0 m0 m0 m0 m0 m0 m0 m0 U~ 7d P9 P9 P9 P9 P9 P9 P9 P9 P9 ^a fg 5{ :~ >~  { >g wa l! B! B! /< Za d% gg M8 7* -- h- z- z- x- N= }* W% l% &% _$ _$ _$ _$ _$ _$ A# ^% _  <  ]. 1; d% o$ W@ V@ d$ R9 hg v# Y' $@ |. 1. e  f  1g -( B! _< f_ e_ d[ S< Q' sf Ce Ce Ce Ce Ce Ce Ce Ce Ce Ce Ce Ce Ce Ce Ce Lb ig -a 99 99 99 99 99 jg *8 *8 kg 5g 5g 5g 6g t. w7 w7 lg mg Df Df Df Df Df i[ i[ i[ i[ i[ &. w7 >9 ng  f 3c 3c 3c 3c ",
"t. t. t. t. t. t. t. t. t. t. t. s3 s3 s3 s3 s3 s3 s3 s3 x7 t. t. t. t. t. t. t. t. t. t. t. t. t. t. t. t. t. t. t. t. t. t. t. og @f @f (g uf $f $f $f $f pg f@ S< c_ d_ e_ f_ g_ B! u  v  `. ++ 0. 0. #+ -+ P+ Q+ :# ;@ z@ {# S# _$ _$ _$ _$ _$ _$ _$ _$ _$ _$ _$ &% |% j% r% ]- O; ,; z- z- !e qg R% u% %0 cg xa Za k) B! B! B! /<  ! Hc 00 t' l9 P9 P9 P9 P9 P9 P9 P9 7d U~ m0 m0 m0 m0 m0 m0 m0 m0 m0 m0 m0 m0 m0 m0 m0 m0 m0 m0 m0 m0 m0 m0 m0 m0 m0 m0 m0 m0 m0 m0 m0 m0 m0 [e ;e %a :$ #+ {7 {7 {7 y  .9 j+ ab E9 ({ P9 P9 P9 P9 P9 P9 P9 P9 P9 P9 P9 P9 P9 P9 P9 P9 P9 P9 P9 P9 P9 P9 P9 P9 P9 P9 P9 P9 P9 P9 P9 P9 P9 P9 P9 P9 P9 P9 P9 P9 P9 P9 P9 P9 P9 P9 P9 P9 P9 P9 P9 P9 P9 P9 P9 P9 P9 P9 P9 P9 P9 P9 P9 P9 P9 P9 P9 P9 P9 P9 P9 P9 P9 P9 P9 P9 P9 P9 P9 P9 P9 P9 P9 P9 P9 P9 P9 P9 P9 P9 P9 P9 P9 P9 P9 P9 P9 P9 P9 P9 P9 P9 P9 P9 P9 P9 P9 P9 P9 P9 P9 P9 P9 P9 P9 P9 P9 P9 P9 P9 P9 P9 P9 P9 P9 P9 P9 P9 P9 P9 P9 P9 P9 P9 P9 P9 P9 P9 P9 P9 P9 P9 P9 P9 P9 P9 P9 P9 P9 P9 P9 P9 P9 P9 P9 P9 P9 P9 P9 P9 P9 P9 K0 2a f% C~ ;~ 'b Eb &+ {7 {7 {7 {7 +b dg Ie rg 88 Ad {8 {8 m0 m0 m0 m0 m0 m0 m0 m0 m0 m0 m0 m0 m0 m0 m0 m0 m0 m0 m0 m0 m0 m0 m0 m0 m0 m0 m0 m0 m0 m0 m0 U~ 7d P9 P9 P9 P9 P9 P9 P9 P9 ^a 4f e{ 2{ ,~ ;~  { >g wa l! B! B! B! [c Eb Ka X$ E* -- h- z- z- x- N= }* h% l% _% E$ _$ _$ _$ _$ A# >, 5+ <  <  <  ]. <  A$ 1; e$ sg tg G. 8  b  $@ |. 1. e  f  g  V' N' _< f_ e_ d[ S< Q' sf Ce Ce Ce Ce Ce Ce Ce Ce Ce Ce Ce Ce Ce Ce te Lb ug 99 99 99 99 99 99 F@ *8 *8 vg 5g 5g 5g 5g 6g t. w7 w7 w7 wg xg Df Df Df yg i[ i[ i[ 05 w7 w7 >9 3c Xf Z# 3c 3c 3c ",
"t. t. t. t. t. t. t. t. t. t. t. &. s3 s3 s3 s3 s3 s3 x7 t. t. t. t. t. t. t. t. t. t. t. t. t. t. t. t. t. t. t. t. t. t. t. t. zg @f @f Ag Bg $f $f $f $f l8 f@ S< c_ d_ e_ f_ g_ B! u  v  `. ++ 0. 0. #+ -+ P+ Q+ :# ;@ z@ {# S# _$ _$ _$ _$ _$ _$ _$ _$ _$ _$ F$ =% g% j% t% Cg O; 5; 5; z- !e ;g Q% A, 68 cg xa _b k) B! B! B! /<  ! Hc 00 t' l9 P9 P9 P9 P9 P9 P9 P9 7d U~ m0 m0 m0 m0 m0 m0 m0 m0 m0 m0 m0 m0 m0 m0 m0 m0 m0 m0 m0 m0 m0 m0 m0 m0 m0 m0 m0 m0 m0 m0 m0 m0 m0 [e ;e %a :$ #+ {7 {7 {7 y  .9 j+ ab E9 ({ P9 P9 P9 P9 P9 P9 P9 P9 P9 P9 P9 P9 P9 P9 P9 P9 P9 P9 P9 P9 P9 P9 P9 P9 P9 P9 P9 P9 P9 P9 P9 P9 P9 P9 P9 P9 P9 P9 P9 P9 P9 P9 P9 P9 P9 P9 P9 P9 P9 P9 P9 P9 P9 P9 P9 P9 P9 P9 P9 P9 P9 P9 P9 P9 P9 P9 P9 P9 P9 P9 P9 P9 P9 P9 P9 P9 P9 P9 P9 P9 P9 P9 P9 P9 P9 P9 P9 P9 P9 P9 P9 P9 P9 P9 P9 P9 P9 P9 P9 P9 P9 P9 P9 P9 P9 P9 P9 P9 P9 P9 P9 P9 P9 P9 P9 P9 P9 P9 P9 P9 P9 P9 P9 P9 P9 P9 P9 P9 P9 P9 P9 P9 P9 P9 P9 P9 P9 P9 P9 P9 P9 P9 P9 P9 P9 P9 P9 P9 P9 P9 P9 P9 P9 P9 P9 P9 P9 P9 P9 P9 P9 P9 K0 P9 [% {~ :~ 'b Eb &+ {7 {7 {7 {7 +b dg Ie H8 88 Ad {8 {8 m0 m0 m0 m0 m0 m0 m0 m0 m0 m0 m0 m0 m0 m0 m0 m0 m0 m0 m0 m0 m0 m0 m0 m0 m0 m0 m0 m0 m0 m0 m0 U~ 7d P9 P9 P9 P9 P9 P9 P9 ^a g% C' k9 ,~ ;~ ;~  { >g wa l! B! B! B! [c bb Ka X$ E* -- h- z- z- x- <- }* h% l% =% E$ _$ _$ _$ <$ ^% _  <  <  <  <  <  <  <  <  1  1  (. :. 8  b  $@ |. 1. e  f  k  l! N' _< f_ e_ d[ S< Q' sf Ce Ce Ce Ce Ce Ce Ce Ce Ce Ce Ce Ce Ce Ce Me Dg Eg 99 99 99 99 99 99 *8 *8 *8 5g 5g 5g 5g 5g 5g Fg w7 w7 w7 w7 7g Gg Df Df Hg i[ i[ i[ 9e w7 w7 w7 3c Z# {@ 3c 3c 3c ",
"m# t. t. t. t. t. t. t. t. t. t. t. %# Ha s3 s3 s3 s3 t. t. t. t. t. t. t. t. t. t. t. t. t. t. t. t. t. t. t. t. t. t. t. t. t. Ig Jg @f Ag Kg $f $f $f $f Lg f@ S< c_ d_ e_ f_ g_ B! u  v  `. ++ 0. 0. #+ -+ P+ Q+ :# ;@ z@ {# S# _$ _$ _$ _$ _$ _$ _$ _$ _$ _$ F$ :% g% l% t% Cg E- 5; 5; )> !e $= Q% v% 4e cg xa mb k) B! B! B! /<  ! Hc 00 t' l9 P9 P9 P9 P9 P9 P9 P9 7d U~ m0 m0 m0 m0 m0 m0 m0 m0 m0 m0 m0 m0 m0 m0 m0 m0 m0 m0 m0 m0 m0 m0 m0 m0 m0 m0 m0 m0 m0 m0 m0 m0 m0 [e ;e %a :$ #+ {7 {7 {7 y  .9 j+ ab E9 ({ P9 P9 P9 P9 P9 P9 P9 P9 P9 P9 P9 P9 P9 P9 P9 P9 P9 P9 P9 P9 P9 P9 P9 P9 P9 P9 P9 P9 P9 P9 P9 P9 P9 P9 P9 P9 P9 P9 P9 P9 P9 P9 P9 P9 P9 P9 P9 P9 P9 P9 P9 P9 P9 P9 P9 P9 P9 P9 P9 P9 P9 P9 P9 P9 P9 P9 P9 P9 P9 P9 P9 P9 P9 P9 P9 P9 P9 P9 P9 P9 P9 P9 P9 P9 P9 P9 P9 P9 P9 P9 P9 P9 P9 P9 P9 P9 P9 P9 P9 P9 P9 P9 P9 P9 P9 P9 P9 P9 P9 P9 P9 P9 P9 P9 P9 P9 P9 P9 P9 P9 P9 P9 P9 P9 P9 P9 P9 P9 P9 P9 P9 P9 P9 P9 P9 P9 P9 P9 P9 P9 P9 P9 P9 P9 P9 P9 P9 P9 P9 P9 P9 P9 P9 P9 P9 P9 P9 P9 P9 P9 P9 P9 K0 P9 8{ E8 )~ 'b Eb &+ {7 {7 {7 {7 +b dg Ie I8 <8 Ad {8 {8 m0 m0 m0 m0 m0 m0 m0 m0 m0 m0 m0 m0 m0 m0 m0 m0 m0 m0 m0 m0 m0 m0 m0 m0 m0 m0 m0 m0 m0 m0 m0 U~ 7d P9 P9 P9 P9 P9 P9 P9 /a u' k9 ,~ ,~ ;~ ;~  { >g wa l! B! B! B! _b bb Ka X$ E* 'g h- z- 5; x- <- }* 2% l% =% F$ _$ _$ _$ W@ W$ <  <  <  <  <  <  <  <  <  1  1  (. :. 8  b  $@ |. 1. e  f  m  _< N' _< f_ e_ d[ S< Q' sf Ce Ce Ce Ce Ce Ce Ce Ce Ce Ce Ce Ce Ce Ce Lb Mg Eg 99 99 99 99 99 99 *8 *8 %8 5g 5g 5g 5g 5g 5g 5g r7 w7 w7 w7 w7 w7 Ng i[ i[ i[ i[ i[ 05 w7 w7 w7 3c 3c 3c 3c 3c 3c ",
"8f F, $# t. t. t. t. t. E) Z& t. t. t. t. %# G1 Ha r7 t. t. t. t. t. t. t. t. t. t. t. t. t. t. t. t. t. t. t. t. t. t. t. t. t. Og o* @f Ag [9 $f $f $f $f f@ f@ S< c_ d_ e_ f_ g_ B! u  v  `. ++ 0. 0. #+ -+ P+ Q+ :# ;@ z@ {# S# _$ _$ _$ _$ _$ _$ _$ _$ _$ _$ $, :% 2% l% A, Cg E- h- 5; h- Pg Qg S% v% 68 cg *f J6 k) B! B! B! /<  ! Hc 00 (e l9 P9 P9 P9 P9 P9 P9 P9 7d U~ m0 m0 m0 m0 m0 m0 m0 m0 m0 m0 m0 m0 m0 m0 m0 m0 m0 m0 m0 m0 m0 m0 m0 m0 m0 m0 m0 m0 m0 m0 m0 m0 m0 [e ;e %a :$ #+ {7 {7 {7 y  .9 j+ ab E9 ({ P9 P9 P9 P9 P9 P9 P9 P9 P9 P9 P9 P9 P9 P9 P9 P9 P9 P9 P9 P9 P9 P9 P9 P9 P9 P9 P9 P9 P9 P9 P9 P9 P9 P9 P9 P9 P9 P9 P9 P9 P9 P9 P9 P9 P9 P9 P9 P9 P9 P9 P9 P9 P9 P9 P9 P9 P9 P9 P9 P9 P9 P9 P9 P9 P9 P9 P9 P9 P9 P9 P9 P9 P9 P9 P9 P9 P9 P9 P9 P9 P9 P9 P9 P9 P9 P9 P9 P9 P9 P9 P9 P9 P9 P9 P9 P9 P9 P9 P9 P9 P9 P9 P9 P9 P9 P9 P9 P9 P9 P9 P9 P9 P9 P9 P9 P9 P9 P9 P9 P9 P9 P9 P9 P9 P9 P9 P9 P9 P9 P9 P9 P9 P9 P9 P9 P9 P9 P9 P9 P9 P9 P9 P9 P9 P9 P9 P9 P9 P9 P9 P9 P9 P9 P9 P9 P9 P9 P9 P9 P9 P9 P9 P9 K0 F0 *% l~ 'b Eb &+ {7 {7 {7 {7 +b dg Ie _0 <8 Od {8 {8 m0 m0 m0 m0 m0 m0 m0 m0 m0 m0 m0 m0 m0 m0 m0 m0 m0 m0 m0 m0 m0 m0 m0 m0 m0 m0 m0 m0 m0 m0 m0 U~ 7d P9 P9 P9 P9 P9 P9 P9 g% a{ ;~ >~ ;~ ;~ ;~  { >g wa l! B! B! B! _b bb Ka d% E* -- h- 5; 5; x- N= }* 4% l% :% G$ _$ _$ #& g& <  <  <  <  <  <  <  <  <  {. 1  1  (. :. 8  b  $@ |. 1. e  f  o  N' N' _< f_ e_ d[ S< Q' sf Ce Ce Ce Ce Ce Ce Ce Ce Ce Ce Ce Ce Ce Ce C1 Eg Eg 99 99 99 99 sb Rg *8 *8 kg 5g 5g 5g 5g 5g 5g 5g 5g %# w7 w7 w7 w7 w7 r7 i[ i[ i[ i[ i[ w7 w7 w7 {e 3c 3c 3c 3c 3c ",
"8f 8f 8f 8f Sg Z& Sg 8f 8f 8f t. t. t. t. t. t. t. t. t. t. t. t. t. t. t. t. t. t. t. t. t. t. t. t. t. t. t. t. t. t. t. t. t. Tg Ug Kg Ag Vg Wg $f $f $f f@ f@ S< c_ d_ e_ f_ g_ B! u  v  `. ++ 0. 0. #+ -+ P+ Q+ :# ;@ z@ {# S# _$ _$ _$ _$ _$ _$ _$ _$ _$ _$ /% f% 2% l% A, Cg E- h- h- h- Pg Qg S% q, Xg Yg He c$ k) B! B! B! /<  ! Hc 00 (e l9 P9 P9 P9 P9 P9 P9 P9 7d U~ m0 m0 m0 m0 m0 m0 m0 m0 m0 m0 m0 m0 m0 m0 m0 m0 m0 m0 m0 m0 m0 m0 m0 m0 m0 m0 m0 m0 m0 m0 m0 m0 m0 [e ;e %a :$ #+ {7 {7 {7 y  .9 j+ ab E9 ({ P9 P9 P9 P9 P9 P9 P9 P9 P9 P9 P9 P9 P9 P9 P9 P9 P9 P9 P9 P9 P9 P9 P9 P9 P9 P9 P9 P9 P9 P9 P9 P9 P9 P9 P9 P9 P9 P9 P9 P9 P9 P9 P9 P9 P9 P9 P9 P9 P9 P9 P9 P9 P9 P9 P9 P9 P9 P9 P9 P9 P9 P9 P9 P9 P9 P9 P9 P9 P9 P9 P9 P9 P9 P9 P9 P9 P9 P9 P9 P9 P9 P9 P9 P9 P9 P9 P9 P9 P9 P9 P9 P9 P9 P9 P9 P9 P9 P9 P9 P9 P9 P9 P9 P9 P9 P9 P9 P9 P9 P9 P9 P9 P9 P9 P9 P9 P9 P9 P9 P9 P9 P9 P9 P9 P9 P9 P9 P9 P9 P9 P9 P9 P9 P9 P9 P9 P9 P9 P9 P9 P9 P9 P9 P9 P9 P9 P9 P9 P9 P9 P9 P9 P9 P9 P9 P9 P9 P9 P9 P9 P9 P9 P9 K0 P9 <% ~~ 'b Eb &+ {7 {7 {7 {7 +b dg 7e L8 =e <e {8 {8 m0 m0 m0 m0 m0 m0 m0 m0 m0 m0 m0 m0 m0 m0 m0 m0 m0 m0 m0 m0 m0 m0 m0 m0 m0 m0 m0 m0 m0 m0 m0 U~ 7d P9 P9 P9 P9 P9 P9 P9 4f b{ :~ ;~ ;~ ;~ ;~  { >g wa l! B! B! k) v# bb Zg w0 E* 'g h- h- h- x- N= `g 5% l% <% H$ _$ Z@ c$ 1  ^. <  <  <  <  5+ _  _  E. _  <  <  1  (. (. 5  :. 8  b  $@ L.  h }d N' _< f_ e_ d[ S< Q' sf Ce Ce Ce Ce Ce Ce Ce Ce Ce Ce Ce Ce Ce .h Z% Eg Eg 99 99 99 +h @h '2 *8 *8 kg 5g 5g 5g 5g 5g 5g 5g 5g 6g w7 w7 w7 w7 w7 w7 X8 y2 i[ i[ i[ w7 w7 w7 T! 3c 3c 3c 3c 3c ",
"8f 8f 8f 8f 8f 8f 8f 8f 8f 8f ha t. t. t. t. t. t. t. t. t. t. t. t. t. t. t. t. t. t. t. t. t. t. t. t. t. t. t. t. t. t. t. t. Tg #h Kg Ag Vg $h $f $f %h f@ f@ S< c_ d_ e_ f_ g_ B! u  v  `. ++ 0. 0. #+ -+ P+ Q+ :# ;@ z@ {# S# _$ _$ _$ _$ _$ _$ _$ _$ _$ _$ Z$ <% 2% l% v% Cg E- h- h- h- 8d $= S% ** &h %e He M8 k) B! B! B! /<  ! Hc 00 (e l9 P9 P9 P9 P9 P9 P9 P9 7d U~ m0 m0 m0 m0 m0 m0 m0 m0 m0 m0 m0 m0 m0 m0 m0 m0 m0 m0 m0 m0 m0 m0 m0 m0 m0 m0 m0 m0 m0 m0 m0 m0 m0 [e ;e %a :$ #+ {7 {7 {7 y  .9 j+ ab E9 ({ P9 P9 P9 P9 P9 P9 P9 P9 P9 P9 P9 P9 P9 P9 P9 P9 P9 P9 P9 P9 P9 P9 P9 P9 P9 P9 P9 P9 P9 P9 P9 P9 P9 P9 P9 P9 P9 P9 P9 P9 P9 P9 P9 P9 P9 P9 P9 P9 P9 P9 P9 P9 P9 P9 P9 P9 P9 P9 P9 P9 P9 P9 P9 P9 P9 P9 P9 P9 P9 P9 P9 P9 P9 P9 P9 P9 P9 P9 P9 P9 P9 P9 P9 P9 P9 P9 P9 P9 P9 P9 P9 P9 P9 P9 P9 P9 P9 P9 P9 P9 P9 P9 P9 P9 P9 P9 P9 P9 P9 P9 P9 P9 P9 P9 P9 P9 P9 P9 P9 P9 P9 P9 P9 P9 P9 P9 P9 P9 P9 P9 P9 P9 P9 P9 P9 P9 P9 P9 P9 P9 P9 P9 P9 P9 P9 P9 P9 P9 P9 P9 P9 P9 P9 P9 P9 P9 P9 P9 P9 P9 P9 P9 P9 K0 Db f{ a{ Va Eb &+ {7 {7 {7 {7 +b |d 7e L8 6{ 5e {8 {8 m0 m0 m0 m0 m0 m0 m0 m0 m0 m0 m0 m0 m0 m0 m0 m0 m0 m0 m0 m0 m0 m0 m0 m0 m0 m0 m0 m0 m0 m0 m0 U~ 7d P9 P9 P9 P9 P9 P9 P9 g% e{ )~ ;~ ;~ ;~ ;~  { >g wa l! B! B! k) v# bb Zg w0 E* -- '; h- h- w- N= `g 5% m% <% H$ /% _8 *h *h *h =h -h ;h >h ,h 'h )h !h ~h {h {h {h ]h ^h /h /h (h (h (h _h c$ N' N' _< f_ e_ d[ S< Q' sf Ce Ce Ce Ce Ce Ce Ce Ce Ce Ce Ce Ce Ce .h Z% Eg Eg :h <h [h }h }h '2 *8 *8 kg 5g 5g 5g 5g 5g 5g 5g 5g 5g r7 w7 w7 w7 w7 w7 w7 t. r7 i[ Ha w7 w7 w7 >9 3c 3c 3c 3c 3c ",
"8f 8f 8f 8f 8f 8f 8f 8f 8f 8f E) t. t. t. t. t. t. t. t. t. t. t. t. t. t. t. t. t. t. t. t. t. t. t. t. t. t. t. t. t. t. t. t. Tg |h Kg Ag 1h $h $f $f =g f@ f@ S< c_ d_ e_ f_ g_ B! u  v  `. ++ 0. 0. #+ -+ P+ Q+ :# ;@ z@ {# S# _$ _$ _$ _$ _$ _$ _$ _$ _$ C$  % <% 2% m% %& Cg E- h- h- h- '- $= =& I% _8 D9 He X$ X. B! B! B! /<  ! Hc 00 v' P9 P9 P9 P9 P9 P9 P9 P9 7d U~ m0 m0 m0 m0 m0 m0 m0 m0 m0 m0 m0 m0 m0 m0 m0 m0 m0 m0 m0 m0 m0 m0 m0 m0 m0 m0 m0 m0 m0 m0 m0 m0 m0 [e ;e %a :$ #+ {7 {7 {7 y  .9 j+ ab E9 ({ P9 P9 P9 P9 P9 P9 P9 P9 P9 P9 P9 P9 P9 P9 P9 P9 P9 P9 P9 P9 P9 P9 P9 P9 P9 P9 P9 P9 P9 P9 P9 P9 P9 P9 P9 P9 P9 P9 P9 P9 P9 P9 P9 P9 P9 P9 P9 P9 P9 P9 P9 P9 P9 P9 P9 P9 P9 P9 P9 P9 P9 P9 P9 P9 P9 P9 P9 P9 P9 P9 P9 P9 P9 P9 P9 P9 P9 P9 P9 P9 P9 P9 P9 P9 P9 P9 P9 P9 P9 P9 P9 P9 P9 P9 P9 P9 P9 P9 P9 P9 P9 P9 P9 P9 P9 P9 P9 P9 P9 P9 P9 P9 P9 P9 P9 P9 P9 P9 P9 P9 P9 P9 P9 P9 P9 P9 P9 P9 P9 P9 P9 P9 P9 P9 P9 P9 P9 P9 P9 P9 P9 P9 P9 P9 P9 P9 P9 P9 P9 P9 P9 P9 P9 P9 P9 P9 P9 P9 P9 P9 P9 P9 P9 P9 K0 3~ (e h8 Eb &+ {7 {7 {7 {7 +b |d qf Lf :g h, m0 {8 m0 m0 m0 m0 m0 m0 m0 m0 m0 m0 m0 m0 m0 m0 m0 m0 m0 m0 m0 m0 m0 m0 m0 m0 m0 m0 m0 m0 m0 m0 m0 U~ 7d P9 P9 P9 P9 P9 P9 2a /a t' 3{ >~ ;~ ;~ ;~  { >g wa l! B! B! X. v# bb Zg w0 7* 2h x- h- h- x- N= `g 6% n% [% S# 3h 4h 5h 5h 5h 5h 6h 6h 6h 6h 7h 8h 8h 9h 0h ah bh bh ch ch dh eh fh fh gh hh ih N' _< f_ e_ d[ S< Q' sf Ce Ce Ce Ce Ce Ce Ce Ce Ce Ce Ce Ce Ce jh Z% kh Mg }h }h }h }h }h '2 *8 *8 *8 5g 5g 5g 5g 5g 5g 5g 5g 5g 5g t. w7 w7 w7 w7 w7 w7 w7 w7 w7 w7 w7 w7 w7 <b 3c 3c 3c 3c ",
"8f 8f 8f 8f 8f 8f 8f 8f 8f 8f {! t. t. t. t. t. t. t. t. t. t. t. t. t. t. t. t. t. t. t. t. t. t. t. t. t. t. t. t. t. t. t. t. Tg |h lh mh nh oh $f $f =g f@ f@ S< c_ d_ e_ f_ g_ B! u  v  `. ++ 0. 0. #+ -+ P+ Q+ :# ;@ z@ {# S# _$ _$ _$ _$ _$ _$ _$ _$ _$ D$ @% <% 2% m% %& ph y; h- h- h- '- $= >& I% _8 D9 W  bb `] B! B! B! /<  ! Hc Tb f% P9 P9 P9 P9 P9 P9 P9 P9 7d U~ m0 m0 m0 m0 m0 m0 m0 m0 m0 m0 m0 m0 m0 m0 m0 m0 m0 m0 m0 m0 m0 m0 m0 m0 m0 m0 m0 m0 m0 m0 m0 m0 m0 [e ;e %a :$ #+ {7 {7 {7 y  .9 j+ ab E9 ({ P9 P9 P9 P9 P9 P9 P9 P9 P9 P9 P9 P9 P9 P9 P9 P9 P9 P9 P9 P9 P9 P9 P9 P9 P9 P9 P9 P9 P9 P9 P9 P9 P9 P9 P9 P9 P9 P9 P9 P9 P9 P9 P9 P9 P9 P9 P9 P9 P9 P9 P9 P9 P9 P9 P9 P9 P9 P9 P9 P9 P9 P9 P9 P9 P9 P9 P9 P9 P9 P9 P9 P9 P9 P9 P9 P9 P9 P9 P9 P9 P9 P9 P9 P9 P9 P9 P9 P9 P9 P9 P9 P9 P9 P9 P9 P9 P9 P9 P9 P9 P9 P9 P9 P9 P9 P9 P9 P9 P9 P9 P9 P9 P9 P9 P9 P9 P9 P9 P9 P9 P9 P9 P9 P9 P9 P9 P9 P9 P9 P9 P9 P9 P9 P9 P9 P9 P9 P9 P9 P9 P9 P9 P9 P9 P9 P9 P9 P9 P9 P9 P9 P9 P9 P9 P9 P9 P9 P9 P9 P9 P9 P9 P9 P9 K0 {a }% M! bb &+ {7 {7 {7 {7 +b |d 7e Lf B~ W% U~ {8 m0 m0 m0 m0 m0 m0 m0 m0 m0 m0 m0 m0 m0 m0 m0 m0 m0 m0 m0 m0 m0 m0 m0 m0 m0 m0 m0 m0 m0 m0 m0 U~ 7d P9 P9 P9 P9 P9 P9 P9 ^a B; qh >~ ;~ ;~ ;~  { >g wa l! B! B! Z. mb bb cg xa E* -- x- h- h- x- N= D* j% o% |% #% rh sh th uh uh uh vh vh wh vh xh xh vh vh uh yh zh yh yh Ah Ah Bh Ch Dh Eh Fh Gh _< _< f_ e_ d[ S< Q' sf Ce Ce Ce Ce Ce Ce Ce Ce Ce Ce Ce Ce Ce Hh Z% Ih Jh }h }h }h }h }h '2 *8 *8 *8 Kh 5g 5g 5g 5g 5g 5g 5g 5g 5g [# w7 w7 w7 w7 w7 w7 w7 w7 w7 w7 w7 w7 Lh Mh 3c 3c 3c 3c ",
"8f 8f 8f 8f 8f 8f 8f 8f 8f 8f {! t. t. t. t. t. t. t. t. t. t. t. t. t. t. t. t. t. t. t. t. t. t. t. t. t. t. t. t. t. t. t. Nh Tg |h @f @f Oh Ph $f $f Qh f@ f@ S< c_ d_ e_ f_ g_ B! u  v  `. ++ 0. 0. #+ -+ P+ Q+ :# ;@ z@ {# S# _$ _$ _$ _$ _$ _$ _$ _$ _$ 7' $% <% 2% n% %& Cg E- (> '; h- '- N; ,& I% :8 ce W  d% xc B! B! B! /<  ! Hc Tb f% P9 P9 P9 P9 P9 P9 P9 P9 7d U~ m0 m0 m0 m0 m0 m0 m0 m0 m0 m0 m0 m0 m0 m0 m0 m0 m0 m0 m0 m0 m0 m0 m0 m0 m0 m0 m0 m0 m0 m0 m0 m0 m0 [e ;e %a :$ #+ {7 {7 {7 y  .9 j+ ab E9 ({ P9 P9 P9 P9 P9 P9 P9 P9 P9 P9 P9 P9 P9 P9 P9 P9 P9 P9 P9 P9 P9 P9 P9 P9 P9 P9 P9 P9 P9 P9 P9 P9 P9 P9 P9 P9 P9 P9 P9 P9 P9 P9 P9 P9 P9 P9 P9 P9 P9 P9 P9 P9 P9 P9 P9 P9 P9 P9 P9 P9 P9 P9 P9 P9 P9 P9 P9 P9 P9 P9 P9 P9 P9 P9 P9 P9 P9 P9 P9 P9 P9 P9 P9 P9 P9 P9 P9 P9 P9 P9 P9 P9 P9 P9 P9 P9 P9 P9 P9 P9 P9 P9 P9 P9 P9 P9 P9 P9 P9 P9 P9 P9 P9 P9 P9 P9 P9 P9 P9 P9 P9 P9 P9 P9 P9 P9 P9 P9 P9 P9 P9 P9 P9 P9 P9 P9 P9 P9 P9 P9 P9 P9 P9 P9 P9 P9 P9 P9 P9 P9 P9 P9 P9 P9 P9 P9 P9 P9 P9 P9 P9 P9 P9 P9 P9 P! ^a %% xa &+ {7 {7 {7 {7 +b |d Ie Lf 4{ Ke Bd {8 {8 m0 m0 m0 m0 m0 m0 m0 m0 m0 m0 m0 m0 m0 m0 m0 m0 m0 m0 m0 m0 m0 m0 m0 m0 m0 m0 m0 m0 m0 m0 U~ 7d P9 P9 P9 P9 P9 P9 P9 P9 1% a{ :~ ,~ ;~ ;~  { >g wa l! B! B! Z. mb bb cg Rh Sh -- x- '; '; w- N= 1* j% o% =% Th Uh Vh Wh Xh Xh Yh Zh Zh `h `h `h `h `h `h Zh Zh  i  i  i Xh Xh Xh Xh .i +i @i !b _< _< f_ e_ d[ S< Q' sf Ce Ce Ce Ce Ce Ce Ce Ce Ce Ce Ce Ce Ce Hh Z% #i $i %i }h }h }h }h '2 *8 *8 *8 vg 5g 5g 5g 5g 5g 5g 5g 5g 5g 5g w7 w7 w7 w7 w7 w7 w7 w7 w7 w7 w7 w7 &i *i 3c 3c 3c 3c ",
"8f 8f 8f 8f 8f 8f 8f 8f 8f 8f {! t. t. t. t. t. t. t. t. t. t. t. t. t. t. t. t. t. t. t. t. t. t. t. t. t. t. t. t. t. t. t. Nh Tg =i @f -i ;i >i $f $f ,i f@ 'i Q' c_ d_ e_ f_ g_ B! u  v  `. ++ 0. 0. #+ -+ P+ Q+ :# ;@ z@ {# S# _$ _$ _$ _$ _$ _$ _$ _$ _$ B) $% <% i% o% ** ph D- '; '; '; Pg N; ,& I% 88 /; W  d% xc B! B! B! /<  ! Hc Ic f% P9 P9 P9 P9 P9 P9 P9 P9 7d U~ m0 m0 m0 m0 m0 m0 m0 m0 m0 m0 m0 m0 m0 m0 m0 m0 m0 m0 m0 m0 m0 m0 m0 m0 m0 m0 m0 m0 m0 m0 m0 m0 m0 [e ;e %a :$ #+ {7 {7 {7 y  .9 j+ ab E9 ({ P9 P9 P9 P9 P9 P9 P9 P9 P9 P9 P9 P9 P9 P9 P9 P9 P9 P9 P9 P9 P9 P9 P9 P9 P9 P9 P9 P9 P9 P9 P9 P9 P9 P9 P9 P9 P9 P9 P9 P9 P9 P9 P9 P9 P9 P9 P9 P9 P9 P9 P9 P9 P9 P9 P9 P9 P9 P9 P9 P9 P9 P9 P9 P9 P9 P9 P9 P9 P9 P9 P9 P9 P9 P9 P9 P9 P9 P9 P9 P9 P9 P9 P9 P9 P9 P9 P9 P9 P9 P9 P9 P9 P9 P9 P9 P9 P9 P9 P9 P9 P9 P9 P9 P9 P9 P9 P9 P9 P9 P9 P9 P9 P9 P9 P9 P9 P9 P9 P9 P9 P9 P9 P9 P9 P9 P9 P9 P9 P9 P9 P9 P9 P9 P9 P9 P9 P9 P9 P9 P9 P9 P9 P9 P9 P9 P9 P9 P9 P9 P9 P9 P9 P9 P9 P9 P9 P9 P9 P9 P9 P9 P9 P9 P9 P9 K0 P9 Z~ )i &+ `) {7 {7 {7 +b |d c$ Lf k9 4e -e 6e {8 m0 m0 m0 m0 m0 m0 m0 m0 m0 m0 m0 m0 m0 m0 m0 m0 m0 m0 m0 m0 m0 m0 m0 m0 m0 m0 m0 m0 m0 m0 U~ 7d P9 P9 P9 P9 P9 P9 P9 P9 ^a <% !~ ,~ ;~ ;~  { >g wa l! B! B! Z. 7e bb cg W  Sh -- x- '; '; k- N= 1* |g o% !i ~i {i ]i ^i ^i ^i ^i /i /i /i /i (i _i _i _i _i _i _i _i _i _i _i _i _i _i :i <i [i }i _< f_ e_ d[ S< Q' sf Ce Ce Ce Ce Ce Ce Ce Ce Ce Ce Ce Ce Ce |i Z% 1i Eg Mg %i }h }h }h '2 *8 *8 *8 2i 5g 5g 5g 5g 5g 5g 5g 5g 3i X8 w7 w7 w7 w7 w7 w7 w7 w7 w7 w7 w7 4i 5i 6i 3c 3c 3c 3c ",
"8f 8f 8f 8f 8f 8f 8f 8f 8f 8f F, t. t. t. t. t. t. t. t. t. t. t. t. t. t. t. t. t. t. t. t. t. t. t. t. t. t. t. t. t. t. t. Nh Tg Tg @f -i 7i 8i $f $f Lg f@ 9i Q' c_ d_ e_ f_ g_ B! u  v  `. ++ 0. 0. #+ -+ P+ Q+ :# ;@ z@ {# S# _$ _$ _$ _$ _$ _$ _$ _$ _$ B) &% [% 6% o% I% 0i D- '; '; '; Pg N; ,& K% :8 ce Kf d% Aa B! B! B! /<  ! Hc ai <% P9 P9 P9 P9 P9 P9 P9 P9 7d U~ m0 m0 m0 m0 m0 m0 m0 m0 m0 m0 m0 m0 m0 m0 m0 m0 m0 m0 m0 m0 m0 m0 m0 m0 m0 m0 m0 m0 m0 m0 m0 m0 m0 [e ;e %a :$ #+ {7 {7 {7 y  .9 j+ ab E9 ({ P9 P9 P9 P9 P9 P9 P9 P9 P9 P9 P9 P9 P9 P9 P9 P9 P9 P9 P9 P9 P9 P9 P9 P9 P9 P9 P9 P9 P9 P9 P9 P9 P9 P9 P9 P9 P9 P9 P9 P9 P9 P9 P9 P9 P9 P9 P9 P9 P9 P9 P9 P9 P9 P9 P9 P9 P9 P9 P9 P9 P9 P9 P9 P9 P9 P9 P9 P9 P9 P9 P9 P9 P9 P9 P9 P9 P9 P9 P9 P9 P9 P9 P9 P9 P9 P9 P9 P9 P9 P9 P9 P9 P9 P9 P9 P9 P9 P9 P9 P9 P9 P9 P9 P9 P9 P9 P9 P9 P9 P9 P9 P9 P9 P9 P9 P9 P9 P9 P9 P9 P9 P9 P9 P9 P9 P9 P9 P9 P9 P9 P9 P9 P9 P9 P9 P9 P9 P9 P9 P9 P9 P9 P9 P9 P9 P9 P9 P9 P9 P9 P9 P9 P9 P9 P9 P9 P9 P9 P9 P9 P9 P9 P9 P9 P9 K0 K0 _~ F$ %+ `) {7 {7 {7 +b |d c$ Lf <{ Ae 5e {8 {8 m0 m0 m0 m0 m0 m0 m0 m0 m0 m0 m0 m0 m0 m0 m0 m0 m0 m0 m0 m0 m0 m0 m0 m0 m0 m0 m0 m0 m0 m0 U~ 7d P9 P9 P9 P9 P9 P9 P9 P9 P9 g% a{ k~ ;~ ;~  { >g wa l! B! B! Z. 7e =f cg W  Sh bi w- '; '; k- ci 1* m% k% di ei fi gi hi ii ji ki ki li li li mi hi hi hi hi hi hi li li li li li li hi ni Vh oi pi _< f_ e_ d[ S< Q' sf Ce Ce Ce Ce Ce Ce Ce Ce Ce Ce Ce Ce Ce .h Z% qi Eg Eg $i ri %i }h '2 *8 *8 *8 %8 5g 5g 5g 5g 5g 5g 9e )a w7 w7 w7 w7 w7 w7 w7 w7 w7 w7 w7 w7 si ri 5i ti 3c 3c 3c 3c ",
"8f 8f 8f 8f 8f 8f 8f 8f 8f 8f Z& t. t. t. t. t. t. t. t. t. t. t. t. t. t. t. t. t. t. t. t. t. t. t. t. t. t. t. t. t. t. t. Nh Tg )2 @f -i 7i ui $f $f vi f@ ]f Q' c_ d_ e_ f_ g_ B! u  v  `. ++ 0. 0. #+ -+ P+ Q+ :# ;@ z@ {# S# _$ _$ _$ _$ _$ _$ _$ _$ _$ E$ *% [% 6% f- J% wi D- '; x- x- Pg N; r, K% xi G! Kf bb Za B! B! B! /<  ! Hc ai [% P9 P9 P9 P9 P9 P9 P9 P9 7d U~ m0 m0 m0 m0 m0 m0 m0 m0 m0 m0 m0 m0 m0 m0 m0 m0 m0 m0 m0 m0 m0 m0 m0 m0 m0 m0 m0 m0 m0 m0 m0 m0 m0 [e ;e %a :$ #+ {7 {7 {7 y  .9 j+ ab E9 ({ P9 P9 P9 P9 P9 P9 P9 P9 P9 P9 P9 P9 P9 P9 P9 P9 P9 P9 P9 P9 P9 P9 P9 P9 P9 P9 P9 P9 P9 P9 P9 P9 P9 P9 P9 P9 P9 P9 P9 P9 P9 P9 P9 P9 P9 P9 P9 P9 P9 P9 P9 P9 P9 P9 P9 P9 P9 P9 P9 P9 P9 P9 P9 P9 P9 P9 P9 P9 P9 P9 P9 P9 P9 P9 P9 P9 P9 P9 P9 P9 P9 P9 P9 P9 P9 P9 P9 P9 P9 P9 P9 P9 P9 P9 P9 P9 P9 P9 P9 P9 P9 P9 P9 P9 P9 P9 P9 P9 P9 P9 P9 P9 P9 P9 P9 P9 P9 P9 P9 P9 P9 P9 P9 P9 P9 P9 P9 P9 P9 P9 P9 P9 P9 P9 P9 P9 P9 P9 P9 P9 P9 P9 P9 P9 P9 P9 P9 P9 P9 P9 P9 P9 P9 P9 P9 P9 P9 P9 P9 P9 P9 P9 P9 P9 P9 7d 7d G8 P0 P+ {7 {7 {7 {7 +b |d c$ Lf 3{ 4e -e 6e {8 m0 m0 m0 m0 m0 m0 m0 m0 m0 m0 m0 m0 m0 m0 m0 m0 m0 m0 m0 m0 m0 m0 m0 m0 m0 m0 m0 m0 m0 m0 U~ 7d P9 P9 P9 P9 P9 P9 P9 P9 P9 Jd C' [~ ;~ ;~  { >g wa l! B! B! Z. yi =f Q9 zi Sh bi w- '; x- l- ci Ai n% n% Bi Ci Di Ei Fi Gi Gi Gi Gi Gi Gi Gi Gi Gi Hi Ii Ji Ji Ji Ji Ki Ki Li Mi Ni Oi Pi {i Qi ]~ e_ f_ e_ d[ S< Q' sf Ce Ce Ce Ce Ce Ce Ce Ce Ce Ce Ce Ce Ce .h Z% Z% kh Eg Eg Eg Eg Jh Ri *8 *8 *8 *8 Kh 5g 5g 5g 9e )a w7 w7 w7 w7 w7 w7 w7 >9 3c <b j# -0 {e Si ri 5i Ti 3c 3c 3c 3c 3c ",
"8f 8f 8f 8f 8f 8f 8f 8f 8f 8f Z& t. t. t. t. t. t. t. t. t. t. t. t. t. t. t. t. t. t. t. t. t. t. t. t. t. t. t. t. t. t. t. Nh Tg |h @f -i 7i a9 $f Ui f@ f@ ]f Q' c_ d_ e_ f_ g_ B! u  v  `. ++ 0. 0. #+ -+ P+ Q+ :# ;@ z@ {# S# _$ _$ _$ _$ _$ _$ _$ _$ _$ E$ *% [% 6% f- h& wi D- x- x- x- Vi N; '& K% Wi G! xb bb Za k) B! B! /<  ! Xi ai [% P9 P9 P9 P9 P9 P9 P9 P9 7d U~ m0 m0 m0 m0 m0 m0 m0 m0 m0 m0 m0 m0 m0 m0 m0 m0 m0 m0 m0 m0 m0 m0 m0 m0 m0 m0 m0 m0 m0 m0 m0 m0 m0 [e ;e %a :$ #+ {7 {7 {7 y  .9 j+ ab F0 ({ P9 P9 P9 P9 P9 P9 P9 P9 P9 P9 P9 P9 P9 P9 P9 P9 P9 P9 P9 P9 P9 P9 P9 P9 P9 P9 P9 P9 P9 P9 P9 P9 P9 P9 P9 P9 P9 P9 P9 P9 P9 P9 P9 P9 P9 P9 P9 P9 P9 P9 P9 P9 P9 P9 P9 P9 P9 P9 P9 P9 P9 P9 P9 P9 P9 P9 P9 P9 P9 P9 P9 P9 P9 P9 P9 P9 P9 P9 P9 P9 P9 P9 P9 P9 P9 P9 P9 P9 P9 P9 P9 P9 P9 P9 P9 P9 P9 P9 P9 P9 P9 P9 P9 P9 P9 P9 P9 P9 P9 P9 P9 P9 P9 P9 P9 P9 P9 P9 P9 P9 P9 P9 P9 P9 P9 P9 P9 P9 P9 P9 P9 P9 P9 P9 P9 P9 P9 P9 P9 P9 P9 P9 P9 P9 P9 P9 P9 P9 P9 P9 P9 P9 P9 P9 P9 P9 P9 P9 P9 P9 P9 P9 P9 P9 P9 7d 7d F0 Z0 Q+ {7 {7 {7 {7 +b |d Ie Lf qh Dd yd {8 m0 m0 m0 m0 m0 m0 m0 m0 m0 m0 m0 m0 m0 m0 m0 m0 m0 m0 m0 m0 m0 m0 m0 m0 m0 m0 m0 m0 m0 m0 m0 U~ 7d P9 P9 P9 P9 P9 P9 P9 P9 P9 ^a f% !~ ,~ ;~  { >g wa l! B! B! g+ yi xa Yi W  Sh bi w- x- x- l- <- Ai l% Zi `i  j _i .j 4. +j +j +j @j #j $j %j &j *j =j -j ;j ;j >j >j ,j 'j )j !j ~j {j ]j :i ^j /j (j f_ e_ d[ S< Q' sf Ce Ce Ce Ce Ce Ce Ce Ce Ce Ce Ce Ce Ce rb Z% Z% _j :j Eg Eg Eg Eg m* *8 *8 *8 *8 vg 5g 5g X8 w7 w7 w7 w7 w7 w7 w7 s9 j# Pe Pe Pe Pe Pe <j &g 5i Ti 3c 3c 3c 3c 3c 3c ",
"8f 8f 8f 8f 8f 8f 8f 8f 8f 8f Z& t. t. t. t. t. t. t. t. t. t. t. t. t. t. t. t. t. t. t. t. t. t. t. t. t. t. t. t. t. t. t. Nh Tg |h @f -i 7i -i $f [j f@ }j ]f Q' c_ d_ e_ f_ g_ B! u  v  `. ++ 0. 0. #+ -+ P+ Q+ :# ;@ z@ {# S# _$ _$ _$ _$ _$ _$ _$ _$ _$ F$ *% |% 6% p% K% ph D- x- x- x- Pg |j T& M% y' 1j Ka 2j Zd k) B! B! /<  ! Xi 3j [% P9 P9 P9 P9 P9 P9 P9 P9 7d U~ m0 m0 m0 m0 m0 m0 m0 m0 m0 m0 m0 m0 m0 m0 m0 m0 m0 m0 m0 m0 m0 m0 m0 m0 m0 m0 m0 m0 m0 m0 m0 m0 m0 [e ;e %a :$ #+ {7 {7 {7 y  .9 j+ ab F0 ({ P9 P9 P9 P9 P9 P9 P9 P9 P9 P9 P9 P9 P9 P9 P9 P9 P9 P9 P9 P9 P9 P9 P9 P9 P9 P9 P9 P9 P9 P9 P9 P9 P9 P9 P9 P9 P9 P9 P9 P9 P9 P9 P9 P9 P9 P9 P9 P9 P9 P9 P9 P9 P9 P9 P9 P9 P9 P9 P9 P9 P9 P9 P9 P9 P9 P9 P9 P9 P9 P9 P9 P9 P9 P9 P9 P9 P9 P9 P9 P9 P9 P9 P9 P9 P9 P9 P9 P9 P9 P9 P9 P9 P9 P9 P9 P9 P9 P9 P9 P9 P9 P9 P9 P9 P9 P9 P9 P9 P9 P9 P9 P9 P9 P9 P9 P9 P9 P9 P9 P9 P9 P9 P9 P9 P9 P9 P9 P9 P9 P9 P9 P9 P9 P9 P9 P9 P9 P9 P9 P9 P9 P9 P9 P9 P9 P9 P9 P9 P9 P9 P9 P9 P9 P9 P9 P9 P9 P9 P9 P9 P9 P9 P9 P9 P9 [d 7d F0 Z0 Q+ {7 {7 {7 {7 +b |d 7e Lf 5{ 3% n0 6e m0 m0 m0 m0 m0 m0 m0 m0 m0 m0 m0 m0 m0 m0 m0 m0 m0 m0 m0 m0 m0 m0 m0 m0 m0 m0 m0 m0 m0 m0 m0 U~ 7d P9 P9 P9 P9 P9 P9 P9 P9 P9 P9 4f c{ ;~ ;~  { >g wa l! B! B! Aa J6 xa D9 Ka 4j bi w- x- x- k- N= Ai 2% 5j ^j 6j 7j 8j 9j +j +j 0j aj bj cj %j dj ej ej ej %j fj $j gj 0j +j +j +j +j hj ij ii jj kj bf e_ e_ d[ S< Q' sf Ce Ce Ce Ce Ce Ce Ce Ce Me pb lj mj q3 )2 nj Z% Z% Z% oj :j Eg Eg Eg n7 *8 *8 *8 pj 6g t. w7 w7 w7 w7 w7 w7 s9 j# Pe Pe Pe Pe Pe qj rj 5i 5i sj 3c 3c 3c 3c 3c 3c 3c ",
"8f 8f 8f 8f 8f 8f 8f 8f 8f 8f Z& t. t. t. t. t. t. t. t. t. t. t. t. t. t. t. t. t. t. t. t. t. t. t. t. t. t. t. t. t. t. t. Nh Tg |h @f -i 7i -i tj vi f@ }j ]f Q' c_ d_ e_ f_ g_ B! u  v  `. ++ 0. 0. #+ -+ P+ Q+ :# ;@ z@ {# S# _$ _$ _$ _$ _$ _$ _$ _$ _$ ab =% |% j% p% K% ph D- x- x- x- Be N; s, M% 08 7- Ka M; _b k) B! B! /<  ! Xi Q9 }% P9 P9 P9 P9 P9 P9 P9 P9 7d U~ m0 m0 m0 m0 m0 m0 m0 m0 m0 m0 m0 m0 m0 m0 m0 m0 m0 m0 m0 m0 m0 m0 m0 m0 m0 m0 m0 m0 m0 m0 m0 m0 m0 [e ;e %a :$ #+ {7 {7 {7 y  .9 j+ ab F0 ({ P9 P9 P9 P9 P9 P9 P9 P9 P9 P9 P9 P9 P9 P9 P9 P9 P9 P9 P9 P9 P9 P9 P9 P9 P9 P9 P9 P9 P9 P9 P9 P9 P9 P9 P9 P9 P9 P9 P9 P9 P9 P9 P9 P9 P9 P9 P9 P9 P9 P9 P9 P9 P9 P9 P9 P9 P9 P9 P9 P9 P9 P9 P9 P9 P9 P9 P9 P9 P9 P9 P9 P9 P9 P9 P9 P9 P9 P9 P9 P9 P9 P9 P9 P9 P9 P9 P9 P9 P9 P9 P9 P9 P9 P9 P9 P9 P9 P9 P9 P9 P9 P9 P9 P9 P9 P9 P9 P9 P9 P9 P9 P9 P9 P9 P9 P9 P9 P9 P9 P9 P9 P9 P9 P9 P9 P9 P9 P9 P9 P9 P9 P9 P9 P9 P9 P9 P9 P9 P9 P9 P9 P9 P9 P9 P9 P9 P9 P9 P9 P9 P9 P9 P9 P9 P9 P9 P9 P9 P9 P9 P9 P9 P9 P9 P9 7d yd F0 -% Q+ {7 {7 {7 {7 +b |d qf uj e{ vj 6e 6e m0 m0 m0 m0 m0 m0 m0 m0 m0 m0 m0 m0 m0 m0 m0 m0 m0 m0 m0 m0 m0 m0 m0 m0 m0 m0 m0 m0 m0 m0 m0 U~ 7d P9 P9 P9 P9 P9 P9 P9 P9 P9 P9 Jd e{ :~ ;~  { >g wa l! B! B! Ed c$ xa D9 Ka Sh bi w- x- x- l- wj 1* xj yj zj li Aj Bj +j aj cj Cj Dj Ej Fj Gj Gj Gj Gj Gj Hj Fj Ej Ij Cj cj $j Jj +j Jj Gi Kj Lj <i Mj d[ e_ d[ S< Q' sf Ce Ce Ce Ce Ce Lb lj Nj Oj Oj Oj Oj Oj Oj Oj Oj Z% Z% Z% Z% oj :j Eg ea *8 *8 *8 A% t. w7 w7 w7 w7 w7 >9 <b Pe Pe Pe Pe Pe Pj Zf 5i 5i Qj q~ 3c 3c 3c 3c 3c 3c 3c 3c ",
"8f 8f 8f 8f 8f 8f 8f 8f 8f 8f E) t. t. t. t. t. t. t. t. t. t. t. t. t. t. t. t. t. t. t. t. t. t. t. t. t. t. t. t. t. t. t. Nh Tg #h @f -i 7i @f Rj f@ f@ }j ]f Q' c_ d_ e_ f_ g_ B! u  v  `. ++ 0. 0. #+ -+ P+ Q+ :# ;@ z@ {# S# _$ _$ _$ _$ _$ _$ _$ _$ _$ H$ =% |% k% q% K% ph 3; x- x- x- Be %= s, M% 08 H! Ka xa _b k) B! B! /<  ! Xi Q9 1% P! P! P! P! P! P! P! P! yd $0 m0 m0 m0 m0 m0 m0 m0 m0 m0 m0 m0 m0 m0 m0 m0 m0 m0 m0 m0 m0 m0 m0 m0 m0 m0 m0 m0 m0 m0 m0 m0 m0 m0 [e ;e %a :$ #+ {7 {7 {7 y  .9 j+ ab E9 Sj P! P! P! P! P! P! P! P! P! P! P! P! P! P! P! P! P! P! P! P! P! P! P! P! P! P! P! P! P! P! P! P! P! P! P! P! P! P! P! P! P! P! P! P! P! P! P! P! P! P! P! P! P! P! P! P! P! P! P! P! P! P! P! P! P! P! P! P! P! P! P! P! P! P! P! P! P! P! P! P! P! P! P! P! P! P! P! P! P! P! P! P! P! P! P! P! P! P! P! P! P! P! P! P! P! P! P! P! P! P! P! P! P! P! P! P! P! P! P! P! P! P! P! P! P! P! P! P! P! P! P! P! P! P! P! P! P! P! P! P! P! P! P! P! P! P! P! P! P! P! P! P! P! P! P! P! P! P! P! P! P! P! P! P! P! yd yd E9 -% y@ {7 {7 {7 {7 +b dg 7e ze 4e Tj {8 {8 m0 m0 m0 m0 m0 m0 m0 m0 m0 m0 m0 m0 m0 m0 m0 m0 m0 m0 m0 m0 m0 m0 m0 m0 m0 m0 m0 m0 m0 m0 m0 $0 yd P! P! P! P! P! P! P! P! P! P! (0 v' l~ ;~  { >g wa l! B! B! Ed c$ xa D9 Ka Sh bi k- x- x- l- N= 2* 5j Uj Vj Wj Xj ]. ej Yj Zj `j  k .k +k @k #k #k #k $k @k +k %k &k *k Fj =k -k $j Jj ;k >k ,k 6j 'k )k e_ d[ S< Q' sf Ce Ce Ce ob Nj Oj Oj Oj Oj Oj Oj Oj Oj Oj Oj Oj Z% Z% Z% Z% Z% Z% oj g| *8 *8 *8 *8 !k w7 w7 w7 'a <b Pe Pe Pe Pe Pe X! }h 5i 5i ~k {k 3c 3c 3c 3c 3c 3c 3c 3c 3c 3c ",
"8f 8f 8f 8f 8f 8f 8f 8f 8f 8f 8f t. t. t. t. t. t. t. t. t. t. t. t. t. t. t. t. t. t. t. t. t. t. t. t. t. t. t. t. t. t. t. ]k Tg Ug @f -i 7i @f %> f@ f@ }j ]f Q' c_ d_ e_ f_ g_ B! u  v  `. ++ 0. 0. #+ -+ P+ Q+ :# ;@ z@ {# S# _$ _$ _$ _$ _$ _$ _$ _$ _$ H$ =% |% l% &* ''  - 3; x- x- x- Pg ^k !& M% /k ]~ Ka =f v# k) B! B! /<  ! (k Yi Jd P! P! P! P! P! P! P! P! yd $0 m0 m0 m0 m0 m0 m0 m0 m0 m0 m0 m0 m0 m0 m0 m0 m0 m0 m0 m0 m0 m0 m0 m0 m0 m0 m0 m0 m0 m0 m0 m0 m0 m0 [e ;e %a :$ #+ {7 {7 {7 y  .9 j+ ab E9 Sj P! P! P! P! P! P! P! P! P! P! P! P! P! P! P! P! P! P! P! P! P! P! P! P! P! P! P! P! P! P! P! P! P! P! P! P! P! P! P! P! P! P! P! P! P! P! P! P! P! P! P! P! P! P! P! P! P! P! P! P! P! P! P! P! P! P! P! P! P! P! P! P! P! P! P! P! P! P! P! P! P! P! P! P! P! P! P! P! P! P! P! P! P! P! P! P! P! P! P! P! P! P! P! P! P! P! P! P! P! P! P! P! P! P! P! P! P! P! P! P! P! P! P! P! P! P! P! P! P! P! P! P! P! P! P! P! P! P! P! P! P! P! P! P! P! P! P! P! P! P! P! P! P! P! P! P! P! P! P! P! P! P! P! P! P! yd yd E9 -% y@ {7 {7 {7 {7 +b +b Ie H8 _k Pd 6e 6e m0 m0 m0 m0 m0 m0 m0 m0 m0 m0 m0 m0 m0 m0 m0 m0 m0 m0 m0 m0 m0 m0 m0 m0 m0 m0 m0 m0 m0 m0 m0 $0 yd P! P! P! P! P! P! P! P! P! P! ee 1% 5{ ;~  { >g wa l! B! B! Ed M8 xa D9 Ka 4j bi k- x- x- l- :k <k [k }k |k ^i 1k 2k *k 3k 4k 5k 6k 7k 8k 8k 9k 0k 0k ak 8k 7k bk ck dk +k ek fk Ij %j gk hk Wj ik jk e_ e_ d[ S< Q' sf Ce Lb Nj Oj Oj Oj Oj Oj Oj Oj Oj Oj Oj Oj Oj kk Z% Z% lk Og Fa Ig mk nk *8 *8 *8 *8 ok w7 j# Pe Pe Pe Pe Pe Pe #' pk 5i 5i Ti {! Ha Ha `e 'a 3c 3c 3c 3c 3c 3c 3c 3c ",
"8f 8f 8f 8f 8f 8f 8f 8f 8f 8f 8f $# t. t. t. t. t. t. t. t. t. t. t. t. t. t. t. t. t. t. t. t. t. t. t. t. t. t. t. t. t. t. t. Tg qk @f Oh 7i rk f@ f@ f@ }j ]f Q' c_ d_ e_ f_ g_ B! u  v  `. ++ 0. 0. #+ -+ P+ Q+ :# ;@ z@ {# S# _$ _$ _$ _$ _$ _$ _$ _$ _$ /% =% |% l% u% M% sk B- w- w- x- Be ^k !& O% tk ]~ ai bb v# k) B! B! /<  ! (k D9 ^f P! P! P! P! P! P! P! P! yd $0 m0 m0 m0 m0 m0 m0 m0 m0 m0 m0 m0 m0 m0 m0 m0 m0 m0 m0 m0 m0 m0 m0 m0 m0 m0 m0 m0 m0 m0 m0 m0 m0 m0 [e ;e %a :$ #+ {7 {7 {7 y  .9 j+ ab E9 Sj P! P! P! P! P! P! P! P! P! P! P! P! P! P! P! P! P! P! P! P! P! P! P! P! P! P! P! P! P! P! P! P! P! P! P! P! P! P! P! P! P! P! P! P! P! P! P! P! P! P! P! P! P! P! P! P! P! P! P! P! P! P! P! P! P! P! P! P! P! P! P! P! P! P! P! P! P! P! P! P! P! P! P! P! P! P! P! P! P! P! P! P! P! P! P! P! P! P! P! P! P! P! P! P! P! P! P! P! P! P! P! P! P! P! P! P! P! P! P! P! P! P! P! P! P! P! P! P! P! P! P! P! P! P! P! P! P! P! P! P! P! P! P! P! P! P! P! P! P! P! P! P! P! P! P! P! P! P! P! P! P! P! P! P! P! yd yd E9 -% y@ {7 {7 {7 {7 +b +b Ie F! uk }e 6e 6e m0 m0 m0 m0 m0 m0 m0 m0 m0 m0 m0 m0 m0 m0 m0 m0 m0 m0 m0 m0 m0 m0 m0 m0 m0 m0 m0 m0 m0 m0 m0 $0 yd P! P! P! P! P! P! P! P! P! P! P! ^f 6{ :~  { >g wa l! B! /< Ed X$ *f ^e Zg 4j bi k- x- w- m- <- vk wk xk yk zk Ak &k Bk Ck K_ Dk Ek Fk Gk p_ Hk Ik Jk Kk Lk Mk Nk Ok Pk Qk Rk %k &k Fj Sk Tk Wj Uk Vk W  e_ d[ S< Q' sf pb Oj Oj Oj Oj Oj Oj Oj Oj Oj Oj Oj Oj Oj Oj Wk Z% Dg ob ob ob ob ob Ce *8 *8 *8 *8 n8 v4 Pe Pe Pe Pe Pe #' Xk &g 5i Yk >i 05 05 05 05 05 05 w7 3c 3c 3c 3c 3c 3c 3c ",
"8f 8f 8f 8f 8f 8f 8f 4i Y  8f 8f {! t. t. t. t. t. t. t. t. t. t. t. t. t. t. t. t. t. t. t. t. t. t. t. t. t. t. t. t. t. t. t. Tg Jg @f @f 7i Zk f@ f@ f@ 'i Z  Q' c_ d_ e_ f_ g_ B! u  v  `. ++ 0. 0. #+ -+ P+ Q+ :# ;@ z@ {# S# _$ _$ _$ _$ _$ _$ _$ _$ C$ /% =% |% l% u% M% `k B- w- w- x- Be *= ]& ), /k ]~ Zg *f mb Z. B! B! /<  ! (k D9 ^f P! P! P! P! P! P! P! P! yd $0 m0 m0 m0 m0 m0 m0 m0 m0 m0 m0 m0 m0 m0 m0 m0 m0 m0 m0 m0 m0 m0 m0 m0 m0 m0 m0 m0 m0 m0 m0 m0 m0 m0 [e ;e %a :$ #+ {7 {7 {7 y  .9 j+ ab E9 ({ P! P! P! P! P! P! P! P! P! P! P! P! P! P! P! P! P! P! P! P! P! P! P! P! P! P! P! P! P! P! P! P! P! P! P! P! P! P! P! P! P! P! P! P! P! P! P! P! P! P! P! P! P! P! P! P! P! P! P! P! P! P! P! P! P! P! P! P! P! P! P! P! P! P! P! P! P! P! P! P! P! P! P! P! P! P! P! P! P! P! P! P! P! P! P! P! P! P! P! P! P! P! P! P! P! P! P! P! P! P! P! P! P! P! P! P! P! P! P! P! P! P! P! P! P! P! P! P! P! P! P! P! P! P! P! P! P! P! P! P! P! P! P! P! P! P! P! P! P! P! P! P! P! P! P! P! P! P! P! P! P! P! P! P! P! yd yd E9 -% y@ {7 {7 {7 {7 +b .9 J6 7- We 6e 6e m0 m0 m0 m0 m0 m0 m0 m0 m0 m0 m0 m0 m0 m0 m0 m0 m0 m0 m0 m0 m0 m0 m0 m0 m0 m0 m0 m0 m0 m0 m0 m0 $0 yd P! P! P! P! P! P! P! P! P! P! P! (0 v' !~ K8 >g wa l! B! /< Ed X$ He /b cg 4j  l k- w- w- l- K= .l +l Di @l #l $l @k %l l< 6} &l *l 86 =l w6 =7 -l -l %7 ;l >l ,l 'l )l !l ~l {l ]l  k ^l /l Ei (l _l *f e_ d[ S< Q' :l Oj Oj Oj Oj Oj Oj Oj Oj Oj Oj Oj Oj Oj Oj Oj <l Ga ob ob ob ob ob ob ob *8 *8 *8 *8 *8 [l Pe Pe Pe ]f }l |l 5i 5i o. 05 05 05 05 05 05 05 05 05 {e 3c 3c 3c 3c 3c 3c ",
"8f 8f 8f Y  1l 2l 3l 4l Y  8f Y  8f ha t. t. t. t. t. t. t. t. t. t. t. t. t. t. t. t. t. t. t. t. t. t. t. t. t. t. t. t. t. t. zg @f @f @f 7i 5l f@ f@ f@ 6l 7l {_ c_ d_ e_ f_ g_ B! u  v  `. ++ 0. 0. #+ -+ P+ Q+ :# ;@ z@ {# S# _$ _$ _$ _$ _$ _$ _$ _$ C$ /% =% h% l% u% M% `k B- w- w- x- Be *= ]& P% 8l 9l cg *f 7e Z. B! B! /<  ! (k ^e (0 P! P! P! P! P! P! P! P! yd $0 m0 m0 m0 m0 m0 m0 m0 m0 m0 m0 m0 m0 m0 m0 m0 m0 m0 m0 m0 m0 m0 m0 m0 m0 m0 m0 m0 m0 m0 m0 m0 m0 m0 [e ;e %a :$ #+ {7 {7 {7 `) y  -+ H$ E9 yd P! P! P! P! P! P! P! P! P! P! P! P! P! P! P! P! P! P! P! P! P! P! P! P! P! P! P! P! P! P! P! P! P! P! P! P! P! P! P! P! P! P! P! P! P! P! P! P! P! P! P! P! P! P! P! P! P! P! P! P! P! P! P! P! P! P! P! P! P! P! P! P! P! P! P! P! P! P! P! P! P! P! P! P! P! P! P! P! P! P! P! P! P! P! P! P! P! P! P! P! P! P! P! P! P! P! P! P! P! P! P! P! P! P! P! P! P! P! P! P! P! P! P! P! P! P! P! P! P! P! P! P! P! P! P! P! P! P! P! P! P! P! P! P! P! P! P! P! P! P! P! P! P! P! P! P! P! P! P! P! P! P! P! P! P! yd yd E9 -% y@ {7 {7 {7 {7 ~7 .9 de r' -e {8 {8 m0 m0 m0 m0 m0 m0 m0 m0 m0 m0 m0 m0 m0 m0 m0 m0 m0 m0 m0 m0 m0 m0 m0 m0 m0 m0 m0 m0 m0 m0 m0 m0 $0 yd P! P! P! P! P! P! P! P! P! P! P! l9 1% a{ K8 >g wa l! B! /< Za [g W  G! cg 0l  l k- w- w- m- L= al bl hi cl dl 4k el K_ fl gl hl il jl kl ll ml nl ol pl ql rl sl tl ul vl wl xl yl zl Al Bl Xj (l Cl Tb e_ d[ S< Q' :b Oj Oj Oj Oj Oj Oj Oj Oj Oj Oj Oj Oj Oj Oj Dl Z% kk ob ob ob ob ob ob El *8 *8 *8 *8 *8 'i j# Pe Pe Fl Gl Hl Il t. 05 05 05 05 05 05 05 05 05 05 ha 3c 3c 3c 3c 3c 3c ",
"8f 8f Jl Kl 3l 3l Kl 4i 8f 8f Ll Y  F, t. t. t. t. t. t. t. t. t. t. t. t. t. t. t. t. t. t. t. t. t. t. t. t. t. t. t. t. t. t. Ml @f @f @f 7i fe f@ f@ f@ Nl Ol S< c_ d_ e_ f_ g_ B! u  v  `. ++ 0. 0. #+ -+ P+ Q+ :# ;@ z@ {# S# _$ _$ _$ _$ _$ _$ _$ _$ C$ Z$ =% h% m% u% M% `k B- w- w- x- Be *= =* P% 8l ^~ cg He J6 Z. B! B! /<  ! (k ^e (0 P! P! P! P! P! P! P! P! yd $0 m0 m0 m0 m0 m0 m0 m0 m0 m0 m0 m0 m0 m0 m0 m0 m0 m0 m0 m0 m0 m0 m0 m0 m0 m0 m0 m0 m0 m0 m0 m0 m0 m0 [e ;e %a :$ #+ {7 {7 {7 `) g~ R  Z$ E9 yd P! P! P! P! P! P! P! P! P! P! P! P! P! P! P! P! P! P! P! P! P! P! P! P! P! P! P! P! P! P! P! P! P! P! P! P! P! P! P! P! P! P! P! P! P! P! P! P! P! P! P! P! P! P! P! P! P! P! P! P! P! P! P! P! P! P! P! P! P! P! P! P! P! P! P! P! P! P! P! P! P! P! P! P! P! P! P! P! P! P! P! P! P! P! P! P! P! P! P! P! P! P! P! P! P! P! P! P! P! P! P! P! P! P! P! P! P! P! P! P! P! P! P! P! P! P! P! P! P! P! P! P! P! P! P! P! P! P! P! P! P! P! P! P! P! P! P! P! P! P! P! P! P! P! P! P! P! P! P! P! P! P! P! P! P! yd yd E9 -% y@ {7 {7 {7 {7 .9 {7 n! =% Ad {8 {8 m0 m0 m0 m0 m0 m0 m0 m0 m0 m0 m0 m0 m0 m0 m0 m0 m0 m0 m0 m0 m0 m0 m0 m0 m0 m0 m0 m0 m0 m0 m0 m0 $0 yd P! P! P! P! P! P! P! P! P! P! P! P! ^f 6{ K8 >g wa l! B! B! Za X$ W  G! cg 0l Pl l- w- w- o- L= Ql zk yk Rl Sl Tl Ul O_ Vl Wl Xl Yl Zl `l  m .m +m @m #m $m %m &m *m =m -m ;m >m ,m 'm  k )m !m ~m Cl Tb e_ d[ S< Q' 4a Oj Oj Oj Oj Oj Oj Oj Oj Oj Oj Oj Oj Oj Oj <l c0 ob ob ob ob ob ob ob {m *8 *8 *8 *8 *8 *8 ;6 N@ ]m Gl Gl Gl ^m 05 05 05 05 05 05 05 05 05 05 05 'a 3c 3c 3c 3c 3c 3c ",
"8f 4i 3l 3l 3l /m Y  8f 8f 8f if (m Y  t. t. t. t. t. t. t. t. t. t. t. t. t. t. t. t. t. t. t. t. t. t. t. t. t. t. t. t. t. t. u+ @f @f @f 7i fe f@ f@ f@ _m Ol S< c_ d_ e_ f_ g_ B! u  v  `. ++ 0. 0. #+ -+ P+ Q+ :# ;@ z@ {# S# _$ _$ _$ _$ _$ _$ _$ _$ D$ Z$ =% 2% m% t% O% `k B- w- w- x- Be *= l& 4& :m ^~ cg He %9 T~ B! B! /<  ! W' ce (0 P! P! P! P! P! P! P! P! yd $0 m0 m0 m0 m0 m0 m0 m0 m0 m0 m0 m0 m0 m0 m0 m0 m0 m0 m0 m0 m0 m0 m0 m0 m0 m0 m0 m0 m0 m0 m0 m0 m0 m0 [e ;e %a :$ #+ {7 {7 {7 {7 0. de `$ (0 yd P! P! P! P! P! P! P! P! P! P! P! P! P! P! P! P! P! P! P! P! P! P! P! P! P! P! P! P! P! P! P! P! P! P! P! P! P! P! P! P! P! P! P! P! P! P! P! P! P! P! P! P! P! P! P! P! P! P! P! P! P! P! P! P! P! P! P! P! P! P! P! P! P! P! P! P! P! P! P! P! P! P! P! P! P! P! P! P! P! P! P! P! P! P! P! P! P! P! P! P! P! P! P! P! P! P! P! P! P! P! P! P! P! P! P! P! P! P! P! P! P! P! P! P! P! P! P! P! P! P! P! P! P! P! P! P! P! P! P! P! P! P! P! P! P! P! P! P! P! P! P! P! P! P! P! P! P! P! P! P! P! P! P! P! P! yd yd E9 -% y@ {7 {7 {7 {7 .9 {7 o! Z~ $0 [e m0 m0 m0 m0 m0 m0 m0 m0 m0 m0 m0 m0 m0 m0 m0 m0 m0 m0 m0 m0 m0 m0 m0 m0 m0 m0 m0 m0 m0 m0 m0 m0 m0 $0 yd P! P! P! P! P! P! P! P! P! P! P! P! (0 0{ I8 >g wa l! B! B! [c d% W  G! <m 0l [m l- w- w- o- L= Ql zk hi }m |m 1m 2m 3m L2 4m 5m 6m 7m 8m 9m 0m am bm cm dm em fm gm hm im jm km lm mm nm 0+ om /i Cl Tb e_ d[ S< Q' pm Oj Oj Oj Oj Oj Oj Oj Oj Oj Oj Oj Oj Oj qm Z% Fa ob ob ob ob ob ob ob J^ *8 *8 *8 *8 *8 *8 *8 *8 rm Gl Gl Gl r} 05 05 05 05 05 05 05 05 05 05 9e 3c 3c 3c 3c 3c 3c 3c ",
"8f 8f 8f 8f 8f 8f 8f 8f 8f 8f sm tm 1i t. t. t. t. t. t. t. t. t. t. t. t. t. t. t. t. t. t. t. t. t. t. t. t. t. t. t. t. t. t. |< @f @f um 7i vm f@ f@ f@ _m Ol S< c_ d_ e_ f_ g_ B! u  v  `. ++ 0. 0. #+ -+ P+ Q+ :# ;@ z@ {# S# _$ _$ _$ _$ _$ _$ _$ _$ D$ `$ =% 2% n% A, P% wm xm w- w- x- Be ym /& Q% hd 6{ cg W  M8 Z. /< B! /<  ! W' :> l9 P! P! P! P! P! P! P! P! yd $0 m0 m0 m0 m0 m0 m0 m0 m0 m0 m0 m0 m0 m0 m0 m0 m0 m0 m0 m0 m0 m0 m0 m0 m0 m0 m0 m0 m0 m0 m0 m0 m0 m0 [e ;e %a :$ #+ {7 {7 {7 {7 0. zm /; f{ K0 Am P! P! P! P! P! P! P! P! P! P! P! P! P! P! P! P! P! P! P! P! P! P! P! P! P! P! P! P! P! P! P! P! P! P! P! P! P! P! P! P! P! P! P! P! P! P! P! P! P! P! P! P! P! P! P! P! P! P! P! P! P! P! P! P! P! P! P! P! P! P! P! P! P! P! P! P! P! P! P! P! P! P! P! P! P! P! P! P! P! P! P! P! P! P! P! P! P! P! P! P! P! P! P! P! P! P! P! P! P! P! P! P! P! P! P! P! P! P! P! P! P! P! P! P! P! P! P! P! P! P! P! P! P! P! P! P! P! P! P! P! P! P! P! P! P! P! P! P! P! P! P! P! P! P! P! P! P! P! P! P! P! P! P! P! yd yd E9 -% y@ {7 {7 {7 {7 .9 {7 {# Y~ m0 [e m0 m0 m0 m0 m0 m0 m0 m0 m0 m0 m0 m0 m0 m0 m0 m0 m0 m0 m0 m0 m0 m0 m0 m0 m0 m0 m0 m0 m0 m0 m0 m0 m0 $0 yd P! P! P! P! P! P! P! P! P! P! P! P! l9 _9 h8 >g wa l! B! B! Zd d% gg 1j D9 4j [m l- w- w- n- M= Ql zk hi Bm Cm Dm Em Fm F< Gm Hm Im Jm Km Lm Mm Nm Nm Om Pm Qm Rm Sm Tm Um Vm Wm Xm  k Ym Zm om /i Cl Tb e_ d[ S< b_ `m Oj Oj Oj Oj Oj Oj Oj Oj Oj Oj Oj Oj lj  n lk ob ob ob ob ob ob ob ob .n *8 *8 *8 *8 *8 *8 *8 *8 ]g Gl Gl Gl r} 05 05 05 05 05 05 05 05 05 05 w7 3c 3c 3c 3c 3c 3c 3c ",
"8f 8f 8f 8f 8f 8f 8f 8f 8f 8f ng tm tm +n t. t. t. t. t. t. t. t. t. t. t. t. t. t. t. t. t. t. t. t. t. t. t. t. t. t. t. t. t. t. @n @f -i 7i #n f@ f@ f@ Ol Ol S< c_ d_ e_ f_ g_ B! u  v  `. ++ 0. 0. #+ -+ P+ Q+ :# ;@ z@ {# S# _$ _$ _$ _$ _$ _$ _$ _$ E$  % =% 2% o% A, P% `= $n w- w- w- >- <= (& Q% %n 6{ cg W  M8 Z. /< B! /<  ! W' :> P9 K0 K0 K0 K0 K0 K0 K0 K0 yd $0 m0 m0 m0 m0 m0 m0 m0 m0 m0 m0 m0 m0 m0 m0 m0 m0 m0 m0 m0 m0 m0 m0 m0 m0 m0 m0 m0 m0 m0 m0 m0 m0 m0 [e ;e %a :$ #+ {7 {7 {7 +b &) M8 D9 [% K0 &n K0 K0 K0 K0 K0 K0 K0 K0 K0 K0 K0 K0 K0 K0 K0 K0 K0 K0 K0 K0 K0 K0 K0 K0 K0 K0 K0 K0 K0 K0 K0 K0 K0 K0 K0 K0 K0 K0 K0 K0 K0 K0 K0 K0 K0 K0 K0 K0 K0 K0 K0 K0 K0 K0 K0 K0 K0 K0 K0 K0 K0 K0 K0 K0 K0 K0 K0 K0 K0 K0 K0 K0 K0 K0 K0 K0 K0 K0 K0 K0 K0 K0 K0 K0 K0 K0 K0 K0 K0 K0 K0 K0 K0 K0 K0 K0 K0 K0 K0 K0 K0 K0 K0 K0 K0 K0 K0 K0 K0 K0 K0 K0 K0 K0 K0 K0 K0 K0 K0 K0 K0 K0 K0 K0 K0 K0 K0 K0 K0 K0 K0 K0 K0 K0 K0 K0 K0 K0 K0 K0 K0 K0 K0 K0 K0 K0 K0 K0 K0 K0 K0 K0 K0 K0 K0 K0 K0 K0 K0 K0 K0 K0 K0 K0 yd ({ E9 -% y@ {7 {7 {7 {7 >e `) f# _~ m0 [e m0 m0 m0 m0 m0 m0 m0 m0 m0 m0 m0 m0 m0 m0 m0 m0 m0 m0 m0 m0 m0 m0 m0 m0 m0 m0 m0 m0 m0 m0 m0 m0 m0 m0 ({ K0 K0 K0 K0 K0 K0 K0 K0 K0 K0 K0 K0 P9 |% ~~ >g wa l! B! B! _b d% Ka H! D9 0l [m l- w- w- o- Ac *n zk hi =n -n ;n >n ,n .} L< 'n )n !n ~n ~n {n ]n ]n ^n /n (n _n :n <n [n }n |n 1n *k 2n 3n om /i Cl Tb e_ d[ S< b_ `m Oj Oj Oj Oj Oj Oj Oj Oj Oj Oj Oj 4n ob Z% 5n ob ob ob ob ob ob ob 6n *8 *8 *8 *8 *8 *8 *8 *8 *8 7n Gl Gl Gl Y# 05 05 05 05 05 05 05 05 05 05 3c 3c 3c 3c 3c 3c 3c 3c ",
"8f 8f 8f 8f 8f 8f 8f 8f 8f 8f 8f tm tm 8n t. t. t. t. t. t. t. t. t. t. t. t. t. t. t. t. t. t. t. t. t. t. t. t. t. t. t. t. t. t. rk @f -i 7i #n f@ f@ f@ Ol Ol S< c_ d_ e_ f_ g_ B! u  v  `. ++ 0. 0. #+ -+ P+ Q+ :# ;@ z@ {# S# _$ _$ _$ _$ _$ _$ _$ _$ E$ .% f% 2% o% v% P% wm z- k- w- w- 9n <= (& T% %n 0n <m W  X$ `] B! B! /<  ! W' ~' P! K0 K0 K0 K0 K0 K0 K0 K0 ({ m0 m0 m0 m0 m0 m0 m0 m0 m0 m0 m0 m0 m0 m0 m0 m0 m0 m0 m0 m0 m0 m0 m0 m0 m0 m0 m0 m0 m0 m0 m0 m0 m0 m0 [e ;e %a :$ #+ {7 {7 {7 +b &) %9 @9 v' P9 &n K0 K0 K0 K0 K0 K0 K0 K0 K0 K0 K0 K0 K0 K0 K0 K0 K0 K0 K0 K0 K0 K0 K0 K0 K0 K0 K0 K0 K0 K0 K0 K0 K0 K0 K0 K0 K0 K0 K0 K0 K0 K0 K0 K0 K0 K0 K0 K0 K0 K0 K0 K0 K0 K0 K0 K0 K0 K0 K0 K0 K0 K0 K0 K0 K0 K0 K0 K0 K0 K0 K0 K0 K0 K0 K0 K0 K0 K0 K0 K0 K0 K0 K0 K0 K0 K0 K0 K0 K0 K0 K0 K0 K0 K0 K0 K0 K0 K0 K0 K0 K0 K0 K0 K0 K0 K0 K0 K0 K0 K0 K0 K0 K0 K0 K0 K0 K0 K0 K0 K0 K0 K0 K0 K0 K0 K0 K0 K0 K0 K0 K0 K0 K0 K0 K0 K0 K0 K0 K0 K0 K0 K0 K0 K0 K0 K0 K0 K0 K0 K0 K0 K0 K0 K0 K0 K0 K0 K0 K0 K0 K0 K0 K0 K0 ({ ({ E9 -% y@ {7 {7 {7 {7 >e `) f# Ta m0 [e m0 m0 m0 m0 m0 m0 m0 m0 m0 m0 m0 m0 m0 m0 m0 m0 m0 m0 m0 m0 m0 m0 m0 m0 m0 m0 m0 m0 m0 m0 m0 m0 m0 m0 ({ K0 K0 K0 K0 K0 K0 K0 K0 K0 K0 K0 K0 P! g% D8 (b wa l! B! V^ _b d% Ka ]~ D9 0l [m l- w- w- o- wj *n zk hi an bn cn nm ak l< dn en fn gn hn in jn kn ln mn nn on pn qn rn sn tn un vn wn gj xn om /i Cl Tb e_ d[ S< b_ `m Oj Oj Oj Oj Oj Oj Oj Oj Oj Oj lj ob ob A0 m9 ob ob ob ob ob ob ob :+ *8 *8 *8 *8 *8 *8 *8 *8 .n Gl Gl Gl yn 7n 05 05 05 05 05 05 05 05 05 `e 3c 3c 3c 3c 3c w7 3c 3c ",
"8f 8f 8f 8f 8f 8f 8f 8f 8f 8f 8f tm tm 9- t. t. t. t. t. t. t. t. t. t. t. t. t. t. t. t. t. t. t. t. t. t. t. t. t. t. t. t. t. t. zn @f -i 7i An f@ f@ f@ _m Ol S< c_ d_ e_ f_ g_ B! u  v  `. ++ 0. 0. #+ -+ P+ Q+ :# ;@ z@ {# S# _$ _$ _$ _$ _$ _$ _$ _$ E$ @% f% 2% o% v% 4& Bn z- k- w- w- Cn <= n& =& Dn 0{ D9 Kf X$ Aa B! B! /<  ! W' ~' K0 K0 K0 K0 K0 K0 K0 K0 K0 ({ m0 m0 m0 m0 m0 m0 m0 m0 m0 m0 m0 m0 m0 m0 m0 m0 m0 m0 m0 m0 m0 m0 m0 m0 m0 m0 m0 m0 m0 m0 m0 m0 m0 m0 [e ;e %a :$ #+ {7 {7 {7 kb &) c$ _0 C' ^a K0 K0 K0 K0 K0 K0 K0 K0 K0 K0 K0 K0 K0 K0 K0 K0 K0 K0 K0 K0 K0 K0 K0 K0 K0 K0 K0 K0 K0 K0 K0 K0 K0 K0 K0 K0 K0 K0 K0 K0 K0 K0 K0 K0 K0 K0 K0 K0 K0 K0 K0 K0 K0 K0 K0 K0 K0 K0 K0 K0 K0 K0 K0 K0 K0 K0 K0 K0 K0 K0 K0 K0 K0 K0 K0 K0 K0 K0 K0 K0 K0 K0 K0 K0 K0 K0 K0 K0 K0 K0 K0 K0 K0 K0 K0 K0 K0 K0 K0 K0 K0 K0 K0 K0 K0 K0 K0 K0 K0 K0 K0 K0 K0 K0 K0 K0 K0 K0 K0 K0 K0 K0 K0 K0 K0 K0 K0 K0 K0 K0 K0 K0 K0 K0 K0 K0 K0 K0 K0 K0 K0 K0 K0 K0 K0 K0 K0 K0 K0 K0 K0 K0 K0 K0 K0 K0 K0 K0 K0 K0 K0 K0 K0 K0 K0 ({ ({ E9 -% y@ {7 {7 {7 {7 >e `) f# Ta m0 [e m0 m0 m0 m0 m0 m0 m0 m0 m0 m0 m0 m0 m0 m0 m0 m0 m0 m0 m0 m0 m0 m0 m0 m0 m0 m0 m0 m0 m0 m0 m0 m0 m0 m0 ({ K0 K0 K0 K0 K0 K0 K0 K0 K0 K0 K0 K0 P! g% {~ (b wa l! B! k) _b bb Ka ]~ /b 0l [m l- w- w- m- Ac En zk hi an Fn +j Gn Hn In Hk Jk Jn Kn .} _[ 0k Ln Mn Nn On Pn Qn Rn Sn Tn Un Vn Wn Jj +j Xn om /i Cl Tb e_ d[ S< b_ `m Oj Oj Oj Oj Oj Oj Oj Oj Oj Oj pb ob ob lj ob ob ob ob ob ob ob nk &8 *8 *8 *8 *8 *8 *8 *8 *8 %} Gl Gl sj Yn Yn m# 05 05 05 05 05 05 05 05 ha 3c 3c 3c w7 Zn 8g 3c 3c ",
"8f 8f 8f 8f 8f 8f 8f 8f 8f 8f 8f `n tm tm {! {! E) t. t. t. t. t. t. t. t. t. t. t. t. t. t. t. t. t. t. t. t. t. t. t. t. t. t. t. u+ @f -i 7i  o f@ f@ f@ ta Ol S< c_ d_ e_ f_ g_ B! u  v  `. ++ 0. 0. #+ -+ P+ Q+ :# ;@ z@ {# S# _$ _$ _$ _$ _$ _$ _$ _$ E$ $% f% 2% f- %& R% Bn z- k- w- w- Cn .o n& ;& Dn 0{ D9 xb [g Aa B! B! /<  ! W' ~' K0 K0 K0 K0 K0 K0 K0 K0 K0 ({ m0 m0 m0 m0 m0 m0 m0 m0 m0 m0 m0 m0 m0 m0 m0 m0 m0 m0 m0 m0 m0 m0 m0 m0 m0 m0 m0 m0 m0 m0 m0 m0 m0 m0 [e ;e %a :$ #+ {7 {7 {7 {7 |b n$ ze b{ S9 K0 K0 K0 K0 K0 K0 K0 K0 K0 K0 K0 K0 K0 K0 K0 K0 K0 K0 K0 K0 K0 K0 K0 K0 K0 K0 K0 K0 K0 K0 K0 K0 K0 K0 K0 K0 K0 K0 K0 K0 K0 K0 K0 K0 K0 K0 K0 K0 K0 K0 K0 K0 K0 K0 K0 K0 K0 K0 K0 K0 K0 K0 K0 K0 K0 K0 K0 K0 K0 K0 K0 K0 K0 K0 K0 K0 K0 K0 K0 K0 K0 K0 K0 K0 K0 K0 K0 K0 K0 K0 K0 K0 K0 K0 K0 K0 K0 K0 K0 K0 K0 K0 K0 K0 K0 K0 K0 K0 K0 K0 K0 K0 K0 K0 K0 K0 K0 K0 K0 K0 K0 K0 K0 K0 K0 K0 K0 K0 K0 K0 K0 K0 K0 K0 K0 K0 K0 K0 K0 K0 K0 K0 K0 K0 K0 K0 K0 K0 K0 K0 K0 K0 K0 K0 K0 K0 K0 K0 K0 K0 K0 K0 K0 K0 K0 ({ ({ E9 -% y@ {7 {7 {7 {7 >e `) f# Ta m0 [e m0 m0 m0 m0 m0 m0 m0 m0 m0 m0 m0 m0 m0 m0 m0 m0 m0 m0 m0 m0 m0 m0 m0 m0 m0 m0 m0 m0 m0 m0 m0 m0 m0 m0 ({ K0 K0 K0 K0 K0 K0 K0 K0 K0 K0 K0 K0 P! g% {~ (b wa l! B! k) _b =f +o 9l /b @o [m l- w- w- m- Ac En zk hi an bn +j %j #o G[ _: Fk $o %o &o *o %l =o -o ;o >o ,o 'o )o !o ~o {o ]o Jj +j +j Xn om /i Cl Tb e_ d[ S< q[ ^o lj Oj Oj lj /o (o Me Oj Oj Oj 6n ob ob ob ob ob ob ob ob 6n =3 *8 *8 *8 *8 *8 *8 *8 *8 *8 *8 S0 _o _o Yn Yn Yn Yn 9e 05 05 05 05 05 05 05 {e 3c 3c Ha Pf Pf 05 3c 3c ",
"8f 8f 8f 8f 8f 8f 8f 8f 8f 8f 8f :o tm tm 8f 8f 8f B% s$ <o {m s$ 9e t. t. t. t. t. t. t. t. t. t. t. t. t. t. t. t. t. t. t. t. t. |< @f -i 7i [o f@ f@ f@ e@ Ol S< c_ d_ e_ f_ g_ B! u  v  `. ++ 0. 0. #+ -+ P+ Q+ :# ;@ z@ {# S# _$ _$ _$ _$ _$ _$ _$ _$ E$ %% <% 2% p% ** Q% }o )> k- w- w- Vi .o :& ;& |o 0{ D9 xb d% Aa B! B! /<  ! W' ~' K0 K0 K0 K0 K0 K0 K0 K0 K0 ({ m0 m0 m0 m0 m0 m0 m0 m0 m0 m0 m0 m0 m0 m0 m0 m0 m0 m0 m0 m0 m0 m0 m0 m0 m0 m0 m0 m0 m0 m0 m0 m0 m0 m0 [e ;e %a :$ #+ {7 {7 {7 {7 F  n$ ze B~ f% K0 &n K0 K0 K0 K0 K0 K0 K0 K0 K0 K0 K0 K0 K0 K0 K0 K0 K0 K0 K0 K0 K0 K0 K0 K0 K0 K0 K0 K0 K0 K0 K0 K0 K0 K0 K0 K0 K0 K0 K0 K0 K0 K0 K0 K0 K0 K0 K0 K0 K0 K0 K0 K0 K0 K0 K0 K0 K0 K0 K0 K0 K0 K0 K0 K0 K0 K0 K0 K0 K0 K0 K0 K0 K0 K0 K0 K0 K0 K0 K0 K0 K0 K0 K0 K0 K0 K0 K0 K0 K0 K0 K0 K0 K0 K0 K0 K0 K0 K0 K0 K0 K0 K0 K0 K0 K0 K0 K0 K0 K0 K0 K0 K0 K0 K0 K0 K0 K0 K0 K0 K0 K0 K0 K0 K0 K0 K0 K0 K0 K0 K0 K0 K0 K0 K0 K0 K0 K0 K0 K0 K0 K0 K0 K0 K0 K0 K0 K0 K0 K0 K0 K0 K0 K0 K0 K0 K0 K0 K0 K0 K0 K0 K0 K0 ({ ({ E9 -% y@ {7 {7 {7 {7 >e `) f# Ta m0 [e m0 m0 m0 m0 m0 m0 m0 m0 m0 m0 m0 m0 m0 m0 m0 m0 m0 m0 m0 m0 m0 m0 m0 m0 m0 m0 m0 m0 m0 m0 m0 m0 m0 m0 ({ K0 K0 K0 K0 K0 K0 K0 K0 K0 K0 K0 K0 P! g% {~ (b wa l! B! k) _b =f +o 9l G! 0l [m l- w- w- m- Ac 1o zk hi an bn +j +j 2o 3o 4o p_ 5o 6o 7o 8o 9o 0o ao =o bo co do eo fo go ho io jo +j +j Xn om /i Cl Tb e_ d[ S< S< ko lo mo no oo ok ok ok u7 *8 *8 *8 &8 6l po J^ J^ J^ J^ mo *8 *8 *8 *8 *8 *8 *8 *8 *8 *8 *8 %8 Yn Yn Yn Yn Yn Yn Yn $# 05 05 05 05 05 05 05 ~e 3c Ha Pf Pf Pf ~e 3c 3c ",
"8f 8f 8f 8f 8f 8f 8f 8f 8f 8f 8f Y  (m tm 8f 8f 8f qo qo qo qo qo qo =| ro t. t. t. t. t. t. t. t. t. t. t. t. t. t. t. t. t. t. t. t. @n so to 7i f@ f@ f@ f@ ta S< c_ d_ e_ f_ g_ B! u  v  `. ++ 0. 0. #+ -+ P+ Q+ :# ;@ z@ {# S# _$ _$ _$ _$ _$ _$ _$ _$ 7' %% <% 3% p% I% Q% uo )> k- w- w- Vi -= <& >& |o =e D9 Ka d% Ed B! B! /<  ! W' ~' K0 K0 K0 K0 K0 K0 K0 K0 K0 ({ m0 m0 m0 m0 m0 m0 m0 m0 m0 m0 m0 m0 m0 m0 m0 m0 m0 m0 m0 m0 m0 m0 m0 m0 m0 m0 m0 m0 m0 m0 m0 m0 m0 m0 [e ;e %a :$ #+ {7 {7 {7 vo F  B$ L8 [~ F9 l9 &n K0 K0 K0 K0 K0 K0 K0 K0 K0 K0 K0 K0 K0 K0 K0 K0 K0 K0 K0 K0 K0 K0 K0 K0 K0 K0 K0 K0 K0 K0 K0 K0 K0 K0 K0 K0 K0 K0 K0 K0 K0 K0 K0 K0 K0 K0 K0 K0 K0 K0 K0 K0 K0 K0 K0 K0 K0 K0 K0 K0 K0 K0 K0 K0 K0 K0 K0 K0 K0 K0 K0 K0 K0 K0 K0 K0 K0 K0 K0 K0 K0 K0 K0 K0 K0 K0 K0 K0 K0 K0 K0 K0 K0 K0 K0 K0 K0 K0 K0 K0 K0 K0 K0 K0 K0 K0 K0 K0 K0 K0 K0 K0 K0 K0 K0 K0 K0 K0 K0 K0 K0 K0 K0 K0 K0 K0 K0 K0 K0 K0 K0 K0 K0 K0 K0 K0 K0 K0 K0 K0 K0 K0 K0 K0 K0 K0 K0 K0 K0 K0 K0 K0 K0 K0 K0 K0 K0 K0 K0 K0 K0 K0 K0 ({ ({ E9 -% y@ {7 {7 {7 {7 >e `) f# Ta m0 [e m0 m0 m0 m0 m0 m0 m0 m0 m0 m0 m0 m0 m0 m0 m0 m0 m0 m0 m0 m0 m0 m0 m0 m0 m0 m0 m0 m0 m0 m0 m0 m0 m0 m0 ({ K0 K0 K0 K0 K0 K0 K0 K0 K0 K0 K0 K0 P! g% {~ (b wa l! B! k) v# xa {b ^~ 7- 0l [m l- w- w- o- wj 1o zk hi an bn +j +j wo xo yo *< zo Ao Bo Co Do Eo Fo Go Ho Io Jo Ko Lo Mo No Oo aj +j +j Xn om /i Cl Tb e_ d[ S< S< ko lo lo lo Po Qo ok ok kg *8 *8 *8 *8 u7 Ro Ro 0- So So So To *8 *8 *8 *8 *8 *8 *8 *8 *8 *8 Uo Yn Yn Yn Yn Yn Yn Yn Vo 05 05 05 05 05 05 05 05 x2 Pf Pf Pf Pf ~e 3c 3c ",
"8f 8f 8f 8f 8f 8f 8f 8f 8f 8f 8f 8f 8f Y  Ba $g Wo f@ f@ f@ f@ f@ f@ f@ ~1 Xo %# t. t. t. t. t. t. t. t. t. t. t. t. t. t. t. t. t. t. Yo f@ f@ :1 f@ f@ f@ f@ f@ S< c_ d_ e_ f_ g_ B! u  v  `. ++ 0. 0. #+ -+ P+ Q+ :# ;@ z@ {# S# _$ _$ _$ _$ _$ _$ _$ _$ E$ (% <% 3% q% I% Q% }o z- k- w- w- Vi := 1& >& |o 58 ^e Ka d% Ed B! B! /<  ! W' ~' K0 K0 K0 K0 K0 K0 K0 K0 K0 ({ m0 m0 m0 m0 m0 m0 m0 m0 m0 m0 m0 m0 m0 m0 m0 m0 m0 m0 m0 m0 m0 m0 m0 m0 m0 m0 m0 m0 m0 m0 m0 m0 m0 m0 [e ;e %a :$ #+ {7 {7 {7 |d F  Eb  { <{ 7% S9 K0 K0 K0 K0 K0 K0 K0 K0 K0 K0 K0 K0 K0 K0 K0 K0 K0 K0 K0 K0 K0 K0 K0 K0 K0 K0 K0 K0 K0 K0 K0 K0 K0 K0 K0 K0 K0 K0 K0 K0 K0 K0 K0 K0 K0 K0 K0 K0 K0 K0 K0 K0 K0 K0 K0 K0 K0 K0 K0 K0 K0 K0 K0 K0 K0 K0 K0 K0 K0 K0 K0 K0 K0 K0 K0 K0 K0 K0 K0 K0 K0 K0 K0 K0 K0 K0 K0 K0 K0 K0 K0 K0 K0 K0 K0 K0 K0 K0 K0 K0 K0 K0 K0 K0 K0 K0 K0 K0 K0 K0 K0 K0 K0 K0 K0 K0 K0 K0 K0 K0 K0 K0 K0 K0 K0 K0 K0 K0 K0 K0 K0 K0 K0 K0 K0 K0 K0 K0 K0 K0 K0 K0 K0 K0 K0 K0 K0 K0 K0 K0 K0 K0 K0 K0 K0 K0 K0 K0 K0 K0 K0 K0 K0 K0 ({ ({ E9 -% y@ {7 {7 {7 {7 >e `) f# Ta m0 [e m0 m0 m0 m0 m0 m0 m0 m0 m0 m0 m0 m0 m0 m0 m0 m0 m0 m0 m0 m0 m0 m0 m0 m0 m0 m0 m0 m0 m0 m0 m0 m0 m0 m0 ({ K0 K0 K0 K0 K0 K0 K0 K0 K0 K0 K0 K0 P! g% D8 (b wa l! B! k) Zo xa {b ^~ H! 0l [m l- w- w- o- Ac 1o zk hi an bn +j +j `o  p .p +p @p #p $p %p &p *p =p -p ;p >p ,p 'p )p !p ~p {p ]p +j +j Xn om /i Cl Tb e_ d[ S< S< ko lo lo lo lo ^p ok ok ok /p ^p %> Qo ok (p (p _p sb sb sb sb sb !@  ( *8 *8 *8 *8 *8 *8 *8 *8 7n Yn Yn Yn Yn Yn Yn Yn :p 05 05 05 05 05 05 <p Pf Pf Pf Pf Pf ~g 3c 3c ",
"~1 f@ f@ :' [p [p [p [p [p [p [p [p f@ f@ f@ f@ f@ f@ f@ f@ f@ f@ f@ f@ f@ f@ ~1 }p !k t. t. t. t. t. t. t. t. t. t. t. t. t. t. t. 05 f@ f@ f@ f@ f@ f@ f@ f@ f@ S< c_ d_ e_ f_ g_ B! u  v  `. ++ 0. 0. #+ -+ P+ Q+ :# ;@ z@ {# S# _$ _$ _$ _$ _$ _$ _$ _$ E$ (% <% 6% q% I% |p uo !; k- w- k- Vi := 1& ~, |o 68 ce Ka bb Ed B! B! /<  ! e+ +% K0 K0 K0 K0 K0 K0 K0 K0 K0 ({ m0 m0 m0 m0 m0 m0 m0 m0 m0 m0 m0 m0 m0 m0 m0 m0 m0 m0 m0 m0 m0 m0 m0 m0 m0 m0 m0 m0 m0 m0 m0 m0 m0 m0 [e ;e %a :$ #+ {7 {7 {7 |d $+ Eb  { }{ [~ t' (0 K0 K0 K0 K0 K0 K0 K0 K0 K0 K0 K0 K0 K0 K0 K0 K0 K0 K0 K0 K0 K0 K0 K0 K0 K0 K0 K0 K0 K0 K0 K0 K0 K0 K0 K0 K0 K0 K0 K0 K0 K0 K0 K0 K0 K0 K0 K0 K0 K0 K0 K0 K0 K0 K0 K0 K0 K0 K0 K0 K0 K0 K0 K0 K0 K0 K0 K0 K0 K0 K0 K0 K0 K0 K0 K0 K0 K0 K0 K0 K0 K0 K0 K0 K0 K0 K0 K0 K0 K0 K0 K0 K0 K0 K0 K0 K0 K0 K0 K0 K0 K0 K0 K0 K0 K0 K0 K0 K0 K0 K0 K0 K0 K0 K0 K0 K0 K0 K0 K0 K0 K0 K0 K0 K0 K0 K0 K0 K0 K0 K0 K0 K0 K0 K0 K0 K0 K0 K0 K0 K0 K0 K0 K0 K0 K0 K0 K0 K0 K0 K0 K0 K0 K0 K0 K0 K0 K0 K0 K0 K0 K0 K0 K0 &n ({ E9 -% y@ {7 {7 {7 {7 >e `) f# Ta m0 [e m0 m0 m0 m0 m0 m0 m0 m0 m0 m0 m0 m0 m0 m0 m0 m0 m0 m0 m0 m0 m0 m0 m0 m0 m0 m0 m0 m0 m0 m0 m0 m0 m0 m0 ({ K0 K0 K0 K0 K0 K0 K0 K0 K0 K0 K0 K0 P9 |% ~~ >g wa l! B! T~ 7e xa cg 6{ 9l 1p [m l- w- w- o- Ac 1o zk hi an bn +j +j 2p 3p 4p 5p 6p 7p 8p 9p 0p ap bp cp dp ep fp gp hp ip ip jp ]p kp +j Xn om /i Cl Tb e_ d[ S< S< ko lo u7 lp mp ok ok ok ok ok ok np op op op op pp sb sb sb sb sb sb sb V9 qp *8 *8 *8 *8 *8 *8 %8 f| rp 9e Fg %# :p 05 05 05 Hg sp tp up ;6 A% %8 u2 vp wp mg Pf xp xp ",
"f@ f@ f@ f@ f@ f@ f@ f@ f@ f@ f@ f@ f@ f@ f@ f@ f@ f@ f@ f@ f@ f@ f@ f@ f@ f@ f@ f@ f@ u2 Pf :p t. t. t. t. t. t. t. t. t. t. %# Xo ~1 f@ f@ f@ f@ f@ f@ f@ f@ f@ S< c_ d_ e_ f_ g_ B! u  v  `. ++ 0. 0. #+ -+ P+ Q+ :# ;@ z@ {# S# _$ _$ _$ _$ _$ _$ _$ _$ E$ (% <% 6% q% I% =& /- h- k- k- w- Vi yp |& '& zp 68 G! Ka bb Ed la B! /<  ! e+ q' Ap K0 K0 K0 K0 K0 K0 K0 K0 ({ m0 m0 m0 m0 m0 m0 m0 m0 m0 m0 m0 m0 m0 m0 m0 m0 m0 m0 m0 m0 m0 m0 m0 m0 m0 m0 m0 m0 m0 m0 m0 m0 m0 m0 [e ;e %a :$ #+ {7 {7 {7 {7 $+ Eb >~ }{ :~ 5{ P, P9 K0 K0 K0 K0 K0 K0 K0 K0 K0 K0 K0 K0 K0 K0 K0 K0 K0 K0 K0 K0 K0 K0 K0 K0 K0 K0 K0 K0 K0 K0 K0 K0 K0 K0 K0 K0 K0 K0 K0 K0 K0 K0 K0 K0 K0 K0 K0 K0 K0 K0 K0 K0 K0 K0 K0 K0 K0 K0 K0 K0 K0 K0 K0 K0 K0 K0 K0 K0 K0 K0 K0 K0 K0 K0 K0 K0 K0 K0 K0 K0 K0 K0 K0 K0 K0 K0 K0 K0 K0 K0 K0 K0 K0 K0 K0 K0 K0 K0 K0 K0 K0 K0 K0 K0 K0 K0 K0 K0 K0 K0 K0 K0 K0 K0 K0 K0 K0 K0 K0 K0 K0 K0 K0 K0 K0 K0 K0 K0 K0 K0 K0 K0 K0 K0 K0 K0 K0 K0 K0 K0 K0 K0 K0 K0 K0 K0 K0 K0 K0 K0 K0 K0 K0 K0 K0 K0 K0 K0 K0 K0 K0 K0 ({ ({ l9 -% y@ {7 {7 {7 {7 >e `) f# Ta m0 [e m0 m0 m0 m0 m0 m0 m0 m0 m0 m0 m0 m0 m0 m0 m0 m0 m0 m0 m0 m0 m0 m0 m0 m0 m0 m0 m0 m0 m0 m0 m0 m0 m0 m0 ({ K0 K0 K0 K0 K0 K0 K0 K0 K0 K0 K0 K0 P9 B; !~ >g wa l! B! `] 7e *f cg 0n 9l 1p [m l- k- k- o- <- 1o zk hi an bn +j +j 2p Bp Cp Dp Ep Fp Gp Hp !j Ip Jp Kp Lp Mp Np Op Pp Qp )p Rp Sp +j +j Xn om /i Cl Tb e_ d[ S< q[ Tp Qo ok ok ok ok ok ok ok ok ok ok Up op op op Vp Wp Wp Wp >a 09 sb sb sb sb Xp Yp *8 *8 *8 *8 *8 *8 *8 *8 *8 *8 *8 *8 *8 *8 *8 *8 *8 *8 *8 *8 *8 *8 *8 *8 *8 *8 *8 %8 ",
"f@ f@ f@ f@ f@ f@ f@ f@ f@ f@ f@ f@ f@ f@ f@ f@ f@ f@ f@ f@ f@ f@ f@ f@ f@ f@ f@ f@ f@ f@ f@ f@ ~1 Uo }p Zp }p Uo Uo Uo Uo Uo f@ f@ f@ f@ f@ f@ f@ f@ f@ f@ f@ f@ S< c_ d_ e_ f_ g_ B! u  v  `. ++ 0. 0. #+ -+ P+ Q+ :# ;@ z@ {# S# _$ _$ _$ _$ _$ _$ _$ _$ E$ (% <% 6% u% K% =& /- !; k- k- k- Pg ;= |& '& zp 68 G! Zg bb Za k) B! /<  ! `p r' ({ 7d 7d 7d 7d 7d 7d 7d 7d U~ m0 m0 m0 m0 m0 m0 m0 m0 m0 m0 m0 m0 m0 m0 m0 m0 m0 m0 m0 m0 m0 m0 m0 m0 m0 m0 m0 m0 m0 m0 m0 m0 m0 m0 [e ;e %a :$ #+ {7 {7 {7 {7 $+ Eb ,~ [{ ;~ [~  q .q 7d 7d 7d 7d 7d 7d 7d 7d 7d 7d 7d 7d 7d 7d 7d 7d 7d 7d 7d 7d 7d 7d 7d 7d 7d 7d 7d 7d 7d 7d 7d 7d 7d 7d 7d 7d 7d 7d 7d 7d 7d 7d 7d 7d 7d 7d 7d 7d 7d 7d 7d 7d 7d 7d 7d 7d 7d 7d 7d 7d 7d 7d 7d 7d 7d 7d 7d 7d 7d 7d 7d 7d 7d 7d 7d 7d 7d 7d 7d 7d 7d 7d 7d 7d 7d 7d 7d 7d 7d 7d 7d 7d 7d 7d 7d 7d 7d 7d 7d 7d 7d 7d 7d 7d 7d 7d 7d 7d 7d 7d 7d 7d 7d 7d 7d 7d 7d 7d 7d 7d 7d 7d 7d 7d 7d 7d 7d 7d 7d 7d 7d 7d 7d 7d 7d 7d 7d 7d 7d 7d 7d 7d 7d 7d 7d 7d 7d 7d 7d 7d 7d 7d 7d 7d 7d 7d 7d 7d 7d 7d 7d 7d ({ U~ l9 -% y@ {7 {7 {7 {7 >e `) f# Ta m0 [e m0 m0 m0 m0 m0 m0 m0 m0 m0 m0 m0 m0 m0 m0 m0 m0 m0 U~ Bd 5e -e 7d }e m0 m0 m0 m0 m0 m0 m0 m0 m0 m0 m0 ({ 7d 7d 7d 7d 7d 7d 7d 7d 7d 7d 7d 7d 5e &h !~ >g wa l! B! `] 7e *f Yg 0n ^~ 1p [m l- k- k- o- N= 1o zk hi an Fn +j +j +q @q #q $q %q &q *q =q -q Eo ;q >q ,q 'q )q ,q !q ~q {q ]q %j +j +j Xn om /i Cl Tb e_ d[ S< q[ ^q ok ok ok ok ok ok ok ok ok ok ok /q op op op #n #n #n #n #n #n (q _q sb sb sb :q c: *8 *8 *8 *8 *8 *8 *8 *8 *8 *8 *8 *8 *8 *8 *8 *8 *8 *8 *8 *8 *8 *8 *8 *8 *8 *8 *8 ",
"<q ~1 f@ f@ f@ f@ f@ f@ f@ 'i [q }q }q [q 'i f@ f@ f@ f@ f@ f@ f@ f@ f@ f@ f@ f@ f@ f@ f@ f@ f@ f@ f@ f@ f@ f@ f@ f@ f@ f@ f@ f@ f@ f@ f@ f@ f@ f@ f@ f@ f@ f@ f@ S< c_ d_ e_ f_ g_ B! u  v  `. ++ 0. 0. #+ -+ P+ Q+ :# ;@ z@ {# S# _$ _$ _$ _$ _$ _$ _$ _$ F$ &% <% 6% u% K% >& /- h- k- k- k- Pg |q R& T& zp 78 G! Zg bb [c k) B! /<  ! `p r' ({ 7d 7d 7d 7d 7d 7d 7d 7d U~ m0 m0 m0 m0 m0 m0 m0 m0 m0 m0 m0 m0 m0 m0 m0 m0 m0 m0 m0 m0 m0 m0 m0 m0 m0 m0 m0 m0 m0 m0 m0 m0 m0 m0 [e ;e %a :$ #+ {7 {7 {7 {7 $+ Eb ,~ [{ ;~ k~ qh B; -e Nd 7d 7d 7d 7d 7d 7d 7d 7d 7d 7d 7d 7d 7d 7d 7d 7d 7d 7d 7d 7d 7d 7d 7d 7d 7d 7d 7d 7d 7d 7d 7d 7d 7d 7d 7d 7d 7d 7d 7d 7d 7d 7d 7d 7d 7d 7d 7d 7d 7d 7d 7d 7d 7d 7d 7d 7d 7d 7d 7d 7d 7d 7d 7d 7d 7d 7d 7d 7d 7d 7d 7d 7d 7d 7d 7d 7d 7d 7d 7d 7d 7d 7d 7d 7d 7d 7d 7d 7d 7d 7d 7d 7d 7d 7d 7d 7d 7d 7d 7d 7d 7d 7d 7d 7d 7d 7d 7d 7d 7d 7d 7d 7d 7d 7d 7d 7d 7d 7d 7d 7d 7d 7d 7d 7d 7d 7d 7d 7d 7d 7d 7d 7d 7d 7d 7d 7d 7d 7d 7d 7d 7d 7d 7d 7d 7d 7d 7d 7d 7d 7d 7d 7d 7d 7d 7d 7d 7d 7d 7d 7d U~ U~ l9 -% y@ {7 {7 {7 {7 >e `) f# Ta m0 [e m0 m0 m0 m0 m0 m0 m0 m0 m0 m0 m0 m0 m0 m0 m0 7d h, g% Ke 0{ v' g% /a -e ({ m0 m0 m0 m0 m0 m0 m0 m0 U~ Bd ^a (0 l9 7d 7d 7d 7d 7d 7d 7d 7d 7d 5e &h !~ >g wa l! B! xc 7e *f Yg 0n 0n 1p [m l- k- k- o- N= 1o zk hi an Fn +j +j 1q 2q 3q 4q 5q 6q 7q 8q !j 9q 0q aq bq cq cq dq eq fq gq hq bj +j +j Xn om /i Cl Tb e_ d[ S< q[ iq ok ok ok ok ok ok ok ok ok ok ok Lb op op jq #n #n #n #n #n #n #n #n kq (q lq #n #n ^+ t4 *8 *8 *8 *8 *8 *8 f@ $8 $8 $8 $8 $8 $8 $8 $8 $8 $8 $8 [_ *8 *8 *8 *8 *8 *8 ",
":; mq mq mq mq mq nq nq nq oq pq pq pq oq T0 qq rq sq f@ f@ f@ f@ f@ f@ f@ f@ f@ f@ f@ f@ f@ f@ f@ f@ f@ f@ f@ f@ f@ f@ f@ f@ f@ f@ f@ f@ f@ f@ f@ f@ f@ f@ f@ f@ S< c_ d_ e_ f_ g_ B! u  v  `. ++ 0. 0. #+ -+ P+ Q+ :# ;@ z@ {# S# _$ _$ _$ _$ _$ _$ _$ _$ G$ *% [% 6% u% K% >& /- !; k- k- k- Pg |q p& s, zp 78 1j Zg =f _b k) B! /<  ! `p %% ({ 7d 7d 7d 7d 7d 7d 7d 7d U~ m0 m0 m0 m0 m0 m0 m0 m0 m0 m0 m0 m0 m0 m0 m0 m0 m0 m0 m0 m0 m0 m0 m0 m0 m0 m0 m0 m0 m0 m0 m0 m0 m0 m0 [e ;e %a :$ #+ {7 {7 {7 {7 *+ tq ;~ <{ ;~ ;~ :~ 6{ h, yd 7d 7d 7d 7d 7d 7d 7d 7d 7d 7d 7d 7d 7d 7d 7d 7d 7d 7d 7d 7d 7d 7d 7d 7d 7d 7d 7d 7d 7d 7d 7d 7d 7d 7d 7d 7d 7d 7d 7d 7d 7d 7d 7d 7d 7d 7d 7d 7d 7d 7d 7d 7d 7d 7d 7d 7d 7d 7d 7d 7d 7d 7d 7d 7d 7d 7d 7d 7d 7d 7d 7d 7d 7d 7d 7d 7d 7d 7d 7d 7d 7d 7d 7d 7d 7d 7d 7d 7d 7d 7d 7d 7d 7d 7d 7d 7d 7d 7d 7d 7d 7d 7d 7d 7d 7d 7d 7d 7d 7d 7d 7d 7d 7d 7d 7d 7d 7d 7d 7d 7d 7d 7d 7d 7d 7d 7d 7d 7d 7d 7d 7d 7d 7d 7d 7d 7d 7d 7d 7d 7d 7d 7d 7d 7d 7d 7d 7d 7d 7d 7d 7d 7d 7d 7d 7d 7d 7d 7d 7d 7d U~ U~ l9 -% y@ {7 {7 {7 {7 >e `) f# Ta m0 [e m0 m0 m0 m0 m0 m0 m0 m0 m0 m0 m0 6e m0 ({ We w' a{ [~ :~ :~ )~ l~ {~ (e Jd 7d m0 {8 {8 {8 m0 U~ -e .q P, t' C' 7{ 7d 7d 7d 7d 7d 7d 7d 7d 7d 5e &h !~ >g wa l! B! Aa Ie *f Yg 0{ 0{ 1p [m m- k- k- o- N= 1o zk hi an Fn +j +j uq *m vq wq xq yq zq Aq Bq Cq Dq Eq Fq Gq dq Hq Iq Jq Kq ]o gj +j +j Xn om /i Cl Tb e_ d[ S< Q' Lq Mq Xo ok ok ok ok ok ok ok ok ok ok Nq op jq #n #n #n #n #n #n #n #n #n #n #n #n #n #n qi Oq Pq Qq Rq Rq Rq Rq Rq Rq Rq Rq Rq Rq Rq Rq Rq Rq Rq Rq Rq Rq Rq Rq Rq Rq ",
"Sq Tq ti ti ti ti ti ti Uq &| &| &| &| &| &| &| &| &| Vq Z9 Wq Xq f@ f@ f@ f@ f@ f@ f@ f@ f@ f@ f@ f@ f@ f@ f@ f@ f@ f@ f@ f@ f@ f@ f@ f@ f@ 'i Yq Yq f@ f@ Zq `q q[ c_ d_ e_ f_ g_ B! u  v  `. ++ 0. 0. #+ -+ P+ Q+ :# ;@ z@ {# S# _$ _$ _$ _$ _$ _$ _$ _$ H$ *% [% j% u% K% r, /- h- k- k- w- Pg 4- q& !&  r _8 1j cg xa _b k) B! /<  ! `p (% ({ 7d 7d 7d 7d 7d 7d 7d 7d U~ m0 m0 m0 m0 m0 {8 m0 m0 m0 m0 m0 m0 m0 m0 m0 6e {8 {8 {8 6e m0 m0 m0 m0 m0 m0 m0 m0 m0 m0 m0 m0 m0 m0 [e ;e %a :$ #+ {7 {7 {7 |d *+ .r ;~ <{ ;~ ;~ ;~ b{ 3% 7d 7d 7d 7d 7d 7d 7d 7d 7d 7d 7d 7d 7d 7d 7d 7d 7d 7d 7d 7d 7d 7d 7d 7d 7d 7d 7d 7d 7d 7d 7d 7d 7d 7d 7d 7d 7d 7d 7d 7d 7d 7d 7d 7d 7d 7d 7d 7d 7d 7d 7d 7d 7d 7d 7d 7d 7d 7d 7d 7d 7d 7d 7d 7d 7d 7d 7d 7d 7d 7d 7d 7d 7d 7d 7d 7d 7d 7d 7d 7d 7d 7d 7d 7d 7d 7d 7d 7d 7d 7d 7d 7d 7d 7d 7d 7d 7d 7d 7d 7d 7d 7d 7d 7d 7d 7d 7d 7d 7d 7d 7d 7d 7d 7d 7d 7d 7d 7d 7d 7d 7d 7d 7d 7d 7d 7d 7d 7d 7d 7d 7d 7d 7d 7d 7d 7d 7d 7d 7d 7d 7d 7d 7d 7d 7d 7d 7d 7d 7d 7d 7d 7d 7d 7d 7d 7d 7d 7d 7d 7d 7d U~ U~ l9 -% y@ {7 {7 {7 {7 >e `) f# Ta m0 [e m0 m0 m0 m0 m0 m0 m0 m0 m0 67 m0 ({ 5e P, a{ )~ ;~ ;~ ;~ ;~ ;~ ;~ '~ [~ {~ Ke h, 7d 7d -e 5e 1% =e c{ l~ )~ !~ f% 7d 7d 7d 7d 7d 7d 7d 7d 7d 5e &h +r >g wa l! B! Ed #) *f %e 0{ =e 1p [m m- k- k- o- N= 1o zk hi an Fn +j +j @r #r $r %r &r *r =r -r ;r >r do eq ,r 'r )r Hq Iq !r ~r {r +j +j +j Xn om /i Cl Tb e_ d[ S< Q' Lq ]r ]r ^r ok ok ok ok ok ok ok ok ok /r op (r #n #n #n #n #n #n #n #n #n #n #n Wp Z% #n #n #n #n _r _r _r _r :r :r :r :r :r :r :r <r _r _r _r _r [r }r }r }r }r }r }r ",
"Sq Sq |r ti ti ti ti ti 1r &| &| &| &| &| &| &| &| &| &| &| &| 2r 3r 3r 4r 5r Rf 6r 6r 6r 7r [j [j [j [j [j f@ f@ f@ f@ f@ f@ 8r 9r 0r ar -. -. -. -. -. -. br cr b_ c_ d_ e_ f_ g_ B! u  v  `. ++ 0. 0. #+ -+ P+ Q+ :# ;@ z@ {# S# _$ _$ _$ _$ _$ _$ _$ _$ H$ *% |% k% u% K% r, /- h- l- k- w- Pg >= q& ~&  r _8 H! cg xa _b k) B! /<  ! `p r' 7d 7d 7d 7d 7d 7d 7d 7d 7d U~ m0 m0 ({ P! We Bd 7d 7d U~ m0 {8 {8 n0 ({ yd Bd Bd Bd 7d 7d 7d U~ m0 {8 m0 m0 m0 m0 m0 m0 m0 m0 m0 m0 [e ;e %a :$ #+ {7 {7 {7 |d *+ .r ;~ <{ ;~ ;~ ;~ c{ h% 7d 7d 7d 7d 7d 7d 7d 7d 7d 7d 7d 7d 7d 7d 7d 7d 7d 7d 7d 7d 7d 7d 7d 7d 7d 7d 7d 7d 7d 7d 7d 7d 7d 7d 7d 7d 7d 7d 7d 7d 7d 7d 7d 7d 7d 7d 7d 7d 7d 7d 7d 7d 7d 7d 7d 7d 7d 7d 7d 7d 7d 7d 7d 7d 7d 7d 7d 7d 7d 7d 7d 7d 7d 7d 7d 7d 7d 7d 7d 7d 7d 7d 7d 7d 7d 7d 7d 7d 7d 7d 7d 7d 7d 7d 7d 7d 7d 7d 7d 7d 7d 7d 7d 7d 7d 7d 7d 7d 7d 7d 7d 7d 7d 7d 7d 7d 7d 7d 7d 7d 7d 7d 7d 7d 7d 7d 7d 7d 7d 7d 7d 7d 7d 7d 7d 7d 7d 7d 7d 7d 7d 7d 7d 7d 7d 7d 7d 7d 7d 7d 7d 7d 7d 7d 7d 7d 7d 7d 7d 7d 7d U~ U~ l9 -% y@ {7 {7 {7 {7 >e `) f# Ta m0 [e m0 m0 m0 m0 m0 m0 6e m0 U~ Bd h, P, e{ !~ :~ ;~ ;~ ;~ ;~ ;~ ;~ ;~ ;~ ;~ '~ l~ 5{ 6{ C' e{ 5{ !~ )~ '~ ;~ ;~ ~~ [% 7d 7d 7d 7d 7d 7d 7d 7d 7d 5e Xg +r >g wa l! Nf Ed c$ *f D9 =e 0{ <k [m m- k- w- o- N= dr zk hi an Fn +j +j er fr gr hr ir jr kr lr mr nr or pr qr rr sr tr ur vr wr {r @j +j +j Xn om /i Cl Tb e_ d[ S< Q' Lq ]r ]r xr ok ok ok ok ok ok ok ok ok Dl op yr #n #n #n #n #n #n #n Wp zr Ar Ml Ml Ml k@ k@ k@ |# Br Br Br Br Br Br Br Br Br Br Br Br Br Br Br Br Br Br Br Cr Dr Er &} ",
"Fr Sq Sq Gr Ef Hr ^m Ir &| &| &| &| &| &| &| &| &| &| &| &| &| -  3r 3r 3r 3r 3r 3r 3r 3r 3r 3r 3r 3r 3r 3r 3r 3r 3r 3r 3r Jr Kr Lr Lr Lr Mr -. -. -. -. Nr Or Pr b_ c_ d_ e_ f_ g_ B! u  v  `. ++ 0. 0. #+ -+ P+ Q+ :# ;@ z@ {# S# _$ _$ _$ _$ _$ _$ _$ _$ H$ *% |% l% w% M% '& /- h- l- k- w- Pg ,= r& {&  r (8 Qr cg xa Rr k) B! /<  ! `p r' 7d 7d 7d 7d 7d 7d 7d 7d 7d U~ U~ m0 ({ 7{ e{ 6{ Ke |% 3% 5e Bd 7d P9 (0 <% 0{ e{ e{ Ae Ke B; 2% We 7d ({ m0 {8 6e m0 m0 m0 m0 m0 m0 [e ;e %a :$ #+ {7 {7 {7 |d *+ .r ;~ <{ ;~ ;~ <~ _e re [d ({ 7d 7d 7d 7d 7d 7d 7d 7d 7d 7d 7d 7d 7d 7d 7d 7d 7d 7d 7d 7d 7d 7d 7d 7d 7d 7d 7d 7d 7d 7d 7d 7d 7d 7d 7d 7d 7d 7d 7d 7d 7d 7d 7d 7d 7d 7d 7d 7d 7d 7d 7d 7d 7d 7d 7d 7d 7d 7d 7d 7d 7d 7d 7d 7d 7d 7d 7d 7d 7d 7d 7d 7d 7d 7d 7d 7d 7d 7d 7d 7d 7d 7d 7d 7d 7d 7d 7d 7d 7d 7d 7d 7d 7d 7d 7d 7d 7d 7d 7d 7d 7d 7d 7d 7d 7d 7d 7d 7d 7d 7d 7d 7d 7d 7d 7d 7d 7d 7d 7d 7d 7d 7d 7d 7d 7d 7d 7d 7d 7d 7d 7d 7d 7d 7d 7d 7d 7d 7d 7d 7d 7d 7d 7d 7d 7d 7d 7d 7d 7d 7d 7d 7d 7d 7d 7d 7d 7d 7d 7d U~ U~ l9 -% y@ {7 {7 {7 {7 >e `) f# Ta m0 [e m0 m0 m0 m0 {8 6e ({ -e h% 4e :g l~ :~ ;~ ;~ ;~ ;~ ;~ ;~ ;~ ;~ ;~ ;~ ;~ ;~ ;~ k~ :~ :~ :~ ;~ ;~ ;~ ;~ ;~ :~ e{ Jd 7d 7d 7d 7d 7d 7d 7d 7d 7d 5e Xg +r >g wa l! g_ Ed c$ *f D9 58 58 Sr  l m- w- w- o- N= dr zk hi an Fn +j +j Tr Ur Vr Wr Xr Yr Zr `r  s Cq .s +s @s #s $s %s &s *s =s -s Jj +j +j Xn om /i Cl Tb e_ d[ S< Q' Lq ]r ]r ]r ^r ok ok ok ok ok ok ok ok s$ ;s >s #n #n #n #n Wp A0 og Ml Ml Ml Ml Ml ,s k@ k@ k@ _; Br Br Br Br Br Br Br Br Br Br Br Br Br Br Br Br Br Br Br Br Br Br Br ",
"'s /] Oh Sq Sq Sq Sq Tq ti !a &| &| &| &| &| &| &| &| &| &| &| &| &| )s !s ~s {s {s {s {s ]s !s !s !s !s ^s {s 2r 3r /s -} I~ (s _s :s <s [s [s }s `a -. -. -. -. Q' c_ d_ e_ f_ g_ B! u  v  `. ++ 0. 0. #+ -+ P+ Q+ :# ;@ z@ {# S# _$ _$ _$ _$ _$ _$ _$ _$ /% *% |% l% v% M% s, /- h- l- k- k- Pg 5> ;* ]&  r (8 9l cg xa v# k) B! /<  ! `p r' 7d 7d 7d 7d 7d 7d 7d 7d 7d U~ U~ {8 ({ f% [~ :~ +r qh d{ a{ e{ e{ e{ {~ ~~ )~ '~ :~ :~ l~ qh c{ b{ Ae P, h, 7d ({ U~ m0 6e m0 m0 m0 [e ;e %a :$ #+ {7 {7 {7 |d =+ |s ;~ <{ ;~ ;~ >~ 4{ _k -e ({ 7d 7d 7d 7d 7d 7d 7d 7d 7d 7d 7d 7d 7d 7d 7d 7d 7d 7d 7d 7d 7d 7d 7d 7d 7d 7d 7d 7d 7d 7d 7d 7d 7d 7d 7d 7d 7d 7d 7d 7d 7d 7d 7d 7d 7d 7d 7d 7d 7d 7d 7d 7d 7d 7d 7d 7d 7d 7d 7d 7d 7d 7d 7d 7d 7d 7d 7d 7d 7d 7d 7d 7d 7d 7d 7d 7d 7d 7d 7d 7d 7d 7d 7d 7d 7d 7d 7d 7d 7d 7d 7d 7d 7d 7d 7d 7d 7d 7d 7d 7d 7d 7d 7d 7d 7d 7d 7d 7d 7d 7d 7d 7d 7d 7d 7d 7d 7d 7d 7d 7d 7d 7d 7d 7d 7d 7d 7d 7d 7d 7d 7d 7d 7d 7d 7d 7d 7d 7d 7d 7d 7d 7d 7d 7d 7d 7d 7d 7d 7d 7d 7d 7d 7d 7d 7d 7d 7d 7d 7d U~ U~ l9 -% y@ {7 {7 {7 {7 >e `) f# Ta m0 [e m0 m0 {8 n0 ({ -e g% C' B~ [~ ;~ ;~ ;~ ;~ ;~ ;~ ;~ ;~ ;~ ;~ ;~ ;~ ;~ ;~ ;~ ;~ ;~ ;~ ;~ ;~ ;~ ;~ ;~ ;~ ;~ [~ v' l9 7d 7d 7d 7d 7d 7d 7d 7d 7d 5e Xg +r >g wa l! /< Ed c$ *f ^e 58 58 Sr  l m- k- k- o- N= 1s 2s hi an Fn +j 3s Tr 4s 5s 6s 7s 8s 9s 0s as bs cs ds es fs gs hs is is js ks +j +j +j Xn om /i Cl Tb e_ d[ S< Q' Lq ]r ]r ]r t3 ok ok ok ok ok ok ok (o ls ms ns os ps os og Ml Ml Ml Ml Ml Ml Ml Ml +* k@ k@ k@ qs Br Br Br Br Br Br Br Br Br Br Br Br Br Br Br Br Br Br Br Br Br Br Br ",
"X8 's 's 3c rs Sq Sq Sq Sq Sq ss |r ts #' &| &| &| &| &| &| &| &| &| &| &| &| &| &| &| &| &| &| &| &| &| &| &|  ' (] us us us us _! vs [s [s [s [s ws xs -. -. -. Q' c_ d_ e_ f_ g_ B! u  v  `. ++ 0. 0. #+ -+ P+ Q+ :# ;@ z@ {# S# _$ _$ _$ _$ _$ _$ _$ _$ /% =% |% l% v% M% s, /- h- l- k- k- Pg 5> s& =* ys xi ^~ Yg *f v# k) B! /<  ! `p r' 7d 7d 7d 7d 7d 7d 7d 7d 7d U~ U~ {8 U~ B; [~ ;~ ;~ ;~ ;~ ;~ '~ '~ ;~ ;~ ;~ ;~ ;~ ;~ ;~ ;~ ;~ ;~ ;~ :~ _e a{ u' P, Jd 5e 7d $0 m0 {8 [e ;e %a :$ #+ {7 {7 {7 |d =+ |s ;~ [{ ;~ ;~ ;~ qh w' -e ({ 7d 7d 7d 7d 7d 7d 7d 7d 7d 7d 7d 7d 7d 7d 7d 7d 7d 7d 7d 7d 7d 7d 7d 7d 7d 7d 7d 7d 7d 7d 7d 7d 7d 7d 7d 7d 7d 7d 7d 7d 7d 7d 7d 7d 7d 7d 7d 7d 7d 7d 7d 7d 7d 7d 7d 7d 7d 7d 7d 7d 7d 7d 7d 7d 7d 7d 7d 7d 7d 7d 7d 7d 7d 7d 7d 7d 7d 7d 7d 7d 7d 7d 7d 7d 7d 7d 7d 7d 7d 7d 7d 7d 7d 7d 7d 7d 7d 7d 7d 7d 7d 7d 7d 7d 7d 7d 7d 7d 7d 7d 7d 7d 7d 7d 7d 7d 7d 7d 7d 7d 7d 7d 7d 7d 7d 7d 7d 7d 7d 7d 7d 7d 7d 7d 7d 7d 7d 7d 7d 7d 7d 7d 7d 7d 7d 7d 7d 7d 7d 7d 7d 7d 7d 7d 7d 7d 7d 7d 7d U~ U~ l9 -% y@ {7 {7 {7 {7 >e `) f# Ta m0 [e m0 Sj yd ^a P, C' -$ :~ ;~ ;~ ;~ ;~ ;~ ;~ ;~ ;~ ;~ ;~ ;~ ;~ ;~ ;~ ;~ ;~ ;~ ;~ ;~ ;~ ;~ ;~ ;~ ;~ ;~ ;~ :~ 5{ g% 7d 7d 7d 7d 7d 7d 7d 7d 7d 7d 5e Xg +r >g wa l! B! Ed c$ He ^e 68 68 Sr Pl m- k- k- o- N= 1s 2s hi an Fn +j 3s zs As Bs Cs Ds Es Fs Gs Hs Is Js Ks Ls Ms Ns Os Ps cp Qs Rs +j +j +j Xn om /i Cl Tb e_ d[ S< Q' Lq ]r ]r ]r ]r /1 ok ok ok ok ok s$ Ss Ts Us Ml Ml Ml Ml Ml Ml Ml Ml Ml Ml Ml Ml Ml $. k@ k@ k@ Vs Br Br Br Br Br Br Br Br Br Br Br Br Br :7 X/ Ws Xs Ys Br Br Br Br Xs ",
"Zs `s 's 's 's n. }9 Sq Sq Sq Sq Sq Sq Sq Sq  t tm .t !6 &| &| &| &| &| &| &| &| &| H4 Pj (] us (] (] (] (] us us us us us us us %| [s [s [s [s [s [s [s H1 H4 -. Q' c_ d_ e_ f_ g_ B! u  v  `. ++ 0. 0. #+ -+ P+ Q+ :# ;@ z@ {# S# _$ _$ _$ _$ _$ _$ _$ _$ /% =% |% l% v% M% s, }o h- l- k- k- Pg 5> t& =* +t Wi ^~ D9 *f mb X. B! /<  ! `p %% 7d 7d 7d 7d 7d 7d 7d 7d 7d U~ $0 {8 }e B; k9 ;~ ;~ ;~ ;~ ;~ ;~ ;~ ;~ ;~ ;~ ;~ ;~ }{ }{ }{ }{ 2{ 2{ 2{ 2{ <{ 3{ B~ b{ 6{ Ke 3% <e $0 ;e @t 3~ :$ j+ {7 {7 {7 |d #t |s ;~ [{ ;~ ;~ ;~ qh w' -e ({ 7d 7d 7d 7d 7d 7d 7d 7d 7d 7d 7d 7d 7d 7d 7d 7d 7d 7d 7d 7d 7d 7d 7d 7d 7d 7d 7d 7d 7d 7d 7d 7d 7d 7d 7d 7d 7d 7d 7d 7d 7d 7d 7d 7d 7d 7d 7d 7d 7d 7d 7d 7d 7d 7d 7d 7d 7d 7d 7d 7d 7d 7d 7d 7d 7d 7d 7d 7d 7d 7d 7d 7d 7d 7d 7d 7d 7d 7d 7d 7d 7d 7d 7d 7d 7d 7d 7d 7d 7d 7d 7d 7d 7d 7d 7d 7d 7d 7d 7d 7d 7d 7d 7d 7d 7d 7d 7d 7d 7d 7d 7d 7d 7d 7d 7d 7d 7d 7d 7d 7d 7d 7d 7d 7d 7d 7d 7d 7d 7d 7d 7d 7d 7d 7d 7d 7d 7d 7d 7d 7d 7d 7d 7d 7d 7d 7d 7d 7d 7d 7d 7d 7d 7d 7d 7d 7d 7d 7d 7d U~ U~ l9 -% y@ {7 {7 {7 {7 >e `) $t 3~ @t @t yd ^f _9 ^~ ~~ 3{ }{ }{ ;~ ;~ ;~ ;~ ;~ ;~ ;~ ;~ ;~ ;~ ;~ ;~ ;~ ;~ ;~ ;~ ;~ ;~ ;~ ;~ ;~ ;~ ;~ ;~ ;~ ;~ l~ u' 2a 7d 7d 7d 7d 7d 7d 7d 7d 7d 7d 5e &h +r >g wa l! B! Za %9 W  ce 68 [8 Sr Pl m- k- k- o- %t al 2s hi an Fn +j 3s &t *t =t -t ;t >t ,t 't  s )t Js Ks !t ~t {t Os cp cp dp Rs +j +j +j Xn om /i Cl Tb e_ d[ S< Q' Lq ]r ]r ]r ]r ]r Mq ]t ^t ok /t (t (t _t Ml Ml Ml Ml Ml Ml Ml Ml Ml Ml Ml Ml Ml :t k@ k@ k@ k@ Vs Br Br Br Br Br Br Br Br Br Br Br Br Br <t X/ X/ X/ X/ Ws Br Br X/ X/ ",
"[t [t }t |t 's 's 1t 2t Sq Sq Sq Sq Sq 3t 4t 5t 5t 5t 5t 6t 7t !6 8t &| &| &| Ee 9t }l }l }l }l }l }l 0t us us us us us us us us e' [s [s [s [s [s [s [s [s [s [s {_ c_ d_ e_ f_ g_ B! u  v  `. ++ 0. 0. #+ -+ P+ Q+ :# ;@ z@ {# S# _$ _$ _$ _$ _$ _$ _$ C$ /% =% |% l% v% ), ~& }o h- l- k- k- Pg 5> t& /& at Wi ^~ D9 *f 7e Z. B! /<  ! X' %% 7d 7d 7d 7d 7d 7d 7d 7d 7d 7d U~ 6e }e P, k9 ;~ ;~ ;~ ;~ ;~ ;~ ;~ ;~ ;~ ;~ ;~ ;~ ;~ ;~ ;~ ;~ ;~ ;~ ;~ ;~ ;~ ;~ '~ ;~ ;~ :~ B~ C' B; 3% 5e aa [$ j+ {7 {7 {7 |d #t bt ;~ [{ ;~ ;~ ;~ 4{ B; -e Nd 7d 7d 7d 7d 7d 7d 7d 7d 7d 7d 7d 7d 7d 7d 7d 7d 7d 7d 7d 7d 7d 7d 7d 7d 7d 7d 7d 7d 7d 7d 7d 7d 7d 7d 7d 7d 7d 7d 7d 7d 7d 7d 7d 7d 7d 7d 7d 7d 7d 7d 7d 7d 7d 7d 7d 7d 7d 7d 7d 7d 7d 7d 7d 7d 7d 7d 7d 7d 7d 7d 7d 7d 7d 7d 7d 7d 7d 7d 7d 7d 7d 7d 7d 7d 7d 7d 7d 7d 7d 7d 7d 7d 7d 7d 7d 7d 7d 7d 7d 7d 7d 7d 7d 7d 7d 7d 7d 7d 7d 7d 7d 7d 7d 7d 7d 7d 7d 7d 7d 7d 7d 7d 7d 7d 7d 7d 7d 7d 7d 7d 7d 7d 7d 7d 7d 7d 7d 7d 7d 7d 7d 7d 7d 7d 7d 7d 7d 7d 7d 7d 7d 7d 7d 7d 7d 7d 7d 7d 7d U~ U~ l9 -% y@ {7 {7 {7 {7 .9 `) f# (~ 5e 3% u' {~ )~ J8 ;~ ;~ ;~ ;~ ;~ ;~ ;~ ;~ ;~ ;~ ;~ ;~ ;~ ;~ 2{ 2{ 2{ <{ <{ <{ <{ <{ <{ <{ <{ ;~ ;~ ;~ ;~ :~ b{ S9 7d 7d 7d 7d 7d 7d 7d 7d 7d 7d 7d 5e &h !~ >g wa l! B! [c M8 W  G! 78 [8 Sr Pl m- k- k- o- %t al 2s hi an Fn +j 3s &t *t =t -t =l ct ,t Gs dt et ft gt ht it jt kt lt lt lt mt +j +j +j Xn om /i Cl Tb e_ d[ S< Q' Lq ]r ]r ]r ]r ]r ]r ]r nt ot (t (t pt Ml Ml Ml Ml Ml Ml Ml Ml Ml Ml Ml Ml Ml Ml qt k@ k@ k@ k@ qs Br Br Br Br Br Br Xs X/ X/ :7 Br Br Ys X/ X/ X/ X/ X/ X/ :7 X/ X/ X/ ",
"[t [t [t [t <t `s 's 's 3c rs Sq Sq nh {e rt st 5t 5t 5t 5t 5t 5t 5t 5t tt ut vt vt vt vt vt vt vt vt vt vt wt xt us us us us I, [s [s [s [s [s [s [s [s [s yt xs {_ c_ d_ e_ f_ g_ B! u  v  `. ++ 0. 0. #+ -+ P+ Q+ :# ;@ z@ {# S# _$ _$ _$ _$ _$ _$ _$ C$ `$ =% |% m% %& P% {& }o h- l- k- w- Pg 5> g* /& at y' ^~ D9 *f 7e Z. B! /<  ! X' %% 7d 7d 7d 7d 7d 7d 7d 7d 7d 7d 7d U~ 7d P, 4{ ;~  { Lf zt At At Bt Bt Bt Bt Ct Ct Ct Ct Ct Dt Dt Dt Et Et Ft Ft Ft Gt Gt Gt Gt Ht Eb W  6- It $a {7 {7 {7 {7 |d #t bt ;~ [{ ;~ ;~ <~ B~ :8 [d Nd 7d 7d 7d 7d 7d 7d 7d 7d 7d 7d 7d 7d 7d 7d 7d 7d 7d 7d 7d 7d 7d 7d 7d 7d 7d 7d 7d 7d 7d 7d 7d 7d 7d 7d 7d 7d 7d 7d 7d 7d 7d 7d 7d 7d 7d 7d 7d 7d 7d 7d 7d 7d 7d 7d 7d 7d 7d 7d 7d 7d 7d 7d 7d 7d 7d 7d 7d 7d 7d 7d 7d 7d 7d 7d 7d 7d 7d 7d 7d 7d 7d 7d 7d 7d 7d 7d 7d 7d 7d 7d 7d 7d 7d 7d 7d 7d 7d 7d 7d 7d 7d 7d 7d 7d 7d 7d 7d 7d 7d 7d 7d 7d 7d 7d 7d 7d 7d 7d 7d 7d 7d 7d 7d 7d 7d 7d 7d 7d 7d 7d 7d 7d 7d 7d 7d 7d 7d 7d 7d 7d 7d 7d 7d 7d 7d 7d 7d 7d 7d 7d 7d 7d 7d 7d 7d 7d 7d 7d 7d U~ U~ l9 -% y@ {7 {7 {7 {7 .9 .9 P+ l' {b W  Jt Kt Kt Lt Et Dt Dt Ct Ct Bt At At At Lf Lf Lf Lf Mt  { <~ <~ <~ ;~ ;~ ;~ ;~ ;~ ;~ ;~ ;~ ;~ ;~ ;~ l~ v' ^a 7d 7d 7d 7d 7d 7d 7d 7d 7d 7d 7d 5e &h !~ >g wa l! B! [c M8 W  G! 78 _8 Nt Pl m- k- k- o- :- al 2s hi an Fn +j 3s zs *t Ot Cs D: Pt Qt Rt St Tt Ut Vt Wt Xt Yt Zt `t  u .u +u +j +j +j Xn om /i Cl Tb e_ d[ S< Q' Lq ]r ]r ]r ]r ]r ]r ro j@ (t (t @u #u ,s $u +* qt qt qt d= k@ k@ k@ k@ k@ k@ k@ k@ k@ k@ k@ k@ %u Br Br Br Br Br Ys X/ X/ X/ X/ Ws Ys Xs X/ X/ X/ X/ X/ X/ X/ X/ X/ X/ ",
"[t [t [t [t [t [t &u `s 's 's *u *u 's 's 's 's G# rt =u -u 5t 5t 5t 5t 5t 5t -u ut vt vt vt vt vt vt ;u =! 0t I~ %| b' >u ,u [s [s [s [s [s [s [s [s [s [s [s yt Q' c_ d_ e_ f_ g_ B! u  v  `. ++ 0. 0. #+ -+ P+ Q+ :# ;@ z@ {# S# _$ _$ _$ _$ _$ _$ _$ C$  % =% g% m% %& P% ]& wm h- l- k- w- Pg 7> v& (& at y' 'u D9 *f 7e Z. B! /<  ! X' (% 7d 7d 7d 7d 7d 7d 7d 7d 7d 7d 7d Nd Bd <% ~~ 'b Ft (b )u !u !u ~u ~u ~u {u {u rf ]u (k (k (k (k (k Xi Hc ^u ^u /u /u (u (u (u /0 /0 a| _u /0 /< }d ~7 {7 {7 {7 #t bt ;~ [{ ;~ ;~ ;~ 5{ h% [d 7d 7d 7d 7d 7d 7d 7d 7d 7d 7d 7d 7d 7d 7d 7d 7d 7d 7d 7d 7d 7d 7d 7d 7d 7d 7d 7d 7d 7d 7d 7d 7d 7d 7d 7d 7d 7d 7d 7d 7d 7d 7d 7d 7d 7d 7d 7d 7d 7d 7d 7d 7d 7d 7d 7d 7d 7d 7d 7d 7d 7d 7d 7d 7d 7d 7d 7d 7d 7d 7d 7d 7d 7d 7d 7d 7d 7d 7d 7d 7d 7d 7d 7d 7d 7d 7d 7d 7d 7d 7d 7d 7d 7d 7d 7d 7d 7d 7d 7d 7d 7d 7d 7d 7d 7d 7d 7d 7d 7d 7d 7d 7d 7d 7d 7d 7d 7d 7d 7d 7d 7d 7d 7d 7d 7d 7d 7d 7d 7d 7d 7d 7d 7d 7d 7d 7d 7d 7d 7d 7d 7d 7d 7d 7d 7d 7d 7d 7d 7d 7d 7d 7d 7d 7d 7d 7d 7d 7d 7d 7d U~ U~ l9 -% y@ {7 {7 {7 |d >e B! a| _u E~ p  p  ^u ^u `} Hc (k (k ]u rf {u :u {u !u )u <u <u <u }  _  A$ A$ A$ W$ W$ W$ [u Gt Gt Lt Ct  { ;~ :~ {~ 7{ 7d 7d 7d 7d 7d 7d 7d 7d 7d 7d 7d 7d 5e B; !~ >g wa l! B! Zd M8 W  G! _8 _8 }u Pl m- k- k- o- :- al 2s hi an Fn +j 3s zs |u 1u 2u 3u 4u 5u 6u 7u 8u =s 9u 0u au or bu Ut cu du gj +j +j +j Xn om /i Cl Tb e_ d[ S< b_ Lq ]r ]r ]r ]r ]r eu (t Ss fu gu k@ k@ k@ k@ k@ k@ k@ k@ k@ k@ k@ k@ k@ k@ k@ k@ k@ k@ k@ k@ k@ _; Br Br Br Br Br Ws X/ X/ X/ X/ X/ X/ X/ X/ X/ P6 hu X/ X/ X/ X/ X/ X/ ",
"[t [t [t [t [t [t [t [t &u 7g 's 's 's 's 's 's 's 's 's 's 's 's 's 's 's 's 's 's 's 's 's 's 's 's 's 's 's iu ju ku [s [s [s [s [s [s [s [s [s [s [s [s [s [s {_ c_ d_ e_ f_ g_ B! u  v  `. ++ 0. 0. #+ -+ P+ Q+ :# ;@ z@ {# S# _$ _$ _$ _$ _$ _$ _$ C$  % =% 1% n% ** 4& ]& wm h- l- k- k- Pg 8> w& n& at /k 0n D9 He yi Z. B! /<  ! `d (% 7d 7d 7d 7d 7d 7d 7d 7d 7d 7d 7d Nd Bd [% ~~ ze *$ .{ S! S! p2 p2 p2 p2 p2 lu mu O) O) O) O) O) O) O) O) O) O) O) O) O) O) O) O) O) O) 8: (a O) F~ {} Zb {7 |d #t bt ;~ [{ ;~ ;~ ;~ 5{ uk 7d 7d 7d 7d 7d 7d 7d 7d 7d 7d 7d 7d 7d 7d 7d 7d 7d 7d 7d 7d 7d 7d 7d 7d 7d 7d 7d 7d 7d 7d 7d 7d 7d 7d 7d 7d 7d 7d 7d 7d 7d 7d 7d 7d 7d 7d 7d 7d 7d 7d 7d 7d 7d 7d 7d 7d 7d 7d 7d 7d 7d 7d 7d 7d 7d 7d 7d 7d 7d 7d 7d 7d 7d 7d 7d 7d 7d 7d 7d 7d 7d 7d 7d 7d 7d 7d 7d 7d 7d 7d 7d 7d 7d 7d 7d 7d 7d 7d 7d 7d 7d 7d 7d 7d 7d 7d 7d 7d 7d 7d 7d 7d 7d 7d 7d 7d 7d 7d 7d 7d 7d 7d 7d 7d 7d 7d 7d 7d 7d 7d 7d 7d 7d 7d 7d 7d 7d 7d 7d 7d 7d 7d 7d 7d 7d 7d 7d 7d 7d 7d 7d 7d 7d 7d 7d 7d 7d 7d 7d 7d 7d U~ U~ l9 -% y@ {7 {7 |d .9 B! A{ O) 8: 8: O) O) O) O) O) O) O) O) O) mu lu nu nu p2 p2 p2 O) O) mu lu p2 p2 p2 p2 p2 S^ 7: :< ou `} lb Ct ;~ k9 C' (0 7d 7d 7d 7d 7d 7d 7d 7d 7d 7d 7d 7d -e B; !~ >g wa l! !! [c X$ Kf G! _8 (8 }u Pl m- k- k- o- P= al 2s hi an Fn +j 3s Tr pu qu ru ;7 su tu uu vu wu xu Zt Jq yu Jq zu Au Bu Cu +j +j +j +j Xn om /i Cl Tb e_ d[ S< R. Du Eu Eu Eu R4 Fu Gu ns k@ k@ k@ k@ k@ k@ Hu |# _; %u qs Vs Vs Vs Vs Vs Vs Vs %u _; |# %. k@ k@ |# Br Br Br Br Br <t X/ X/ X/ X/ Iu P6 e5 Ju Ku Ku Ku Lu X/ X/ X/ X/ X/ ",
"[t [t [t [t [t [t [t [t [t [t Mu 's 's 's 's 's 's 's 's 's 's 's 's 's 's 's 's 's 's 's 's 's 's 's 's 's 's 's 's 's [s [s [s [s [s [s [s [s [s [s [s [s [s [s {_ c_ d_ e_ f_ g_ B! u  v  `. ++ 0. 0. #+ -+ P+ Q+ :# ;@ z@ {# S# _$ _$ _$ _$ _$ _$ _$ C$  % =% 2% n% I% 4& k& wm h- l- k- w- Nu 8> >* n& Ou 8l 0{ D9 He yi Z. Nf /<  ! `d (% 7d 7d 7d 7d 7d 7d 7d 7d 7d 7d 7d Nd Bd [% ~~ ze Pu a| O) l) l) l) l) l) l) l) l) l) l) l) l) l) l) l) l) l) l) l) l) l) l) l) l) l) l) l) l) l) O) P' B! >e {7 #t bt ;~ [{ ;~ ;~ k~ b{ .q 7d 7d 7d 7d 7d 7d 7d 7d 7d 7d 7d 7d 7d 7d 7d 7d 7d 7d 7d 7d 7d 7d 7d 7d 7d 7d 7d 7d 7d 7d 7d 7d 7d 7d 7d 7d 7d 7d 7d 7d 7d 7d 7d 7d 7d 7d 7d 7d 7d 7d 7d 7d 7d 7d 7d 7d 7d 7d 7d 7d 7d 7d 7d 7d 7d 7d 7d 7d 7d 7d 7d 7d 7d 7d 7d 7d 7d 7d 7d 7d 7d 7d 7d 7d 7d 7d 7d 7d 7d 7d 7d 7d 7d 7d 7d 7d 7d 7d 7d 7d 7d 7d 7d 7d 7d 7d 7d 7d 7d 7d 7d 7d 7d 7d 7d 7d 7d 7d 7d 7d 7d 7d 7d 7d 7d 7d 7d 7d 7d 7d 7d 7d 7d 7d 7d 7d 7d 7d 7d 7d 7d 7d 7d 7d 7d 7d 7d 7d 7d 7d 7d 7d 7d 7d 7d 7d 7d 7d 7d 7d 7d U~ U~ l9 -% $a {7 {7 w  Nf 3! o) l) l) l) l) l) l) l) l) l) l) l) l) l) l) l) l) l) l) l) l) l) () l) l) a) a) a) l) l) l) l) O) +{ Ed Qu ;~ B~ f% P9 7d 7d 7d 7d 7d 7d 7d 7d 7d 7d 7d 7d -e Dd !~ >g wa l! k) [c X$ Kf G! _8 xi }u Pl m- k- k- o- {; Ru 2s hi an Fn +j +j Tr Su Tu Uu {[ Vu Wu Xu Yu Zu `u  v .v +v .v @v Tt #v Jj +j +j +j +j Xn om /i Cl Tb e_ d[ S< R. Du Fu Fu Fu $v Yf k@ k@ k@ |# %v qs Vs Br Br Br :7 Xs X/ <t Br Br Br Br Br Br Br Br Br Br Br qs %u Br Br Br Br Br X/ X/ X/ X/ Ku Ku Ku Ku Ku Ku Ku Ku Ku P6 X/ X/ X/ X/ ",
"[t [t [t [t [t [t [t [t [t [t &u 's 's 's 's 's 's 's 's 's 's 's 's 's 's 's 's 's 's 's 's 's 's 's 's 's 's 's 's 's &v [s [s [s [s [s [s [s [s [s [s [s [s [s {_ c_ d_ e_ f_ g_ B! u  v  `. ++ 0. 0. #+ -+ P+ Q+ :# ;@ z@ {# S# _$ _$ _$ _$ _$ _$ _$ C$  % =% 2% o% I% 4& =* wm h- l- k- k- Pg 8> x& _& Ou 8l 0{ ^e He c$ Z. Nf /<  ! `d &% 7d 7d 7d 7d 7d 7d 7d 7d 7d 7d 7d Nd Bd }% D8 *v $* Y. P' o) l) l) l) l) l) l) l) l) l) l) l) l) l) l) l) l) l) l) l) l) l) l) l) l) l) l) l) l) l) R! {_ /< `. 7e bt ;~ [{ ;~ ,~ $9 6{ =v Nd 7d 7d 7d 7d 7d 7d 7d 7d 7d 7d 7d 7d 7d 7d 7d 7d 7d 7d 7d 7d 7d 7d 7d 7d 7d 7d 7d 7d 7d 7d 7d 7d 7d 7d 7d 7d 7d 7d 7d 7d 7d 7d 7d 7d 7d 7d 7d 7d 7d 7d 7d 7d 7d 7d 7d 7d 7d 7d 7d 7d 7d 7d 7d 7d 7d 7d 7d 7d 7d 7d 7d 7d 7d 7d 7d 7d 7d 7d 7d 7d 7d 7d 7d 7d 7d 7d 7d 7d 7d 7d 7d 7d 7d 7d 7d 7d 7d 7d 7d 7d 7d 7d 7d 7d 7d 7d 7d 7d 7d 7d 7d 7d 7d 7d 7d 7d 7d 7d 7d 7d 7d 7d 7d 7d 7d 7d 7d 7d 7d 7d 7d 7d 7d 7d 7d 7d 7d 7d 7d 7d 7d 7d 7d 7d 7d 7d 7d 7d 7d 7d 7d 7d 7d 7d 7d 7d 7d 7d 7d 7d U~ U~ l9 -% y@ {7 9. /< S< C^ l) l) l) l) l) l) l) l) l) l) l) l) l) l) l) l) l) l) l) l) l) l) l) l) l) l) l) l) l) l) l) l)  ! Nf m! -v <~ B~ [% 7d 7d 7d 7d 7d 7d 7d 7d 7d 7d 7d 7d 7d Bd |% D8 lb wa l! k) [c X$ xb 1j (8 Wi }u Pl m- k- k- o- P= al 2s hi an Fn +j +j @r ;v >v ,v 'v )v !v ~v {v ]v ^v /v (v _v do :v <v [v }v +j +j +j +j Xn om /i Cl Tb e_ d[ S< b_ |v k@ k@ k@ k@ k@ k@ |# Br Br Br Xs Ws <t X/ X/ X/ X/ X/ X/ X/ Xs Br Br Br Br Br Br Br Br Br Br Br Br Br Br Br Br X/ X/ X/ X/ Ku Ku Ku Ku Ku Ku Ku Ku Ku Ku X/ X/ X/ X/ ",
"[t [t [t [t [t [t [t [t [t [t Ys 's 's 's 's 's 's 's 's 's 's 's 's 's 's 's 's 's 's 's 's 's 's 's 's 's 's 's 's 's 1v [s [s [s [s [s [s [s [s [s [s [s [s [s {_ c_ d_ e_ f_ g_ B! u  v  `. ++ 0. 0. #+ -+ P+ Q+ :# ;@ z@ {# S# _$ _$ _$ _$ _$ _$ _$ C$  % =% 2% o% I% R% l& wm h- l- k- k- 8d != y& :& Ou 8l 0{ /b W  c$ Z. /< /<  ! `d &% 7d 7d 7d 7d 7d 7d 7d 7d 7d 7d 7d 7d 7d 7{ {~ *v -v 0. Nf S! l) l) l) l) l) l) l) l) l) l) l) l) l) l) l) l) l) l) l) l) l) l) l) l) l) l) l) l) l) l) l) q! a| .) Je ;~ [{ ;~ ;~ qh Ke We Nd 7d 7d 7d 7d 7d 7d 7d 7d 7d 7d 7d 7d 7d 7d 7d 7d 7d 7d 7d 7d 7d 7d 7d 7d 7d 7d 7d 7d 7d 7d 7d 7d 7d 7d 7d 7d 7d 7d 7d 7d 7d 7d 7d 7d 7d 7d 7d 7d 7d 7d 7d 7d 7d 7d 7d 7d 7d 7d 7d 7d 7d 7d 7d 7d 7d 7d 7d 7d 7d 7d 7d 7d 7d 7d 7d 7d 7d 7d 7d 7d 7d 7d 7d 7d 7d 7d 7d 7d 7d 7d 7d 7d 7d 7d 7d 7d 7d 7d 7d 7d 7d 7d 7d 7d 7d 7d 7d 7d 7d 7d 7d 7d 7d 7d 7d 7d 7d 7d 7d 7d 7d 7d 7d 7d 7d 7d 7d 7d 7d 7d 7d 7d 7d 7d 7d 7d 7d 7d 7d 7d 7d 7d 7d 7d 7d 7d 7d 7d 7d 7d 7d 7d 7d 7d 7d 7d 7d 7d 7d 7d ({ U~ l9 -% P+ u  U' @8 l) l) l) l) l) l) l) l) l) l) l) l) l) l) l) l) l) l) l) l) l) l) l) l) l) l) l) l) l) l) l) p! l) q! 2v Rd $+ $)  { d{ f{ ({ 7d 7d 7d 7d 7d 7d 7d 7d 7d 7d 7d 7d Bd |% D8 lb wa l! k) [c X$ Ka ]~ xi y' }u [m m- k- k- u- 9d 3v 2s hi an Fn +j +j uq 4v 5v 6v 7v 8v 9v 0v av bv cv dv Eo ev fv gv =s ^v du gj +j +j +j Xn om /i Cl Tb e_ d[ S< b_ hv iv k@ k@ k@ k@ k@ [# Br Ys X/ X/ X/ X/ X/ X/ X/ X/ X/ X/ X/ X/ X/ Xs :7 Br Br Br Br Br Br Br Br Br Br Br Br Br X/ X/ X/ X/ Ku Ku Ku Ku Ku Ku Ku Ku Ku Ku Ju X/ X/ X/ ",
"[t [t [t [t [t [t [t [t [t [t |t 's 's 's 's 1t &v ku N4 [s [s [s 1t 's 's 's 's 's 's 's 's 's 's 's 's 's 's 's 's 's 1v [s [s [s [s [s [s [s [s [s [s [s [s [s {_ c_ d_ e_ f_ g_ B! u  v  `. ++ 0. 0. #+ -+ P+ Q+ :# ;@ z@ {# S# _$ _$ _$ _$ _$ _$ _$ D$  % =% 2% o% I% *& m& wm h- l- k- w- 8d ~= z& 1& jv hd %0 G! W  %9 Z. /< /<  ! `d &% 7d 7d 7d 7d 7d 7d 7d 7d 7d 7d 7d yd 7d g% 5{ kv -v $+ >e lv (a () () () /{ mv mv mv mv mv mv mv mv mv mv () l) l) l) l) l) l) l) l) l) l) l) l) l) l) l) l) ^< ~u Ct ;~ <{ ;~ '~ 5{ h% -e 7d 7d 7d 7d 7d 7d 7d 7d 7d 7d 7d 7d 7d 7d 7d 7d 7d 7d 7d 7d 7d 7d 7d 7d 7d 7d 7d 7d 7d 7d 7d 7d 7d 7d 7d 7d 7d 7d 7d 7d 7d 7d 7d 7d 7d 7d 7d 7d 7d 7d 7d 7d 7d 7d 7d 7d 7d 7d 7d 7d 7d 7d 7d 7d 7d 7d 7d 7d 7d 7d 7d 7d 7d 7d 7d 7d 7d 7d 7d 7d 7d 7d 7d 7d 7d 7d 7d 7d 7d 7d 7d 7d 7d 7d 7d 7d 7d 7d 7d 7d 7d 7d 7d 7d 7d 7d 7d 7d 7d 7d 7d 7d 7d 7d 7d 7d 7d 7d 7d 7d 7d 7d 7d 7d 7d 7d 7d 7d 7d 7d 7d 7d 7d 7d 7d 7d 7d 7d 7d 7d 7d 7d 7d 7d 7d 7d 7d 7d 7d 7d 7d 7d 7d 7d 7d 7d 7d 7d 7d 7d 7d yd U~ l9 57 i+ F~ O) l) (a o) o) o) o) o) o) o) o) o) o) o) o) o) o) o) o) o) o) o) o) o) o) o) o) o) o) o) o) o) C^ l) S! nv ov y  $+ B$ J8 :g 8{ ({ 7d 7d 7d 7d 7d 7d 7d 7d 7d 7d 7d 7d Bd |% D8 lb wa l! k) [c X$ Ka ]~ xi y' pv Pl m- k- k- o- {; 3v 2s hi an Fn +j +j 1q qv rv sv t( tv uv vv wv xv yv zv Av Bv Cv Dv or Ev Fv Gv @j +j +j Xn om /i Cl Tb e_ d[ S< b_ hv _; k@ k@ k@ k@ <+ Br Br X/ X/ X/ X/ X/ X/ X/ X/ X/ X/ X/ X/ X/ X/ X/ X/ X/ X/ <t Xs Xs Xs :7 :7 :7 :7 :7 :7 Xs X/ X/ X/ X/ Ju Ku Ku Ku Ku Ku Ku Ku Ku Ku Ku Ju Hv X/ ",
"[t [t [t [t [t [t [t [t [t &u 's 's 's 1v ku [s [s [s [s [s [s [s &v 's 's 's 's 's 's 's 's 's 's 's 's 's 1v Iv 1v 's 1v [s [s [s [s [s [s [s [s [s [s [s [s [s {_ c_ d_ e_ f_ g_ B! u  v  `. ++ 0. 0. #+ -+ P+ Q+ :# ;@ z@ {# S# _$ _$ _$ _$ _$ _$ _$ E$ .% =% 2% p% K% *& m& wm h- l- w- w- 8d ]= B& z, jv :m 58 G! W  X$ Aa Nf /<  ! `d _% yd yd yd yd yd yd yd yd yd yd yd yd yd 1% :g Va $) |b {7 Jv 3! o) l) l) l) l) C^ C^ o) O) O) O) q! q! S! S' Kv Kv (u (u (u (u (u (u (u (u (u (u (u (u Kv Kv Lv 0$ Je ;~ ;~ ;~ :~ a{ 3% 7d 7d 7d 7d 7d 7d 7d 7d 7d 7d 7d 7d 7d 7d 7d 7d 7d 7d 7d 7d 7d 7d 7d 7d 7d 7d 7d 7d 7d 7d 7d 7d 7d 7d 7d 7d 7d 7d 7d 7d 7d 7d 7d 7d 7d 7d 7d 7d 7d 7d 7d 7d 7d 7d 7d 7d 7d 7d 7d 7d 7d 7d 7d 7d 7d 7d 7d 7d 7d 7d 7d 7d 7d 7d 7d 7d 7d 7d 7d 7d 7d 7d 7d 7d 7d 7d 7d 7d 7d 7d 7d 7d 7d 7d 7d 7d 7d 7d 7d 7d 7d 7d 7d 7d 7d 7d 7d 7d 7d 7d 7d 7d 7d 7d 7d 7d 7d 7d 7d 7d 7d 7d 7d 7d 7d 7d 7d 7d 7d 7d 7d 7d 7d 7d 7d 7d 7d 7d 7d 7d 7d 7d 7d 7d 7d 7d 7d 7d 7d 7d 7d 7d 7d 7d 7d 7d 7d 7d 7d 7d 7d 7d yd ({ P9 W& $a h_ T~ T~ T~ h_ h_ h_ h_ h_ h_ h_ h_ h_ h_ h_ h_ h_ h_ h_ h_ h_ h_ h_ h_ h_ h_ h_ h_ h_ h_ h_ h_ h_ V^ ;2 /< }d .9 {7 |b n$ J8 :e (0 ({ 7d 7d 7d 7d 7d 7d 7d 7d 7d 7d 7d 7d Bd g% {~ (b wa l! k) [c X$ Ka ]~ Wi tk J* &- m- w- w- o- {; Mv Nv hi =n bn +j +j +q Ov Pv Qv Rv Sv Tv Uv Vv Wv Xv Yv Zv `v  w .w +w !q @w #w 3s +j +j Xn om /i Cl Tb e_ d[ S< b_ hv Br |# k@ k@ k@ [# Br Br X/ X/ X/ X/ X/ X/ X/ X/ X/ X/ X/ X/ X/ X/ X/ X/ X/ X/ X/ X/ X/ X/ X/ X/ X/ X/ X/ X/ X/ X/ X/ X/ X/ hu Ku Ku Ku Ku Ku Ku Ku Ku Ku Ku Ku Ku Ku ",
"[t [t [t [t [t [t [t [t [t Ys 's 's 's [s [s [s [s [s [s [s [s [s N4 's 's 's 's 's 's 's 's 's 's 's 's ku [s [s [s [s N4 [s [s [s [s [s [s [s [s [s [s [s [s [s {_ c_ d_ e_ f_ g_ B! u  v  `. ++ 0. 0. #+ -+ P+ Q+ :# ;@ z@ {# S# _$ _$ _$ _$ _$ _$ _$ E$ @% :% 2% p% K% S% m& wm h- l- k- w- $w ]= C& }& %w :m 68 G! W  X$ Aa B! /<  ! Ed _% yd yd yd yd yd yd yd yd yd yd yd yd yd 1% a{ Va &w |b {7 `) r! y~ g~ |b |b !7 *w Sb =w -w n! R# ;w ;w It >w ,w Ft 'w Gt Gt 'w 'w 'w 'w 'w 'w 'w 'w 'w 'w 'w Lt Bt  { ;~ ;~ ;~ '~ 5{ Jd ({ ({ yd yd yd yd yd yd yd yd yd yd yd yd yd yd yd yd yd yd yd yd yd yd yd yd yd yd yd yd yd yd yd yd yd yd yd yd yd yd yd yd yd yd yd yd yd yd yd yd yd yd yd yd yd yd yd yd yd yd yd yd yd yd yd yd yd yd yd yd yd yd yd yd yd yd yd yd yd yd yd yd yd yd yd yd yd yd yd yd yd yd yd yd yd yd yd yd yd yd yd yd yd yd yd yd yd yd yd yd yd yd yd yd yd yd yd yd yd yd yd yd yd yd yd yd yd yd yd yd yd yd yd yd yd yd yd yd yd yd yd yd yd yd yd yd yd yd yd yd yd yd yd yd yd yd yd yd yd yd yd yd yd yd P! Ta x0 .% W& W& W& W& W& W& W& W& W& W& W& W& W& W& W& W& W& W& W& W& W& W& W& W& W& W& W& W& W& W& #% #% G$ k. r! .9 {7 {7 0. c$ J8 b8 (0 ({ yd yd yd yd yd yd yd yd yd yd yd yd Bd h% {~ (b wa l! k) [c X$ Ka ]~ Wi tk )w &- m- k- w- o- {; Mv Nv hi =n !w +j +j +q ~w {w ]w ^w /w *q (w _w %s :w Lp >p <w [w 'p }w |w }w 1w +j +j +j Xn om /i Cl Tb e_ d[ S< b_ hv Br Br |# %. W# Br Br Br Xs X/ X/ X/ X/ X/ X/ X/ X/ X/ X/ <t <t <t X/ X/ X/ X/ X/ X/ X/ X/ X/ X/ X/ X/ X/ X/ X/ X/ X/ X/ X/ hu Ku Ku Ku Ku Ku Ku Ku Ku Ku Ku Ku Ku Ku ",
"[t [t [t [t [t [t [t [t [t `s 's 's 's [s [s [s [s [s [s [s [s [s [s 1t 's 's 's 's 's 's 's 's 's 's 2w [s [s [s [s [s [s [s [s [s [s [s [s [s [s [s [s [s [s [s {_ c_ d_ e_ f_ g_ B! u  v  `. ++ 0. 0. #+ -+ P+ Q+ :# ;@ z@ {# S# _$ _$ _$ _$ _$ _$ _$ E$ $% f% 3% p% K% S% n& wm h- l- k- w- 3w ^= O& }& 4w %n 68 G! Kf X$ Ed B! /<  ! Ed _% yd yd yd yd yd yd yd yd yd yd yd yd yd Jd a{ I8 &w |b `) &) R# H$ 5w %* x0 6w 6w I! J! 1~ 2~ 2~ _~ _~ Ta 9{ <% {~ Va 'b  {  {  {  {  {  {  {  {  {  {  {  {  { ;~ ;~ ;~ ;~ ;~ ;~ l~ Ke Bd Sj yd yd yd yd yd yd yd yd yd yd yd yd yd yd yd yd yd yd yd yd yd yd yd yd yd yd yd yd yd yd yd yd yd yd yd yd yd yd yd yd yd yd yd yd yd yd yd yd yd yd yd yd yd yd yd yd yd yd yd yd yd yd yd yd yd yd yd yd yd yd yd yd yd yd yd yd yd yd yd yd yd yd yd yd yd yd yd yd yd yd yd yd yd yd yd yd yd yd yd yd yd yd yd yd yd yd yd yd yd yd yd yd yd yd yd yd yd yd yd yd yd yd yd yd yd yd yd yd yd yd yd yd yd yd yd yd yd yd yd yd yd yd yd yd yd yd yd yd yd yd yd yd yd yd yd yd yd yd yd yd yd yd yd yd 7w Bd Bd Bd Bd Bd Bd Bd Bd Bd Bd Bd Bd Bd Bd Bd Bd Bd Bd Bd Bd Bd Bd Bd Bd Bd Bd Bd Bd Bd Bd Bd 7w Ad _~ <$ i+ y  {7 {7 0. c$ Ua b8 Cd Sj yd yd yd yd yd yd yd yd yd yd yd yd Bd 2% {~ (b wa l! k) Zd [g Ka ]~ y' 8l )w  l m- w- k- o- Q= Mv Nv hi 8w 9w 9j +j 2p 3p 0w aw bw cw dw ew fw gw hw Qs iw fp ep jw kw lw ip mw +j +j +j Xn om /i Cl Tb e_ d[ S< b_ hv Br Br Br Br Br Br Br Br Br :7 <t X/ X/ X/ <t Ws :7 Ys Br Br Br Br Br Ws X/ X/ X/ X/ X/ X/ X/ X/ X/ X/ X/ X/ X/ X/ X/ X/ X/ Ju Ku Ku Ku Ku Ku Ku Ku Ku Ku Ku Ku Ku Ku ",
"[t [t [t [t [t [t [t [t [t |t 's 's 's ku [s [s [s [s [s [s [s [s [s N4 ku &v 's 's 's 1t ku ju 's 1v [s [s [s [s [s [s [s [s [s [s [s [s [s [s [s [s [s [s [s [s {_ c_ d_ e_ f_ g_ B! u  v  `. ++ 0. 0. #+ -+ P+ Q+ :# ;@ z@ {# S# _$ _$ _$ _$ _$ _$ _$ E$ %% f% i% p% K% nw _& wm h- l- k- w- 3w  , E& Q& 4w ow Xg G! Kf X$ Ed B! /<  ! Ed _% yd yd yd yd yd yd yd yd yd yd yd yd yd 1% :g I8 &w |b .9 j+ 7' L! P! Am K0 P! P! P! Bd Bd 7w yd yd yd yd yd pw h% qw )~ ;~ ;~ ;~ ;~ ;~ ;~ ;~ ;~ ;~ ;~ ;~ ;~ ;~ ;~ ;~ ;~ ;~ ;~ ;~ :~ 5{ B; 5e yd yd yd yd yd yd yd yd yd yd yd yd yd yd yd yd yd yd yd yd yd yd yd yd yd yd yd yd yd yd yd yd yd yd yd yd yd yd yd yd yd yd yd yd yd yd yd yd yd yd yd yd yd yd yd yd yd yd yd yd yd yd yd yd yd yd yd yd yd yd yd yd yd yd yd yd yd yd yd yd yd yd yd yd yd yd yd yd yd yd yd yd yd yd yd yd yd yd yd yd yd yd yd yd yd yd yd yd yd yd yd yd yd yd yd yd yd yd yd yd yd yd yd yd yd yd yd yd yd yd yd yd yd yd yd yd yd yd yd yd yd yd yd yd yd yd yd yd yd yd yd yd yd yd yd yd yd yd yd yd yd yd yd yd yd yd yd yd yd yd yd yd yd yd yd yd yd yd yd yd yd yd yd yd yd yd yd yd yd yd yd yd yd yd yd yd $0 $0 3~ C$ i+ `) {7 {7 0. c$ I8 38 Cd Sj yd yd yd yd yd yd yd yd yd yd yd yd 7w 3% {~ (b wa l! k) _b d% Ka 9l /k hd )w  l m- k- k- o- Q= rw sw hi tw /l f~ +j `o uw vw @5 ww xw yw zw Aw %s Jp Kp Bw Cw Dw Ew es Fw Gw Hw +j +j +j Iw om /i Cl Tb e_ d[ S< b_ hv Br Br Br Br Br Br Br Br Br Br Br Br Br Br Br Br Br Br Br Br Br Br Br Br Ws X/ X/ X/ X/ X/ X/ X/ X/ X/ P6 Ku Ku Ku Ju hu P6 Ku Ku Ku Ku Ku Ku Ku Ku Ku Ku Ku Ku Ku Ku ",
"[t [t [t [t [t [t [t [t [t 's 's 's 's 1t [s [s [s [s [s [s [s [s [s [s [s [s [s ku 2w [s [s [s 's N4 [s [s [s [s [s [s [s [s [s [s [s [s [s [s [s [s [s [s [s [s {_ c_ d_ e_ f_ g_ B! u  v  `. ++ 0. 0. #+ -+ P+ Q+ :# ;@ z@ {# S# _$ _$ _$ _$ _$ _$ _$ E$ $% f% 6% p% K% >& :& wm h- l- w- w- 3w  , F& Q& Jw ow Xg 1j xb X$ Ed B! /<  ! Ed _% yd yd yd yd yd yd yd yd yd yd yd yd yd 1% :g Ua &w |b .9 j+ Kw X0 yd Sj yd yd yd yd yd yd yd yd yd yd yd yd yd Bd Jd C' [~ <~ ;~ ;~ ;~ ;~ ;~ ;~ ;~ ;~ ;~ ;~ ;~ ;~ ;~ ;~ ;~ >~ >~ >~ ;~ 5{ P, Bd ({ yd yd yd yd yd yd yd yd yd yd yd yd yd yd yd yd yd yd yd yd yd yd yd yd yd yd yd yd yd yd yd yd yd yd yd yd yd yd yd yd yd yd yd yd yd yd yd yd yd yd yd yd yd yd yd yd yd yd yd yd yd yd yd yd yd yd yd yd yd yd yd yd yd yd yd yd yd yd yd yd yd yd yd yd yd yd yd yd yd yd yd yd yd yd yd yd yd yd yd yd yd yd yd yd yd yd yd yd yd yd yd yd yd yd yd yd yd yd yd yd yd yd yd yd yd yd yd yd yd yd yd yd yd yd yd yd yd yd yd yd yd yd yd yd yd yd yd yd yd yd yd yd yd yd yd yd yd yd yd yd yd yd yd yd yd yd yd yd yd yd yd yd yd yd yd yd yd yd yd yd yd yd yd yd yd yd yd yd yd yd yd yd yd yd $0 $0 3~ _$ i+ `) {7 {7 0. c$ H8 68 l9 Sj yd yd yd yd yd yd yd yd yd yd yd yd yd i% 7% (b wa l! k) _b d% +o 6{ /k hd K*  l m- w- w- o- Q= rw sw Wj Ei 1k Lw +j Mw Nw Ow |[ Pw Qw Rw Sw Tw Uw Vw Io Ww Xw Yw Jo Zw Go `w  x 3s +j +j %@ .x +x Cl Tb e_ d[ S< b_ hv Br Br Br Br Br Br Br Br Br Br Br Br Br Br Br Br Br Br Br Br Br Br Br Br Br X/ X/ X/ X/ X/ X/ X/ X/ X/ Ku Ku Ku Ku Ku Ku Ku Ku Ku Ku Ku Ku Ku Ku Ku Ku Ku Ku Ku Ku Ku ",
"[t [t [t [t [t [t [t [t [t `s 's 's 's 's @x [s [s [s [s [s [s [s [s [s [s [s [s [s [s [s [s [s ku [s [s [s [s [s [s [s [s [s [s [s [s [s [s [s [s [s [s [s [s [s {_ c_ d_ e_ f_ g_ B! u  v  `. ++ 0. 0. #+ -+ P+ Q+ :# ;@ z@ {# S# _$ _$ _$ _$ _$ _$ _$ E$ $% f% 6% q% '' >& 1& wm h- l- w- w- 3w b> G& p& #x |o _8 ]~ xb X$ Ed la /<  ! Ed $x yd yd yd yd yd yd yd yd yd yd yd yd yd 1% :g J8 &w |b .9 Fb Kw X0 yd yd yd yd yd yd yd yd yd yd yd yd yd yd yd yd yd ^f t' C~ '~ >~ ;~ ;~ ;~ ;~ ;~ ;~ ;~ ;~ >~ >~ >~ ;~ ;~ >~ >~ >~ '~ B~ B; 5e yd yd yd yd yd yd yd yd yd yd yd yd yd yd yd yd yd yd yd yd yd yd yd yd yd yd yd yd yd yd yd yd yd yd yd yd yd yd yd yd yd yd yd yd yd yd yd yd yd yd yd yd yd yd yd yd yd yd yd yd yd yd yd yd yd yd yd yd yd yd yd yd yd yd yd yd yd yd yd yd yd yd yd yd yd yd yd yd yd yd yd yd yd yd yd yd yd yd yd yd yd yd yd yd yd yd yd yd yd yd yd yd yd yd yd yd yd yd yd yd yd yd yd yd yd yd yd yd yd yd yd yd yd yd yd yd yd yd yd yd yd yd yd yd yd yd yd yd yd yd yd yd yd yd yd yd yd yd yd yd yd yd yd yd yd yd yd yd yd yd yd yd yd yd yd yd yd yd yd yd yd yd yd yd yd yd yd yd yd yd yd yd yd yd yd $0 $0 3~ _$ i+ `) {7 {7 0. J6 Wa B; Bd yd yd yd yd yd yd yd yd yd yd yd yd yd yd h, ]~ (b wa l! k) _b d% cg 6{ tk Dn K* bi l- w- w- o- Q= rw sw Wj Wj %x &x *x =x -x ;x >x ,x 'x )x !x ~x `t {x ]x ^x Xt /x (x `t  u _x :x Jj +j +j <x an +x Cl Tb e_ d[ S< b_ hv Br Br Br Br Br Br Br Br Br Br Br Br Br Br Br Br Br Br Br Br Br Br Br Br Br Ys X/ X/ X/ X/ X/ X/ X/ X/ T0 Ju Ku Ku Ku Ku Ku Ku Ku Ku Ku Ku Ku Ku Ku Ku Ku Ku Ku Ku Ku ",
"[t [t [t [t [t [t [t [t [t &u X8 's 's 's 's 2w [s [s [s [s [s [s [s [s [s [s [s [s [s [s [s [s [s [s [s [s [s [s [s [s [s [s [s [s [s [s [s [s [s [s [s [s [s [s {_ c_ d_ e_ f_ g_ B! u  v  `. ++ 0. 0. #+ -+ P+ Q+ :# ;@ z@ {# S# _$ _$ _$ _$ _$ _$ _$ E$ $% <% 6% q% L% ,& 1& wm h- [x w- w- 3w c> H& q& #x }x (8 ]~ xb X$ Za k) /<  ! <g I! yd yd yd yd yd yd yd yd yd yd yd ({ yd @g 5{ Va &w $+ .9 Fb Kw X0 yd yd yd yd yd yd yd yd yd yd yd yd yd yd yd yd ({ yd Cd v' {~ :~ >~ >~ ,~ ,~ ,~ ;~ ;~ ;~ >~ &e >~ ;~ [~ !~ D8 :g 6{ _9 ^f Bd yd yd yd yd yd yd yd yd yd yd yd yd yd yd yd yd yd yd yd yd yd yd yd yd yd yd yd yd yd yd yd yd yd yd yd yd yd yd yd yd yd yd yd yd yd yd yd yd yd yd yd yd yd yd yd yd yd yd yd yd yd yd yd yd yd yd yd yd yd yd yd yd yd yd yd yd yd yd yd yd yd yd yd yd yd yd yd yd yd yd yd yd yd yd yd yd yd yd yd yd yd yd yd yd yd yd yd yd yd yd yd yd yd yd yd yd yd yd yd yd yd yd yd yd yd yd yd yd yd yd yd yd yd yd yd yd yd yd yd yd yd yd yd yd yd yd yd yd yd yd yd yd yd yd yd yd yd yd yd yd yd yd yd yd yd yd yd yd yd yd yd yd yd yd yd yd yd yd yd yd yd yd yd yd yd yd yd yd yd yd yd yd yd yd yd $0 $0 3~ _$ i+ `) {7 {7 0. se F! W% Bd yd yd yd yd yd yd yd yd yd yd yd yd yd yd h, ]~ (b wa l! k) v# d% cg 6{ tk Dn K* bi l- w- w- o- |x rw zk Wj 1x 2x 3x 4x 5x H[ (: Mk Q_ 6x 7x 8x 9x 0x Ut ax yu bx cx dx ex <v fx Cu +j +j aj Bj zk ~m Cl Tb e_ d[ S< b_ hv Br Br Br Br Br Br Br Br Br Br Br Br Br Br Br Br Br Br Br Br Br Br Br Br Br Br Ys X/ X/ X/ X/ X/ X/ X/ X/ X/ Ju Ku Ku Ku Ku Ku Ku Ku Ku Ku Ku Ku Ku Ku Ku Ku Ku Ku Ku ",
"[t [t [t [t [t [t [t [t [t [t [t 7g 's 's 's 's 2w [s [s [s [s [s [s [s [s [s [s [s [s [s [s [s [s [s [s [s [s [s [s [s [s [s [s [s [s [s [s [s [s [s [s [s [s [s {_ c_ d_ e_ f_ g_ B! u  v  `. ++ 0. 0. #+ -+ P+ Q+ :# ;@ z@ {# S# _$ _$ _$ _$ _$ _$ _$ E$ $% <% 6% r% M% ,& [& wm h- l- w- w- 3w c> J& P& |p }x (8 ]~ Ka X$ Za k) /<  ! <g I! yd yd yd yd yd yd yd yd yd yd yd ({ 7w |% D8 80 Eb $+ .9 Fb Kw X0 yd yd yd yd yd yd yd yd yd yd yd yd yd yd yd yd yd yd yd ee |% 69 l~ ;~ <~ ;~ ;~ :~ )~ l~ !~ !~ B~ b{ t' <% f{ ^f Cd ee Bd yd yd yd yd yd yd yd yd yd yd yd yd yd yd yd yd yd yd yd yd yd yd yd yd yd yd yd yd yd yd yd yd yd yd yd yd yd yd yd yd yd yd yd yd yd yd yd yd yd yd yd yd yd yd yd yd yd yd yd yd yd yd yd yd yd yd yd yd yd yd yd yd yd yd yd yd yd yd yd yd yd yd yd yd yd yd yd yd yd yd yd yd yd yd yd yd yd yd yd yd yd yd yd yd yd yd yd yd yd yd yd yd yd yd yd yd yd yd yd yd yd yd yd yd yd yd yd yd yd yd yd yd yd yd yd yd yd yd yd yd yd yd yd yd yd yd yd yd yd yd yd yd yd yd yd yd yd yd yd yd yd yd yd yd yd yd yd yd yd yd yd yd yd yd yd yd yd yd yd yd yd yd yd yd yd yd yd yd yd yd yd yd yd yd yd yd $0 $0 3~ _$ i+ `) {7 {7 0. se Yi h% Bd yd yd yd yd yd yd yd yd yd yd yd yd yd yd gx @> (b wa l! k) v# d% cg 6{ tk hx ix bi m- w- w- o- R= al jx kx Wj lx mx Lw @k ak H: 44 nx K_ ,n bk `j ox `u px 9u qx rx ex sx tx ux Jj +j +j vx Mi wx (l Cl Kf e_ d[ S< b_ hv Br Br Br Br Br Br Br Br Br Br Br Br Br Br Br Br Br Br Br Br Br Br Br Br Br Br Br Br <t X/ X/ X/ X/ X/ X/ X/ X/ Ku Ku Ku Ku Ku Ku Ku Ku Ku Ku Ku Ku Ku Ku Ku Ku Ku Ku ",
"[t [t [t [t [t [t [t [t [t [t [t Zs 's 's 's 's 's 2w [s [s [s [s [s [s [s [s [s [s [s [s [s [s [s [s [s [s [s [s [s [s [s [s [s [s [s [s [s [s [s [s [s [s [s [s {_ c_ d_ e_ f_ g_ B! u  v  `. ++ 0. 0. #+ -+ P+ Q+ :# ;@ z@ {# S# _$ _$ _$ _$ _$ _$ _$ E$ $% <% 6% u% M% ,& }& wm h- l- w- w- 3w xx J& ;* |p yx :8 ]~ Ka X$ Za k) /<  ! <g I! yd yd yd yd yd yd yd yd yd yd yd Sj yd }% ~~ 80 Eb $+ .9 Fb Kw X0 yd yd yd yd yd yd yd yd yd yd yd yd yd yd yd yd yd yd yd zx Bd Ax (e e{ 5{ 5{ a{ e{ F9 v' <% Bx 1% (0 l9 P! P! Am zx yd yd yd yd yd yd yd yd yd yd yd yd yd yd yd yd yd yd yd yd yd yd yd yd yd yd yd yd yd yd yd yd yd yd yd yd yd yd yd yd yd yd yd yd yd yd yd yd yd yd yd yd yd yd yd yd yd yd yd yd yd yd yd yd yd yd yd yd yd yd yd yd yd yd yd yd yd yd yd yd yd yd yd yd yd yd yd yd yd yd yd yd yd yd yd yd yd yd yd yd yd yd yd yd yd yd yd yd yd yd yd yd yd yd yd yd yd yd yd yd yd yd yd yd yd yd yd yd yd yd yd yd yd yd yd yd yd yd yd yd yd yd yd yd yd yd yd yd yd yd yd yd yd yd yd yd yd yd yd yd yd yd yd yd yd yd yd yd yd yd yd yd yd yd yd yd yd yd yd yd yd yd yd yd yd yd yd yd yd yd yd yd yd yd yd yd yd yd $0 $0 3~ _$ i+ `) {7 {7 0. se D9 ^f yd yd yd yd yd yd yd yd yd yd yd yd yd yd yd 5e ^~ (b wa l! X. v# bb cg 6{ hd |o Cx bi m- w- w- o- R= Dx Ex Fx ^i Gx Hx Ix Jx %l J_ 0k Kx Lx Lx Mx Nx Ox Px Qx Ut Rx ~r Sx tx Tx Jj +j +j +j Ux Vx hi Wx 1k Kf e_ d[ S< b_ hv Br Br Br Br Br Br Br Br Br Br Br Br Br Br Br Br Br Br Br Br Br Br Br Br Br Br Br Br Br Xs X/ X/ X/ X/ X/ X/ X/ Iu Ku Ku Ku Ku Ku Ku Ku Ku Ku Ku Ku Ku Ku Ku Ku Ku Ku ",
"[t [t [t [t [t [t [t [t [t [t [t Zs 's 's 's 's 's 's 2w [s [s [s [s [s [s [s [s [s [s [s [s [s [s [s [s [s [s [s [s [s [s [s [s [s [s [s [s [s [s [s [s [s [s [s {_ c_ d_ e_ f_ g_ B! u  v  `. ++ 0. 0. #+ -+ P+ Q+ :# ;@ z@ {# S# _$ _$ _$ _$ _$ _$ _$ E$ $% <% 6% u% M% ,& |& wm h- l- w- w- 3w xx K& Xx |p zp :8 9l Ka X$ [c k) /<  ! <g I! yd yd yd yd yd yd yd yd yd yd yd Sj Nd [% l~ 80 Eb $+ .9 Fb Kw X0 yd yd yd yd yd yd yd yd yd yd yd yd yd yd yd yd yd yd yd yd yd 7w l9 (0 Jd Jd /a (0 l9 P9 P! Am yd ({ Sj ({ yd yd yd yd yd yd yd yd yd yd yd yd yd yd yd yd yd yd yd yd yd yd yd yd yd yd yd yd yd yd yd yd yd yd yd yd yd yd yd yd yd yd yd yd yd yd yd yd yd yd yd yd yd yd yd yd yd yd yd yd yd yd yd yd yd yd yd yd yd yd yd yd yd yd yd yd yd yd yd yd yd yd yd yd yd yd yd yd yd yd yd yd yd yd yd yd yd yd yd yd yd yd yd yd yd yd yd yd yd yd yd yd yd yd yd yd yd yd yd yd yd yd yd yd yd yd yd yd yd yd yd yd yd yd yd yd yd yd yd yd yd yd yd yd yd yd yd yd yd yd yd yd yd yd yd yd yd yd yd yd yd yd yd yd yd yd yd yd yd yd yd yd yd yd yd yd yd yd yd yd yd yd yd yd yd yd yd yd yd yd yd yd yd yd yd yd yd yd yd yd yd $0 $0 3~ _$ i+ `) {7 {7 0. de Yx Cd Sj yd yd yd yd yd yd yd yd yd yd yd yd yd yd 5e C' (b wa l! T~ v# bb cg 0n :m Zx `x -- m- w- w- o- R= ix  y .y Kj +y yk @y #y bk 8k 7k $y %y &y 4k wn +j %j *y =y cu -y hq ;y +j +j +j +j >y ,y 'y ki Ei Gi )y e_ d[ S< b_ hv Br Br Br Br Br Br Br Br Br Br Br Br Br Br Br Br Br Br Br Br Br Br Br Br Br Br Br Br Br Br Ys X/ X/ X/ X/ X/ X/ X/ hu Ku Ku Ku Ku Ku Ku Ku Ku Ku Ku Ku Ku Ku Ku Ku Ku ",
"[t [t [t [t [t [t [t [t [t }t X8 's 's 's 's 's 's 's 's 2w [s [s [s [s [s [s [s [s [s [s [s [s [s [s [s [s [s [s [s [s [s [s [s [s [s [s [s [s [s [s [s [s [s [s {_ c_ d_ e_ f_ g_ B! u  v  `. ++ 0. 0. #+ -+ P+ Q+ :# ;@ z@ {# S# _$ _$ _$ _$ _$ _$ _$ E$ $% <% 6% u% M% '& !y wm h- l- w- w- 3w e> M& {, ~y zp xi 9l Ka X$ _b k) /<  ! <g I! ({ ({ ({ ({ ({ ({ ({ ({ ({ ({ ({ n0 Nd f% [~ 80 Eb $+ .9 Fb Kw X0 yd ({ ({ ({ ({ ({ ({ ({ ({ ({ ({ ({ ({ ({ ({ ({ ({ ({ ({ ({ ({ ({ ({ ({ ({ ({ ({ ({ ({ ({ ({ ({ Sj Sj ({ ({ ({ ({ ({ ({ ({ ({ ({ ({ ({ ({ ({ ({ ({ ({ ({ ({ ({ ({ ({ ({ ({ ({ ({ ({ ({ ({ ({ ({ ({ ({ ({ ({ ({ ({ ({ ({ ({ ({ ({ ({ ({ ({ ({ ({ ({ ({ ({ ({ ({ ({ ({ ({ ({ ({ ({ ({ ({ ({ ({ ({ ({ ({ ({ ({ ({ ({ ({ ({ ({ ({ ({ ({ ({ ({ ({ ({ ({ ({ ({ ({ ({ ({ ({ ({ ({ ({ ({ ({ ({ ({ ({ ({ ({ ({ ({ ({ ({ ({ ({ ({ ({ ({ ({ ({ ({ ({ ({ ({ ({ ({ ({ ({ ({ ({ ({ ({ ({ ({ ({ ({ ({ ({ ({ ({ ({ ({ ({ ({ ({ ({ ({ ({ ({ ({ ({ ({ ({ ({ ({ ({ ({ ({ ({ ({ ({ ({ ({ ({ ({ ({ ({ ({ ({ ({ ({ ({ ({ ({ ({ ({ ({ ({ ({ ({ ({ ({ ({ ({ ({ ({ ({ ({ ({ ({ ({ ({ ({ ({ ({ ({ ({ ({ ({ ({ ({ ({ ({ ({ ({ ({ ({ ({ ({ ({ ({ ({ ({ ({ ({ ({ ({ m0 m0 F0 _$ i+ `) {7 {7 &) h~ B' ee 67 ({ ({ ({ ({ ({ ({ ({ ({ ({ ({ ({ ({ ({ ({ -e C' (b wa l! Z. Zo bb Yg 0n :m zp `x -- m- w- w- o- R= `x {y ]y ^y ^i /y (y _y :y <y [y }y |y 1y 2y 3y -j -j >j 4y 5y 6y 7y -j -j -j -j -j gk 8y /i ^i Vx 9y @) e_ d[ S< b_ hv Br Br Br Br Br Br Br Br Br Br Br Br Br Br Br Br Br Br Br Br Br Br Br Br Br Br Br Br Br Br Br Br Xs X/ X/ X/ X/ X/ X/ Ju Ku Ku Ku Ku Ku Ku Ku Ku Ku Ku Ku Ku Ku Ku Ku ",
"[t [t [t [t [t [t [t [t [t `s 's 's 's 's 's 's 's 's 's 's [s [s [s [s [s [s [s [s [s [s [s [s [s [s [s [s [s [s [s [s [s [s [s [s [s [s [s [s [s [s [s [s [s [s {_ c_ d_ e_ f_ g_ B! u  v  `. ++ 0. 0. #+ -+ P+ Q+ :# ;@ z@ {# S# _$ _$ _$ _$ _$ _$ _$ F$ %% <% 6% u% O% '& Q& wm h- l- w- w- 0y ay M& t& by cy Wi ^~ Ka X$ _b k) /<  ! <g I! ({ ({ ({ ({ ({ ({ ({ ({ ({ ({ ({ n0 K0 f% [~ 80 Eb $+ .9 Fb Kw X0 yd ({ ({ ({ ({ ({ ({ ({ ({ ({ ({ ({ ({ ({ ({ ({ ({ ({ ({ ({ ({ ({ ({ n0 n0 n0 n0 Sj ({ ({ ({ ({ ({ ({ ({ ({ ({ ({ ({ ({ ({ ({ ({ ({ ({ ({ ({ ({ ({ ({ ({ ({ ({ ({ ({ ({ ({ ({ ({ ({ ({ ({ ({ ({ ({ ({ ({ ({ ({ ({ ({ ({ ({ ({ ({ ({ ({ ({ ({ ({ ({ ({ ({ ({ ({ ({ ({ ({ ({ ({ ({ ({ ({ ({ ({ ({ ({ ({ ({ ({ ({ ({ ({ ({ ({ ({ ({ ({ ({ ({ ({ ({ ({ ({ ({ ({ ({ ({ ({ ({ ({ ({ ({ ({ ({ ({ ({ ({ ({ ({ ({ ({ ({ ({ ({ ({ ({ ({ ({ ({ ({ ({ ({ ({ ({ ({ ({ ({ ({ ({ ({ ({ ({ ({ ({ ({ ({ ({ ({ ({ ({ ({ ({ ({ ({ ({ ({ ({ ({ ({ ({ ({ ({ ({ ({ ({ ({ ({ ({ ({ ({ ({ ({ ({ ({ ({ ({ ({ ({ ({ ({ ({ ({ ({ ({ ({ ({ ({ ({ ({ ({ ({ ({ ({ ({ ({ ({ ({ ({ ({ ({ ({ ({ ({ ({ ({ ({ ({ ({ ({ ({ ({ ({ ({ ({ ({ ({ ({ ({ ({ ({ ({ ({ ({ ({ ({ ({ m0 m0 F0 _$ i+ `) {7 {7 &) h~ B' ee {8 ({ ({ ({ ({ ({ ({ ({ ({ ({ ({ ({ ({ ({ ({ -e 0{ (b wa l! Z. mb bb Yg 0n :m zp `x -- l- w- w- o- dy M* ey fy gy hy Yh Zh iy jy ky ly ly my ny oy py G% G% G% G% G% G% G% G% G% G% G% P# qy Wx Hx ry sy >h ty e_ d[ S< b_ hv Br Br Br Br Br Br Br Br Br Br Br Br Br Br Br Br Br Br Br Br Br Br Br Br Br Br Br Br Br Br Br Br Br Ys <t X/ X/ X/ X/ Hv Ku Ku Ku Ku Ku Ku Ku Ku Ku Ku Ku Ku Ku Ku Ku ",
"[t [t [t [t [t [t [t [t [t 7g 's 's 's 's 's 's 's 's 's 's 2w [s [s [s [s [s [s [s [s [s [s [s [s [s [s [s [s [s [s [s [s [s [s [s [s [s [s [s [s [s [s [s H1 }s {_ c_ d_ e_ f_ g_ B! u  v  `. ++ 0. 0. #+ -+ P+ Q+ :# ;@ z@ {# S# _$ _$ _$ _$ _$ _$ _$ F$ %% <% k% uy O% s, Q& wm h- l- w- x- ke g> !* vy wy xy Wi 6{ ai d% v# X. /<  ! <g I! ({ ({ ({ ({ ({ ({ ({ ({ ({ ({ ({ of K0 v' [~ 80 Eb $+ .9 Fb Kw X0 yd ({ ({ ({ ({ ({ ({ ({ ({ ({ ({ ({ ({ ({ ({ ({ ({ ({ ({ ({ ({ ({ ({ ({ ({ ({ ({ ({ ({ ({ ({ ({ ({ ({ ({ ({ ({ ({ ({ ({ ({ ({ ({ ({ ({ ({ ({ ({ ({ ({ ({ ({ ({ ({ ({ ({ ({ ({ ({ ({ ({ ({ ({ ({ ({ ({ ({ ({ ({ ({ ({ ({ ({ ({ ({ ({ ({ ({ ({ ({ ({ ({ ({ ({ ({ ({ ({ ({ ({ ({ ({ ({ ({ ({ ({ ({ ({ ({ ({ ({ ({ ({ ({ ({ ({ ({ ({ ({ ({ ({ ({ ({ ({ ({ ({ ({ ({ ({ ({ ({ ({ ({ ({ ({ ({ ({ ({ ({ ({ ({ ({ ({ ({ ({ ({ ({ ({ ({ ({ ({ ({ ({ ({ ({ ({ ({ ({ ({ ({ ({ ({ ({ ({ ({ ({ ({ ({ ({ ({ ({ ({ ({ ({ ({ ({ ({ ({ ({ ({ ({ ({ ({ ({ ({ ({ ({ ({ ({ ({ ({ ({ ({ ({ ({ ({ ({ ({ ({ ({ ({ ({ ({ ({ ({ ({ ({ ({ ({ ({ ({ ({ ({ ({ ({ ({ ({ ({ ({ ({ ({ ({ ({ ({ ({ ({ ({ ({ ({ ({ ({ ({ ({ ({ ({ ({ ({ ({ ({ ({ ({ ({ ({ ({ ({ ({ ({ ({ m0 m0 F0 _$ i+ `) {7 {7 &) h~ `$ P! 6e ({ ({ ({ ({ ({ ({ ({ ({ ({ ({ ({ ({ ({ ({ Bd t' (b wa l! Z. mb bb <m =e %n cy `x -- l- w- w- yy _- #, zy Ay By Cy Hx Dy Ey Fy Gy Hy Iy Gy Gy Jy Ky Hi Hi Hi Hi Hi Hi Hi Hi Hi Hi Hi Ii gy Ly Ly My ,y qh ty e_ d[ S< b_ hv Br Br Br Br Br Br Br Br Br Br Br Br Br Br Br Br Br Br Br Br Br Br Br Br Br Br Br Br Br Br Br Br Br Br Br Xs X/ X/ X/ X/ Hv Ku Ku Ku Ku Ku Ku Ku Ku Ku Ku Ku Ku Ku Ku ",
"[t [t [t [t [t [t [t [t [t 's 's 's 's 's 's 's 's 's 's 's [s [s [s [s [s [s [s [s [s [s [s [s [s [s [s [s [s [s [s [s [s [s [s [s [s [s [s yt xs Ny -. -. -. -. Q' c_ d_ e_ f_ g_ B! u  v  `. ++ 0. 0. #+ -+ P+ Q+ :# ;@ z@ {# S# _$ _$ _$ _$ _$ _$ _$ G$ %% <% l% A, N% s, p& wm h- l- x- x- ke g> u* v& Oy xy Wi 6{ Zg d% mb Z. /<  ! <g I! ({ ({ ({ ({ ({ ({ ({ ({ ({ ({ ({ of Db u' [~ 80 *6 $+ .9 Fb Kw X0 yd ({ ({ ({ ({ ({ ({ ({ ({ ({ ({ ({ ({ ({ ({ ({ ({ ({ ({ ({ ({ ({ ({ ({ ({ ({ ({ ({ ({ ({ ({ ({ ({ ({ ({ ({ ({ ({ ({ ({ ({ ({ ({ ({ ({ ({ ({ ({ ({ ({ ({ ({ ({ ({ ({ ({ ({ ({ ({ ({ ({ ({ ({ ({ ({ ({ ({ ({ ({ ({ ({ ({ ({ ({ ({ ({ ({ ({ ({ ({ ({ ({ ({ ({ ({ ({ ({ ({ ({ ({ ({ ({ ({ ({ ({ ({ ({ ({ ({ ({ ({ ({ ({ ({ ({ ({ ({ ({ ({ ({ ({ ({ ({ ({ ({ ({ ({ ({ ({ ({ ({ ({ ({ ({ ({ ({ ({ ({ ({ ({ ({ ({ ({ ({ ({ ({ ({ ({ ({ ({ ({ ({ ({ ({ ({ ({ ({ ({ ({ ({ ({ ({ ({ ({ ({ ({ ({ ({ ({ ({ ({ ({ ({ ({ ({ ({ ({ ({ ({ ({ ({ ({ ({ ({ ({ ({ ({ ({ ({ ({ ({ ({ ({ ({ ({ ({ ({ ({ ({ ({ ({ ({ ({ ({ ({ ({ ({ ({ ({ ({ ({ ({ ({ ({ ({ ({ ({ ({ ({ ({ ({ ({ ({ ({ ({ ({ ({ ({ ({ ({ ({ ({ ({ ({ ({ ({ ({ ({ ({ ({ ({ ({ ({ ({ ({ ({ ({ m0 m0 F0 _$ i+ `) {7 {7 i+ y0 .% K0 6e ({ ({ ({ ({ ({ ({ ({ ({ ({ ({ ({ ({ ({ ({ Bd (e Py wa l! Z. mb bb D9 =e %n cy `x bi l- w- x- o- _- N* _& Qy Ry jx Sy Wh Ty Uy Vy Wy Wy Vy Vy Xy Yy Zy Zy Zy Zy Zy Zy `y Zy Zy Zy Zy Zy  z Gx .z +z {h z{ e_ e_ d[ S< b_ hv Br Br Br Br Br Br Br Br Br Br Br Br Br Br Br Br Br Br Br Br Br Br Br Br Br Br Br Br Br Br Br Br Br Br Br Br :7 X/ X/ X/ X/ Hv Ju Ku Ku Ku Ku Ku Ku Ku Ku Ku Ku Ku Ku ",
"[t [t [t [t [t [t [t [t Zs 's 's 's 's 's 's 's 's 's 's &v [s [s [s [s [s [s [s @z #z $z $z 2w [s [s [s [s [s [s [s [s [s [s [s [s [s [s %z -. -. -. -. -. -. -. Q' c_ d_ e_ f_ g_ B! u  v  `. ++ 0. 0. #+ -+ P+ Q+ :# ;@ z@ {# S# _$ _$ _$ _$ _$ _$ _$ H$ %% <% l% v% P% !& &z wm h- l- x- x- ke *z ~* S, =z  r Wi 6{ Zg d% mb Z. /<  ! <g I! ({ ({ ({ ({ ({ ({ ({ ({ ({ ({ ({ of Db u' $9 /e *6 $+ .9 Fb Kw X0 yd ({ ({ ({ ({ ({ ({ ({ ({ ({ ({ ({ ({ ({ ({ ({ ({ ({ ({ ({ ({ ({ ({ ({ ({ ({ ({ ({ ({ ({ ({ ({ ({ ({ ({ ({ ({ ({ ({ ({ ({ ({ ({ ({ ({ ({ ({ ({ ({ ({ ({ ({ ({ ({ ({ ({ ({ ({ ({ ({ ({ ({ ({ ({ ({ ({ ({ ({ ({ ({ ({ ({ ({ ({ ({ ({ ({ ({ ({ ({ ({ ({ ({ ({ ({ ({ ({ ({ ({ ({ ({ ({ ({ ({ ({ ({ ({ ({ ({ ({ ({ ({ ({ ({ ({ ({ ({ ({ ({ ({ ({ ({ ({ ({ ({ ({ ({ ({ ({ ({ ({ ({ ({ ({ ({ ({ ({ ({ ({ ({ ({ ({ ({ ({ ({ ({ ({ ({ ({ ({ ({ ({ ({ ({ ({ ({ ({ ({ ({ ({ ({ ({ ({ ({ ({ ({ ({ ({ ({ ({ ({ ({ ({ ({ ({ ({ ({ ({ ({ ({ ({ ({ ({ ({ ({ ({ ({ ({ ({ ({ ({ ({ ({ ({ ({ ({ ({ ({ ({ ({ ({ ({ ({ ({ ({ ({ ({ ({ ({ ({ ({ ({ ({ ({ ({ ({ ({ ({ ({ ({ ({ ({ ({ ({ ({ ({ ({ ({ ({ ({ ({ ({ ({ ({ ({ ({ ({ ({ ({ ({ ({ ({ ({ ({ ({ ({ ({ m0 m0 F0 _$ i+ `) {7 {7 i+ :# 5w K0 m0 ({ ({ ({ ({ ({ ({ ({ ({ ({ ({ ({ ({ ({ ({ 7d v' +) wa l! Z. mb bb D9 =e hx -z ;z -- l- w- x- o- _- N* o& ]& >z ,z 'z Uk )z !z ~z {z ]z ^z /z (z _z _z :z <z [z }z |z 1z 2z 3z `h Xh .i Gx 1x 4z 5z 6z 7z f_ e_ d[ S< b_ hv Br Br Br Br Br Br Br Br Br Br Br Br Br Br Br Br Br Br Br Br Br Br Br Br Br Br Br Br Br Br Br Br Br Br Br Br Ys X/ X/ X/ X/ X/ X/ Iu Lu Ku Ku Ku Ku Ku Ku Ku Ku Ku Ku ",
"[t [t [t [t [t }t Xs &u `s 's 's 's 's 's 's 's 's 's 's [s [s [s [s [s [s 8z 9z 9z 9z 9z 9z 9z ku [s [s [s [s [s [s [s [s [s [s [s [s [s Ny -. -. @' 0z -. -. -. Q' c_ d_ e_ f_ g_ B! u  v  `. ++ 0. 0. #+ -+ P+ Q+ :# ;@ z@ {# S# _$ _$ _$ _$ _$ _$ C$ /% %% <% l% v% P% ~& P& wm h- l- x- x- ke *z az S, =z  r /k 6{ cg d% mb Z. /<  ! <g I! ({ ({ ({ ({ ({ ({ ({ ({ ({ ({ ({ of P9 t' [~ 80 *6 $+ .9 Fb Kw X0 yd ({ ({ ({ ({ ({ ({ ({ ({ ({ ({ ({ ({ ({ ({ ({ ({ ({ ({ ({ ({ ({ ({ ({ ({ ({ ({ ({ ({ ({ ({ ({ ({ ({ ({ ({ ({ ({ ({ ({ ({ ({ ({ ({ ({ ({ ({ ({ ({ ({ ({ ({ ({ ({ ({ ({ ({ ({ ({ ({ ({ ({ ({ ({ ({ ({ ({ ({ ({ ({ ({ ({ ({ ({ ({ ({ ({ ({ ({ ({ ({ ({ ({ ({ ({ ({ ({ ({ ({ ({ ({ ({ ({ ({ ({ ({ ({ ({ ({ ({ ({ ({ ({ ({ ({ ({ ({ ({ ({ ({ ({ ({ ({ ({ ({ ({ ({ ({ ({ ({ ({ ({ ({ ({ ({ ({ ({ ({ ({ ({ ({ ({ ({ ({ ({ ({ ({ ({ ({ ({ ({ ({ ({ ({ ({ ({ ({ ({ ({ ({ ({ ({ ({ ({ ({ ({ ({ ({ ({ ({ ({ ({ ({ ({ ({ ({ ({ ({ ({ ({ ({ ({ ({ ({ ({ ({ ({ ({ ({ ({ ({ ({ ({ ({ ({ ({ ({ ({ ({ ({ ({ ({ ({ ({ ({ ({ ({ ({ ({ ({ ({ ({ ({ ({ ({ ({ ({ ({ ({ ({ ({ ({ ({ ({ ({ ({ ({ ({ ({ ({ ({ ({ ({ ({ ({ ({ ({ ({ ({ ({ ({ ({ ({ ({ ({ ({ ({ m0 m0 F0 _$ i+ `) {7 {7 i+ 4! i9 K0 m0 ({ ({ ({ ({ ({ ({ ({ ({ ({ ({ ({ ({ ({ ({ 7d <% bz wa l! Z. mb bb D9 58 hx -z ;z -- l- x- x- cz dz N* [& k& ez fz gz Kj Di hz iz jz kz lz mz nz oz pz qz Di Di rz Hx Hx ni Ly Ly Ly 1x hi 7j sz tz 7e f_ f_ e_ d[ S< b_ hv Br Br Br Br Br Br Br Br Br Br Br Br Br Br Br Br Br Br Br Br Br Br Br Br Br Br Br Br Br Br Br Br Br Br Br Br Ws X/ X/ X/ X/ X/ X/ X/ X/ X/ uz Ku Ku Ku Ku Ku Ku Ku Ku ",
"[t [t [t Ys 's 's 's 's 's 's 's 's 's 's 's 's 's 's @z [s [s [s [s ku $z 9z 9z 9z 9z 9z 9z 9z 1v [s [s [s [s [s [s [s [s [s [s [s [s ,u -. %| vz vz vz %| -. -. Q' c_ d_ e_ f_ g_ B! u  v  `. ++ 0. 0. #+ -+ P+ Q+ :# ;@ z@ {# S# _$ _$ _$ _$ _$ _$ C$ /% %% <% l% v% P% ~& ;* wm h- l- x- x- *d i> ]* x& =z -z /k 6{ cg d% mb Z. /<  ! <g I! ({ ({ ({ ({ ({ ({ ({ ({ ({ ({ ({ ({ P9 t' [~ 80 *6 $+ .9 Fb Kw X0 yd ({ ({ ({ ({ ({ ({ ({ ({ ({ ({ ({ ({ ({ ({ ({ ({ ({ ({ ({ ({ ({ ({ ({ ({ ({ ({ ({ ({ ({ ({ ({ ({ ({ ({ ({ ({ ({ ({ ({ ({ ({ ({ ({ ({ ({ ({ ({ ({ ({ ({ ({ ({ ({ ({ ({ ({ ({ ({ ({ ({ ({ ({ ({ ({ ({ ({ ({ ({ ({ ({ ({ ({ ({ ({ ({ ({ ({ ({ ({ ({ ({ ({ ({ ({ ({ ({ ({ ({ ({ ({ ({ ({ ({ ({ ({ ({ ({ ({ ({ ({ ({ ({ ({ ({ ({ ({ ({ ({ ({ ({ ({ ({ ({ ({ ({ ({ ({ ({ ({ ({ ({ ({ ({ ({ ({ ({ ({ ({ ({ ({ ({ ({ ({ ({ ({ ({ ({ ({ ({ ({ ({ ({ ({ ({ ({ ({ ({ ({ ({ ({ ({ ({ ({ ({ ({ ({ ({ ({ ({ ({ ({ ({ ({ ({ ({ ({ ({ ({ ({ ({ ({ ({ ({ ({ ({ ({ ({ ({ ({ ({ ({ ({ ({ ({ ({ ({ ({ ({ ({ ({ ({ ({ ({ ({ ({ ({ ({ ({ ({ ({ ({ ({ ({ ({ ({ ({ ({ ({ ({ ({ ({ ({ ({ ({ ({ ({ ({ ({ ({ ({ ({ ({ ({ ({ ({ ({ ({ ({ ({ ({ ({ ({ ({ ({ ({ ({ m0 m0 F0 _$ i+ `) {7 {7 i+ wz  9 K0 m0 ({ ({ ({ ({ ({ ({ ({ ({ ({ ({ ({ ({ ({ ({ 7d }% bz wa l! Z. mb bb D9 58 xz ys ;z 'g l- x- x- l- yz P* [& k& Jw zz Az Bz Wj Wj Cz Dz Dz Cz Cz Wj hi hi Ez Wj Wj Wj Dz Dz hi hi hi hi hi hi ]j Fz Gz g_ _< f_ e_ d[ S< b_ hv Br Br Br Br Br Br Br Br Br Br Br Br Br Br Br Br Br Br Br Br Br Br Br Br Br Br Br Br Br Br Br Br Br Br Ys X/ X/ X/ X/ X/ X/ X/ X/ X/ X/ X/ X/ X/ Hv e5 Ju Ku Ku Ku Ku ",
"[t [t Mu 's 's 's 's 's 's 's 's 's 's 's 's 's 's 1t [s [s [s [s ku 9z 9z 9z 9z 9z 9z 9z 9z 9z $z [s [s [s [s [s [s [s [s [s [s [s [s H4 0z vz vz vz vz vz 0z -. Q' c_ d_ e_ f_ g_ B! u  v  `. ++ 0. 0. #+ -+ P+ Q+ :# ;@ z@ {# S# _$ _$ _$ _$ _$ _$ C$ /% %% P, l% v% 4& ]& ;* Bn h- l- Hz x- *d Iz ]* x& Jz Kz /k 0n cg bb mb Z. /<  ! <g I! ({ ({ ({ ({ ({ ({ ({ ({ ({ ({ ({ ({ l9 F9 )~ 80 *6 $+ .9 Fb Kw X0 yd ({ ({ ({ ({ ({ ({ ({ ({ ({ ({ ({ ({ ({ ({ ({ ({ ({ ({ ({ ({ ({ ({ ({ ({ ({ ({ ({ ({ ({ ({ ({ ({ ({ ({ ({ ({ ({ ({ ({ ({ ({ ({ ({ ({ ({ ({ ({ ({ ({ ({ ({ ({ ({ ({ ({ ({ ({ ({ ({ ({ ({ ({ ({ ({ ({ ({ ({ ({ ({ ({ ({ ({ ({ ({ ({ ({ ({ ({ ({ ({ ({ ({ ({ ({ ({ ({ ({ ({ ({ ({ ({ ({ ({ ({ ({ ({ ({ ({ ({ ({ ({ ({ ({ ({ ({ ({ ({ ({ ({ ({ ({ ({ ({ ({ ({ ({ ({ ({ ({ ({ ({ ({ ({ ({ ({ ({ ({ ({ ({ ({ ({ ({ ({ ({ ({ ({ ({ ({ ({ ({ ({ ({ ({ ({ ({ ({ ({ ({ ({ ({ ({ ({ ({ ({ ({ ({ ({ ({ ({ ({ ({ ({ ({ ({ ({ ({ ({ ({ ({ ({ ({ ({ ({ ({ ({ ({ ({ ({ ({ ({ ({ ({ ({ ({ ({ ({ ({ ({ ({ ({ ({ ({ ({ ({ ({ ({ ({ ({ ({ ({ ({ ({ ({ ({ ({ ({ ({ ({ ({ ({ ({ ({ ({ ({ ({ ({ ({ ({ ({ ({ ({ ({ ({ ({ ({ ({ ({ ({ ({ ({ ({ ({ ({ ({ ({ ({ m0 m0 F0 _$ i+ `) {7 {7 i+ Lz vc &n m0 ({ ({ ({ ({ ({ ({ ({ ({ ({ ({ ({ ({ ({ ({ 7d <% bz wa l! `] 7e =f D9 58 Mz !i Nz 9n l- x- x- n- yz P* }& l& ), Oz Pz Fz Qz Rz Rz Rz Rz Sz Rz Rz Rz Rz Rz Rz Rz Rz Rz Rz Rz Rz Rz Rz Rz Rz Tz Uz @9 f_ _< f_ e_ d[ S< b_ hv Br Br Br Br Br Br Br Br Br Br Br Br Br Br Br Br Br Br Br Br Br Br Br Br Br Br Br Br Br Br Br Br Br Xs X/ X/ X/ X/ X/ X/ X/ X/ X/ X/ X/ X/ X/ X/ X/ X/ X/ X/ Hv Iu Iu ",
"[t Ys 's 's 's 's 's 's 's 1t Iv 2w &v 's 's 's 's 2w [s [s [s @z 9z 9z 9z 9z 9z 9z 9z 9z 9z 9z 9z [s [s [s [s [s [s [s [s [s [s [s [s `a Vz vz vz vz vz vz %| -. Q' c_ d_ e_ f_ g_ B! u  v  `. ++ 0. 0. #+ -+ P+ Q+ :# ;@ z@ {# S# _$ _$ _$ _$ _$ _$ _$ /% e% P, l% v% Wz ]& Xx Bn h- k- x- '; *d j> y, y& Jz ys tk 0{ cg bb 7e Z. /<  ! <g I! ({ ({ ({ ({ ({ ({ ({ ({ ({ ({ ({ Sj l9 C' )~ 80 *6 $+ .9 Fb Kw X0 yd ({ ({ ({ ({ ({ ({ ({ ({ ({ ({ ({ ({ ({ ({ ({ ({ ({ ({ ({ ({ ({ ({ ({ ({ ({ ({ ({ ({ ({ ({ ({ ({ ({ ({ ({ ({ ({ ({ ({ ({ ({ ({ ({ ({ ({ ({ ({ ({ ({ ({ ({ ({ ({ ({ ({ ({ ({ ({ ({ ({ ({ ({ ({ ({ ({ ({ ({ ({ ({ ({ ({ ({ ({ ({ ({ ({ ({ ({ ({ ({ ({ ({ ({ ({ ({ ({ ({ ({ ({ ({ ({ ({ ({ ({ ({ ({ ({ ({ ({ ({ ({ ({ ({ ({ ({ ({ ({ ({ ({ ({ ({ ({ ({ ({ ({ ({ ({ ({ ({ ({ ({ ({ ({ ({ ({ ({ ({ ({ ({ ({ ({ ({ ({ ({ ({ ({ ({ ({ ({ ({ ({ ({ ({ ({ ({ ({ ({ ({ ({ ({ ({ ({ ({ ({ ({ ({ ({ ({ ({ ({ ({ ({ ({ ({ ({ ({ ({ ({ ({ ({ ({ ({ ({ ({ ({ ({ ({ ({ ({ ({ ({ ({ ({ ({ ({ ({ ({ ({ ({ ({ ({ ({ ({ ({ ({ ({ ({ ({ ({ ({ ({ ({ ({ ({ ({ ({ ({ ({ ({ ({ ({ ({ ({ ({ ({ ({ ({ ({ ({ ({ ({ ({ ({ ({ ({ ({ ({ ({ ({ ({ ({ ({ ({ ({ ({ ({ m0 m0 F0 _$ i+ `) {7 {7 i+ Lz vc &n m0 ({ ({ ({ ({ ({ ({ ({ ({ ({ ({ ({ ({ ({ ({ 5e C' (b wa l! Aa yi =f ^e 68 Mz +t Nz Xz l- x- x- m- yz P* |& l& ), %& Yz Zz `z  A .A  A  A .A .A  A  A  A  A  A  A .A .A .A .A .A .A .A .A .A +A >h Le _< _< f_ e_ d[ S< b_ hv Br Br Br Br Br Br Br Br Br Br Br Br Br Br Br Br Br Br Br Br Br Br Br Br Br Br Br Br Br Br Br Ys X/ X/ X/ X/ X/ X/ X/ X/ X/ X/ X/ X/ X/ X/ X/ X/ X/ X/ X/ X/ X/ X/ X/ ",
"&u 's 's 's 's @A Z+ Ia &| &| &| &| &| Vq 's 's 's [s [s [s 8z 9z 9z 9z 9z 9z 9z 9z 9z 9z 9z 9z 9z ku [s [s [s [s [s [s [s [s [s [s [s -. us vz vz vz vz vz o~ -. Q' c_ d_ e_ f_ g_ B! u  v  `. ++ 0. 0. #+ -+ P+ Q+ :# ;@ z@ {# S# _$ _$ _$ _$ _$ _$ C$ /% #A P, l% d, R% k& t& wm h- k- '; '; *d $A ^* z& %A +t tk 0{ cg bb 7e Z. &A  ! <g I! ({ ({ ({ ({ ({ ({ ({ ({ ({ ({ n0 Sj (0 6{ )~ J8 *6 $+ .9 Fb Kw X0 yd ({ ({ ({ ({ ({ ({ ({ ({ ({ ({ ({ ({ ({ ({ ({ ({ ({ ({ ({ ({ ({ ({ ({ ({ ({ ({ ({ ({ ({ ({ ({ ({ ({ ({ ({ ({ ({ ({ ({ ({ ({ ({ ({ ({ ({ ({ ({ ({ ({ ({ ({ ({ ({ ({ ({ ({ ({ ({ ({ ({ ({ ({ ({ ({ ({ ({ ({ ({ ({ ({ ({ ({ ({ ({ ({ ({ ({ ({ ({ ({ ({ ({ ({ ({ ({ ({ ({ ({ ({ ({ ({ ({ ({ ({ ({ ({ ({ ({ ({ ({ ({ ({ ({ ({ ({ ({ ({ ({ ({ ({ ({ ({ ({ ({ ({ ({ ({ ({ ({ ({ ({ ({ ({ ({ ({ ({ ({ ({ ({ ({ ({ ({ ({ ({ ({ ({ ({ ({ ({ ({ ({ ({ ({ ({ ({ ({ ({ ({ ({ ({ ({ ({ ({ ({ ({ ({ ({ ({ ({ ({ ({ ({ ({ ({ ({ ({ ({ ({ ({ ({ ({ ({ ({ ({ ({ ({ ({ ({ ({ ({ ({ ({ ({ ({ ({ ({ ({ ({ ({ ({ ({ ({ ({ ({ ({ ({ ({ ({ ({ ({ ({ ({ ({ ({ ({ ({ ({ ({ ({ ({ ({ ({ ({ ({ ({ ({ ({ ({ ({ ({ ({ ({ ({ ({ ({ ({ ({ ({ ({ ({ ({ ({ ({ ({ ({ ({ m0 m0 F0 _$ i+ `) {7 {7 i+ Lz vc &n m0 ({ ({ ({ ({ ({ ({ ({ ({ ({ ({ ({ ({ 7d ^a w' l~ >g wa l! Aa yi xa ^e [8 Zx +t *A Xz l- x- x- l- A; =A R& /& P% q% -A ;A -h -h -h -h -h -h -h -h -h -h -h -h >A >A >A =h =h ,A ,A 'A 'A _h ,h @9 N' _< _< f_ e_ d[ S< b_ hv Br Br Br Br Br Br Br Br Br Br Br Br Br Br Br Br Br Br Br Br Br Br Br Br Br Br Br Br Br Br :7 X/ X/ X/ X/ X/ X/ X/ X/ X/ X/ X/ X/ X/ X/ X/ X/ X/ X/ X/ X/ X/ X/ X/ X/ ",
"X8 's 's 's $z &| &| &| &| &| &| &| #' {k 's 's Iv [s @z $z 9z )A Ws X/ !A )A 9z 9z 9z 9z 9z 9z 9z 2w [s [s [s [s [s [s [s [s [s [s H1 -. vz vz vz vz vz vz %| -. Q' c_ d_ e_ f_ g_ B! u  v  `. ++ 0. 0. #+ -+ P+ Q+ :# ;@ z@ {# S# _$ _$ _$ _$ _$ _$ E$ `$ *% |% n% H% *& k& t& `= h- ~A '; '; Fc {A ]A B& ^A /A (A =e cg bb 7e Z. _A  ! <g I! ({ ({ ({ ({ ({ ({ ({ ({ ({ ({ n0 ({ (0 e{ :~ J8 D~ $+ .9 Fb Kw X0 yd ({ ({ ({ ({ ({ ({ ({ ({ ({ ({ ({ ({ ({ ({ ({ ({ ({ ({ ({ ({ ({ ({ ({ ({ ({ ({ ({ ({ ({ ({ ({ ({ ({ ({ ({ ({ ({ ({ ({ ({ ({ ({ ({ ({ ({ ({ ({ ({ ({ ({ ({ ({ ({ ({ ({ ({ ({ ({ ({ ({ ({ ({ ({ ({ ({ ({ ({ ({ ({ ({ ({ ({ ({ ({ ({ ({ ({ ({ ({ ({ ({ ({ ({ ({ ({ ({ ({ ({ ({ ({ ({ ({ ({ ({ ({ ({ ({ ({ ({ ({ ({ ({ ({ ({ ({ ({ ({ ({ ({ ({ ({ ({ ({ ({ ({ ({ ({ ({ ({ ({ ({ ({ ({ ({ ({ ({ ({ ({ ({ ({ ({ ({ ({ ({ ({ ({ ({ ({ ({ ({ ({ ({ ({ ({ ({ ({ ({ ({ ({ ({ ({ ({ ({ ({ ({ ({ ({ ({ ({ ({ ({ ({ ({ ({ ({ ({ ({ ({ ({ ({ ({ ({ ({ ({ ({ ({ ({ ({ ({ ({ ({ ({ ({ ({ ({ ({ ({ ({ ({ ({ ({ ({ ({ ({ ({ ({ ({ ({ ({ ({ ({ ({ ({ ({ ({ ({ ({ ({ ({ ({ ({ ({ ({ ({ ({ ({ ({ ({ ({ ({ ({ ({ ({ ({ ({ ({ ({ ({ ({ ({ ({ ({ ({ ({ ({ ({ m0 m0 F0 _$ i+ `) {7 {7 i+ Lz vc &n m0 ({ ({ ({ ({ ({ ({ ({ ({ ({ ({ ({ 7d Jd t' ~~ J8 >g wa l! Aa J6 xa /b [8 Zx :A *A 9n l- x- '; l- A; Q* Q& /& Jw t% 6% :8 0{ @> B, B, B, B, B, B, B, B, B, B, :> /; /; %e cg !b Ka Kf *f xa <A 5@ N' N' _< f_ e_ d[ S< b_ hv Br Br Br Br Br Br Br Br Br Br Br Br Br Br Br Br Br Br Br Br Br Br Br Br Br Br Br Br Br Xs X/ X/ X/ X/ X/ X/ X/ X/ X/ X/ X/ X/ X/ X/ X/ X/ X/ X/ X/ X/ X/ X/ X/ X/ X/ ",
"'s 's 's 's [A &| &| &| &| &| &| #' {k Uq }A X/ X/ |A 1A 1A Ws Hv Hv Hv Hv Hv X/ 1A 9z 9z 9z 9z 9z 8z [s [s [s [s [s [s [s [s [s [s 2A 0z vz vz vz vz vz vz J, -. Q' c_ d_ e_ f_ g_ B! u  v  `. ++ 0. 0. #+ -+ P+ Q+ :# ;@ z@ {# S# _$ _$ _$ _$ _$ _$ E$ `$ *% |% n% I% Q% ^& f* 3A h- k- '; '; 4A m> (* ], ^A :A (A =e cg bb 7e `] nv  ! <g I! ({ ({ ({ ({ ({ ({ ({ ({ ({ ({ n0 ({ ^f a{ :~ J8 *6 $+ .9 Fb Kw X0 yd ({ ({ ({ ({ ({ ({ ({ ({ ({ ({ ({ ({ ({ ({ ({ ({ ({ ({ ({ ({ ({ ({ ({ ({ ({ ({ ({ ({ ({ ({ ({ ({ ({ ({ ({ ({ ({ ({ ({ ({ ({ ({ ({ ({ ({ ({ ({ ({ ({ ({ ({ ({ ({ ({ ({ ({ ({ ({ ({ ({ ({ ({ ({ ({ ({ ({ ({ ({ ({ ({ ({ ({ ({ ({ ({ ({ ({ ({ ({ ({ ({ ({ ({ ({ ({ ({ ({ ({ ({ ({ ({ ({ ({ ({ ({ ({ ({ ({ ({ ({ ({ ({ ({ ({ ({ ({ ({ ({ ({ ({ ({ ({ ({ ({ ({ ({ ({ ({ ({ ({ ({ ({ ({ ({ ({ ({ ({ ({ ({ ({ ({ ({ ({ ({ ({ ({ ({ ({ ({ ({ ({ ({ ({ ({ ({ ({ ({ ({ ({ ({ ({ ({ ({ ({ ({ ({ ({ ({ ({ ({ ({ ({ ({ ({ ({ ({ ({ ({ ({ ({ ({ ({ ({ ({ ({ ({ ({ ({ ({ ({ ({ ({ ({ ({ ({ ({ ({ ({ ({ ({ ({ ({ ({ ({ ({ ({ ({ ({ ({ ({ ({ ({ ({ ({ ({ ({ ({ ({ ({ ({ ({ ({ ({ ({ ({ ({ ({ ({ ({ ({ ({ ({ ({ ({ ({ ({ ({ ({ ({ ({ ({ ({ ({ ({ ({ ({ m0 m0 F0 _$ i+ `) {7 {7 i+ Lz vc &n m0 ({ ({ ({ ({ ({ ({ ({ ({ ({ ({ ({ We 4e k9 k~  { >g wa l! Ed J6 xa G! 78 cy Ou *A 9n l- x- '; l- V= 1= p& m& Q% A, i% =% /% _$ _$ _$ _$ _$ _$ _$ _$ _$ _$ S# `@ x# %d -@ m+ Q+ -+ $+ 0. y  `. u  N' N' _< f_ e_ d[ S< b_ hv Br Br Br Br Br Br Br Br Br Br Br Br Br Br Br Br Br Br Br Br Br Br Br Br Br Br Br Br Ws X/ X/ X/ X/ X/ X/ X/ X/ X/ X/ 5A 6A 7A 8A 8A 9A }A X/ X/ X/ X/ X/ X/ X/ X/ X/ ",
"'s 's 's 's Ia &| &| &| &| &| #' {k {k 2w 0A 0A }A Hv Hv Hv Hv Hv Hv Hv Hv Hv Hv Hv Ws 9z 9z 9z 9z $z [s [s [s [s [s [s [s [s [s [s yt @' vz vz vz vz vz aA -. -. Q' c_ d_ e_ f_ g_ B! u  v  `. ++ 0. 0. #+ -+ P+ Q+ :# ;@ z@ {# S# _$ _$ _$ _$ _$ _$ E$ `$ =% |% n% I% *& l& v& 3A h- k- '; h- 4A bA _* ], cA dA hd =e Yg bb b$ `] nv  ! <g I! ({ ({ ({ ({ ({ ({ ({ ({ ({ ({ n0 ({ Jd :g :~ J8 *6 $+ .9 Fb Kw X0 yd ({ ({ ({ ({ ({ ({ ({ ({ ({ ({ ({ ({ ({ ({ ({ ({ ({ ({ ({ ({ ({ ({ ({ ({ ({ ({ ({ ({ ({ ({ of Nd 7d ({ n0 ({ ({ ({ ({ ({ ({ ({ ({ ({ ({ ({ ({ ({ ({ ({ ({ ({ ({ ({ ({ ({ ({ ({ ({ ({ ({ ({ ({ ({ ({ ({ ({ ({ ({ ({ ({ ({ ({ ({ ({ ({ ({ ({ ({ ({ ({ ({ ({ ({ ({ ({ ({ ({ ({ ({ ({ ({ ({ ({ ({ ({ ({ ({ ({ ({ ({ ({ ({ ({ ({ ({ ({ ({ ({ ({ ({ ({ ({ ({ ({ ({ ({ ({ ({ ({ ({ ({ ({ ({ ({ ({ ({ ({ ({ ({ ({ ({ ({ ({ ({ ({ ({ ({ ({ ({ ({ ({ ({ ({ ({ ({ ({ ({ ({ ({ ({ ({ ({ ({ ({ ({ ({ ({ ({ ({ ({ ({ ({ ({ ({ ({ ({ ({ ({ ({ ({ ({ ({ ({ ({ ({ ({ ({ ({ ({ ({ ({ ({ ({ ({ ({ ({ ({ ({ ({ ({ ({ ({ ({ ({ ({ ({ ({ ({ ({ ({ ({ ({ ({ ({ n0 n0 ({ ({ ({ ({ ({ ({ ({ ({ ({ ({ ({ ({ ({ ({ ({ ({ ({ ({ ({ ({ ({ ({ ({ ({ ({ ({ ({ ({ ({ m0 m0 F0 _$ i+ `) {7 {7 i+ Lz vc &n m0 ({ ({ ({ ({ ({ ({ ({ ({ ({ ({ ({ h, dd >~ ;~  { >g wa l! Ed J6 xa G! 78 cy eA *A 9n l- '; '; l- V= R* P& n& Q% v% i% =% /% _$ _$ _$ _$ _$ _$ _$ _$ _$ _$ _$ S# {# z@ -@ m+ Q+ -+ $+ 0. y  `. u  N' N' _< f_ e_ d[ S< b_ hv Br Br Br Br Br Br Br Br Br Br Br Br Br Br Br Br Br Br Br Br Br Br Br Br Br Br Br X/ X/ X/ X/ X/ X/ X/ X/ X/ X/ X/ fA 8A 8A 8A 8A 8A 8A 8A 8A }A X/ X/ X/ X/ X/ X/ X/ ",
"'s 's 's 's &| &| &| &| &| W! {k {k {k )A 0A 0A 0A gA Hv Hv Hv Hv Hv Hv Hv Hv Hv Hv Hv |A 9z 9z 9z 9z @z [s [s [s [s [s [s [s [s [s xs @' vz vz vz vz vz @' -. -. Q' c_ d_ e_ f_ g_ B! u  v  `. ++ 0. 0. #+ -+ P+ Q+ :# ;@ z@ {# S# _$ _$ _$ _$ _$ _$ E$ `$ =% |% o% I% *& /& v& Bn h- k- i- h- hA o> <* O& =* :A hd 58 Yg =f yi Z. ;2  ! <g I! ({ ({ ({ ({ ({ ({ ({ ({ ({ ({ n0 ({ Jd :g :~ J8 *6 i+ .9 Fb Kw X0 yd ({ ({ ({ ({ ({ ({ ({ ({ ({ ({ ({ ({ ({ ({ ({ ({ ({ ({ ({ ({ ({ ({ ({ ({ ({ ({ ({ ({ ({ ({ 7d ^a 7{ /a yd n0 ({ ({ ({ ({ ({ ({ ({ ({ ({ ({ ({ ({ ({ ({ ({ ({ ({ ({ ({ ({ ({ ({ ({ ({ ({ ({ ({ ({ ({ ({ ({ ({ ({ ({ ({ ({ ({ ({ ({ ({ ({ ({ ({ ({ ({ ({ ({ ({ ({ ({ ({ ({ ({ ({ ({ ({ ({ ({ ({ ({ ({ ({ ({ ({ ({ ({ ({ ({ ({ ({ ({ ({ ({ ({ ({ ({ ({ ({ ({ ({ ({ ({ ({ ({ ({ ({ ({ ({ ({ ({ ({ ({ ({ ({ ({ ({ ({ ({ ({ ({ ({ ({ ({ ({ ({ ({ ({ ({ ({ ({ ({ ({ ({ ({ ({ ({ ({ ({ ({ ({ ({ ({ ({ ({ ({ ({ ({ ({ ({ ({ ({ ({ ({ ({ ({ ({ ({ ({ ({ ({ ({ ({ ({ ({ ({ ({ ({ ({ ({ ({ ({ ({ ({ ({ ({ ({ ({ ({ ({ ({ ({ ({ ({ ({ ({ ({ ({ yd Bd -e Bd Bd 7d ({ n0 n0 of ({ ({ ({ ({ ({ ({ ({ ({ ({ ({ ({ ({ ({ ({ ({ ({ ({ ({ ({ ({ ({ ({ ({ m0 m0 F0 _$ i+ `) {7 {7 i+ Lz vc &n m0 ({ ({ ({ ({ ({ ({ ({ ({ ({ ({ ({ h, dd <~ ;~  { >g wa l! Ed J6 xa G! 78 xy iA jA 9n l- '; h- l- kA |= r& n& Q% v% i% =% /% _$ _$ _$ _$ _$ _$ _$ _$ _$ _$ _$ S# {# z@ -@ m+ Q+ -+ $+ 0. y  `. u  N' N' _< f_ e_ d[ S< b_ hv Br Br Br Br Br Br Br Br Br Br Br Br Br Br Br Br Br Br Br Br Br Br Br Br Br Br X/ X/ X/ X/ X/ X/ X/ X/ X/ X/ X/ X/ 6A 8A 8A 8A 8A 8A 8A 8A 8A 8A lA X/ X/ X/ X/ X/ X/ ",
"'s 's 's Iv &| &| !a X! ts {k {k {k {k mA 0A 0A 0A 0A nA nA 0A 0A 0A oA Hv Hv Hv Hv Hv Hv 9z 9z 9z 9z 9z [s [s [s [s [s [s [s [s [s yt 0z vz vz vz vz pA -. -. -. Q' c_ d_ e_ f_ g_ B! u  v  `. ++ 0. 0. #+ -+ P+ Q+ :# ;@ z@ {# S# _$ _$ _$ _$ _$ _$ E$ `$ =% |% o% I% S% (& w& Bn h- w- h- h- qA o> <* 4> Qy rA hd 58 D9 xa yi xc /<  ! <g I! ({ ({ ({ ({ ({ ({ ({ ({ ({ ({ n0 ({ Jd :g :~ J8 *6 i+ .9 Fb Kw X0 yd ({ ({ ({ ({ ({ ({ ({ ({ ({ ({ ({ ({ ({ ({ ({ ({ ({ ({ ({ ({ ({ ({ ({ ({ ({ ({ Sj Sj ({ l9 }% X, {~ z' (0 n0 of ({ ({ ({ ({ ({ ({ ({ ({ ({ ({ ({ ({ ({ ({ ({ ({ ({ ({ ({ ({ ({ ({ ({ ({ ({ ({ ({ ({ ({ ({ ({ ({ ({ ({ ({ ({ ({ ({ ({ ({ ({ ({ ({ ({ ({ ({ ({ ({ ({ ({ ({ ({ ({ ({ ({ ({ ({ ({ ({ ({ ({ ({ ({ ({ ({ ({ ({ ({ ({ ({ ({ ({ ({ ({ ({ ({ ({ ({ ({ ({ ({ ({ ({ ({ ({ ({ ({ ({ ({ ({ ({ ({ ({ ({ ({ ({ ({ ({ ({ ({ ({ ({ ({ ({ ({ ({ ({ ({ ({ ({ ({ ({ ({ ({ ({ ({ ({ ({ ({ ({ ({ ({ ({ ({ ({ ({ ({ ({ ({ ({ ({ ({ ({ ({ ({ ({ ({ ({ ({ ({ ({ ({ ({ ({ ({ ({ ({ ({ ({ ({ ({ ({ ({ ({ ({ ({ ({ ({ ({ ({ ({ ({ ({ ({ n0 Sj l9 B; 0{ 68 B; g% ^a Bd 7d Nd of of of of ({ ({ ({ ({ ({ ({ ({ ({ ({ ({ ({ ({ ({ ({ ({ ({ ({ ({ ({ m0 m0 F0 _$ i+ `) {7 {7 i+ Lz vc &n m0 ({ ({ ({ ({ ({ ({ ({ ({ ({ ({ ({ h, qw ;~ ;~  { >g wa l! Ed c$ *f G! _8  r jv sA 9n k- '; h- l- kA tA ;* _& *& v% 6% :% p) _$ _$ _$ _$ _$ _$ _$ _$ _$ _$ _$ S# {# z@ -@ m+ Q+ -+ $+ 0. y  `. u  N' N' _< f_ e_ d[ S< b_ hv Br Br Br Br Br Br Br Br Br Br Br Br Br Br Br Br Br Br Br Br Br Br Br Br Br X/ X/ X/ X/ X/ X/ X/ X/ X/ X/ X/ X/ X/ uA 8A 8A 8A 8A 8A 8A 8A 8A 8A 8A Ju X/ X/ X/ X/ X/ ",
"'s 's 's 2w &| Ee ts {k {k {k {k {k {k 0A 0A 0A 0A 0A 0A 0A 0A 0A 0A 0A nA Hv Hv Hv Hv Hv 9z 9z 9z 9z 9z &v [s [s [s [s [s [s [s [s [s [s [s @z !A !A [s [s %z %| b_ c_ d_ e_ f_ g_ B! u  v  `. ++ 0. 0. #+ -+ P+ Q+ :# ;@ z@ {# S# _$ _$ _$ _$ _$ _$ E$ `$ =% |% o% V& =& (& vA sk h- w- h- h- qA wA xA 4> Qy Ou :m 58 D9 xa J6 Aa /<  ! <g I! ({ ({ ({ ({ ({ ({ ({ ({ ({ ({ n0 ({ Jd :g :~ J8 *6 i+ .9 Fb Kw X0 yd ({ ({ ({ ({ ({ ({ ({ ({ ({ ({ ({ ({ ({ ({ ({ ({ ({ ({ ({ ({ ({ ({ ({ ({ of of ({ Bd 1% (e ~~ '~ <~ l~ _9 7d n0 ({ ({ ({ ({ ({ ({ ({ ({ ({ ({ ({ ({ ({ ({ ({ ({ ({ ({ ({ ({ ({ ({ ({ ({ ({ ({ ({ ({ ({ ({ ({ ({ ({ ({ ({ ({ ({ ({ ({ ({ ({ ({ ({ ({ ({ ({ ({ ({ ({ ({ ({ ({ ({ ({ ({ ({ ({ ({ ({ ({ ({ ({ ({ ({ ({ ({ ({ ({ ({ ({ ({ ({ ({ ({ ({ ({ ({ ({ ({ ({ ({ ({ ({ ({ ({ ({ ({ ({ ({ ({ ({ ({ ({ ({ ({ ({ ({ ({ ({ ({ ({ ({ ({ ({ ({ ({ ({ ({ ({ ({ ({ ({ ({ ({ ({ ({ ({ ({ ({ ({ ({ ({ ({ ({ ({ ({ ({ ({ ({ ({ ({ ({ ({ ({ ({ ({ ({ ({ ({ ({ ({ ({ ({ ({ ({ ({ ({ ({ ({ ({ ({ ({ ({ ({ ({ ({ ({ ({ ({ ({ ({ ({ ({ ({ n0 ({ P, B~ ;~ :~ qh 5{ C' t' <% Jd -e 7d Nd ({ ({ of n0 n0 of ({ ({ ({ ({ ({ ({ ({ ({ ({ ({ ({ ({ ({ ({ m0 m0 F0 _$ i+ `) {7 {7 i+ Lz vc &n m0 ({ ({ ({ ({ ({ ({ ({ ({ ({ ({ ({ We Ae <{ ;~  { >g wa l! Ed c$ *f G! (8 -z yA sA 9n k- h- h- k- (- T* {, _& R% u% 3% *% F$ zA x# x# zA zA zA zA ]8 ]8 ]8 x# %d -@ !# 6@ -+ j+ i+ {7 y  9. }d N' g_ 2v f_ f_ e_ d[ S< b_ hv Br Br Br Br Br Br Br Br Br Br Br Br Br Br Br Br Br Br Br Br Br Br Br Br X/ X/ X/ X/ X/ X/ X/ X/ X/ X/ X/ X/ X/ X/ uA 8A 8A 8A 8A 8A 8A 8A 8A 8A 8A 8A e5 X/ X/ X/ X/ ",
"'s 's 's Z+ !a {k {k {k {k {k {k {k {k 0A 0A 0A 0A 0A 0A 0A 0A 0A 0A 0A 0A AA Hv Hv Hv X/ 9z 9z 9z 9z 9z $z [s [s [s [s [s [s [s [s [s BA CA DA DA DA EA BA %z FA b_ c_ d_ e_ f_ g_ B! u  v  `. ++ 0. 0. #+ -+ P+ Q+ :# ;@ z@ {# S# _$ _$ _$ _$ _$ _$ E$ `$ =% |% o% K% ;& n& x& 0i GA w- h- h- HA r> [* G& IA iA JA 68 D9 xa J6 Aa /<  ! <g I! ({ ({ ({ ({ ({ ({ ({ ({ ({ ({ n0 ({ ^f a{ :~ J8 *6 i+ .9 Fb Kw X0 yd ({ ({ ({ ({ ({ ({ ({ ({ ({ ({ ({ ({ ({ ({ ({ ({ ({ ({ ({ ({ ({ ({ Sj Sj ({ [d Jd v' {~ [~ ;~ >~ >~ ;~ 7% g% 7d n0 of of of Sj ({ ({ ({ ({ ({ ({ ({ ({ ({ ({ ({ ({ ({ ({ ({ ({ ({ ({ ({ ({ ({ ({ ({ ({ ({ ({ ({ ({ ({ ({ ({ ({ ({ ({ ({ ({ ({ ({ ({ ({ ({ ({ ({ ({ ({ ({ ({ ({ ({ ({ ({ ({ ({ ({ ({ ({ ({ ({ ({ ({ ({ ({ ({ ({ ({ ({ ({ ({ ({ ({ ({ ({ ({ ({ ({ ({ ({ ({ ({ ({ ({ ({ ({ ({ ({ ({ ({ ({ ({ ({ ({ ({ ({ ({ ({ ({ ({ ({ ({ ({ ({ ({ ({ ({ ({ ({ ({ ({ ({ ({ ({ ({ ({ ({ ({ ({ ({ ({ ({ ({ ({ ({ ({ ({ ({ ({ ({ ({ ({ ({ ({ ({ ({ ({ ({ ({ ({ ({ ({ ({ ({ ({ ({ ({ ({ ({ ({ ({ ({ ({ ({ ({ ({ ({ ({ ({ ({ ({ of ({ h, e{ :~ >~ >~ ;~ <~ <~ ;~ [~ b{ 4e w' 4f /a 5e 7d 7d ({ ({ ({ ({ ({ of of of of of ({ ({ ({ ({ ({ ({ m0 m0 F0 _$ i+ `) {7 {7 i+ Lz vc &n m0 ({ ({ ({ ({ ({ ({ ({ ({ ({ ({ ({ We KA 4{ ;~  { >g wa l! <g c$ *f G! (8 -z 4w sA 9n k- h- h- LA MA T* {, P& NA OA PA QA RA RA SA SA yA TA TA UA UA UA rA rA :A !i VA WA XA YA Dn ZA gd `A C,  B .B .B Tb f_ e_ d[ S< b_ hv Br Br Br Br Br Br Br Br Br Br Br Br Br Br Br Br Br Br Br Br Br Br Br Br Xs Xs Xs Xs :7 Xs X/ X/ X/ X/ X/ X/ X/ X/ uA 8A 8A 8A 8A 8A 8A 8A 8A 8A 8A 8A 8A 5A X/ X/ X/ ",
"'s 's 's Z+ &4 {k {k {k {k {k {k {k .a 0A 0A 0A 0A 0A 0A 0A 0A 0A 0A 0A 0A +B Hv Hv Hv X/ 9z 9z 9z 9z 9z 9z [s [s [s [s [s [s [s @z @B DA DA DA DA DA DA DA W! #B b_ c_ d_ e_ f_ g_ B! u  v  `. ++ 0. 0. #+ -+ P+ Q+ :# ;@ z@ {# S# _$ _$ _$ _$ _$ _$ E$ `$ =% |% o% K% >& _& $B 0i )> j- h- h- HA Z> [* %B S& iA JA 68 D9 xa c$ Aa /<  ! <g I! ({ ({ ({ ({ ({ ({ ({ ({ ({ ({ n0 ({ ^f a{ :~ J8 *6 i+ .9 Fb Kw X0 yd ({ ({ ({ ({ ({ ({ ({ ({ ({ ({ ({ ({ ({ ({ ({ ({ ({ ({ ({ ({ n0 ({ Bd 5e g% KA b{ [~ ;~ >~ ;~ ;~ ;~ ;~ '~ b{ |% -e Bd -e P9 yd ({ ({ ({ ({ ({ ({ ({ ({ ({ ({ ({ ({ ({ ({ ({ ({ ({ ({ ({ ({ ({ ({ ({ ({ ({ ({ ({ ({ ({ ({ ({ ({ ({ ({ ({ ({ ({ ({ ({ ({ ({ ({ ({ ({ ({ ({ ({ ({ ({ ({ ({ ({ ({ ({ ({ ({ ({ ({ ({ ({ ({ ({ ({ ({ ({ ({ ({ ({ ({ ({ ({ ({ ({ ({ ({ ({ ({ ({ ({ ({ ({ ({ ({ ({ ({ ({ ({ ({ ({ ({ ({ ({ ({ ({ ({ ({ ({ ({ ({ ({ ({ ({ ({ ({ ({ ({ ({ ({ ({ ({ ({ ({ ({ ({ ({ ({ ({ ({ ({ ({ ({ ({ ({ ({ ({ ({ ({ ({ ({ ({ ({ ({ ({ ({ ({ ({ ({ ({ ({ ({ ({ ({ ({ ({ ({ ({ ({ ({ ({ ({ ({ ({ ({ ({ ({ ({ ({ n0 ({ We =e k9 ;~ ;~ ;~ ;~ >~ >~ >~ |{ }{ <{ &B c{ a{ =e w' re h% 3% h, gx 5e -e 7d ({ of ({ Sj of of of of of m0 m0 F0 _$ i+ `) {7 {7 i+ Lz vc &n m0 ({ ({ ({ ({ ({ ({ ({ ({ ({ ({ ({ -e P, B~ ,~  { >g wa l! Za c$ He 1j (8 -z 4w sA 9n k- h- h- k- MA }, s& *B =B -B ;B >B ,B 'B )B !B ~B {B ]B ^B /B (B _B _B :B <B [B >B }B |B 1B 2B 3B 4B 5B 6B 7B 1z 8B Ed e_ d[ S< b_ hv Br Br Br Br Br Br Br Br Br Br Br Br Br Br Br Br Br Br Br Br Br Br Br Br Br Br Br Br Br :7 X/ X/ X/ X/ X/ X/ X/ X/ 6A 8A 8A 8A 8A 8A 8A 8A 8A 8A 8A 8A 8A 8A 5A X/ X/ ",
"|t 's 's -0 {k {k {k {k {k {k {k {k .a 0A 0A 0A 0A 0A 0A 0A 0A 0A 0A 0A 0A 0A Hv Hv Hv Hv 9z 9z 9z 9z 9z 9z [s [s [s [s [s [s [s 9B DA DA DA DA DA DA DA EA 0B #B b_ c_ d_ e_ f_ g_ B! u  v  `. ++ 0. 0. #+ -+ P+ Q+ :# ;@ z@ {# S# _$ _$ _$ _$ _$ _$ E$ `$ =% |% o% K% >& _& $B aB 5; x- h- z- bB s> }* %B cB jv hx 68 D9 xa c$ Ed /<  ! <g I! ({ ({ ({ ({ ({ ({ ({ ({ ({ ({ n0 ({ Jd :g :~ J8 *6 $+ .9 j+ zb qc Am ({ ({ ({ ({ ({ ({ ({ ({ ({ Nd Nd Nd Nd Nd Nd Nd Nd Nd Nd &n K0 We P, C' B~ )~ ;~ >~ ,~ ,~ ;~ ;~ ;~ ;~ >~ ;~ d{ t' v' (e v' Jd 7d ({ ({ ({ ({ ({ ({ ({ ({ ({ ({ ({ ({ ({ ({ ({ ({ ({ ({ ({ ({ ({ ({ ({ ({ ({ ({ ({ ({ ({ ({ ({ ({ ({ ({ ({ ({ ({ ({ ({ ({ ({ ({ ({ ({ ({ ({ ({ ({ ({ ({ ({ ({ ({ ({ ({ ({ ({ ({ ({ ({ ({ ({ ({ ({ ({ ({ ({ ({ ({ ({ ({ ({ ({ ({ ({ ({ ({ ({ ({ ({ ({ ({ ({ ({ ({ ({ ({ ({ ({ ({ ({ ({ ({ ({ ({ ({ ({ ({ ({ ({ ({ ({ ({ ({ ({ ({ ({ ({ ({ ({ ({ ({ ({ ({ ({ ({ ({ ({ ({ ({ ({ ({ ({ ({ ({ ({ ({ ({ ({ ({ ({ ({ ({ ({ ({ ({ ({ ({ ({ ({ ({ ({ ({ ({ ({ ({ ({ ({ ({ ({ ({ ({ ({ ({ ({ n0 of vj KA 4{ ;~ ;~ ;~ ,~ ,~ ,~ ;~ ;~ ,~ dB &e >~ <~ ;~ ;~ )~ &B _e c{ a{ 6{ 0{ t' w' [% S9 (0 l9 P! K0 ({ &n ({ of of X0 _$ i+ `) {7 {7 i+ Lz vc &n m0 ({ ({ ({ ({ ({ ({ ({ ({ ({ ({ ({ 7d Jd c{ ,~  { >g wa l! Za c$ He 1j xi Kz 4w 1= >- k- h- h- l- MA U* t& eB fB kz Di gB hB `h `h iB jB iB iB iB iB iB 3z kB lB lB lB lB kB kB mB mB nB nB 2z nB nB oB pB cf e_ d[ S< b_ hv Br Br Br Br Br Br Br Br Br Br Br Br Br Br Br Br Br Br Br Br Br Br Br Br Br Br Br Br Br Ys X/ X/ X/ X/ X/ X/ X/ X/ 7A 8A 8A 8A 8A 8A 8A 8A 8A 8A 8A 8A 8A 8A 8A lA X/ ",
"9A 's 's .a {k {k {k {k {k {k {k {k .a 0A 0A 0A 0A 0A 0A 0A 0A 0A 0A 0A 0A 0A Hv Hv Hv Hv )A 9z 9z 9z 9z 9z 2w [s [s [s [s [s .a qB rB sB tB tB uB vB wB ]m #B #B b_ c_ d_ e_ f_ g_ B! u  v  `. ++ 0. 0. #+ -+ P+ Q+ :# ;@ z@ {# S# _$ _$ _$ _$ _$ _$ E$ `$ =% g% f- K% >& o& B& aB h- x- z- z- xB t> }* J& yB %w hx [8 D9 xa c$ Ed /<  ! <g I! ({ ({ ({ ({ ({ ({ ({ ({ ({ ({ n0 ({ g% 5{ :~ J8 *6 $+ .9 i+ ]8 ;b L! X0 X0 X0 X0 X0 X0 X0 X0 X0 %a %a %a %a %a %a %a %a %a %a qc L! _% G! h8 I8 J8 J8 ;~ ;~ ;~ ;~ ;~ ;~ ;~ ;~ >~ '~ :~ :~ :~ !~ <% Bd n0 ({ ({ ({ ({ ({ ({ ({ ({ ({ ({ ({ ({ ({ ({ ({ ({ ({ ({ ({ ({ ({ ({ ({ ({ ({ ({ ({ ({ ({ ({ ({ ({ ({ ({ ({ ({ ({ ({ ({ ({ ({ ({ ({ ({ ({ ({ ({ ({ ({ ({ ({ ({ ({ ({ ({ ({ ({ ({ ({ ({ ({ ({ ({ ({ ({ ({ ({ ({ ({ ({ ({ ({ ({ ({ ({ ({ ({ ({ ({ ({ ({ ({ ({ ({ ({ ({ ({ ({ ({ ({ ({ ({ ({ ({ ({ ({ ({ ({ ({ ({ ({ ({ ({ ({ ({ ({ ({ ({ ({ ({ ({ ({ ({ ({ ({ ({ ({ ({ ({ ({ ({ ({ ({ ({ ({ ({ ({ ({ ({ ({ ({ ({ ({ ({ ({ ({ ({ ({ ({ ({ ({ ({ ({ ({ ({ ({ ({ ({ ({ ({ ({ ({ ({ n0 of [d w' _e ;~ 80 zB AB AB AB AB AB AB AB Je Je Je At At Bt At At bt +g +g 00 00 00 (9 @9 D9 H! r' =% /~ (~ (~ (~ K! Ra BB Lz Yb {7 {7 {7 i+ Lz vc &n m0 ({ ({ ({ ({ ({ ({ ({ ({ ({ ({ ({ ({ ^a a{ ;~  { >g wa l! Za c$ W  H! xi ys Jw CB Vi w- h- z- w- uo |, t& DB (l gi Pi 7j /i ii EB EB EB Ly Ly Ly Ly Ly Ly Ly Ly Ly Ly Ly Ly Ly fB fB ni Ly Ly Ly ki FB GB Aa e_ d[ S< b_ hv Br Br Br Br Br Br Br Br Br Br Br Br Br Br Br Br Br Br Br Br Br Br Br Br Br Br Br Br Br Br Ws X/ X/ X/ X/ X/ X/ X/ 8A 8A 8A 8A 8A 8A 8A 8A 8A 8A 8A 8A 8A 8A 8A 8A 8A ",
"HB T0 's <b {k {k {k {k IB {k {k {k .a 0A 0A 0A 0A 0A 0A 0A 0A 0A 0A 0A 0A JB Hv Hv Hv Hv q8 9z 9z 9z 9z 9z 2w [s [s [s [s KB qB qB LB MB MB MB MB MB NB #B #B #B b_ c_ d_ e_ f_ g_ B! u  v  `. ++ 0. 0. #+ -+ P+ Q+ :# ;@ z@ {# S# _$ _$ _$ _$ _$ _$ E$ `$ =% g% f- K% >& <& C& 0i !; x- z- z- OB X> 1* PB QB %w hx [8 D9 xa c$ Aa /)  ! <g I! ({ ({ ({ ({ ({ ({ ({ ({ ({ ({ n0 7d <% !~ ;~ J8 Eb m! y  N+ wz hb $b %b %b %b %b %b %b %b %b %b %b %b %b %b %b %b %b %b &b &b &b %b cb RB SB 6- cg cg Q9 @9 Va ;~ ;~ ;~ ;~ ;~ ;~ ;~ >~ &e >~ qh P, yd n0 ({ ({ ({ ({ ({ ({ ({ ({ ({ ({ ({ ({ ({ ({ ({ ({ ({ ({ ({ ({ ({ ({ ({ ({ ({ ({ ({ ({ ({ ({ ({ ({ ({ ({ ({ ({ ({ ({ ({ ({ ({ ({ ({ ({ ({ ({ ({ ({ ({ ({ ({ ({ ({ ({ ({ ({ ({ ({ ({ ({ ({ ({ ({ ({ ({ ({ ({ ({ ({ ({ ({ ({ ({ ({ ({ ({ ({ ({ ({ ({ ({ ({ ({ ({ ({ ({ ({ ({ ({ ({ ({ ({ ({ ({ ({ ({ ({ ({ ({ ({ ({ ({ ({ ({ ({ ({ ({ ({ ({ ({ ({ ({ ({ ({ ({ ({ ({ ({ ({ ({ ({ ({ ({ ({ ({ ({ ({ ({ ({ ({ ({ ({ ({ ({ ({ ({ ({ ({ ({ ({ ({ ({ ({ ({ ({ ({ ({ ({ ({ ({ ({ ({ ({ ({ -e fg c{ ;~ J8 *f R  Q  ~+ C! TB w# C! C! d$ ^% ^% ^% ^% M; M; M; M; UB VB VB Rh Rh He W  -d )i 6- 6- Y$ Y$ Y$ WB *) (c yb XB Yb .9 {7 {7 i+ Lz vc &n m0 ({ ({ ({ ({ ({ ({ ({ ({ ({ ({ ({ ({ 5e 0{ )~  { >g wa l! Za c$ W  H! xi ys YB CB Vi w- h- z- w- Y= 1, v& DB ZB _i Kj .x 5! 'A {j {j {j {j {j {j {j {j {j {j {j {j {j {j {j {j {j {j 'A `B Kj Wj _i FB  C Ed e_ d[ S< b_ .C X/ X/ <t Ws Xs Ys Br Br Br Br Br Br Br Br Br Br Br Br Br Br Br Br Br Br Br Br Br Br Br Br Br :7 <t X/ X/ X/ X/ Hv 8A 8A 8A 8A 8A 8A 8A 8A 8A 8A 8A 8A 8A 8A 8A 8A 8A ",
"HB HB Ws 1t {k {k IB +C @C 1r {k {k e' 0A 0A 0A 0A 0A 0A 0A 0A 0A 0A 0A 0A gA Hv Hv Hv Hv Hv 9z 9z 9z 9z 9z 8z [s [s [s [s 1r qB qB #C $C %C &C &C *C =C -C ;C >C Q' c_ d_ e_ f_ g_ B! u  v  `. ++ 0. 0. #+ -+ P+ Q+ :# ;@ z@ {# S# _$ _$ _$ _$ _$ _$ E$ `$ =% 1% p% K% >& <& O& 0i !; x- )> z- ,C t> 1* M& 'C 4w |o 78 ^e xa c$ Aa /)  ! <g I! ({ ({ ({ ({ ({ ({ ({ ({ ({ ({ Sj l9 C' :~ ;~ J8 Eb $+ i+ )C !C hb Hb Hb Hb Hb Hb Hb Hb Hb Hb Hb Hb Hb Hb Hb Hb Hb Hb Hb Hb Hb Hb Hb ~C cb db db db 57 G$ )i *f AB Je 'b ;~ ;~ ;~ ;~ ;~ ;~ )~ C' (0 ({ ({ ({ ({ ({ ({ ({ ({ ({ ({ ({ ({ ({ ({ ({ ({ ({ ({ ({ ({ ({ ({ ({ ({ ({ ({ ({ ({ ({ ({ ({ ({ ({ ({ ({ ({ ({ ({ ({ ({ ({ ({ ({ ({ ({ ({ ({ ({ ({ ({ ({ ({ ({ ({ ({ ({ ({ ({ ({ ({ ({ ({ ({ ({ ({ ({ ({ ({ ({ ({ ({ ({ ({ ({ ({ ({ ({ ({ ({ ({ ({ ({ ({ ({ ({ ({ ({ ({ ({ ({ ({ ({ ({ ({ ({ ({ ({ ({ ({ ({ ({ ({ ({ ({ ({ ({ ({ ({ ({ ({ ({ ({ ({ ({ ({ ({ ({ ({ ({ ({ ({ ({ ({ ({ ({ ({ ({ ({ ({ ({ ({ ({ ({ ({ ({ ({ ({ ({ ({ ({ ({ ({ ({ ({ ({ ({ ({ ({ ({ ({ ({ ({ ({ ({ 7d We v' ~~ ;~ ;~ I8 w0 H  #+ Xb ]_ _c _c _c _c 3b 3b ]; ]; ]; (c (c (c (c zb zb pd eb eb @b eb eb eb eb eb eb pd (c (c (c Bb _c Lz 65 Yb .9 z  i+ Lz vc &n m0 ({ ({ ({ ({ ({ ({ ({ ({ ({ ({ ({ ({ Bd <% !~  { >g A) /< Za c$ W  ]~ xi +t YB CB Vi w- z- z- x- wm {C w& DB ZB _i ]C Tz ^C +j +j +j +j +j +j +j +j +j +j +j +j +j +j +j +j +j +j +j Jj /C Ei Wj _i FB (C Ed e_ d[ S< b_ .C X/ X/ X/ X/ X/ X/ X/ Ws :7 Br Br Br Br Ys Xs Ws <t <t <t Xs :7 Br Br Br Br Br Br Br Br Br Br Br <t X/ X/ X/ X/ 5A 8A 8A 8A 8A 8A 8A 8A 8A 8A 8A 8A 8A 8A 8A 8A 8A 8A ",
"HB HB HB Ws W! Uq @C @C @C @C _C {k {k 0A 0A 0A 0A 0A 0A 0A 0A 0A 0A 0A oA Hv Hv Hv Hv Hv Hv |A 9z 9z 9z 9z #z [s [s [s [s :C qB qB qB qB .' aA aA aA aA aA aA aA Q' c_ d_ e_ f_ g_ B! u  v  `. ++ 0. 0. #+ -+ P+ Q+ :# ;@ z@ {# S# _$ _$ _$ _$ _$ _$ E$ `$ =% 1% p% K% >& 1& O& 0i z- y- ,; 4; OB v> 2* M& <C 4w |o 78 G! Rh c$ Aa /)  ! <g I! ({ ({ ({ ({ ({ ({ ({ ({ ({ ({ P! <% ~~ ;~ ;~ J8 bb P+ )C !C Ab 5b cb cb cb cb cb cb cb cb cb cb cb cb cb cb cb cb cb cb Hb Hb Hb Hb cb Hb Hb $b ~C gb [C 4! Sb O+ Ie |s ;~ ;~ ;~ ;~ ;~ ;~ 5{ 1% yd n0 ({ ({ ({ ({ ({ ({ ({ ({ ({ ({ ({ ({ ({ ({ ({ ({ ({ ({ ({ ({ ({ ({ ({ ({ ({ ({ ({ ({ ({ ({ ({ ({ ({ ({ ({ ({ ({ ({ ({ ({ ({ ({ ({ ({ ({ ({ ({ ({ ({ ({ ({ ({ ({ ({ ({ ({ ({ ({ ({ ({ ({ ({ ({ ({ ({ ({ ({ ({ ({ ({ ({ ({ ({ ({ ({ ({ ({ ({ ({ ({ ({ ({ ({ ({ ({ ({ ({ ({ ({ ({ ({ ({ ({ ({ ({ ({ ({ ({ ({ ({ ({ ({ ({ ({ ({ ({ ({ ({ ({ ({ ({ ({ ({ ({ ({ ({ ({ ({ ({ ({ ({ ({ ({ ({ ({ ({ ({ ({ ({ ({ ({ ({ ({ ({ ({ ({ ({ ({ ({ ({ ({ ({ ({ ({ ({ ({ ({ ({ ({ ({ ({ ({ ({ 7d g% {~ k~ ,~ '~ H8 }C O+ {7 jb |C ib Hb ~C $b $b $b $b $b $b $b $b $b $b %b %b %b Ub Ub Ub Ub %b %b %b $b $b 4b 4b 4b $b ~C Hb hb ]_ y@ i+ +b |d 4! vc &n m0 ({ ({ ({ ({ ({ ({ ({ ({ ({ ({ ({ ({ Nd /a a{ K8 >g A) /< Za c$ W  ]~ xi +t |p CB Pg x- z- z- x- wm W* w& DB ZB _i 1C Tz 2C Jj +j +j +j +j +j +j +j +j +j +j +j +j +j +j +j +j +j +j >y /C Ei Wj _i FB (C Ed e_ d[ S< b_ .C X/ X/ X/ X/ X/ X/ X/ X/ X/ X/ X/ Ws <t X/ X/ X/ X/ X/ X/ X/ X/ X/ Xs Br Br Br Br Br Br Br Br Ys X/ X/ X/ X/ X/ lA 8A 8A 8A 8A 8A 8A 8A 8A 8A 8A 8A 8A 8A 8A 8A 8A 8A ",
"HB HB HB HB `s %z @C @C @C @C @C 3C {k 4C 0A 0A 0A 0A 0A 0A 0A 0A 0A nA Hv Hv Hv Hv Hv Hv Hv Hv )A 9z 9z 9z 9z [s [s [s [s 5C qB qB qB qB qB 6C aA aA aA aA aA aA Q' c_ d_ e_ f_ g_ B! u  v  `. ++ 0. 0. #+ -+ P+ Q+ :# ;@ z@ {# S# _$ _$ _$ _$ _$ _$ E$ `$ =% 2% q% K% >& 1& O& 0i z- h- 4; 4; OB v> 5= !* <C 7C |o _8 G! W  c$ Ed /)  ! <g I! ({ ({ ({ ({ ({ ({ ({ ({ ({ ({ f{ C8 :~ ;~ ;~ J8 *f R# 8C ib hb hb hb hb hb hb hb hb hb hb hb hb hb hb hb hb hb hb hb hb Vb Vb Vb Vb hb Vb Hb Hb Vb ]_ !# j+ +b 9C i+ Eb <~ }{ ;~ ;~ ;~ [~ v' P! n0 Sj ({ ({ ({ ({ ({ ({ ({ ({ ({ ({ ({ ({ ({ ({ ({ ({ ({ ({ ({ ({ ({ ({ ({ ({ ({ ({ ({ ({ ({ ({ ({ ({ ({ ({ ({ ({ ({ ({ ({ ({ ({ ({ ({ ({ ({ ({ ({ ({ ({ ({ ({ ({ ({ ({ ({ ({ ({ ({ ({ ({ ({ ({ ({ ({ ({ ({ ({ ({ ({ ({ ({ ({ ({ ({ ({ ({ ({ ({ ({ ({ ({ ({ ({ ({ ({ ({ ({ ({ ({ ({ ({ ({ ({ ({ ({ ({ ({ ({ ({ ({ ({ ({ ({ ({ ({ ({ ({ ({ ({ ({ ({ ({ ({ ({ ({ ({ ({ ({ ({ ({ ({ ({ ({ ({ ({ ({ ({ ({ ({ ({ ({ ({ ({ ({ ({ ({ ({ ({ ({ ({ ({ ({ ({ ({ ({ ({ ({ ({ ({ ({ ({ ({ n0 7d P, D8 k~ ;~ '~ H8 *f O+ y  kb v0 2b !C Hb $b $b ~C 6b 6b Hb Hb Hb Hb Hb Hb Hb Hb Hb Hb Hb Hb Hb Hb Hb Hb Hb Hb Hb Hb Hb Hb Hb Hb Vb yb 2b ^c 0C 4!  9 &n m0 ({ ({ ({ ({ ({ ({ ({ ({ ({ ({ ({ ({ ({ -e 0{ J8 >g A) /< Za c$ W  ]~ Wi /A ~y S* Pg x- z- 4; x- `= W* >* DB ZB gi aC Tz 2C Jj +j +j +j +j +j +j +j +j +j +j +j +j +j +j +j +j +j +j >y /C Ei Wj _i FB (C Ed e_ d[ S< b_ .C X/ X/ X/ X/ X/ X/ X/ X/ X/ X/ X/ X/ X/ X/ X/ X/ X/ X/ X/ X/ X/ X/ X/ X/ Br Br Br Br Br Br Br Xs X/ X/ X/ X/ X/ 7A 8A 8A 8A 8A 8A 8A 8A 8A 8A 8A 8A 8A 8A 8A 8A 8A 8A ",
"HB HB HB HB HB @C @C @C @C @C @C @C ts 2w 0A 0A 0A 0A 0A 0A 0A 0A 0A }A Hv Hv Hv Hv Hv Hv Hv Hv |A 9z 9z 9z 9z 2w [s [s [s KB qB qB qB qB qB qB U! aA aA aA aA aA Q' c_ d_ e_ f_ g_ B! u  v  `. ++ 0. 0. #+ -+ P+ Q+ :# ;@ z@ {# S# _$ _$ _$ _$ _$ _$ E$  % =% 2% q% K% r, [& bC 0i z- h- 4; B- cC w> 5* u* dC 7C Mz _8 G! W  c$ Ed <3  ! <g I! ({ ({ ({ ({ ({ ({ ({ ({ ({ P9 t' [~ ;~ ;~ ;~ J8 D9 i9 {c eC eC eC eC eC eC eC eC eC eC eC eC eC eC eC eC eC eC eC eC eC eC eC eC eC fC {c gC gb wz %+ {7 {7 +b ~7 B  -v ;~ [{ ;~ ;~ :~ e{ ^f ({ n0 ({ ({ ({ ({ ({ ({ ({ ({ ({ ({ ({ ({ ({ ({ ({ ({ ({ ({ ({ ({ ({ ({ ({ ({ ({ ({ ({ ({ ({ ({ ({ ({ ({ ({ ({ ({ ({ ({ ({ ({ ({ ({ ({ ({ ({ ({ ({ ({ ({ ({ ({ ({ ({ ({ ({ ({ ({ ({ ({ ({ ({ ({ ({ ({ ({ ({ ({ ({ ({ ({ ({ ({ ({ ({ ({ ({ ({ ({ ({ ({ ({ ({ ({ ({ ({ ({ ({ ({ ({ ({ ({ ({ ({ ({ ({ ({ ({ ({ ({ ({ ({ ({ ({ ({ ({ ({ ({ ({ ({ ({ ({ ({ ({ ({ ({ ({ ({ ({ ({ ({ ({ ({ ({ ({ ({ ({ ({ ({ ({ ({ ({ ({ ({ ({ ({ ({ ({ ({ ({ ({ ({ ({ ({ ({ ({ ({ ({ ({ ({ ({ ({ ({ ({ n0 ({ g% {~ :~ ;~ '~ H8 *f O+ z  .9 .9 {7 65 0b cb =b hC iC iC =b =b =b =b =b =b =b =b =b =b =b =b =b =b =b =b =b =b =b =b =b =b =b hC Pa iC $b !C 4! S# Qa &n m0 ({ ({ ({ ({ ({ ({ ({ ({ ({ ({ ({ ({ ({ 7d 68 I8 >g A) ;2 [c c$ W  ]~ Wi :A jC S* Pg x- z- 4; x- `= kC y& lC (l gi aC Tz S~ Jj +j +j +j +j +j +j +j +j +j +j +j +j +j +j +j +j +j +j >y /C Ei Wj _i FB (C Ed e_ d[ S< b_ .C X/ X/ X/ X/ X/ X/ X/ X/ X/ X/ X/ X/ X/ X/ X/ X/ X/ X/ X/ X/ X/ X/ X/ X/ X/ Ys <t <t :7 Br Ys X/ X/ X/ X/ X/ X/ 8A 8A 8A 8A 8A 8A 8A 8A 8A 8A 8A 8A 8A 8A 8A 8A 8A 8A ",
"HB HB HB HB HB 's @C @C @C @C @C @C mC W! 0A 0A 0A 0A 0A 0A 0A 0A +B Hv Hv Hv Hv Hv Hv Hv Hv Hv |A 9z 9z 9z 9z 9z [s [s [s [s e' qB qB qB qB qB nC aA aA aA aA aA Q' c_ d_ e_ f_ g_ B! u  v  `. ++ 0. 0. #+ -+ P+ Q+ :# ;@ z@ {# S# _$ _$ _$ _$ _$ _$ E$ +% :% 2% q% M% '& }& F& 0i z- h- B- B- oC w> 6* ~* dC pC Zx _8 G! W  c$ Ed /)  ! <g I! ({ ({ ({ ({ ({ ({ ({ ({ yd g% -$ ;~ ;~ ;~ >~ '~ |g qC rC sC sC sC sC sC sC sC sC sC sC sC sC sC sC sC sC sC sC sC sC sC sC sC sC tC uC vC )c vc 65 y  .9 {7 {7 {7 H  wC ;~ <{ ;~ k~ B~ P, 7d Sj ({ ({ ({ ({ ({ ({ ({ ({ ({ ({ ({ ({ ({ ({ ({ ({ ({ ({ ({ ({ ({ ({ ({ ({ ({ ({ ({ ({ ({ ({ ({ ({ ({ ({ ({ ({ ({ ({ ({ ({ ({ ({ ({ ({ ({ ({ ({ ({ ({ ({ ({ ({ ({ ({ ({ ({ ({ ({ ({ ({ ({ ({ ({ ({ ({ ({ ({ ({ ({ ({ ({ ({ ({ ({ ({ ({ ({ ({ ({ ({ ({ ({ ({ ({ ({ ({ ({ ({ ({ ({ ({ ({ ({ ({ ({ ({ ({ ({ ({ ({ ({ ({ ({ ({ ({ ({ ({ ({ ({ ({ ({ ({ ({ ({ ({ ({ ({ ({ ({ ({ ({ ({ ({ ({ ({ ({ ({ ({ ({ ({ ({ ({ ({ ({ ({ ({ ({ ({ ({ ({ ({ ({ ({ ({ ({ ({ ({ ({ ({ ({ ({ ({ ({ ({ ({ ({ (0 @> :~ ;~ '~ H8 *f *+ z  {7 .9 .9 .9 xC ]b yC zC AC BC BC BC BC BC BC BC BC BC BC BC BC BC BC BC BC BC BC BC BC BC BC BC BC BC BC CC DC EC La T9 %a ({ ({ ({ ({ ({ ({ ({ ({ ({ ({ ({ ({ ({ ({ ({ 7d B; l~ >g A) ;2 [c c$ W  ]~ y' dA by S* 8d x- z- B- h- sk X* y& FC ~m GC aC Tz S~ Jj +j +j +j +j +j +j +j +j +j +j +j +j +j +j +j +j +j +j >y /C Ei Wj _i FB (C Ed e_ d[ S< b_ .C X/ X/ X/ X/ X/ X/ X/ X/ X/ X/ X/ X/ X/ X/ X/ X/ X/ X/ X/ X/ X/ X/ X/ X/ X/ X/ X/ X/ X/ Ws X/ X/ X/ X/ X/ X/ X/ 8A 8A 8A 8A 8A 8A 8A 8A 8A 8A 8A 8A 8A 8A 8A 8A 8A 8A ",
"HB HB HB HB HB e5 HC @C @C @C @C @C @C _C !s 0A 0A 0A 0A nA oA }A Hv Hv Hv Hv Hv Hv Hv Hv Hv Hv |A 9z 9z 9z 9z 9z $z [s [s [s 2A qB qB qB qB qB qB aA aA aA aA aA Q' c_ d_ e_ f_ g_ B! u  v  `. ++ 0. 0. #+ -+ P+ Q+ :# ;@ z@ {# S# _$ _$ _$ _$ _$ _$ E$ +% v' 2% &* M% '& R& F& Cg z- h- B- C- oC IC 6* ~* JC YB Zx _8 G! W  c$ Ed /)  ! <g I! ({ ({ ({ ({ ({ ({ ({ n0 l9 0{ )~ ;~ ;~ ;~  { )~ KC LC MC NC OC OC OC PC PC QC QC QC QC QC QC QC QC QC QC QC QC QC QC QC QC QC QC PC RC SC TC UC 65 9. y  {7 {7 {7 H  wC <~ }{ ;~ k9 4e -e n0 ({ ({ ({ ({ ({ ({ ({ ({ ({ ({ ({ ({ ({ ({ ({ ({ ({ ({ ({ ({ ({ ({ ({ ({ ({ ({ ({ ({ ({ ({ ({ ({ ({ ({ ({ ({ ({ ({ ({ ({ ({ ({ ({ ({ ({ ({ ({ ({ ({ ({ ({ ({ ({ ({ ({ ({ ({ ({ ({ ({ ({ ({ ({ ({ ({ ({ ({ ({ ({ ({ ({ ({ ({ ({ ({ ({ ({ ({ ({ ({ ({ ({ ({ ({ ({ ({ ({ ({ ({ ({ ({ ({ ({ ({ ({ ({ ({ ({ ({ ({ ({ ({ ({ ({ ({ ({ ({ ({ ({ ({ ({ ({ ({ ({ ({ ({ ({ ({ ({ ({ ({ ({ ({ ({ ({ ({ ({ ({ ({ ({ ({ ({ ({ ({ ({ ({ ({ ({ ({ ({ ({ ({ ({ ({ ({ ({ ({ ({ ({ ({ ({ ({ ({ ({ ({ ({ n0 P! t' )~ ;~ '~ H8 *f *+ z  {7 {7 {7 ov +b ba jc VC gc fc LC fc fc fc fc fc fc fc fc fc fc fc fc fc fc fc fc fc fc fc fc fc fc LC LC WC XC ({ 3~ K0 &n ({ ({ ({ ({ ({ ({ ({ ({ ({ ({ ({ ({ ({ ({ ({ 7d g% ~~ tg A) ;2 [c %9 W  ]~ /k dA YC }, 8d '; B- B- h-  - X* t, FC ~m GC aC Tz S~ Jj +j +j +j +j +j +j +j +j +j +j +j +j +j +j +j +j +j +j >y /C Ei Wj _i FB (C Ed e_ d[ S< b_ .C X/ X/ X/ X/ X/ X/ X/ X/ X/ X/ X/ X/ X/ X/ X/ X/ X/ X/ X/ X/ X/ X/ X/ X/ X/ X/ X/ X/ X/ X/ X/ X/ X/ X/ X/ X/ X/ 8A 8A 8A 8A 8A 8A 8A 8A 8A 8A 8A 8A 8A 8A 8A 8A 8A 8A ",
"HB HB HB HB HB 6A Hv |A @C @C @C @C @C @C +C @x !A gA Hv Hv Hv Hv Hv Hv Hv Hv Hv Hv Hv Hv Hv Hv |A 9z 9z 9z 9z 9z $z [s [s [s [s e' qB qB qB qB qB aA aA aA aA aA Q' c_ d_ e_ f_ g_ B! u  v  `. ++ 0. 0. #+ -+ P+ Q+ :# ;@ z@ {# S# _$ _$ _$ _$ _$ _$ E$ +% v' 3% &* M% '& R& G& Cg xm h-  > C- ZC `C 8* ]*  D |p Zx _8 G! W  c$ Ed <3  ! <g I! ({ ({ ({ ({ ({ ({ ({ ({ 1% d{ ;~ ;~ ;~ ;~  { k9 .D vd Qc 5d +D +D 5d 5d +D +D +D +D +D +D +D +D +D +D +D +D +D +D +D +D +D +D +D @D #D 3d $D %D 6@ 9. y  {7 {7 {7 H  wC <~ }{ :~ a{ i% m0 n0 ({ ({ ({ ({ ({ ({ ({ ({ ({ ({ ({ ({ ({ ({ ({ ({ ({ ({ ({ ({ ({ ({ ({ ({ ({ ({ ({ ({ ({ ({ ({ ({ ({ ({ ({ ({ ({ ({ ({ ({ ({ ({ ({ ({ ({ ({ ({ ({ ({ ({ ({ ({ ({ ({ ({ ({ ({ ({ ({ ({ ({ ({ ({ ({ ({ ({ ({ ({ ({ ({ ({ ({ ({ ({ ({ ({ ({ ({ ({ ({ ({ ({ ({ ({ ({ ({ ({ ({ ({ ({ ({ ({ ({ ({ ({ ({ ({ ({ ({ ({ ({ ({ ({ ({ ({ ({ ({ ({ ({ ({ ({ ({ ({ ({ ({ ({ ({ ({ ({ ({ ({ ({ ({ ({ ({ ({ ({ ({ ({ ({ ({ ({ ({ ({ ({ ({ ({ ({ ({ ({ ({ ({ ({ ({ ({ ({ ({ ({ ({ ({ ({ ({ ({ ({ ({ ({ DC Am B; B~ ;~ '~ H8 *f *+ z  {7 {7 i+ ov +b &D *D =D -D Pc Qc Qc Qc Qc Qc Qc Qc Qc Qc Qc Qc Qc Qc Qc Qc Qc Qc Qc Qc Qc Qc Qc Qc Pc Qc ;D >D xd K0 [e {8 m0 ({ ({ ({ ({ ({ ({ ({ ({ ({ ({ ({ ({ ({ ({ 7d 1% {~ (b wa a| [c M8 xb ]~ /k ,D Oy U* !e '; 4; B- y-  - 'D t, FC ~m GC aC Tz )m Jj +j +j +j +j +j +j +j +j +j +j +j +j +j +j +j +j +j +j >y /C Ei Wj _i FB (C Ed e_ d[ S< Q' )D X/ X/ X/ X/ X/ X/ X/ X/ X/ X/ X/ X/ X/ X/ X/ X/ X/ X/ X/ X/ X/ X/ X/ Ws Ws |A !D !D |A Ws X/ X/ X/ X/ X/ X/ X/ 9A 8A 8A 8A 8A 8A 8A 8A 8A 8A 8A 8A 8A 8A 8A 8A 8A 8A ",
"HB HB HB HB HB HB 6A Hv X/ 1t @C @C @C @C @C @C @C HC Hv Hv Hv Hv Hv Hv Hv Hv Hv Hv Hv Hv Hv Hv |A 9z 9z 9z 9z 9z 9z [s [s [s [s 5C qB qB qB qB ~D aA aA aA aA aA Q' c_ d_ e_ f_ g_ B! u  v  `. ++ 0. 0. #+ -+ P+ Q+ :# ;@ z@ {# S# _$ _$ _$ _$ _$ _$ E$ +% f% 3% &* M% s, j* H& Cg xm 5; B- 3; {D W> ]D ]*  D |p Zx ^D G! W  c$ Ed <3  ! <g ,' ({ ({ ({ ({ ({ ({ ({ yd |% d{ ;~ ;~ ;~ ;~ >~ 2{ /D (D _D :D <D [D }D ]d |D |D |D |D |D |D |D |D |D |D |D |D |D |D |D |D |D |D |D 1D _d *D +d ba -+ 9. y  {7 {7 {7 H  wC <~ }{ l~ v' yd 67 Sj ({ ({ ({ ({ ({ ({ ({ ({ ({ ({ ({ ({ ({ ({ ({ ({ ({ ({ ({ ({ ({ ({ ({ ({ ({ ({ ({ ({ ({ ({ ({ ({ ({ ({ ({ ({ ({ ({ ({ ({ ({ ({ ({ ({ ({ ({ ({ ({ ({ ({ ({ ({ ({ ({ ({ ({ ({ ({ ({ ({ ({ ({ ({ ({ ({ ({ ({ ({ ({ ({ ({ ({ ({ ({ ({ ({ ({ ({ ({ ({ ({ ({ ({ ({ ({ ({ ({ ({ ({ ({ ({ ({ ({ ({ ({ ({ ({ ({ ({ ({ ({ ({ ({ ({ ({ ({ ({ ({ ({ ({ ({ ({ ({ ({ ({ ({ ({ ({ ({ ({ ({ ({ ({ ({ ({ ({ ({ ({ ({ ({ ({ ({ ({ ({ ({ ({ ({ ({ ({ ({ ({ ({ ({ ({ ({ ({ ({ ({ ({ ({ ({ ({ ({ ({ ({ ({ n0 Sj 3% a{ :~ '~ H8 *f *+ z  {7 {7 0. 8. {7 Am Ud 2D 3D 4D 5D 5D 5D 5D 5D 5D 5D 5D 5D 5D 5D 5D 5D 5D 5D 5D 5D 5D 5D 5D 5D 5D 5D 4D 6D 7D 8D [e K0 {8 m0 m0 m0 m0 ({ ({ ({ ({ ({ ({ ({ ({ ({ ({ ({ ({ yd 3% 7% (b wa l! [c M8 xb 9l /k eA =z 9D !e y- B- C- h-  - 4, B& FC ~m GC Kj Tz )m 0D +j +j +j +j +j +j +j +j +j +j +j +j +j +j +j +j +j +j >y /C Ei Wj _i FB (C Ed e_ d[ S< b_ aD !D Ws X/ X/ X/ X/ X/ X/ X/ X/ X/ X/ X/ X/ X/ X/ X/ X/ X/ X/ X/ Ws !D !D !D !D !D !D !D !D !D X/ X/ X/ X/ X/ X/ e5 8A 8A 8A 8A 8A 8A 8A 8A 8A 8A 8A 8A 8A 8A 8A 8A 8A ",
"HB HB HB HB HB HB HB HB }A Hv bD ju @C @C @C @C @C @C HC Hv Hv Hv Hv Hv Hv Hv Hv Hv Hv Hv Hv Hv |A 9z 9z 9z 9z 9z 9z ku [s [s [s cD qB qB qB qB dD aA aA aA aA aA Q' c_ d_ e_ f_ g_ B! u  v  `. ++ 0. 0. #+ -+ P+ Q+ :# ;@ z@ {# S# _$ _$ _$ _$ _$ _$ E$ +% f% i% u% M% s, p& )* Cg 4; z- 3; 3; {D eD 0* z* fD ~y WA gD 1j W  c$ Za B!  ! <g #9 $0 $0 $0 $0 $0 $0 $0 yd 1% {~ '~ ;~ ;~ ;~ >~ >~ -~ hD iD jd &* jD kD lD mD nD nD nD nD nD nD nD nD nD nD nD nD nD nD nD nD nD nD oD pD @d ({ qD j+ .9 {7 {7 {7 {7 H  wC rD 2{ 5{ ^f $0 67 $0 $0 $0 $0 $0 $0 $0 $0 $0 $0 $0 $0 $0 $0 $0 $0 $0 $0 $0 $0 $0 $0 $0 $0 $0 $0 $0 $0 $0 $0 $0 $0 $0 $0 $0 $0 $0 $0 $0 $0 $0 $0 $0 $0 $0 $0 $0 $0 $0 $0 $0 $0 $0 $0 $0 $0 $0 $0 $0 $0 $0 $0 $0 $0 $0 $0 $0 $0 $0 $0 $0 $0 $0 $0 $0 $0 $0 $0 $0 $0 $0 $0 $0 $0 $0 $0 $0 $0 $0 $0 $0 $0 $0 $0 $0 $0 $0 $0 $0 $0 $0 $0 $0 $0 $0 $0 $0 $0 $0 $0 $0 $0 $0 $0 $0 $0 $0 $0 $0 $0 $0 $0 $0 $0 $0 $0 $0 $0 $0 $0 $0 $0 $0 $0 $0 $0 $0 $0 $0 $0 $0 $0 $0 $0 $0 $0 $0 $0 $0 $0 $0 $0 $0 $0 $0 $0 $0 $0 m0 -e 4e )~ ;~ I8 *f *+ z  {7 {7 {7 >e {7 &b sD tD uD vD vD vD vD vD vD vD vD vD vD vD vD vD vD vD vD vD vD vD vD vD vD vD vD vD wD xD yD m0 ({ m0 m0 m0 m0 m0 $0 $0 $0 $0 $0 $0 $0 $0 $0 $0 $0 $0 $0 h, ]~ (b wa l! [c M8 Ka 6{ /k iA zD 9D 3w h- B- C- h- ^- Z* D& AD ^i GC Kj Tz )m aj +j +j +j +j +j +j +j +j +j +j +j +j +j +j +j +j +j +j >y /C Ei Wj _i FB (C Ed e_ d[ S< b_ aD !D !D Ws X/ X/ X/ X/ X/ X/ X/ X/ X/ X/ X/ X/ X/ X/ X/ X/ X/ X/ !D !D !D !D !D !D !D !D !D !D X/ X/ X/ X/ X/ X/ Hv 8A 8A 8A 8A 8A 8A 8A 8A 8A 8A 8A 8A 8A 8A 8A 8A 8A ",
"HB HB HB HB HB HB HB HB HB }A Hv Hv @x @C @C @C @C @C @C HC Hv Hv Hv Hv Hv Hv Hv Hv Hv Hv Hv Hv X/ 9z 9z 9z 9z 9z 9z &v [s [s [s [s :C qB qB qB qB BD aA aA aA aA Q' c_ d_ e_ f_ g_ B! u  v  `. ++ 0. 0. #+ -+ P+ Q+ :# ;@ z@ {# S# _$ _$ _$ _$ _$ _$ E$ +% f% i% u% M% !& p& )* Cg B- z- D- D- CD W> b* ^* DD ~y WA gD 1j W  c$ Za B!  ! <g #9 $0 $0 $0 $0 $0 $0 $0 Sj l9 F9 ED ;~ ;~ ;~ ;~ :~ l~ FD E8 *% ,' }% 7{ S9 G8 F0 F0 F0 F0 F0 F0 F0 F0 F0 F0 F0 F0 F0 F0 F0 F0 F0 F0 F0 ^a ^a i, x# i+ {7 {7 {7 {7 {7 H  wC rD 2{ 6{ pw 67 $0 $0 $0 $0 $0 $0 $0 $0 $0 $0 $0 $0 $0 $0 $0 $0 $0 $0 $0 $0 $0 $0 $0 $0 $0 $0 $0 $0 $0 $0 $0 $0 $0 $0 $0 $0 $0 $0 $0 $0 $0 $0 $0 $0 $0 $0 $0 $0 $0 $0 $0 $0 $0 $0 $0 $0 $0 $0 $0 $0 $0 $0 $0 $0 $0 $0 $0 $0 $0 $0 $0 $0 $0 $0 $0 $0 $0 $0 $0 $0 $0 $0 $0 $0 $0 $0 $0 $0 $0 $0 $0 $0 $0 $0 $0 $0 $0 $0 $0 $0 $0 $0 $0 $0 $0 $0 $0 $0 $0 $0 $0 $0 $0 $0 $0 $0 $0 $0 $0 $0 $0 $0 $0 $0 $0 $0 $0 $0 $0 $0 $0 $0 $0 $0 $0 $0 $0 $0 $0 $0 $0 $0 $0 $0 $0 $0 $0 $0 $0 $0 $0 $0 $0 $0 $0 $0 $0 $0 $0 67 ({ B; !~ ;~ I8 *f *+ z  {7 {7 {7 >e `) f# Ta m0 {8 m0 m0 m0 m0 m0 m0 m0 m0 m0 m0 m0 m0 m0 m0 m0 m0 m0 m0 m0 m0 m0 m0 m0 m0 m0 m0 m0 m0 m0 m0 m0 m0 m0 m0 m0 $0 $0 $0 $0 $0 $0 $0 $0 $0 $0 $0 $0 $0 GD e{ (b wa l! [c M8 Ka 6{ tk eA =z 9D 3w h- C- 3; h- Cg 5, C& AD ^i GC Kj Tz )m aj +j +j +j +j +j +j +j +j +j +j +j +j +j +j +j +j +j +j >y /C Ei Wj _i FB (C Ed e_ d[ S< b_ aD !D !D !D X/ X/ X/ X/ X/ X/ X/ X/ X/ X/ X/ X/ X/ X/ Ws Ws X/ X/ |A !D !D !D !D !D !D !D !D |A X/ X/ X/ X/ X/ X/ X/ 7A 8A 8A 8A 8A 8A 8A 8A 8A 8A 8A 8A 8A 8A 8A 8A 8A ",
"HB HB HB HB HB HB HB HB HB HB }A Hv bD @C @C @C @C @C @C @x Hv Hv Hv Hv Hv Hv Hv Hv Hv Hv Hv Hv Hv 9z 9z 9z 9z 9z 9z $z [s [s [s [s HD qB qB qB qB nC BD aA aA aA Q' c_ d_ e_ f_ g_ B! u  v  `. ++ 0. 0. #+ -+ P+ Q+ :# ;@ z@ {# S# _$ _$ _$ _$ _$ _$ F$ +% f% i% u% M% !& q& J& Cg B- z- D- y; ID z> G* ^* DD jC WA gD 1j W  c$ Za B!  ! <g #9 $0 $0 $0 $0 $0 $0 $0 $0 yd Jd JD l~ )~ )~ 4{ qw h% Od m0 {8 {8 KD ;e ;e ;e ;e ;e ;e ;e ;e ;e ;e ;e ;e ;e ;e ;e ;e ;e ;e ;e ;e ;e ;e @t m0 %a T# #+ {7 {7 {7 {7 {7 H  wC <~ <{ 0{ Ad @t $0 $0 $0 $0 $0 $0 $0 $0 $0 $0 $0 $0 $0 $0 $0 $0 $0 $0 $0 $0 $0 $0 $0 $0 $0 $0 $0 $0 $0 $0 $0 $0 $0 $0 $0 $0 $0 $0 $0 $0 $0 $0 $0 $0 $0 $0 $0 $0 $0 $0 $0 $0 $0 $0 $0 $0 $0 $0 $0 $0 $0 $0 $0 $0 $0 $0 $0 $0 $0 $0 $0 $0 $0 $0 $0 $0 $0 $0 $0 $0 $0 $0 $0 $0 $0 $0 $0 $0 $0 $0 $0 $0 $0 $0 $0 $0 $0 $0 $0 $0 $0 $0 $0 $0 $0 $0 $0 $0 $0 $0 $0 $0 $0 $0 $0 $0 $0 $0 $0 $0 $0 $0 $0 $0 $0 $0 $0 $0 $0 $0 $0 $0 $0 $0 $0 $0 $0 $0 $0 $0 $0 $0 $0 $0 $0 $0 $0 $0 $0 $0 $0 $0 $0 $0 $0 $0 $0 $0 $0 67 Sj 1% {~ :~ I8 *f *+ z  {7 {7 {7 >e `) LD (~ ({ U~ ({ ({ ({ ({ ({ ({ ({ ({ ({ ({ ({ ({ ({ ({ ({ ({ ({ ({ ({ ({ ({ ({ ({ ({ ({ ({ ({ m0 m0 m0 m0 m0 m0 m0 m0 $0 $0 $0 $0 $0 $0 $0 $0 $0 $0 $0 $0 $0 GD e{ (b wa l! [c M8 Ka 6{ tk jv Jz MD 3w h- C- D- ~; ND 5, E& AD /i Wj Kj Tz OD PD >j >j >j >j >j >j >j >j >j >j >j >j >j >j >j >j >j >j )j QD Ei Wj _i FB (C Ed e_ d[ S< b_ aD !D !D !D X/ X/ X/ X/ X/ X/ X/ X/ X/ X/ X/ X/ Ws !D !D !D !D Ws X/ !D !D !D !D !D !D !D !D Ws X/ X/ X/ X/ X/ X/ X/ P6 8A 8A 8A 8A 8A 8A 8A 8A 8A 8A 8A 8A 8A 8A 8A 8A ",
"HB HB HB HB HB HB HB HB HB HB HB Hv Hv 's @C @C @C @C @C |A Hv Hv Hv Hv Hv Hv Hv Hv Hv Hv Hv Hv Hv )A 9z 9z 9z 9z 9z 9z ku [s [s [s %z qB qB qB qB qB L~ RD aA aA Q' c_ d_ e_ f_ g_ B! u  v  `. ++ 0. 0. #+ -+ P+ Q+ :# ;@ z@ {# S# _$ _$ _$ _$ _$ _$ F$ @% f% i% u% P% !& -* J& Cg B- z- D- E- SD A> /, TD UD jC WA xi ]~ Kf c$ Za B!  ! <g #9 $0 $0 $0 $0 $0 $0 $0 $0 m0 ({ (0 w' Ae Ae w' h, U~ {8 m0 m0 m0 m0 m0 m0 m0 m0 m0 m0 m0 m0 m0 m0 m0 m0 m0 m0 m0 m0 m0 m0 m0 m0 m0 m0 [e ;e %a :$ #+ {7 {7 {7 {7 {7 $+ -v <~ k9 (e Ad {8 $0 $0 $0 $0 $0 $0 $0 $0 $0 $0 $0 $0 $0 $0 $0 $0 $0 $0 $0 $0 $0 $0 $0 $0 $0 $0 $0 $0 $0 $0 $0 $0 $0 $0 $0 $0 $0 $0 $0 $0 $0 $0 $0 $0 $0 $0 $0 $0 $0 $0 $0 $0 $0 $0 $0 $0 $0 $0 $0 $0 $0 $0 $0 $0 $0 $0 $0 $0 $0 $0 $0 $0 $0 $0 $0 $0 $0 $0 $0 $0 $0 $0 $0 $0 $0 $0 $0 $0 $0 $0 $0 $0 $0 $0 $0 $0 $0 $0 $0 $0 $0 $0 $0 $0 $0 $0 $0 $0 $0 $0 $0 $0 $0 $0 $0 $0 $0 $0 $0 $0 $0 $0 $0 $0 $0 $0 $0 $0 $0 $0 $0 $0 $0 $0 $0 $0 $0 $0 $0 $0 $0 $0 $0 $0 $0 $0 $0 $0 $0 $0 $0 $0 $0 $0 $0 $0 $0 $0 $0 67 VD WD 0n [~ I8 *f *+ z  {7 {7 {7 >e `) f# _~ m0 m0 m0 m0 m0 m0 m0 m0 m0 m0 m0 m0 m0 m0 m0 m0 m0 m0 m0 m0 m0 m0 m0 m0 m0 m0 m0 m0 m0 m0 m0 m0 m0 m0 m0 m0 m0 $0 $0 $0 $0 $0 $0 $0 $0 $0 $0 $0 $0 $0 GD e{ (b wa l! [c M8 Ka 6{ (A jv Jz {C &f h- 3; y; z- ]-  = XD YD /i Wj ZD om `D  E .E .E .E .E .E .E .E .E .E .E .E .E .E .E .E .E .E .E .E Sz 7j Wj _i FB (C Ed e_ d[ S< b_ aD !D !D !D X/ X/ X/ X/ X/ X/ X/ X/ X/ X/ X/ X/ |A !D !D !D !D !D X/ |A !D !D !D !D !D !D |A X/ X/ X/ X/ X/ X/ X/ X/ X/ 7A 8A 8A 8A 8A 8A 8A 8A 8A 8A 8A 8A 8A 8A 8A 8A ",
"HB HB HB HB HB HB HB HB HB HB HB +E Hv X/ @C @C @C @C ju Hv Hv Hv Hv Hv Hv Hv Hv Hv Hv Hv Hv Hv Hv !A 9z 9z 9z 9z 9z 9z @z [s [s [s %z qB qB qB qB qB qB qB RD aA Q' c_ d_ e_ f_ g_ B! u  v  `. ++ 0. 0. #+ -+ P+ Q+ :# ;@ z@ {# S# _$ _$ _$ _$ _$ _$ F$ @% f% i% u% P% !' r& K& Cg B- A- y; E- SD @E #E (* UD $E xy xi ]~ Kf %9 [c la  ! <g #9 $0 $0 $0 $0 $0 $0 $0 $0 m0 m0 U~ yd -e -e Od }e m0 m0 m0 m0 m0 m0 m0 m0 m0 m0 m0 m0 m0 m0 m0 m0 m0 m0 m0 m0 m0 m0 m0 m0 m0 m0 m0 m0 [e ;e %a :$ #+ {7 {7 {7 {7 {7 $+ -v ;~ qh %E zx 67 $0 $0 $0 $0 $0 $0 $0 $0 $0 $0 $0 $0 $0 $0 $0 $0 $0 $0 $0 $0 $0 $0 $0 $0 $0 $0 $0 $0 $0 $0 $0 $0 $0 $0 $0 $0 $0 $0 $0 $0 $0 $0 $0 $0 $0 $0 $0 $0 $0 $0 $0 $0 $0 $0 $0 $0 $0 $0 $0 $0 $0 $0 $0 $0 $0 $0 $0 $0 $0 $0 $0 $0 $0 $0 $0 $0 $0 $0 $0 $0 $0 $0 $0 $0 $0 $0 $0 $0 $0 $0 $0 $0 $0 $0 $0 $0 $0 $0 $0 $0 $0 $0 $0 $0 $0 $0 $0 $0 $0 $0 $0 $0 $0 $0 $0 $0 $0 $0 $0 $0 $0 $0 $0 $0 $0 $0 $0 $0 $0 $0 $0 $0 $0 $0 $0 $0 $0 $0 $0 $0 $0 $0 $0 $0 $0 $0 $0 $0 $0 $0 $0 $0 $0 $0 $0 $0 $0 $0 $0 $0 67 7w 68 [~ Ua *f *+ z  {7 {7 {7 >e `) f# Ta m0 [e m0 m0 m0 m0 m0 m0 m0 m0 m0 m0 m0 m0 m0 m0 m0 m0 m0 m0 m0 m0 m0 m0 m0 m0 m0 m0 m0 m0 m0 m0 m0 m0 m0 m0 m0 $0 $0 $0 $0 $0 $0 $0 $0 $0 $0 $0 $0 $0 GD 6{ (b wa l! [c M8 Ka 6{ (A &E *E {C &f ,; D- E- z- =E -E G& ;E /i Wj _i >E ,E 'E )E )E )E )E )E )E )E )E )E )E )E )E )E )E )E )E )E )E !E ~E ki Wj _i FB (C Ed e_ d[ S< b_ aD !D !D !D X/ X/ X/ Ws |A !D !D !D !D Ws X/ X/ |A !D !D !D !D !D Ws !D !D !D !D !D !D !D Ws X/ X/ X/ X/ X/ X/ X/ X/ X/ P6 8A 8A 8A 8A 8A 8A 8A 8A 8A 8A 8A 8A 8A 8A 8A ",
"HB HB HB HB HB HB HB HB HB HB HB HB lA Hv Ws @C @C @C X/ Hv Hv Hv Hv Hv Hv Hv Hv Hv Hv Hv Hv Hv Hv X/ 9z 9z 9z 9z 9z 9z #z [s [s [s %z qB qB qB qB qB qB qB qB BD Q' c_ d_ e_ f_ g_ B! u  v  `. ++ 0. 0. #+ -+ P+ Q+ :# ;@ z@ {# S# _$ _$ _$ _$ _$ _$ F$ @% <% i% u% ), {E r& !* Cg B- A- y; E- ]E C> (, _* ^E $E xy xi ]~ Kf %9 [c B!  ! <g #9 $0 $0 $0 $0 $0 $0 $0 $0 m0 m0 m0 m0 {8 6e 6e m0 m0 m0 m0 m0 m0 m0 m0 m0 m0 m0 m0 m0 m0 m0 m0 m0 m0 m0 m0 m0 m0 m0 m0 m0 m0 m0 m0 m0 [e ;e %a :$ #+ {7 {7 {7 {7 {7 $+ -v ;~ :g 1% $0 67 $0 $0 $0 $0 $0 $0 $0 $0 $0 $0 $0 $0 $0 $0 $0 $0 $0 $0 $0 $0 $0 $0 $0 $0 $0 $0 $0 $0 $0 $0 $0 $0 $0 $0 $0 $0 $0 $0 $0 $0 $0 $0 $0 $0 $0 $0 $0 $0 $0 $0 $0 $0 $0 $0 $0 $0 $0 $0 $0 $0 $0 $0 $0 $0 $0 $0 $0 $0 $0 $0 $0 $0 $0 $0 $0 $0 $0 $0 $0 $0 $0 $0 $0 $0 $0 $0 $0 $0 $0 $0 $0 $0 $0 $0 $0 $0 $0 $0 $0 $0 $0 $0 $0 $0 $0 $0 $0 $0 $0 $0 $0 $0 $0 $0 $0 $0 $0 $0 $0 $0 $0 $0 $0 $0 $0 $0 $0 $0 $0 $0 $0 $0 $0 $0 $0 $0 $0 $0 $0 $0 $0 $0 $0 $0 $0 $0 $0 $0 $0 $0 $0 $0 $0 $0 $0 $0 $0 $0 $0 $0 67 Sj B; k9 Ua *f *+ z  {7 {7 {7 >e `) f# Ta m0 [e m0 m0 m0 m0 m0 m0 m0 m0 m0 m0 m0 m0 m0 m0 m0 m0 m0 m0 m0 m0 m0 m0 m0 m0 m0 m0 m0 m0 m0 m0 m0 m0 m0 m0 m0 $0 $0 $0 $0 $0 $0 $0 $0 $0 $0 $0 $0 $0 GD e{ (b wa l! [c M8 Ka 6{ hd &E /E (E &f ,; y; E- z- =E -E G& _E @l Wj ^i Pi /i ki Ly Ly Ly Ly Ly Ly Ly Ly Ly Ly Ly Ly Ly Ly Ly Ly Ly Ly Ly ki Wj Wj _i FB (C Ed e_ d[ S< b_ aD !D !D !D Ws |A !D !D !D !D !D !D !D !D Ws X/ Ws !D !D !D !D |A !D !D !D !D !D !D !D !D !D Ws X/ X/ X/ X/ X/ X/ X/ X/ X/ 7A 8A 8A 8A 8A 8A 8A 8A 8A 8A 8A 8A 8A 8A 8A ",
"HB HB HB HB HB HB HB HB HB HB HB HB HB }A Hv Hv |A Hv Hv Hv Hv Hv Hv Hv Hv Hv Hv Hv Hv Hv Hv Hv Hv !A 9z 9z 9z 9z 9z 9z $z [s [s [s %z qB qB qB qB qB qB qB qB BD Q' c_ d_ e_ f_ g_ B! u  v  `. ++ 0. 0. #+ -+ P+ Q+ :# ;@ z@ {# S# _$ _$ _$ _$ _$ _$ F$ @% <% 6% t% P% {E r& !* Cg B-  > E- F- :E V> 4= e* ^E Oy xy xi ]~ Kf %9 [c B!  ! <g #9 $0 $0 $0 $0 $0 $0 $0 $0 m0 m0 m0 m0 m0 6e m0 m0 m0 m0 m0 m0 m0 m0 m0 m0 m0 m0 m0 m0 m0 m0 m0 m0 m0 m0 m0 m0 m0 m0 m0 m0 m0 m0 m0 m0 [e ;e %a :$ #+ {7 {7 {7 {7 {7 $+ -v ;~ :e Jd $0 67 $0 $0 $0 $0 $0 $0 $0 $0 $0 $0 $0 $0 $0 $0 $0 $0 $0 $0 $0 $0 $0 $0 $0 $0 $0 $0 $0 $0 $0 $0 $0 $0 $0 $0 $0 $0 $0 $0 $0 $0 $0 $0 $0 $0 $0 $0 $0 $0 $0 $0 $0 $0 $0 $0 $0 $0 $0 $0 $0 $0 $0 $0 $0 $0 $0 $0 $0 $0 $0 $0 $0 $0 $0 $0 $0 $0 $0 $0 $0 $0 $0 $0 $0 $0 $0 $0 $0 $0 $0 $0 $0 $0 $0 $0 $0 $0 $0 $0 $0 $0 $0 $0 $0 $0 $0 $0 $0 $0 $0 $0 $0 $0 $0 $0 $0 $0 $0 $0 $0 $0 $0 $0 $0 $0 $0 $0 $0 $0 $0 $0 $0 $0 $0 $0 $0 $0 $0 $0 $0 $0 $0 $0 $0 $0 $0 $0 $0 $0 $0 $0 $0 $0 $0 $0 $0 $0 $0 $0 $0 $0 67 Sj P, qh I8 *f *+ z  {7 {7 {7 >e `) f# Ta m0 [e m0 m0 m0 m0 m0 m0 m0 m0 m0 m0 m0 m0 m0 m0 m0 m0 m0 m0 m0 m0 m0 m0 m0 m0 m0 m0 m0 m0 m0 m0 m0 m0 m0 m0 m0 $0 $0 $0 $0 $0 $0 $0 $0 $0 $0 $0 $0 $0 j% a{ (b wa l! [c X$ Ka 6{ hd &E ^A kC qe ,; y; O; z- =E .= H& _E @l Wj Pi ZD <E ^i _i _i _i _i _i _i _i _i _i _i _i _i _i _i _i _i _i _i _i _i Wj Wj _i FB (C Ed e_ d[ S< b_ aD !D !D !D !D !D !D !D !D !D !D !D !D !D !D |A X/ !D !D !D !D !D !D !D !D !D !D !D [E !D !D !D Ws X/ X/ X/ X/ X/ X/ X/ X/ Hv 8A 8A 8A 8A 8A 8A 8A 8A 8A 8A 8A 8A 8A 8A ",
"HB HB HB HB HB HB HB HB HB HB HB HB HB 8A Hv Hv Hv Hv Hv Hv Hv Hv Hv Hv Hv Hv Hv Hv Hv Hv Hv Hv Ws 9z 9z 9z 9z 9z 9z 9z 9z [s [s [s %z qB qB qB qB qB qB qB Vz aA Q' c_ d_ e_ f_ g_ B! u  v  `. ++ 0. 0. #+ -+ P+ Q+ :# ;@ z@ {# S# _$ _$ _$ _$ _$ _$ F$ @% <% 6% t% P% {E r& !* Cg B- B- E- F- }E D> |E <* 1E =z -z xi ]~ Kf M8 [c la  ! <g #9 $0 $0 $0 $0 $0 $0 $0 $0 m0 m0 m0 m0 m0 m0 m0 m0 m0 m0 m0 m0 m0 m0 m0 m0 m0 m0 m0 m0 m0 m0 m0 m0 m0 m0 m0 m0 m0 m0 m0 m0 m0 m0 m0 m0 [e ;e %a :$ #+ {7 {7 {7 {7 {7 $+ -v ;~  q We m0 m0 $0 $0 $0 $0 $0 $0 $0 $0 $0 $0 $0 $0 $0 $0 $0 $0 $0 $0 $0 $0 $0 $0 $0 $0 $0 $0 $0 $0 $0 $0 $0 $0 $0 $0 $0 $0 $0 $0 $0 $0 $0 $0 $0 $0 $0 $0 $0 $0 $0 $0 $0 $0 $0 $0 $0 $0 $0 $0 $0 $0 $0 $0 $0 $0 $0 $0 $0 $0 $0 $0 $0 $0 $0 $0 $0 $0 $0 $0 $0 $0 $0 $0 $0 $0 $0 $0 $0 $0 $0 $0 $0 $0 $0 $0 $0 $0 $0 $0 $0 $0 $0 $0 $0 $0 $0 $0 $0 $0 $0 $0 $0 $0 $0 $0 $0 $0 $0 $0 $0 $0 $0 $0 $0 $0 $0 $0 $0 $0 $0 $0 $0 $0 $0 $0 $0 $0 $0 $0 $0 $0 $0 $0 $0 $0 $0 $0 $0 $0 $0 $0 $0 $0 $0 $0 $0 $0 $0 $0 $0 $0 67 n0 g% B~ Va }C *+ z  {7 {7 {7 >e `) f# Ta m0 [e m0 m0 m0 m0 m0 m0 m0 m0 m0 m0 m0 m0 m0 m0 m0 m0 m0 m0 m0 m0 m0 m0 m0 m0 m0 m0 m0 m0 m0 m0 m0 m0 m0 m0 m0 $0 $0 $0 $0 $0 $0 $0 $0 $0 $0 $0 $0 $0 h, 5{ (b wa l! [c X$ Ka 6{ :m 2E cA 3E qe z- E- O; A- =E .= t* _E @l Wj (l Kj 4E 5E 6E 7E /i bl (i Wj Wj Wj Wj Wj Wj Wj _i 8E Cy 9E cl 8E (l Wj Wj Wj _i FB (C Ed e_ d[ S< b_ aD !D !D !D !D !D !D !D !D !D !D !D !D !D !D !D !D !D !D !D !D !D !D !D !D 0E aE aE aE |t !D !D !D |A !D !D !D Ws X/ X/ X/ X/ lA 8A 8A 7A lA 6A 8A 8A 8A 8A 8A 8A 8A 8A ",
"HB HB HB HB HB HB HB HB HB HB HB HB HB HB 9A Hv Hv Hv Hv Hv Hv Hv Hv Hv Hv Hv Hv Hv Hv Hv Hv !A 9z 9z 9z 9z 9z 9z 9z 9z 9z [s [s [s %z qB qB qB qB qB qB L~ BD aA Q' c_ d_ e_ f_ g_ B! u  v  `. ++ 0. 0. #+ -+ P+ Q+ :# ;@ z@ {# S# _$ _$ _$ _$ _$ _$ F$ @% <% 6% t% P% ]& s& w* .g B- B- O; ;; }E bE K* <* 1E cE Kz dE ]~ Kf M8 Zd la  ! <g 1~ $0 m0 m0 m0 m0 m0 m0 m0 m0 m0 m0 m0 m0 m0 m0 m0 m0 m0 m0 m0 m0 m0 m0 m0 m0 m0 m0 m0 m0 m0 m0 m0 m0 m0 m0 m0 m0 m0 m0 m0 m0 m0 m0 m0 [e ;e %a :$ #+ {7 {7 {7 {7 {7 $+ -v '~ Ae -e {8 m0 m0 m0 m0 m0 m0 m0 m0 m0 m0 m0 m0 m0 m0 m0 m0 m0 m0 m0 m0 m0 m0 m0 m0 m0 m0 m0 m0 m0 m0 m0 m0 m0 m0 m0 m0 m0 m0 m0 m0 m0 m0 m0 m0 m0 m0 m0 m0 m0 m0 m0 m0 m0 m0 m0 m0 m0 m0 m0 m0 m0 m0 m0 m0 m0 m0 m0 m0 m0 m0 m0 m0 m0 m0 m0 m0 m0 m0 m0 m0 m0 m0 m0 m0 m0 m0 m0 m0 m0 m0 m0 m0 m0 m0 m0 m0 m0 m0 m0 m0 m0 m0 m0 m0 m0 m0 m0 m0 m0 m0 m0 m0 m0 m0 m0 m0 m0 m0 m0 m0 m0 m0 m0 m0 m0 m0 m0 m0 m0 m0 m0 m0 m0 m0 m0 m0 m0 m0 m0 m0 m0 m0 m0 m0 m0 m0 m0 m0 m0 m0 m0 m0 m0 m0 m0 m0 m0 m0 m0 m0 m0 {8 m0 3% 5{ I8 }C *+ {7 {7 {7 {7 >e `) f# Ta m0 [e m0 m0 m0 m0 m0 m0 m0 m0 m0 m0 m0 m0 m0 m0 m0 m0 m0 m0 m0 m0 m0 m0 m0 m0 m0 m0 m0 m0 m0 m0 m0 m0 m0 m0 m0 m0 m0 m0 m0 m0 m0 m0 m0 m0 m0 m0 m0 U~ i% D8 (b wa l! [c X$ Ka 6{ :m 7C Qy 3E ke z- E- F-  > @- eE J& eB @l Ez Kj 5E fE gE gE hE <z 7h iE ^i _i Wj Wj Wj hi (l Cy fE jE Hx kE lE mE _i _i Wj _i FB (C Ed e_ d[ S< b_ aD !D !D !D !D !D !D !D !D |t nE oE |t `s !D !D !D !D !D !D !D !D !D 's aE aE aE aE aE nE !D !D !D !D !D !D !D !D X/ X/ X/ X/ X/ 6A Hv X/ X/ X/ X/ e5 8A 8A 8A 8A 8A 8A ",
"HB HB HB HB HB HB HB HB HB HB HB HB HB HB HB uA Hv Hv Hv Hv Hv Hv Hv Hv Hv Hv Hv Hv Hv Hv 1A 9z 9z 9z 9z 9z 9z 9z 9z 9z 9z [s [s [s %z qB qB qB qB qB qB U! aA aA Q' c_ d_ e_ f_ g_ B! u  v  `. ++ 0. 0. #+ -+ P+ Q+ :# ;@ z@ {# S# _$ _$ _$ _$ _$ _$ F$ @% <% 6% t% P% k& t& ~* .g B- 3; ;; G- }E E> L* [* vy cE Kz dE 9l xb M8 _b V^  ! <g 1~ m0 m0 m0 m0 m0 m0 m0 m0 m0 m0 m0 m0 m0 m0 m0 m0 m0 m0 m0 m0 m0 m0 m0 m0 m0 m0 m0 m0 m0 m0 m0 m0 m0 m0 m0 m0 m0 m0 m0 m0 m0 m0 m0 m0 [e ;e %a :$ #+ {7 {7 {7 {7 {7 $+ -v '~ 4e [d {8 m0 m0 m0 m0 m0 m0 m0 m0 m0 m0 m0 m0 m0 m0 m0 m0 m0 m0 m0 m0 m0 m0 m0 m0 m0 m0 m0 m0 m0 m0 m0 m0 m0 m0 m0 m0 m0 m0 m0 m0 m0 m0 m0 m0 m0 m0 m0 m0 m0 m0 m0 m0 m0 m0 m0 m0 m0 m0 m0 m0 m0 m0 m0 m0 m0 m0 m0 m0 m0 m0 m0 m0 m0 m0 m0 m0 m0 m0 m0 m0 m0 m0 m0 m0 m0 m0 m0 m0 m0 m0 m0 m0 m0 m0 m0 m0 m0 m0 m0 m0 m0 m0 m0 m0 m0 m0 m0 m0 m0 m0 m0 m0 m0 m0 m0 m0 m0 m0 m0 m0 m0 m0 m0 m0 m0 m0 m0 m0 m0 m0 m0 m0 m0 m0 m0 m0 m0 m0 m0 m0 m0 m0 m0 m0 m0 m0 m0 m0 m0 m0 m0 m0 m0 m0 m0 m0 m0 m0 m0 m0 m0 {8 m0 3% :e )~ }C =+ {7 {7 {7 {7 >e `) f# Ta m0 [e m0 m0 m0 m0 m0 m0 m0 m0 m0 m0 m0 m0 m0 m0 m0 m0 m0 m0 m0 m0 m0 m0 m0 m0 m0 m0 m0 m0 m0 m0 m0 m0 m0 m0 m0 m0 m0 m0 m0 m0 m0 m0 m0 m0 m0 m0 m0 U~ h% !~ >g wa l! [c X$ ai 6{ :m 7C IA pE ke z- z; ;; B- ae += )* qE rE Pi sE @y (l tE /i uE  i vE wE xE ]i _i Wj Wj 7j 5E @y yE Ez zE AE BE CE DE Hx _i EE FB (C Ed e_ d[ S< b_ aD !D !D !D !D !D !D !D !D nE aE aE aE aE aE nE nE 's |t [E [E 0E aE aE aE aE aE aE aE aE !D !D !D !D !D !D !D !D Ws X/ X/ X/ X/ X/ X/ Ws !D !D !D |A Ws 7A 8A 8A 8A 8A ",
"HB HB HB HB HB HB HB HB HB HB HB HB HB HB HB *4 FE Hv Hv Hv Hv Hv Hv Hv Hv Hv Hv Hv Hv Ws 9z 9z 9z 9z 9z 9z 9z 9z 9z 9z 8z [s [s [s %z qB qB qB qB qB ~D aA aA aA Q' c_ d_ e_ f_ g_ B! u  v  `. ++ 0. 0. #+ -+ P+ Q+ :# ;@ z@ {# S# _$ _$ _$ _$ _$ _$ F$ @% <% 6% v% 4& k& t& GE =E 3; 3; ;; HE IE F> M* [* vy cE Kz dE 9l xb M8 _b V^  ! <g 1~ m0 m0 m0 m0 m0 m0 m0 m0 m0 m0 m0 m0 m0 m0 m0 m0 m0 m0 m0 m0 m0 m0 m0 m0 m0 m0 m0 m0 m0 m0 m0 m0 m0 m0 m0 m0 m0 m0 m0 m0 m0 m0 m0 m0 [e ;e %a :$ #+ {7 {7 {7 {7 {7 $+ -v '~ KA Nd {8 m0 m0 m0 m0 m0 m0 m0 m0 m0 m0 m0 m0 m0 m0 m0 m0 m0 m0 m0 m0 m0 m0 m0 m0 m0 m0 m0 m0 m0 m0 m0 m0 m0 m0 m0 m0 m0 m0 m0 m0 m0 m0 m0 m0 m0 m0 m0 m0 m0 m0 m0 m0 m0 m0 m0 m0 m0 m0 m0 m0 m0 m0 m0 m0 m0 m0 m0 m0 m0 m0 m0 m0 m0 m0 m0 m0 m0 m0 m0 m0 m0 m0 m0 m0 m0 m0 m0 m0 m0 m0 m0 m0 m0 m0 m0 m0 m0 m0 m0 m0 m0 m0 m0 m0 m0 m0 m0 m0 m0 m0 m0 m0 m0 m0 m0 m0 m0 m0 m0 m0 m0 m0 m0 m0 m0 m0 m0 m0 m0 m0 m0 m0 m0 m0 m0 m0 m0 m0 m0 m0 m0 m0 m0 m0 m0 m0 m0 m0 m0 m0 m0 m0 m0 m0 m0 m0 m0 m0 m0 m0 m0 {8 m0 i% qw )~ }C =+ {7 {7 {7 {7 >e `) f# Ta m0 [e m0 m0 m0 m0 m0 m0 m0 m0 m0 m0 m0 m0 m0 m0 m0 m0 m0 m0 m0 m0 m0 m0 m0 m0 m0 m0 m0 m0 m0 m0 m0 m0 m0 m0 m0 m0 m0 m0 m0 m0 m0 m0 m0 m0 m0 m0 m0 Ad 88 l~ >g wa <3 _b X$ ai  q Dn #x S& 'D be 4; F- ;; B- ae g- M& JE ZB zk KE LE ME NE OE PE QE RE SE TE UE Ly Wj (l }m VE WE XE YE ZE `E  F .F +F xE rz _i FB (C Ed e_ d[ S< b_ aD !D !D !D !D !D !D !D !D aE aE aE aE aE aE aE aE aE aE aE aE aE aE aE aE aE aE aE aE aE |t !D !D !D !D !D !D !D !D X/ X/ X/ X/ X/ Ws !D !D !D !D !D !D !D 7A 8A 8A 8A ",
"HB HB HB HB HB HB HB HB HB HB HB HB HB HB pj @F @F pj #F *4 $F %> %F &F /p Lq *F #F 8A X/ 9z 9z 9z 9z 9z 9z 9z 9z 9z $z [s [s [s [s H1 qB qB qB qB .' aA aA aA aA Q' c_ d_ e_ f_ g_ B! u  v  `. ++ 0. 0. #+ -+ P+ Q+ :# ;@ z@ {# S# _$ _$ _$ _$ _$ _$ F$ @% <% k% v% R% l& g* +c =E 3; 3; ;; H- =F G> 2= B* vy -F ys fd 9l xb M8 _b V^  ! <g 1~ m0 m0 m0 m0 m0 m0 m0 m0 m0 m0 m0 m0 m0 m0 m0 m0 m0 m0 m0 m0 m0 m0 m0 m0 m0 m0 m0 m0 m0 m0 m0 m0 m0 m0 m0 m0 m0 m0 m0 m0 m0 m0 m0 m0 [e ;e %a :$ #+ {7 {7 {7 {7 {7 $+ -v '~ Ke ({ ;F m0 m0 m0 m0 m0 m0 m0 m0 m0 m0 m0 m0 m0 m0 m0 m0 m0 m0 m0 m0 m0 m0 m0 m0 m0 m0 m0 m0 m0 m0 m0 m0 m0 m0 m0 m0 m0 m0 m0 m0 m0 m0 m0 m0 m0 m0 m0 m0 m0 m0 m0 m0 m0 m0 m0 m0 m0 m0 m0 m0 m0 m0 m0 m0 m0 m0 m0 m0 m0 m0 m0 m0 m0 m0 m0 m0 m0 m0 m0 m0 m0 m0 m0 m0 m0 m0 m0 m0 m0 m0 m0 m0 m0 m0 m0 m0 m0 m0 m0 m0 m0 m0 m0 m0 m0 m0 m0 m0 m0 m0 m0 m0 m0 m0 m0 m0 m0 m0 m0 m0 m0 m0 m0 m0 m0 m0 m0 m0 m0 m0 m0 m0 m0 m0 m0 m0 m0 m0 m0 m0 m0 m0 m0 m0 m0 m0 m0 m0 m0 m0 m0 m0 m0 m0 m0 m0 m0 m0 m0 m0 m0 {8 m0 h,  q )~ }C =+ {7 {7 {7 {7 >e `) f# Ta m0 [e m0 m0 m0 m0 m0 m0 m0 m0 m0 m0 m0 m0 m0 m0 m0 m0 m0 m0 m0 m0 m0 m0 m0 m0 m0 m0 m0 m0 m0 m0 m0 m0 m0 m0 m0 m0 m0 m0 m0 m0 m0 m0 m0 m0 m0 m0 m0 Od Ke :~ >g wa B! _b [g ai 38 Dn #x >F ,F be B- ;; 6; C- ae ;g M& 'F sw ry .z )F !F ~F {F ]F ^F /F (F _F :F 7B _i zk <F ry [F }F |F 1F 2F 3F 4F 5F TE 7B ^i FB (C Ed e_ d[ S< b_ aD !D !D !D !D !D !D !D !D aE aE aE aE aE aE aE aE aE aE aE aE aE aE aE aE aE aE aE aE aE 1t !D !D !D !D !D !D !D !D X/ X/ X/ X/ Ws !D !D HB *4 8A 8A lA 8A 8A 8A 8A 8A ",
"HB HB #F 6F 7F 7F 7F 8F HB HB HB HB HB Lq @F @F @F @F @F @F @F @F @F @F @F @F @F @F @F @F @F @F @F @F @F @F @F @F @F Uo Xo P6 Ws &v [s qB qB qB .' aA aA aA aA aA Q' c_ d_ e_ f_ g_ B! u  v  `. ++ 0. 0. #+ -+ P+ Q+ :# ;@ z@ {# S# _$ _$ _$ _$ _$ _$ F$ @% <% k% v% R% l& g* ]* {- 3; D- 6; H- =F 9F N* }* 0F -F ys /k ^~ xb X$ _b V^  ! <g 1~ m0 m0 m0 m0 m0 m0 m0 m0 m0 m0 m0 m0 m0 m0 m0 m0 m0 m0 m0 m0 m0 m0 m0 m0 m0 m0 m0 m0 m0 m0 m0 m0 m0 m0 m0 m0 m0 m0 m0 m0 m0 m0 m0 m0 [e ;e %a :$ #+ {7 {7 {7 {7 {7 $+ -v )~ B; Sj ;F m0 m0 m0 m0 m0 m0 m0 m0 m0 m0 m0 m0 m0 m0 m0 m0 m0 m0 m0 m0 m0 m0 m0 m0 m0 m0 m0 m0 m0 m0 m0 m0 m0 m0 m0 m0 m0 m0 m0 m0 m0 m0 m0 m0 m0 m0 m0 m0 m0 m0 m0 m0 m0 m0 m0 m0 m0 m0 m0 m0 m0 m0 m0 m0 m0 m0 m0 m0 m0 m0 m0 m0 m0 m0 m0 m0 m0 m0 m0 m0 m0 m0 m0 m0 m0 m0 m0 m0 m0 m0 m0 m0 m0 m0 m0 m0 m0 m0 m0 m0 m0 m0 m0 m0 m0 m0 m0 m0 m0 m0 m0 m0 m0 m0 m0 m0 m0 m0 m0 m0 m0 m0 m0 m0 m0 m0 m0 m0 m0 m0 m0 m0 m0 m0 m0 m0 m0 m0 m0 m0 m0 m0 m0 m0 m0 m0 m0 m0 m0 m0 m0 m0 m0 m0 m0 m0 m0 m0 m0 m0 m0 {8 m0 h, =e l~ }C =+ {7 {7 {7 {7 >e `) f# Ta m0 [e m0 m0 m0 m0 m0 m0 m0 m0 m0 m0 m0 m0 m0 m0 m0 m0 m0 m0 m0 m0 m0 m0 m0 m0 m0 m0 m0 m0 m0 m0 m0 m0 m0 m0 m0 m0 m0 m0 m0 m0 m0 m0 m0 m0 m0 m0 m0 <e =e J8 >g wa B! _b [g ai 0n %n #x >F ,F *d B- G- H- 3; ae ;g u* 'F aF Ei bF cF dF eF fF gF hF iF jF kF lF <z _i 4E KE mF nF oF pF qF rF sF tF uF vF 1z Wj FB (C Ed e_ d[ S< b_ aD !D !D !D !D !D !D !D !D aE aE aE aE aE aE aE aE aE aE aE aE aE aE aE aE aE aE aE aE aE aE !D !D !D !D !D !D !D !D |A X/ X/ |A !D uA Qo wF wF wF wF wF xF ^t yF 8A 8A ",
"zF AF BF BF BF BF BF BF AF yF HB HB FE ^p @F @F @F @F @F @F @F @F @F @F @F @F @F @F @F @F @F @F @F @F @F @F @F @F @F @F @F @F @F @F @F @F @F @F Uf CF .a aA aA aA Q' c_ d_ e_ f_ g_ B! u  v  `. ++ 0. 0. #+ -+ P+ Q+ :# ;@ z@ {# S# _$ _$ _$ _$ _$ _$ F$ @% <% k% v% R% l& f* y, =E 3; D- H- I- DF H> O* EF S, -F ys /k ^~ xb X$ _b V^  ! <g 1~ m0 m0 m0 m0 m0 m0 m0 m0 m0 m0 m0 m0 m0 m0 m0 m0 m0 m0 m0 m0 m0 m0 m0 m0 m0 m0 m0 m0 m0 m0 m0 m0 m0 m0 m0 m0 m0 m0 m0 m0 m0 m0 m0 m0 [e ;e %a :$ #+ {7 {7 {7 {7 {7 $+ -v l~ |% n0 ;F m0 m0 m0 m0 m0 m0 m0 m0 m0 m0 m0 m0 m0 m0 m0 m0 m0 m0 m0 m0 m0 m0 m0 m0 m0 m0 m0 m0 m0 m0 m0 m0 m0 m0 m0 m0 m0 m0 m0 m0 m0 m0 m0 m0 m0 m0 m0 m0 m0 m0 m0 m0 m0 m0 m0 m0 m0 m0 m0 m0 m0 m0 m0 m0 m0 m0 m0 m0 m0 m0 m0 m0 m0 m0 m0 m0 m0 m0 m0 m0 m0 m0 m0 m0 m0 m0 m0 m0 m0 m0 m0 m0 m0 m0 m0 m0 m0 m0 m0 m0 m0 m0 m0 m0 m0 m0 m0 m0 m0 m0 m0 m0 m0 m0 m0 m0 m0 m0 m0 m0 m0 m0 m0 m0 m0 m0 m0 m0 m0 m0 m0 m0 m0 m0 m0 m0 m0 m0 m0 m0 m0 m0 m0 m0 m0 m0 m0 m0 m0 m0 m0 m0 m0 m0 m0 m0 m0 m0 m0 m0 m0 {8 67 GD FF l~ }C =+ {7 {7 {7 {7 >e `) f# Ta m0 [e m0 m0 m0 m0 m0 m0 m0 m0 m0 m0 m0 m0 m0 m0 m0 m0 m0 m0 m0 m0 m0 m0 m0 m0 m0 m0 m0 m0 m0 m0 m0 m0 m0 m0 m0 m0 m0 m0 m0 m0 m0 m0 m0 m0 m0 m0 m0 <e Ae K8 >g wa B! _b [g ai 0n ow YB cB Z* GF C- G- H- 3; #e #= u* qE sw 1C HF IF JF KF LF MF NF OF PF QF RF :z SF 4E lC TF UF VF WF XF YF ZF `F  G .G }z Gx +G (C Ed e_ d[ S< b_ aD !D !D !D !D !D !D !D !D aE aE aE aE aE aE aE aE aE aE aE aE aE aE aE aE aE aE aE aE aE aE nE aE aE aE `s !D !D !D !D !D !D 4c @G wF wF wF wF wF wF wF wF wF wF #G @G ",
"BF BF BF BF BF BF BF BF BF $G HB HB pj @F @F @F @F @F @F @F @F @F @F @F @F @F @F @F @F @F @F @F @F @F @F @F @F @F @F @F @F @F @F @F @F @F @F @F @F @F J^ %G &G *G S< c_ d_ e_ f_ g_ B! u  v  `. ++ 0. 0. #+ -+ P+ Q+ :# ;@ z@ {# S# _$ _$ _$ _$ _$ _$ F$ @% <% k% v% Q% l& f* u, =E D- y; H- I- DF U> =G 1* S, %A +t dE ^~ Ka X$ _b V^  ! <g 1~ m0 m0 m0 m0 m0 m0 m0 m0 m0 m0 m0 m0 m0 m0 m0 m0 m0 m0 m0 m0 m0 m0 m0 m0 m0 m0 m0 m0 m0 m0 m0 m0 m0 m0 m0 m0 m0 m0 m0 m0 m0 m0 m0 m0 [e ;e %a :$ #+ {7 {7 {7 {7 {7 $+ Eb l~ P, of ;F m0 m0 m0 m0 m0 m0 m0 m0 m0 m0 m0 m0 m0 m0 m0 m0 m0 m0 m0 m0 m0 m0 m0 m0 m0 m0 m0 m0 m0 m0 m0 m0 m0 m0 m0 m0 m0 m0 m0 m0 m0 m0 m0 m0 m0 m0 m0 m0 m0 m0 m0 m0 m0 m0 m0 m0 m0 m0 m0 m0 m0 m0 m0 m0 m0 m0 m0 m0 m0 m0 m0 m0 m0 m0 m0 m0 m0 m0 m0 m0 m0 m0 m0 m0 m0 m0 m0 m0 m0 m0 m0 m0 m0 m0 m0 m0 m0 m0 m0 m0 m0 m0 m0 m0 m0 m0 m0 m0 m0 m0 m0 m0 m0 m0 m0 m0 m0 m0 m0 m0 m0 m0 m0 m0 m0 m0 m0 m0 m0 m0 m0 m0 m0 m0 m0 m0 m0 m0 m0 m0 m0 m0 m0 m0 m0 m0 m0 m0 m0 m0 m0 m0 m0 m0 m0 m0 m0 m0 m0 m0 m0 {8 {8 -G FF l~ }C =+ {7 {7 {7 {7 >e `) f# Ta m0 [e m0 m0 m0 m0 m0 m0 m0 m0 m0 m0 m0 m0 m0 m0 m0 m0 m0 m0 m0 m0 m0 m0 m0 m0 m0 m0 m0 m0 m0 m0 m0 m0 m0 m0 m0 m0 m0 m0 m0 m0 m0 m0 m0 m0 m0 m0 m0 <e  q K8 >g wa B! _b [g Zg =e hx ;G cB Z* 4A C- 6; I- D- 7c N; w* >G mx ,G [F 'G )G !G ~G {G ]G ^G /G (G _G :G kE 4E <G Y+ [G }G |G 1G 2G 3G pF 4G 5G 6G nB +G (C Ed e_ d[ S< b_ aD !D !D !D !D !D !D !D 0E aE aE aE aE aE aE aE aE aE aE aE aE aE aE aE aE aE aE aE aE aE aE aE aE aE aE aE !D !D !D !D !D P6 Qo wF wF wF wF wF wF wF wF wF wF wF wF wF ",
"BF BF BF BF BF BF BF BF BF BF HB $F @F @F @F @F 7G %8 g@ Yp Yp Yp Yp Yp Yp Yp mo mo mo mo mo mo mo %8 t4 t4 t4 t4 t4 t4 t4 t4 %8 mo mo mo mo Yp Yp n8 n8 n8 n8 n8 S< c_ d_ e_ f_ g_ B! u  v  `. ++ 0. 0. #+ -+ P+ Q+ :# ;@ z@ {# S# _$ _$ _$ _$ _$ _$ G$ @% <% k% v% Q% /& v& 8G =E D- E- I- P; 9G k= P* 1* 0G *E /A dE 6{ Ka X$ _b V^  ! <g 1~ m0 m0 m0 m0 m0 m0 m0 m0 m0 m0 m0 m0 m0 m0 m0 m0 m0 m0 m0 m0 m0 m0 m0 m0 m0 m0 m0 m0 m0 m0 m0 m0 m0 m0 m0 m0 m0 m0 m0 m0 m0 m0 m0 m0 [e ;e %a :$ #+ {7 {7 {7 {7 {7 $+ Eb _e h% }e {8 m0 m0 m0 m0 m0 m0 m0 m0 m0 m0 m0 m0 m0 m0 m0 m0 m0 m0 m0 m0 m0 m0 m0 m0 m0 m0 m0 m0 m0 m0 m0 m0 m0 m0 m0 m0 m0 m0 m0 m0 m0 m0 m0 m0 m0 m0 m0 m0 m0 m0 m0 m0 m0 m0 m0 m0 m0 m0 m0 m0 m0 m0 m0 m0 m0 m0 m0 m0 m0 m0 m0 m0 m0 m0 m0 m0 m0 m0 m0 m0 m0 m0 m0 m0 m0 m0 m0 m0 m0 m0 m0 m0 m0 m0 m0 m0 m0 m0 m0 m0 m0 m0 m0 m0 m0 m0 m0 m0 m0 m0 m0 m0 m0 m0 m0 m0 m0 m0 m0 m0 m0 m0 m0 m0 m0 m0 m0 m0 m0 m0 m0 m0 m0 m0 m0 m0 m0 m0 m0 m0 m0 m0 m0 m0 m0 m0 m0 m0 m0 m0 m0 m0 m0 m0 m0 m0 m0 m0 m0 m0 m0 {8 {8 -G FF l~ }C =+ {7 {7 {7 {7 >e `) f# Ta m0 [e m0 m0 m0 m0 m0 m0 m0 m0 m0 m0 m0 m0 m0 m0 m0 m0 m0 m0 m0 m0 m0 m0 m0 m0 m0 m0 m0 m0 m0 m0 m0 m0 m0 m0 m0 m0 m0 m0 m0 m0 m0 m0 m0 m0 m0 m0 m0 <e  q K8 >g wa B! _b [g Zg =e hx ;G cB aG 4A bG H- I- y; 7c N; ~* cG mx dG eG fG gG hG iG jG kG lG mG nG oG pG gE ^y <G qG rG }G sG jG jG tG uG vG wG [z xG +G (C Ed e_ d[ S< b_ aD !D !D !D !D !D `s oE aE aE aE aE aE aE aE aE aE aE aE aE aE aE aE aE aE aE aE aE aE aE aE aE aE aE aE aE oE !D !D !D P6 #G wF wF wF wF wF wF wF wF wF wF wF wF wF wF ",
"BF BF BF BF BF BF BF BF BF BF &F @F kg yG Ro zG n8 n8 n8 n8 n8 n8 n8 n8 n8 n8 n8 n8 n8 n8 n8 n8 n8 n8 n8 n8 n8 n8 n8 n8 n8 n8 n8 n8 n8 n8 n8 n8 n8 n8 n8 n8 n8 n8 S< c_ d_ e_ f_ g_ B! u  v  `. ++ 0. 0. #+ -+ P+ Q+ :# ;@ z@ {# S# _$ _$ _$ _$ _$ _$ G$ @% <% k% v% Q% /& v& ^* Ve y; E- I- J- 9G n= Q* AG BG *E /A dE 6{ Ka X$ _b V^  ! <g 1~ m0 m0 m0 m0 m0 m0 m0 m0 m0 m0 m0 m0 m0 m0 m0 m0 m0 m0 m0 m0 m0 m0 m0 m0 m0 m0 m0 m0 m0 m0 m0 m0 m0 m0 m0 m0 m0 m0 m0 m0 m0 m0 m0 m0 [e ;e %a :$ #+ {7 {7 {7 {7 {7 $+ <A c{ 3% m0 {8 m0 m0 m0 m0 m0 m0 m0 m0 m0 m0 m0 m0 m0 m0 m0 m0 m0 m0 m0 m0 m0 m0 m0 m0 m0 m0 m0 m0 m0 m0 m0 m0 m0 m0 m0 m0 m0 m0 m0 m0 m0 m0 m0 m0 m0 m0 m0 m0 m0 m0 m0 m0 m0 m0 m0 m0 m0 m0 m0 m0 m0 m0 m0 m0 m0 m0 m0 m0 m0 m0 m0 m0 m0 m0 m0 m0 m0 m0 m0 m0 m0 m0 m0 m0 m0 m0 m0 m0 m0 m0 m0 m0 m0 m0 m0 m0 m0 m0 m0 m0 m0 m0 m0 m0 m0 m0 m0 m0 m0 m0 m0 m0 m0 m0 m0 m0 m0 m0 m0 m0 m0 m0 m0 m0 m0 m0 m0 m0 m0 m0 m0 m0 m0 m0 m0 m0 m0 m0 m0 m0 m0 m0 m0 m0 m0 m0 m0 m0 m0 m0 m0 m0 m0 m0 m0 m0 m0 m0 m0 m0 m0 6e {8 Od <8 l~ }C =+ {7 {7 {7 {7 >e `) f# Ta m0 [e m0 m0 m0 m0 m0 m0 m0 m0 m0 m0 m0 m0 m0 m0 m0 m0 m0 m0 m0 m0 m0 m0 m0 m0 m0 m0 m0 m0 m0 m0 m0 m0 m0 m0 m0 m0 m0 m0 m0 m0 m0 m0 m0 m0 m0 m0 m0 <e  q K8 >g wa B! _b [g Zg =e hx jC 'C CG 4A D- I- J- y; 7c %= ~* DG sw EG FG GG HG IG JG KG LG MG NG OG PG ;B hi QG %x RG SG VF TG UG VG WG XG YG ZG }z Gx +G (C Ed e_ d[ S< b_ aD !D !D !D 's aE aE aE aE aE aE aE aE aE aE aE aE aE aE aE aE aE aE aE aE aE aE aE aE aE aE aE aE aE aE aE aE `s !D P6 #G wF wF wF wF wF wF wF wF wF wF wF wF wF wF wF ",
"`G  H  H .H .H Xq Ro Ro f@ n8 n8 n8 n8 n8 n8 n8 n8 n8 n8 n8 n8 n8 n8 n8 n8 n8 n8 n8 n8 n8 n8 n8 n8 n8 n8 n8 n8 n8 n8 n8 n8 n8 n8 n8 n8 n8 n8 n8 n8 n8 n8 n8 n8 n8 S< c_ d_ e_ f_ g_ B! u  v  `. ++ 0. 0. #+ -+ P+ Q+ :# ;@ z@ {# S# _$ _$ _$ _$ _$ _$ H$ @% <% k% v% Q% (& w& Bc #- E- O; '> J- +H i= |= 3* @H ^A :A (A 6{ Ka X$ _b V^  ! <g 1~ m0 m0 m0 m0 m0 m0 m0 m0 m0 m0 m0 m0 m0 m0 m0 m0 m0 m0 m0 m0 m0 m0 m0 m0 m0 m0 m0 m0 m0 m0 m0 m0 m0 m0 m0 m0 m0 m0 m0 m0 m0 m0 m0 m0 [e ;e %a :$ #+ {7 {7 {7 {7 {7 $+ <A 5{ 3% m0 {8 m0 m0 m0 m0 m0 m0 m0 m0 m0 m0 m0 m0 m0 m0 m0 m0 m0 m0 m0 m0 m0 m0 m0 m0 m0 m0 m0 m0 m0 m0 m0 m0 m0 m0 m0 m0 m0 m0 m0 m0 m0 m0 m0 m0 m0 m0 m0 m0 m0 m0 m0 m0 m0 m0 m0 m0 m0 m0 m0 m0 m0 m0 m0 m0 m0 m0 m0 m0 m0 m0 m0 m0 m0 m0 m0 m0 m0 m0 m0 m0 m0 m0 m0 m0 m0 m0 m0 m0 m0 m0 m0 m0 m0 m0 m0 m0 m0 m0 m0 m0 m0 m0 m0 m0 m0 m0 m0 m0 m0 m0 m0 m0 m0 m0 m0 m0 m0 m0 m0 m0 m0 m0 m0 m0 m0 m0 m0 m0 m0 m0 m0 m0 m0 m0 m0 m0 m0 m0 m0 m0 m0 m0 m0 m0 m0 m0 m0 m0 m0 m0 m0 m0 m0 m0 m0 m0 m0 m0 m0 m0 m0 6e {8 Ad _8 l~ }C =+ {7 {7 {7 {7 >e `) f# Ta m0 [e m0 m0 m0 m0 m0 m0 m0 m0 m0 m0 m0 m0 m0 m0 m0 m0 m0 m0 m0 m0 m0 m0 m0 m0 m0 m0 m0 m0 m0 m0 m0 m0 m0 m0 m0 m0 m0 m0 m0 m0 m0 m0 m0 m0 m0 m0 m0 <e  q  { >g :< B! _b d% cg =e |o jC 'C `* 4A D- I- J- y;  l ^k ~* #H zk $H Aj %H &H *H =H -H ;H >H ,H 'H )H !H ~H {H %x pB ]H ^H /H (H (H _H :H <H }z nB rE FB (C Ed e_ d[ S< b_ aD !D !D nE aE aE aE aE aE aE aE aE aE aE aE aE aE aE aE aE aE aE aE aE aE aE aE aE aE aE aE aE aE aE aE aE aE nE P6 #G wF wF wF wF  H [H [H [H [H [H [H [H [H [H [H [H ",
"n8 n8 n8 n8 n8 n8 n8 n8 n8 n8 n8 n8 n8 n8 n8 n8 n8 n8 n8 n8 n8 n8 n8 n8 n8 n8 n8 n8 n8 n8 n8 n8 n8 n8 n8 n8 n8 n8 n8 n8 n8 n8 n8 n8 n8 n8 n8 n8 }# }H }H }H }H }H S< c_ d_ e_ f_ g_ B! u  v  `. ++ 0. 0. #+ -+ P+ Q+ :# ;@ z@ {# S# _$ _$ _$ _$ _$ _$ H$ @% <% k% v% S% m& vA Bc Ve E- F- '> K- +H |H 1H 4* @H cA :A (A 0n Ka X$ _b V^  ! <g 1~ m0 m0 m0 m0 m0 m0 m0 m0 m0 m0 m0 m0 m0 m0 m0 m0 m0 m0 m0 m0 m0 m0 m0 m0 m0 m0 m0 m0 m0 m0 m0 m0 m0 m0 m0 m0 m0 m0 m0 m0 m0 m0 m0 m0 [e ;e %a :$ #+ {7 {7 {7 {7 {7 $+ <A b{ 5% m0 {8 m0 m0 m0 m0 m0 m0 m0 m0 m0 m0 m0 m0 m0 m0 m0 m0 m0 m0 m0 m0 m0 m0 m0 m0 m0 m0 m0 m0 m0 m0 m0 m0 m0 m0 m0 m0 m0 m0 m0 m0 m0 m0 m0 m0 m0 m0 m0 m0 m0 m0 m0 m0 m0 m0 m0 m0 m0 m0 m0 m0 m0 m0 m0 m0 m0 m0 m0 m0 m0 m0 m0 m0 m0 m0 m0 m0 m0 m0 m0 m0 m0 m0 m0 m0 m0 m0 m0 m0 m0 m0 m0 m0 m0 m0 m0 m0 m0 m0 m0 m0 m0 m0 m0 m0 m0 m0 m0 m0 m0 m0 m0 m0 m0 m0 m0 m0 m0 m0 m0 m0 m0 m0 m0 m0 m0 m0 m0 m0 m0 m0 m0 m0 m0 m0 m0 m0 m0 m0 m0 m0 m0 m0 m0 m0 m0 m0 m0 m0 m0 m0 m0 m0 m0 m0 m0 m0 m0 m0 m0 m0 m0 6e {8 Ad _8 l~ }C =+ {7 {7 {7 {7 >e `) f# Ta m0 [e m0 m0 m0 m0 m0 m0 m0 m0 m0 m0 m0 m0 m0 m0 m0 m0 m0 m0 m0 m0 m0 m0 m0 m0 m0 m0 m0 m0 m0 m0 m0 m0 m0 m0 m0 m0 m0 m0 m0 m0 m0 m0 m0 m0 m0 m0 m0 <e  q  { >g wa B! _b d% cg 58 Mz jC dC `* 4A y; '> K- F- *- 2H ]* 3H 4H 5H ]j 6H 7H 8H 9H 0H aH bH cH 3z [B dH Wj mx eH QG fH gH hH iH iH jH kH lH wE mH _i FB (C Ed e_ d[ S< b_ aD !D [E aE aE aE aE aE X8 !k Hg nH %} %} %} %} %} %} %} nH Hg Hg nH %} oH {g {g {g %} %} %} nH Hg Hg Hg Hg Hg %} Qo wF wF wF  H pH pH pH pH pH pH pH pH pH pH pH pH pH ",
"n8 n8 n8 n8 n8 n8 n8 n8 n8 n8 n8 n8 n8 n8 n8 n8 n8 n8 n8 n8 n8 n8 n8 n8 n8 n8 n8 n8 n8 n8 n8 n8 n8 n8 n8 n8 n8 n8 n8 n8 n8 n8 6l K^ qH rH sH tH tH tH uH vH vH vH q[ c_ d_ e_ f_ g_ B! u  v  `. ++ 0. 0. #+ -+ P+ Q+ :# ;@ z@ {# S# _$ _$ _$ _$ _$ _$ H$ @% <% l% %& S% m& vA wH ye xH F- J- L- r- p= T* 4* yH cA dA (A 0n Ka X$ v# V^  ! <g /~ m0 m0 m0 m0 m0 m0 m0 m0 m0 m0 m0 m0 m0 m0 m0 m0 m0 m0 m0 m0 m0 m0 m0 m0 m0 m0 m0 m0 m0 m0 m0 m0 m0 m0 m0 m0 m0 m0 m0 m0 m0 m0 m0 m0 [e ;e %a :$ #+ {7 {7 {7 {7 {7 $+ bb e{ j% m0 {8 m0 m0 m0 m0 m0 m0 m0 m0 m0 m0 m0 m0 m0 m0 m0 m0 m0 m0 m0 m0 m0 m0 m0 m0 m0 m0 m0 m0 m0 m0 m0 m0 m0 m0 m0 m0 m0 m0 m0 m0 m0 m0 m0 m0 m0 m0 m0 m0 m0 m0 m0 m0 m0 m0 m0 m0 m0 m0 m0 m0 m0 m0 m0 m0 m0 m0 m0 m0 m0 m0 m0 m0 m0 m0 m0 m0 m0 m0 m0 m0 m0 m0 m0 m0 m0 m0 m0 m0 m0 m0 m0 m0 m0 m0 m0 m0 m0 m0 m0 m0 m0 m0 m0 m0 m0 m0 m0 m0 m0 m0 m0 m0 m0 m0 m0 m0 m0 m0 m0 m0 m0 m0 m0 m0 m0 m0 m0 m0 m0 m0 m0 m0 m0 m0 m0 m0 m0 m0 m0 m0 m0 m0 m0 m0 m0 m0 m0 m0 m0 m0 m0 m0 m0 m0 m0 m0 m0 m0 m0 m0 m0 6e {8 Ad _8 l~ }C =+ {7 {7 {7 {7 >e `) f# Ta m0 [e m0 m0 m0 m0 m0 m0 m0 m0 m0 m0 m0 m0 m0 m0 m0 m0 m0 m0 m0 m0 m0 m0 m0 m0 m0 m0 m0 m0 m0 m0 m0 m0 m0 m0 m0 m0 m0 m0 m0 m0 m0 m0 m0 m0 m0 m0 m0 <e  q  { >g wa B! _b d% cg 58 zH jC AH BH CH DH J- K- F- 2h *= EH FH gi EG Vx Cy GH HH IH JH %H KH lB LH 7B Wj Wj _i Cy MH ry NH OH PH QH RH SH TH kB ki _i FB (C Ed e_ d[ S< b_ aD !D [E aE aE nE oE s7 {g {g {g {g {g {g {g {g {g {g {g {g {g {g {g {g {g {g {g {g {g {g {g {g {g {g {g {g {g 9g wF wF wF wF wF UH pH pH pH pH pH pH pH pH pH pH pH pH ",
"n8 n8 n8 n8 n8 n8 n8 n8 n8 n8 n8 n8 n8 n8 n8 n8 n8 n8 n8 n8 n8 n8 n8 n8 n8 n8 n8 n8 n8 n8 n8 n8 n8 n8 n8 n8 n8 n8 n8 n8 n8 n8 VH WH XH fu YH >s ZH `H `H `H `H `H b_ c_ d_ e_ f_ g_ B! u  v  `. ++ 0. 0. #+ -+ P+ Q+ :# ;@ z@ {# S# _$ _$ _$ _$ _$ _$ H$ %% <% l% ** S% n& x& _*  I O; F- -; =; r- I> T* .I +I @I dA (A 0n Ka X$ v# V^  ! <g /~ m0 m0 m0 m0 m0 m0 m0 m0 m0 m0 m0 m0 m0 m0 m0 m0 m0 m0 m0 m0 m0 m0 m0 m0 m0 m0 m0 m0 m0 m0 m0 m0 m0 m0 m0 m0 m0 m0 m0 m0 m0 m0 m0 m0 [e ;e %a :$ #+ {7 {7 {7 {7 {7 $+ w0 JD GD {8 {8 m0 m0 m0 m0 m0 m0 m0 m0 m0 m0 m0 m0 m0 m0 m0 m0 m0 m0 m0 m0 m0 m0 m0 m0 m0 m0 m0 m0 m0 m0 m0 m0 m0 m0 m0 m0 m0 m0 m0 m0 m0 m0 m0 m0 m0 m0 m0 m0 m0 m0 m0 m0 m0 m0 m0 m0 m0 m0 m0 m0 m0 m0 m0 m0 m0 m0 m0 m0 m0 m0 m0 m0 m0 m0 m0 m0 m0 m0 m0 m0 m0 m0 m0 m0 m0 m0 m0 m0 m0 m0 m0 m0 m0 m0 m0 m0 m0 m0 m0 m0 m0 m0 m0 m0 m0 m0 m0 m0 m0 m0 m0 m0 m0 m0 m0 m0 m0 m0 m0 m0 m0 m0 m0 m0 m0 m0 m0 m0 m0 m0 m0 m0 m0 m0 m0 m0 m0 m0 m0 m0 m0 m0 m0 m0 m0 m0 m0 m0 m0 m0 m0 m0 m0 m0 m0 m0 m0 m0 m0 m0 m0 6e {8 Od <8 l~ }C =+ {7 {7 {7 {7 >e `) f# Ta m0 [e m0 m0 m0 m0 m0 m0 m0 m0 m0 m0 m0 m0 m0 m0 m0 m0 m0 m0 m0 m0 m0 m0 m0 m0 m0 m0 m0 m0 m0 m0 m0 m0 m0 m0 m0 m0 m0 m0 m0 m0 m0 m0 m0 m0 m0 m0 m0 <e  q  { >g wa B! _b d% cg 58 Zx by JC #I CH O; -; K- ;; Xz ym 8G #H yk GC Aj Vx pB Dz uE $I dH 6h %I Wh ki Wj Wj Wj ^i Cy eH Zy hi &I *I 7B )z =I Dz Wj _i FB (C Ed e_ d[ S< b_ aD !D !D !D !D !D !D oH {g {g {g {g i| -I -I q7 {g {g {g ;I Zp {g {g {g {g ;I ;I ;I ;I ;I Zp {g {g {g Zp tp Qo wF wF wF wF wF wF >I UH pH pH pH pH pH pH pH pH pH pH pH ",
"n8 n8 n8 n8 n8 n8 n8 n8 n8 n8 n8 n8 n8 n8 n8 n8 n8 n8 n8 n8 n8 n8 n8 n8 n8 n8 n8 n8 n8 n8 n8 n8 n8 n8 n8 n8 n8 n8 n8 n8 n8 ,I 'I 'I 'I 'I 'I 'I 'I )I !I v7 `H `H b_ c_ d_ e_ f_ g_ B! u  v  `. ++ 0. 0. #+ -+ P+ Q+ :# ;@ z@ {# S# _$ _$ _$ _$ _$ _$ H$ %% P, ~I ** S% n& {I e*  I O; !> L- x; ]I I> ^I 6* +I Qy dA (A 6{ Ka X$ v# V^  ! Ed ,' m0 m0 m0 m0 m0 m0 m0 m0 m0 m0 m0 m0 m0 m0 m0 m0 m0 m0 m0 m0 m0 m0 m0 m0 m0 m0 m0 m0 m0 m0 m0 m0 m0 m0 m0 m0 m0 m0 m0 m0 m0 m0 m0 m0 [e ;e %a :$ #+ {7 {7 {7 {7 {7 |b bb C' -G {8 m0 m0 m0 m0 m0 m0 m0 m0 m0 m0 m0 m0 m0 m0 m0 m0 m0 m0 m0 m0 m0 m0 m0 m0 m0 m0 m0 m0 m0 m0 m0 m0 m0 m0 m0 m0 m0 m0 m0 m0 m0 m0 m0 m0 m0 m0 m0 m0 m0 m0 m0 m0 m0 m0 m0 m0 m0 m0 m0 m0 m0 m0 m0 m0 m0 m0 m0 m0 m0 m0 m0 m0 m0 m0 m0 m0 m0 m0 m0 m0 m0 m0 m0 m0 m0 m0 m0 m0 m0 m0 m0 m0 m0 m0 m0 m0 m0 m0 m0 m0 m0 m0 m0 m0 m0 m0 m0 m0 m0 m0 m0 m0 m0 m0 m0 m0 m0 m0 m0 m0 m0 m0 m0 m0 m0 m0 m0 m0 m0 m0 m0 m0 m0 m0 m0 m0 m0 m0 m0 m0 m0 m0 m0 m0 m0 m0 m0 m0 m0 m0 m0 m0 m0 m0 m0 m0 m0 m0 m0 m0 m0 m0 6e {8 -G FF ED }C =+ {7 {7 {7 {7 >e `) f# Ta m0 [e m0 m0 m0 m0 m0 m0 m0 m0 m0 m0 m0 m0 m0 m0 m0 m0 m0 m0 m0 m0 m0 m0 m0 m0 m0 m0 m0 m0 m0 m0 m0 m0 m0 m0 m0 m0 m0 m0 m0 m0 m0 m0 m0 m0 m0 m0 m0 Od Ae  { >g wa B! _b d% cg 58 Zx by  D /I (I O; -; =; ;; Xz ym ^* ,G yk li yE zk Rl _I Dz :I dH UE nz rE _i Wj Wj Wj Wj ^i Nv fE <I iE =I mH =I Wj _i Wj _i FB (C Ed e_ d[ S< b_ aD !D !D !D !D !D !D |A T0 T0 T0 [I [I [I [I }I {g mg wF wF wF wF wF wF wF wF wF wF wF wF wF wF wF wF wF wF mg |I 1I 2I 3I 4I 4I 4I 5I 6I 7I 8I 9I pH pH pH pH pH pH pH ",
"w2 w2 w2 w2 w2 w2 w2 w2 w2 w2 w2 0I n8 n8 n8 n8 n8 n8 n8 n8 n8 n8 n8 n8 n8 n8 n8 U8 =| =| =| U8 n8 n8 n8 n8 n8 n8 n8 n8 n8 ,I 'I 'I 'I 'I 'I 'I 'I 'I 'I XH `H `H b_ c_ d_ e_ f_ g_ B! u  v  `. ++ 0. 0. #+ -+ P+ Q+ :# ;@ z@ {# S# _$ _$ _$ _$ _$ _$ H$ %% [% ~I ** =& _& y& e* ye O; 6; L- x; ); v= |, 6* aI Qy dA gd 6{ Ka X$ v# k)  ! `d :% m0 m0 m0 m0 m0 m0 m0 m0 m0 m0 m0 m0 m0 m0 m0 m0 m0 m0 m0 m0 m0 m0 m0 m0 m0 m0 m0 m0 m0 m0 m0 m0 m0 m0 m0 m0 m0 m0 m0 m0 m0 m0 m0 m0 [e ;e %a :$ #+ {7 {7 {7 {7 {7 |b bb Ae <e {8 m0 m0 m0 m0 m0 m0 m0 m0 m0 m0 m0 m0 m0 m0 m0 m0 m0 m0 m0 m0 m0 m0 m0 m0 m0 m0 m0 m0 m0 m0 m0 m0 m0 m0 m0 m0 m0 m0 m0 m0 m0 m0 m0 m0 m0 m0 m0 m0 m0 m0 m0 m0 m0 m0 m0 m0 m0 m0 m0 m0 m0 m0 m0 m0 m0 m0 m0 m0 m0 m0 m0 m0 m0 m0 m0 m0 m0 m0 m0 m0 m0 m0 m0 m0 m0 m0 m0 m0 m0 m0 m0 m0 m0 m0 m0 m0 m0 m0 m0 m0 m0 m0 m0 m0 m0 m0 m0 m0 m0 m0 m0 m0 m0 m0 m0 m0 m0 m0 m0 m0 m0 m0 m0 m0 m0 m0 m0 m0 m0 m0 m0 m0 m0 m0 m0 m0 m0 m0 m0 m0 m0 m0 m0 m0 m0 m0 m0 m0 m0 m0 m0 m0 m0 m0 m0 m0 m0 m0 m0 m0 m0 m0 {8 {8 GD FF l~ }C =+ {7 {7 {7 {7 >e `) f# Ta m0 [e m0 m0 m0 m0 m0 m0 m0 m0 m0 m0 m0 m0 m0 m0 m0 m0 m0 m0 m0 m0 m0 m0 m0 m0 m0 m0 m0 m0 m0 m0 m0 m0 m0 m0 m0 m0 m0 m0 m0 m0 m0 m0 m0 m0 m0 m0 m0 Od =e  { >g wa B! _b d% cg 58 Mz by  D /I (I F- -; =; G- 'g <= ^* bI hi hi ^i Sy sw sw _i EB >E Pi _i Wj Wj Wj Wj Wj Wj Wj _i <E (l gB oz ki ^i EE Wj Wj _i FB (C Ed e_ d[ S< b_ aD !D !D !D !D cI cI cI cI cI cI [I [I [I [I dI eI  H wF wF wF  H fI fI fI fI gI gI gI -3 E1 E1 E1 E1 hI iI jI kI kI kI lI mI nI [F oI %4 8I 8I pI pH pH pH pH pH qI Qo ",
"rI rI rI rI rI rI rI rI rI rI rI rI rI rI rI sI tI /@ uI vI [H wI wI wI wI wI xI yI zI AI BI BI BI CI DI n8 n8 n8 n8 n8 n8 po 'I 'I 'I 'I 'I 'I 'I 'I 'I 'I `H `H Q' c_ d_ e_ f_ g_ B! u  v  `. ++ 0. 0. #+ -+ P+ Q+ :# ;@ z@ {# S# _$ _$ _$ _$ _$ C$ /% %% P, ~I ** =& _& y& <* EI F- 6; =; *; ); w= FI 8* GI IA eA hd 6{ ai X$ v# k)  ! `d :% m0 m0 m0 m0 m0 m0 m0 m0 m0 m0 m0 m0 m0 m0 m0 m0 m0 m0 m0 m0 m0 m0 m0 m0 m0 m0 m0 m0 m0 m0 m0 m0 m0 m0 m0 m0 m0 m0 m0 m0 m0 m0 m0 m0 [e ;e %a :$ #+ {7 {7 {7 {7 {7 |b .r 4e HI {8 m0 m0 m0 m0 m0 m0 m0 m0 m0 m0 m0 m0 m0 m0 m0 m0 m0 m0 m0 m0 m0 m0 m0 m0 m0 m0 m0 m0 m0 m0 m0 m0 m0 m0 m0 m0 m0 m0 m0 m0 m0 m0 m0 m0 m0 m0 m0 m0 m0 m0 m0 m0 m0 m0 m0 m0 m0 m0 m0 m0 m0 m0 m0 m0 m0 m0 m0 m0 m0 m0 m0 m0 m0 m0 m0 m0 m0 m0 m0 m0 m0 m0 m0 m0 m0 m0 m0 m0 m0 m0 m0 m0 m0 m0 m0 m0 m0 m0 m0 m0 m0 m0 m0 m0 m0 m0 m0 m0 m0 m0 m0 m0 m0 m0 m0 m0 m0 m0 m0 m0 m0 m0 m0 m0 m0 m0 m0 m0 m0 m0 m0 m0 m0 m0 m0 m0 m0 m0 m0 m0 m0 m0 m0 m0 m0 m0 m0 m0 m0 m0 m0 m0 m0 m0 m0 m0 m0 m0 m0 m0 m0 m0 {8 m0 j% Ae ED }C =+ {7 {7 {7 {7 >e `) f# Ta m0 [e m0 m0 m0 m0 m0 m0 m0 m0 m0 m0 m0 m0 m0 m0 m0 m0 m0 m0 m0 m0 m0 m0 m0 m0 m0 m0 m0 m0 m0 m0 m0 m0 m0 m0 m0 m0 m0 m0 m0 m0 m0 m0 m0 m0 m0 m0 m0 Ad 4e J8 >g wa B! _b d% cg 58 Zx Oy  D .= II ;; L- x; 6; >- := Bc bI yk hi ^i wx ]C QG JI ^y ry wx _i Wj Wj Wj Wj Wj Wj Wj Wj _i bl Fx KI bl _i Wj Wj Wj _i FB (C Ed e_ d[ S< b_ LI MI -3 8I 8I 8I 8I 8I 8I 8I 8I 8I 8I 8I 8I 8I 8I 8I 8I 8I 8I 8I 8I 8I 8I 8I 8I 8I 8I 8I 8I 8I 8I 8I 8I NI kI kI kI jI OI PI 8I 8I 8I 8I 8I 8I 9I Qo Pf :p QI <r Jl Jl ",
"rI rI rI rI rI rI rI rI rI rI rI rI rI rI rI rI rI rI C% wI wI wI wI wI wI wI wI wI wI wI ]g RI SI BI BI TI =| n8 n8 n8 n8 }H UI 'I 'I 'I 'I 'I 'I 'I 'I 'I `H `H Q' c_ d_ e_ f_ g_ B! u  v  `. ++ 0. 0. #+ -+ P+ Q+ :# ;@ z@ {# S# _$ _$ _$ _$ _$ C$ /% %% P, ~I ** =& :& t, <* ye O; H- =; N- n- T> 2, 8* GI VI eA hd C' ai X$ v# k)  ! `d =% m0 m0 m0 m0 m0 m0 m0 m0 m0 m0 m0 m0 m0 m0 m0 m0 m0 m0 m0 m0 m0 m0 m0 m0 m0 m0 m0 m0 m0 m0 m0 m0 m0 m0 m0 m0 m0 m0 m0 m0 m0 m0 m0 m0 [e ;e %a :$ #+ {7 {7 {7 {7 {7 |b w0 KA U~ {8 m0 m0 m0 m0 m0 m0 m0 m0 m0 m0 m0 m0 m0 m0 m0 m0 m0 m0 m0 m0 m0 m0 m0 m0 m0 m0 m0 m0 m0 m0 m0 m0 m0 m0 m0 m0 m0 m0 m0 m0 m0 m0 m0 m0 m0 m0 m0 m0 m0 m0 m0 m0 m0 m0 m0 m0 m0 m0 m0 m0 m0 m0 m0 m0 m0 m0 m0 m0 m0 m0 m0 m0 m0 m0 m0 m0 m0 m0 m0 m0 m0 m0 m0 m0 m0 m0 m0 m0 m0 m0 m0 m0 m0 m0 m0 m0 m0 m0 m0 m0 m0 m0 m0 m0 m0 m0 m0 m0 m0 m0 m0 m0 m0 m0 m0 m0 m0 m0 m0 m0 m0 m0 m0 m0 m0 m0 m0 m0 m0 m0 m0 m0 m0 m0 m0 m0 m0 m0 m0 m0 m0 m0 m0 m0 m0 m0 m0 m0 m0 m0 m0 m0 m0 m0 m0 m0 m0 m0 m0 m0 m0 m0 6e U~ 2% dd H8 }C *+ {7 {7 {7 {7 >e `) f# Ta m0 [e m0 m0 m0 m0 m0 m0 m0 m0 m0 m0 m0 m0 m0 m0 m0 m0 m0 m0 m0 m0 m0 m0 m0 m0 m0 m0 m0 m0 m0 m0 m0 m0 m0 m0 m0 m0 m0 m0 m0 m0 m0 m0 m0 m0 m0 m0 m0 Od 4e '~ >g wa la v# =f <m 58 Zx Oy DD eE WI ;; =; *; I- Vi := (* XI yk hi Pi sw Fx Cy 'y @l YI =I gB _i _i Wj Wj Wj Wj /i Kj mx 'y ZI /i jE nz @l @l Wj _i FB (C Ed e_ d[ S< S< `I 8I 8I 8I 8I 8I 8I 8I 8I 8I 8I 8I 8I 8I 8I 8I 8I 8I 8I 8I 8I 8I 8I 8I 8I 8I 8I 8I 8I 8I 8I 8I 8I 8I 8I }H  J kI .J +J 8I 8I 8I 8I 8I 8I 8I 8I @J Jl Jl Jl Jl 8n sm sm ",
"w7 #J G, G, u) j[ !) $J rI rI rI rI rI rI rI rI rI rI rI BF wI wI wI wI wI wI wI wI wI wI wI wI wI %J &J BI BI *J n8 n8 e@ =J r3 'I 'I 'I 'I 'I 'I 'I 'I 'I `H -J Q' c_ d_ e_ f_ g_ B! u  v  `. ++ 0. 0. #+ -+ P+ Q+ :# ;@ z@ {# S# _$ _$ _$ _$ _$ C$ /% %% P, ~I I% =& :& t, v, ae ;; H- x; ;J n- z= 2, F* >J VI eA :m 0n ai X$ v# k)  ! `p s' m0 m0 m0 m0 m0 m0 m0 m0 m0 m0 m0 m0 m0 m0 m0 m0 m0 m0 m0 m0 m0 m0 m0 m0 m0 m0 m0 m0 m0 m0 m0 m0 m0 m0 m0 m0 m0 m0 m0 m0 m0 m0 m0 m0 [e ;e %a :$ #+ {7 {7 {7 {7 {7 $+ w0 v' }e ;F m0 m0 m0 m0 m0 m0 m0 m0 m0 m0 m0 m0 m0 m0 m0 m0 m0 m0 m0 m0 m0 m0 m0 m0 m0 m0 m0 m0 m0 m0 m0 m0 m0 m0 m0 m0 m0 m0 m0 m0 m0 m0 m0 m0 m0 m0 m0 m0 m0 m0 m0 m0 m0 m0 m0 m0 m0 m0 m0 m0 m0 m0 m0 m0 m0 m0 m0 m0 m0 m0 m0 m0 m0 m0 m0 m0 m0 m0 m0 m0 m0 m0 m0 m0 m0 m0 m0 m0 m0 m0 m0 m0 m0 m0 m0 m0 m0 m0 m0 m0 m0 m0 m0 m0 m0 m0 m0 m0 m0 m0 m0 m0 m0 m0 m0 m0 m0 m0 m0 m0 m0 m0 m0 m0 m0 m0 m0 m0 m0 m0 m0 m0 m0 m0 m0 m0 m0 m0 m0 m0 m0 m0 m0 m0 m0 m0 m0 m0 m0 m0 m0 m0 m0 m0 m0 m0 m0 m0 m0 m0 m0 m0 m0 -e 4e 4{ Va }C *+ z  {7 {7 {7 >e `) f# Ta m0 [e m0 m0 m0 m0 m0 m0 m0 m0 m0 m0 m0 m0 m0 m0 m0 m0 m0 m0 m0 m0 m0 m0 m0 m0 m0 m0 m0 m0 m0 m0 m0 m0 m0 m0 m0 m0 m0 m0 m0 m0 m0 m0 m0 m0 m0 m0 m0 Od FF '~ >g wa la v# =f <m [8 zp Oy DD eE WI 6; =; N- I- Vi ;= (* XI hi Ez bl 5E }m fE ,J 'J )J !J CE Yh 1x Wj Wj Wj (l Aj 5E Nv 7j ~J {J hz ]J xG Hx _i _i FB (C Ed e_ d[ S< S< `I 8I 8I 8I 8I 8I 8I 8I 8I 8I 8I 8I 8I 8I 8I 8I 8I 8I 8I 8I 8I 8I 8I 8I 8I 8I 8I 8I 8I 8I 8I 8I 8I 8I 8I 8I 8I 8I 8I 8I 8I 8I 8I 8I 8I 8I 8I ^J ]k Jl Jl /J $# $# $# $# ",
"w7 w7 w7 w7 w7 w7 w7 w7 w7 G, u) !) (J _J rI rI rI rI rI $' :J wI wI wI wI wI wI wI wI wI wI wI wI wI xI RI BI BI <J ~1 =J =J [J 'I 'I 'I 'I 'I 'I 'I 'I 'I `H }J Q' c_ d_ e_ f_ g_ B! u  v  `. ++ 0. 0. #+ -+ P+ Q+ :# ;@ z@ {# S# _$ _$ _$ _$ _$ C$ /% %% P, n% I% =& :& t, [* #e ;; I- *; &; |J z= 1J 0* 4> cB iA 2J 3J Zg [g v# X.  ! `p s' m0 m0 m0 m0 m0 m0 m0 m0 m0 m0 m0 m0 m0 m0 m0 m0 m0 m0 m0 m0 m0 m0 m0 m0 m0 m0 m0 m0 m0 m0 m0 m0 m0 m0 m0 m0 m0 m0 m0 m0 m0 m0 m0 m0 [e ;e %a :$ #+ {7 {7 {7 {7 {7 F  xa f% $0 ;F m0 m0 m0 m0 m0 m0 m0 m0 m0 m0 m0 m0 m0 m0 m0 m0 m0 m0 m0 m0 m0 m0 m0 m0 m0 m0 m0 m0 m0 m0 m0 m0 m0 m0 m0 m0 m0 m0 m0 m0 m0 m0 m0 m0 m0 m0 m0 m0 m0 m0 m0 m0 m0 m0 m0 m0 m0 m0 m0 m0 m0 m0 m0 m0 m0 m0 m0 m0 m0 m0 m0 m0 m0 m0 m0 m0 m0 m0 m0 m0 m0 m0 m0 m0 m0 m0 m0 m0 m0 m0 m0 m0 m0 m0 m0 m0 m0 m0 m0 m0 m0 m0 m0 m0 m0 m0 m0 m0 m0 m0 m0 m0 m0 m0 m0 m0 m0 m0 m0 m0 m0 m0 m0 m0 m0 m0 m0 m0 m0 m0 m0 m0 m0 m0 m0 m0 m0 m0 m0 m0 m0 m0 m0 m0 m0 m0 m0 m0 m0 m0 m0 m0 m0 m0 m0 m0 m0 m0 m0 m0 m0 67 Ad |% B~ k~ I8 *f *+ z  {7 {7 {7 >e `) f# Ta m0 [e m0 m0 m0 m0 m0 m0 m0 m0 m0 m0 m0 m0 m0 m0 m0 m0 m0 m0 m0 m0 m0 m0 m0 m0 m0 m0 m0 m0 m0 m0 m0 m0 m0 m0 m0 m0 m0 m0 m0 m0 m0 m0 m0 m0 m0 m0 m0 Od <8 :~ >g wa la mb =f <m 78 cy Oy DD eE WI 6; *; N- P; 8d _= _* 4J hi 5J }m 4E 6J 7J 8J 9J 0J aJ UE bJ ]J _i Wj _i ry sz cJ dJ eJ fJ gJ hJ iJ jJ CE Hx _i FB (C Ed e_ d[ S< b_ kJ lJ mJ nJ 8I 8I 8I 8I 8I 8I 8I 8I 8I 8I 8I oJ pJ qJ rJ F2 nJ 8I 8I 8I 8I 8I 8I 8I 8I 8I 8I 8I 8I 8I 8I 8I 8I 8I 8I 8I 8I 8I 8I 8I 8I 8I v2 CF sJ Jl Jl u+ $# $# $# $# ",
"w7 w7 w7 w7 w7 w7 w7 w7 w7 w7 w7 w7 tJ uJ vJ BD wJ rI rI rI xJ @z yJ wI wI wI wI wI wI wI wI wI wI wI wI wI zJ AJ BJ =J =J =J =J CJ 'I 'I 'I 'I 'I 'I 'I DJ `H EJ Q' c_ d_ e_ f_ g_ B! u  v  `. ++ 0. 0. #+ -+ P+ Q+ :# ;@ z@ {# S# _$ _$ _$ _$ _$ C$ /% %% P, n% I% =& <& B& [* cd FJ I- ;J {> |J GJ HJ IJ 4> cB iA :m %0 cg d% v# X.  ! `p s' m0 m0 m0 m0 m0 m0 m0 m0 m0 m0 m0 m0 m0 m0 m0 m0 m0 m0 m0 m0 m0 m0 m0 m0 m0 m0 m0 m0 m0 m0 m0 m0 m0 m0 m0 m0 m0 m0 m0 m0 m0 m0 m0 m0 [e ;e %a :$ #+ {7 {7 {7 {7 z  m! zi B; C{ ;F m0 m0 m0 m0 m0 m0 m0 m0 m0 m0 m0 m0 m0 m0 m0 m0 m0 m0 m0 m0 m0 m0 m0 m0 m0 m0 m0 m0 m0 m0 m0 m0 m0 m0 m0 m0 m0 m0 m0 m0 m0 m0 m0 m0 m0 m0 m0 m0 m0 m0 m0 m0 m0 m0 m0 m0 m0 m0 m0 m0 m0 m0 m0 m0 m0 m0 m0 m0 m0 m0 m0 m0 m0 m0 m0 m0 m0 m0 m0 m0 m0 m0 m0 m0 m0 m0 m0 m0 m0 m0 m0 m0 m0 m0 m0 m0 m0 m0 m0 m0 m0 m0 m0 m0 m0 m0 m0 m0 m0 m0 m0 m0 m0 m0 m0 m0 m0 m0 m0 m0 m0 m0 m0 m0 m0 m0 m0 m0 m0 m0 m0 m0 m0 m0 m0 m0 m0 m0 m0 m0 m0 m0 m0 m0 m0 m0 m0 m0 m0 m0 m0 m0 m0 m0 m0 m0 m0 m0 m0 m0 m0 ({ Jd a{ k~ ;~ I8 *f *+ z  {7 {7 {7 >e `) f# Ta m0 [e m0 m0 m0 m0 m0 m0 m0 m0 m0 m0 m0 m0 m0 m0 m0 m0 m0 m0 m0 m0 m0 m0 m0 m0 m0 m0 m0 m0 m0 m0 m0 m0 m0 m0 m0 m0 m0 m0 m0 m0 m0 m0 m0 m0 m0 m0 m0 Od 88 [~ >g wa k) mb =f <m 78 zp zD JJ g- cC H- *; ~> '> 8d |q _* KJ Ez 8B Bz LJ MJ NJ OJ PJ QJ RJ SJ TH CE Ly Wj <E TJ 4z UJ VJ WJ oF XJ YJ ZJ `J  K 1z _i FB (C Ed e_ d[ S< :< .K +K @K #K $K %K &K *K =K -K 8I 8I 8I 8I 8I ;K >K ,K 'K 'K )K !K ~K {K 8I 8I 8I 8I 8I 8I 8I 8I 8I 8I 8I 8I 8I 8I 8I 8I 8I 8I 8I 8I ]K wp Ku Ku ,f Jl 8n $# $# $# $# $# ",
"w7 w7 w7 w7 w7 w7 w7 w7 w7 w7 w7 w7 tJ uJ uJ uJ uJ ^K /K (K _K rI rI rI C% :K <K <K [K }K Tq |K $# Ha $#  * 1K <K 2K =J =J =J =J 3K 'I 'I 'I 'I 'I 'I 'I 4K `H 5K Q' c_ d_ e_ f_ g_ B! u  v  `. ++ 0. 0. #+ -+ P+ Q+ :# ;@ z@ {# S# _$ _$ _$ _$ _$ C$ /% %% P, n% I% =& 1& C& [* cd ;; `; ;J {> k- B= 7, b* ,* cB iA :m 0{ cg d% v# X.  ! rf E8 U~ m0 m0 m0 m0 m0 m0 m0 m0 m0 m0 m0 m0 m0 m0 m0 m0 m0 m0 m0 m0 m0 m0 m0 m0 m0 m0 m0 m0 m0 m0 m0 m0 m0 m0 m0 m0 m0 m0 m0 m0 m0 m0 m0 [e ;e %a :$ #+ {7 {7 {7 {7 y  m! W  Dd ;e ;F m0 m0 m0 m0 m0 m0 m0 m0 m0 m0 m0 m0 m0 m0 m0 m0 m0 m0 m0 m0 m0 m0 m0 m0 m0 m0 m0 m0 m0 m0 m0 m0 m0 m0 m0 m0 m0 m0 m0 m0 m0 m0 m0 m0 m0 m0 m0 m0 m0 m0 m0 m0 m0 m0 m0 m0 m0 m0 m0 m0 m0 m0 m0 m0 m0 m0 m0 m0 m0 m0 m0 m0 m0 m0 m0 m0 m0 m0 m0 m0 m0 m0 m0 m0 m0 m0 m0 m0 m0 m0 m0 m0 m0 m0 m0 m0 m0 m0 m0 m0 m0 m0 m0 m0 m0 m0 m0 m0 m0 m0 m0 m0 m0 m0 m0 m0 m0 m0 m0 m0 m0 m0 m0 m0 m0 m0 m0 m0 m0 m0 m0 m0 m0 m0 m0 m0 m0 m0 m0 m0 m0 m0 m0 m0 m0 m0 m0 m0 m0 m0 m0 m0 m0 m0 m0 m0 m0 m0 m0 6e U~ Jd 69 :~ ;~ ;~ I8 *f *+ z  {7 {7 {7 >e `) f# Ta m0 [e m0 m0 m0 m0 m0 m0 m0 m0 m0 m0 m0 m0 m0 m0 m0 m0 m0 m0 m0 m0 m0 m0 m0 m0 m0 m0 m0 m0 m0 m0 m0 m0 m0 m0 m0 m0 m0 m0 m0 m0 m0 m0 m0 m0 m0 m0 m0 Ad :8 l~ >g wa k) mb 2j <m 78 cy zD ^E g- cC I- ;J {> -; 8d >= e* KJ 7j Ei tw 6K 7K 8K 9K 0K aK bK cK dK _z 2z _i Cy Bz Nv eK fK gK KF hK iK jK kK lK 4B ki FB (C Ed e_ d[ S< :< .K +K mK #K #K #K #K #K #K #K #K #K #K #K nK oK oK oK oK oK oK oK oK oK oK pK qK rK 8I 8I 8I 8I 8I 8I 8I 8I 8I 8I 8I 8I 8I 8I 8I sK CF Ku Ku Ng Jl Jl tK $# $# $# $# $# ",
"w7 w7 w7 w7 w7 w7 w7 w7 w7 w7 w7 T! uJ uJ uJ uJ uJ uJ uJ uJ uJ Vo BD (K uK [K <K <K <K <K <K <K <K <K <K <K <K <K d: =J =J =J =J vK 'I 'I 'I 'I 'I 'I 'I wK s0 DJ Q' c_ d_ e_ f_ g_ B! u  v  `. ++ 0. 0. #+ -+ P+ Q+ :# ;@ z@ {# S# _$ _$ _$ _$ _$ C$ /% %% P, n% I% ;& 1& D& C* cd !> J- ~> Q- xK yK 5, G* ,* cB zK :m 0{ cg d% v# X.  ! W' 7- -e m0 m0 m0 m0 m0 m0 m0 m0 m0 m0 m0 m0 m0 m0 m0 m0 m0 m0 m0 m0 m0 m0 m0 m0 m0 m0 m0 m0 m0 m0 m0 m0 m0 m0 m0 m0 m0 m0 m0 m0 m0 m0 m0 [e ;e %a :$ #+ {7 {7 {7 {7 `) |b AK |% ;e ;F m0 m0 m0 m0 m0 m0 m0 m0 m0 m0 m0 m0 m0 m0 m0 m0 m0 m0 m0 m0 m0 m0 m0 m0 m0 m0 m0 m0 m0 m0 m0 m0 m0 m0 m0 m0 m0 m0 m0 m0 m0 m0 m0 m0 m0 m0 m0 m0 m0 m0 m0 m0 m0 m0 m0 m0 m0 m0 m0 m0 m0 m0 m0 m0 m0 m0 m0 m0 m0 m0 m0 m0 m0 m0 m0 m0 m0 m0 m0 m0 m0 m0 m0 m0 m0 m0 m0 m0 m0 m0 m0 m0 m0 m0 m0 m0 m0 m0 m0 m0 m0 m0 m0 m0 m0 m0 m0 m0 m0 m0 m0 m0 m0 m0 m0 m0 m0 m0 m0 m0 m0 m0 m0 m0 m0 m0 m0 m0 m0 m0 m0 m0 m0 m0 m0 m0 m0 m0 m0 m0 m0 m0 m0 m0 m0 m0 m0 m0 m0 m0 m0 m0 m0 m0 m0 m0 m0 m0 m0 m0 5e C' )~ ;~ ;~ '~ H8 *f *+ z  {7 {7 {7 >e `) f# Ta m0 [e m0 m0 m0 m0 m0 m0 m0 m0 m0 m0 m0 m0 m0 m0 m0 m0 m0 m0 m0 m0 m0 m0 m0 m0 m0 m0 m0 m0 m0 m0 m0 m0 m0 m0 m0 m0 m0 m0 m0 m0 m0 m0 m0 m0 m0 m0 m0 Ad W% ~~ >g wa k) mb 2j <m 78 cy -F ^E g- cC I- ~> %; -; $d ,= A* KJ 'y ZD BK CK DK EK FK GK HK IK JK KK LK 1z ^i ^y sE MK NK OK PK QK NF RK SK TK UK VK 7B +G (C Ed e_ d[ S< :< .K +K WK #K #K #K #K #K #K #K #K #K #K XK YK oK oK oK ZK `K oK oK oK oK oK oK oK oK  L .L +L 8I 8I 8I 8I 8I 8I 8I 8I 8I 8I ]K wp Ku Ku Ku Ku +n Jl Jl |< $# $# $# $# $# ",
"w7 w7 w7 w7 w7 w7 w7 w7 w7 w7 w7 uJ uJ uJ uJ uJ uJ uJ uJ uJ uJ uJ uJ uJ uJ ,s @L @L @L #L Oh $L %L &L *L *L =L <K d: =J =J =J =J =J 'I 'I 'I 'I 'I 'I 'I -L fu DJ {_ c_ d_ e_ f_ g_ B! u  v  `. ++ 0. 0. #+ -+ P+ Q+ :# ;@ z@ {# S# _$ _$ _$ _$ _$ C$ /% %% P, n% I% >& 1& ], }* cd !> -; &; Q; ;L D=  = /, %B >L &E Dn =e cg d% v# X.  ! Xi Q9 Jd m0 m0 m0 m0 m0 m0 m0 m0 m0 m0 m0 m0 m0 m0 m0 m0 m0 m0 m0 m0 m0 m0 m0 m0 m0 m0 m0 m0 m0 m0 m0 m0 m0 m0 m0 m0 m0 m0 m0 m0 m0 m0 m0 [e ;e %a :$ #+ {7 {7 {7 {7 `) |b -d |% ;e {8 m0 m0 m0 m0 m0 m0 m0 m0 m0 m0 m0 m0 m0 m0 m0 m0 m0 m0 m0 m0 m0 m0 m0 m0 m0 m0 m0 m0 m0 m0 m0 m0 m0 m0 m0 m0 m0 m0 m0 m0 m0 m0 m0 m0 m0 m0 m0 m0 m0 m0 m0 m0 m0 m0 m0 m0 m0 m0 m0 m0 m0 m0 m0 m0 m0 m0 m0 m0 m0 m0 m0 m0 m0 m0 m0 m0 m0 m0 m0 m0 m0 m0 m0 m0 m0 m0 m0 m0 m0 m0 m0 m0 m0 m0 m0 m0 m0 m0 m0 m0 m0 m0 m0 m0 m0 m0 m0 m0 m0 m0 m0 m0 m0 m0 m0 m0 m0 m0 m0 m0 m0 m0 m0 m0 m0 m0 m0 m0 m0 m0 m0 m0 m0 m0 m0 m0 m0 m0 m0 m0 m0 m0 m0 m0 m0 m0 m0 m0 m0 m0 m0 m0 m0 m0 m0 m0 m0 m0 {8 Ad Dd qh ;~ ;~ ;~ '~ H8 *f *+ z  {7 {7 {7 >e `) f# Ta m0 [e m0 m0 m0 m0 m0 m0 m0 m0 m0 m0 m0 m0 m0 m0 m0 m0 m0 m0 m0 m0 m0 m0 m0 m0 m0 m0 m0 m0 m0 m0 m0 m0 m0 m0 m0 m0 m0 m0 m0 m0 m0 m0 m0 m0 m0 m0 m0 U~ 3% {~ (b wa k) mb xa D9 [8 WA -F Xx ,L cC '> {> Q; L- 3w 5> [* 'L 9E kx )L !L ~L {L ]L ^L /L ^G (L _L :L <L Pi QG >k TF [L }L |L 1L 2L /L 3L 4L 5L !H CE +G (C Ed e_ d[ S< :< .K +K +K 6L #K #K #K #K #K #K #K #K #K 7L oK oK 8L 9L 0L aL bL bL bL cL oK oK oK oK oK oK dL 8I 8I 8I 8I 8I 8I 8I 8I 8I eL CF Ku Ku Ku Ku Ng Jl Jl sm $# $# $# $# $# $# ",
"w7 w7 w7 w7 w7 w7 w7 w7 w7 w7 z% uJ uJ uJ uJ uJ uJ uJ uJ uJ uJ uJ uJ uJ uJ uJ uJ uJ uJ uJ uJ uJ uJ uJ }f *L <K <K d: =J =J =J =J =J CJ 'I 'I 'I 'I 'I fL gL hL DJ {_ c_ d_ e_ f_ g_ B! u  v  `. ++ 0. 0. #+ -+ P+ Q+ :# ;@ z@ {# S# _$ _$ _$ _$ _$ C$ /% %% P, n% I% >& 1& ], }* cd !> -; {> R- ;L iL  = /, %B >L &E Dn =e cg d% v# X.  ! Hc _0 |% $0 m0 m0 m0 m0 m0 m0 m0 m0 m0 m0 m0 m0 m0 m0 m0 m0 m0 m0 m0 m0 m0 m0 m0 m0 m0 m0 m0 m0 m0 m0 m0 m0 m0 m0 m0 m0 m0 m0 m0 m0 m0 m0 [e ;e %a :$ #+ {7 {7 {7 {7 y  |b -d g% ;e {8 m0 m0 m0 m0 m0 m0 m0 m0 m0 m0 m0 m0 m0 m0 m0 m0 m0 m0 m0 m0 m0 m0 m0 m0 m0 m0 m0 m0 m0 m0 m0 m0 m0 m0 m0 m0 m0 m0 m0 m0 m0 m0 m0 m0 m0 m0 m0 m0 m0 m0 m0 m0 m0 m0 m0 m0 m0 m0 m0 m0 m0 m0 m0 m0 m0 m0 m0 m0 m0 m0 m0 m0 m0 m0 m0 m0 m0 m0 m0 m0 m0 m0 m0 m0 m0 m0 m0 m0 m0 m0 m0 m0 m0 m0 m0 m0 m0 m0 m0 m0 m0 m0 m0 m0 m0 m0 m0 m0 m0 m0 m0 m0 m0 m0 m0 m0 m0 m0 m0 m0 m0 m0 m0 m0 m0 m0 m0 m0 m0 m0 m0 m0 m0 m0 m0 m0 m0 m0 m0 m0 m0 m0 m0 m0 m0 m0 m0 m0 m0 m0 m0 m0 m0 m0 m0 m0 m0 m0 {8 yd 68 [~ ;~ ;~ ;~ '~ H8 *f *+ z  {7 {7 {7 >e `) f# Ta m0 [e m0 m0 m0 m0 m0 m0 m0 m0 m0 m0 m0 m0 m0 m0 m0 m0 m0 m0 m0 m0 m0 m0 m0 m0 m0 m0 m0 m0 m0 m0 m0 m0 m0 m0 m0 m0 m0 m0 m0 m0 m0 m0 m0 m0 m0 m0 m0 U~ .q {~ (b wa k) mb xa D9 <8 WA Jz Xx ,L cC J- Q- Q; L- &f 5> [* jL 'y wx )L kL ~L {L lL mL nL oL (L pL qL <L Pi Cy %x rL sL tL tG jG uL vL wL 9H xL !H CE +G (C Ed e_ d[ S< :< .K +K +K yL zL zL zL zL zL zL AL AL BL CL 9L +K +K +K DL EL FL GL GL GL HL IL oK oK oK YK rK 8I 8I 8I 8I 8I E1 eL Vf s3 JL !k s7 Ku Ku Ku KL Jl Jl '$ $# $# $# $# $# $# ",
"w7 w7 w7 w7 w7 w7 w7 w7 w7 >9 uJ uJ uJ uJ uJ uJ uJ uJ uJ uJ uJ uJ uJ uJ uJ uJ uJ uJ uJ uJ uJ uJ uJ uJ uJ Gu <K <K f: =J =J =J =J =J LL 'I 'I 'I 'I ML NL OL DJ DJ Q' c_ d_ e_ f_ g_ B! u  v  `. ++ 0. 0. #+ -+ P+ Q+ :# ;@ z@ {# S# _$ _$ _$ _$ _$ C$ /% (% |% o% J% >& 1& O& `g cd !> -; Q- 7; ;L F= .= PL QL 'C &E Dn =e cg d% v# X.  ! Hc 80 B; U~ m0 m0 m0 m0 m0 m0 m0 m0 m0 m0 m0 m0 m0 m0 m0 m0 m0 m0 m0 m0 m0 m0 m0 m0 m0 m0 m0 m0 m0 m0 m0 m0 m0 m0 m0 m0 m0 m0 m0 m0 m0 m0 [e ;e %a :$ #+ {7 {7 {7 {7 y  $+ A' g% ;e {8 m0 m0 m0 m0 m0 m0 m0 m0 m0 m0 m0 m0 m0 m0 m0 m0 m0 m0 m0 m0 m0 m0 m0 m0 m0 m0 m0 m0 m0 m0 m0 m0 m0 m0 m0 m0 m0 m0 m0 m0 m0 m0 m0 m0 m0 m0 m0 m0 m0 m0 m0 m0 m0 m0 m0 m0 m0 m0 m0 m0 m0 m0 m0 m0 m0 m0 m0 m0 m0 m0 m0 m0 m0 m0 m0 m0 m0 m0 m0 m0 m0 m0 m0 m0 m0 m0 m0 m0 m0 m0 m0 m0 m0 m0 m0 m0 m0 m0 m0 m0 m0 m0 m0 m0 m0 m0 m0 m0 m0 m0 m0 m0 m0 m0 m0 m0 m0 m0 m0 m0 m0 m0 m0 m0 m0 m0 m0 m0 m0 m0 m0 m0 m0 m0 m0 m0 m0 m0 m0 m0 m0 m0 m0 m0 m0 m0 m0 m0 m0 m0 m0 m0 m0 m0 m0 m0 m0 m0 {8 $0 |% 5{ :~ ;~ ;~ '~ H8 *f *+ z  {7 {7 {7 >e `) f# Ta m0 [e m0 m0 m0 m0 m0 m0 m0 m0 m0 m0 m0 m0 m0 m0 m0 m0 m0 m0 m0 m0 m0 m0 m0 m0 m0 m0 m0 m0 m0 m0 m0 m0 m0 m0 m0 m0 m0 m0 m0 m0 m0 m0 m0 m0 m0 m0 m0 }e RL a{ (b wa k) mb xa D9 _8  r Jz SL #= =c J- Q- R- L- TL )= B* jL Kj ZD UL 0J VL WL UG XL YL ZL `L  M LK 1z ^i QG }m .M +M @M #M XL $M YL %M &M *M =M -M +G (C Ed e_ d[ S< b_ ;M >M +K +K ,M 'M )M zL !M ~M {M +K +K +K +K +K +K +K ]M ^M ^M /M (M GL GL _M oK oK :M <M 8I 8I 8I 8I 7r E, 8f 8f 8f 8f 8f 8f 8f [M x2 Ku }M Jl 8n $# $# $# $# $# $# $# ",
"w7 w7 w7 w7 w7 w7 w7 w7 w7 tJ uJ uJ uJ uJ uJ uJ uJ uJ uJ uJ uJ uJ uJ uJ uJ uJ uJ ^K |M 1M 1M 2M 2M 1M |M 3M <K <K 1l =J =J =J =J =J 4M 'I 'I 'I 5M NL gL 6M DJ DJ Q' c_ d_ e_ f_ g_ B! u  v  `. ++ 0. 0. #+ -+ P+ Q+ :# ;@ z@ {# S# _$ _$ _$ _$ _$ C$ /% (% |% o% J% >& z, O& |* 7c 6; L- Q- S- ~; F= Gc (, QL 'C &E Dn =e cg d% v# X.  ! Hc _0 B; U~ m0 m0 m0 m0 m0 m0 m0 m0 m0 m0 m0 m0 m0 m0 m0 m0 m0 m0 m0 m0 m0 m0 m0 m0 m0 m0 m0 m0 m0 m0 m0 m0 m0 m0 m0 m0 m0 m0 m0 m0 m0 m0 [e ;e %a :$ #+ {7 {7 {7 {7 {7 %+ m' Jd ;e {8 m0 m0 m0 m0 m0 m0 m0 m0 m0 m0 m0 m0 m0 m0 m0 m0 m0 m0 m0 m0 m0 m0 m0 m0 m0 m0 m0 m0 m0 m0 m0 m0 m0 m0 m0 m0 m0 m0 m0 m0 m0 m0 m0 m0 m0 m0 m0 m0 m0 m0 m0 m0 m0 m0 m0 m0 m0 m0 m0 m0 m0 m0 m0 m0 m0 m0 m0 m0 m0 m0 m0 m0 m0 m0 m0 m0 m0 m0 m0 m0 m0 m0 m0 m0 m0 m0 m0 m0 m0 m0 m0 m0 m0 m0 m0 m0 m0 m0 m0 m0 m0 m0 m0 m0 m0 m0 m0 m0 m0 m0 m0 m0 m0 m0 m0 m0 m0 m0 m0 m0 m0 m0 m0 m0 m0 m0 m0 m0 m0 m0 m0 m0 m0 m0 m0 m0 m0 m0 m0 m0 m0 m0 m0 m0 m0 m0 m0 m0 m0 m0 m0 m0 m0 m0 m0 m0 m0 m0 m0 67 -e 4e k9 ;~ ;~ '~ H8 *f *+ z  {7 {7 {7 >e `) f# Ta m0 [e m0 m0 m0 m0 m0 m0 m0 m0 m0 m0 m0 m0 m0 m0 m0 m0 m0 m0 m0 m0 m0 m0 m0 m0 m0 m0 m0 m0 m0 m0 m0 m0 m0 m0 m0 m0 m0 m0 m0 m0 m0 m0 m0 m0 m0 m0 m0 m0 -G e{ lb wa k) mb xa D9 _8  r %A SL #= =c J- Q- R- x; TL )= C* jL yE bl {H &  7M 8M 9M 0M aM bM cM dM TE eM GC Cy sE fM pL PF gM hM iM jM kM lM mM nM oM +G (C Ed e_ d[ S< b_ pM qM rM sM +K +K +K +K +K +K +K +K +K +K +K +K +K +K tM uM vM wM xM (M GL GL oK :M GL yM 8I 8I 8I sp 8f 8f 8f 8f 8f 8f 8f 8f 8f 8f {! Ku zM Jl tK $# $# $# $# $# $# $# ",
"w7 w7 w7 w7 w7 w7 w7 w7 iv uJ uJ uJ uJ uJ uJ uJ uJ uJ uJ uJ uJ uJ uJ ^K S0 AM ,s 2M 2M 2M 2M 2M 2M 2M 2M BM <K <K &, =J =J =J =J =J CM 'I 'I DM gL NL ls DJ DJ DJ Q' c_ d_ e_ f_ g_ B! u  v  `. ++ 0. 0. #+ -+ P+ Q+ :# ;@ z@ {# S# _$ _$ _$ _$ _$ C$ /% (% |% o% h& >& |& E& EM [m H- L- $; FM ~; G= GM (, QL 'C 4w Dn =e cg d% v# X.  ! Hc @9 |% $0 m0 m0 m0 m0 m0 m0 m0 m0 m0 m0 m0 m0 m0 m0 m0 m0 m0 m0 m0 m0 m0 m0 m0 m0 m0 m0 m0 m0 m0 m0 m0 m0 m0 m0 m0 m0 m0 m0 m0 m0 m0 m0 [e ;e %a :$ #+ {7 {7 {7 {7 {7 %+ m' Jd ;e {8 m0 m0 m0 m0 m0 m0 m0 m0 m0 m0 m0 m0 m0 m0 m0 m0 m0 m0 m0 m0 m0 m0 m0 m0 m0 m0 m0 m0 m0 m0 m0 m0 m0 m0 m0 m0 m0 m0 m0 m0 m0 m0 m0 m0 m0 m0 m0 m0 m0 m0 m0 m0 m0 m0 m0 m0 m0 m0 m0 m0 m0 m0 m0 m0 m0 m0 m0 m0 m0 m0 m0 m0 m0 m0 m0 m0 m0 m0 m0 m0 m0 m0 m0 m0 m0 m0 m0 m0 m0 m0 m0 m0 m0 m0 m0 m0 m0 m0 m0 m0 m0 m0 m0 m0 m0 m0 m0 m0 m0 m0 m0 m0 m0 m0 m0 m0 m0 m0 m0 m0 m0 m0 m0 m0 m0 m0 m0 m0 m0 m0 m0 m0 m0 m0 m0 m0 m0 m0 m0 m0 m0 m0 m0 m0 m0 m0 m0 m0 m0 m0 m0 m0 m0 m0 m0 m0 m0 m0 m0 m0 U~ 2% 5{ ;~ ;~ '~ H8 *f *+ z  {7 {7 {7 >e `) f# Ta m0 [e m0 m0 m0 m0 m0 m0 m0 m0 m0 m0 m0 m0 m0 m0 m0 m0 m0 m0 m0 m0 m0 m0 m0 m0 m0 m0 m0 m0 m0 m0 m0 m0 m0 m0 m0 m0 m0 m0 m0 m0 m0 m0 m0 m0 m0 m0 m0 m0 Od e{ lb wa k) mb xa D9 _8  r *E SL [= HM J- R- S- x; 2e 8> C* jL hi IM %x 6J JM KM OJ LM MM NM OM PM }z rz Wj bl 4z sE QM RM MM SM TM UM VM )F !H 2z gi FB (C Ed e_ d[ S< q[ Q] WM XM YM qM ZM `M `M `M `M  N .N y9 +N @N @N @N @N y! #N $N wM wM %N GL GL &N GL *N 8I 8I 8I 8I =N 8f 8f 8f 8f 8f 8f 8f 8f 8f 8f 8f -N to Jl |< $# $# $# $# $# $# $# ",
"w7 w7 w7 w7 w7 w7 w7 w7 uJ uJ uJ uJ uJ uJ uJ uJ uJ uJ uJ uJ uJ uJ ,s 2M 2M 2M 2M 2M 2M ;N >N 2M 2M 2M 2M kh <K 1K ,N =J =J =J =J =J '6 'I 'I Ss 'N j@ DJ DJ DJ DJ Q' c_ d_ e_ f_ g_ B! u  v  `. ++ 0. 0. #+ -+ P+ Q+ :# ;@ z@ {# S# _$ _$ _$ _$ _$ C$ /% (% |% o% h& ,& |& F& EM [m H- =; R- U- )N O> @= J* !N 'C 4w Dn =e cg d% Zo X.  ! Xi Q9 i% m0 m0 m0 m0 m0 m0 m0 m0 m0 m0 m0 m0 m0 m0 m0 m0 m0 m0 m0 m0 m0 m0 m0 m0 m0 m0 m0 m0 m0 m0 m0 m0 m0 m0 m0 m0 m0 m0 m0 m0 m0 m0 m0 [e ;e %a :$ #+ {7 {7 {7 {7 {7 %+ :9 (0 @t {8 m0 m0 m0 m0 m0 m0 m0 m0 m0 m0 m0 m0 m0 m0 m0 m0 m0 m0 m0 m0 m0 m0 m0 m0 m0 m0 m0 m0 m0 m0 m0 m0 m0 m0 m0 m0 m0 m0 m0 m0 m0 m0 m0 m0 m0 m0 m0 m0 m0 m0 m0 m0 m0 m0 m0 m0 m0 m0 m0 m0 m0 m0 m0 m0 m0 m0 m0 m0 m0 m0 m0 m0 m0 m0 m0 m0 m0 m0 m0 m0 m0 m0 m0 m0 m0 m0 m0 m0 m0 m0 m0 m0 m0 m0 m0 m0 m0 m0 m0 m0 m0 m0 m0 m0 m0 m0 m0 m0 m0 m0 m0 m0 m0 m0 m0 m0 m0 m0 m0 m0 m0 m0 m0 m0 m0 m0 m0 m0 m0 m0 m0 m0 m0 m0 m0 m0 m0 m0 m0 m0 m0 m0 m0 m0 m0 m0 m0 m0 m0 m0 m0 m0 m0 m0 m0 m0 m0 m0 m0 m0 {8 5e  q :~ ;~ '~ H8 *f *+ z  {7 {7 {7 >e `) f# Ta m0 [e m0 m0 m0 m0 m0 m0 m0 m0 m0 m0 m0 m0 m0 m0 m0 m0 m0 m0 m0 m0 m0 m0 m0 m0 m0 m0 m0 m0 m0 m0 m0 m0 m0 m0 m0 m0 m0 m0 m0 m0 m0 m0 m0 m0 m0 m0 m0 m0 Od C' lb wa k) mb xa D9 _8  r *E ~N [= ZC -; R- 8; M- {N != }* jL 1x ~H QG KE ]N ^N /N (N _N :N Yh  K .i Wj Wj _i ^y <N [N }N JM |N 1N 2N :N 3N  z Hx _i FB (C Ed e_ d[ S< {_ 4N 5N 5N 5N 5N 5N 5N 5N 5N 5N 5N 6N 7N #N #N #N #N #N #N #N $N wM wM wM 8N GL GL GL 9N 8I 8I 8I 8I =N 8f 8f 8f 8f 8f 8f 8f 8f 8f 8f 8f ;9 0N aN $# $# $# $# $# $# $# $# ",
"w7 w7 w7 w7 w7 w7 w7 z% uJ uJ uJ uJ uJ uJ uJ uJ uJ uJ uJ uJ uJ ,s 2M 2M 2M 2M bN c= cN qk @f dN dN dN dN eN <K fN gN hN =J =J =J =J '6 'I iN jN kN DJ DJ DJ DJ DJ Q' c_ d_ e_ f_ g_ B! u  v  `. ++ 0. 0. #+ -+ P+ Q+ :# ;@ z@ {# S# _$ _$ _$ _$ _$ C$ /% (% |% o% h& ,& |& N& 2* [m I- x; S- w; A- |- #= 4= lN mN 4w Dn =e cg [g Zo X.  ! (k E! 5e m0 m0 m0 m0 m0 m0 m0 m0 m0 m0 m0 m0 m0 m0 m0 m0 m0 m0 m0 m0 m0 m0 m0 m0 m0 m0 m0 m0 m0 m0 m0 m0 m0 m0 m0 m0 m0 m0 m0 m0 m0 m0 m0 [e ;e %a :$ #+ {7 {7 {7 {7 {7 %+ F$ ^a [e {8 m0 m0 m0 m0 m0 m0 m0 m0 m0 m0 m0 m0 m0 m0 m0 m0 m0 m0 m0 m0 m0 m0 m0 m0 m0 m0 m0 m0 m0 m0 m0 m0 m0 m0 m0 m0 m0 m0 m0 m0 m0 m0 m0 m0 m0 m0 m0 m0 m0 m0 m0 m0 m0 m0 m0 m0 m0 m0 m0 m0 m0 m0 m0 m0 m0 m0 m0 m0 m0 m0 m0 m0 m0 m0 m0 m0 m0 m0 m0 m0 m0 m0 m0 m0 m0 m0 m0 m0 m0 m0 m0 m0 m0 m0 m0 m0 m0 m0 m0 m0 m0 m0 m0 m0 m0 m0 m0 m0 m0 m0 m0 m0 m0 m0 m0 m0 m0 m0 m0 m0 m0 m0 m0 m0 m0 m0 m0 m0 m0 m0 m0 m0 m0 m0 m0 m0 m0 m0 m0 m0 m0 m0 m0 m0 m0 m0 m0 m0 m0 m0 m0 m0 m0 m0 m0 m0 m0 m0 m0 m0 {8 Bd Ae :~ ;~ '~ H8 *f *+ z  {7 {7 {7 >e `) f# Ta m0 [e m0 m0 m0 m0 m0 m0 m0 m0 m0 m0 m0 m0 m0 m0 m0 m0 m0 m0 m0 m0 m0 m0 m0 m0 m0 m0 m0 m0 m0 m0 m0 m0 m0 m0 m0 m0 m0 m0 m0 m0 m0 m0 m0 m0 m0 m0 m0 m0 Od C' lb wa k) mb xa D9 78  r ^A 0F [= ZC L- S- U- N- Fc ~= }* jL li li bl KE [N @l Ez <I nN !H :z =I ki Wj Wj oN Pi sE KE ~m gi pN WE hi qN  z :I _i _i FB (C Ed e_ d[ S< {_ 4N 5N 5N 5N 5N 5N 5N 5N 5N 5N 5N 5N 5N rN #N #N #N #N #N #N $N wM wM wM wM (M GL sN 8I 8I 8I 8I 8I =N 8f 8f 8f 8f 8f 8f 8f 8f 8f 8f 8f tN 0N uN $# $# $# $# $# $# $# $# ",
"w7 w7 w7 w7 w7 w7 T! uJ uJ uJ uJ 7n 1M 1M 1M 2M ,s 1M 7n S0 ,s 2M 2M 2M 2M vN cN *} wN dN dN dN dN dN dN xN <K yN gN zN =J =J =J =J '6 'I AN jN BN DJ DJ DJ DJ DJ {_ c_ d_ e_ f_ g_ B! u  v  `. ++ 0. 0. #+ -+ P+ Q+ :# ;@ z@ {# S# _$ _$ _$ _$ _$ C$ /% (% |% o% h& r, |& N& 2* [m I- M- FM v;  > |- CN 4= lN mN 4w hx 58 cg d% mb X.  ! rf H! Od m0 m0 m0 m0 m0 m0 m0 m0 m0 m0 m0 m0 m0 m0 m0 m0 m0 m0 m0 m0 m0 m0 m0 m0 m0 m0 m0 m0 m0 m0 m0 m0 m0 m0 m0 m0 m0 m0 m0 m0 m0 m0 m0 [e ;e %a :$ #+ {7 {7 {7 {7 {7 -+ F$ We [e {8 m0 m0 m0 m0 m0 m0 m0 m0 m0 m0 m0 m0 m0 m0 m0 m0 m0 m0 m0 m0 m0 m0 m0 m0 m0 m0 m0 m0 m0 m0 m0 m0 m0 m0 m0 m0 m0 m0 m0 m0 m0 m0 m0 m0 m0 m0 m0 m0 m0 m0 m0 m0 m0 m0 m0 m0 m0 m0 m0 m0 m0 m0 m0 m0 m0 m0 m0 m0 m0 m0 m0 m0 m0 m0 m0 m0 m0 m0 m0 m0 m0 m0 m0 m0 m0 m0 m0 m0 m0 m0 m0 m0 m0 m0 m0 m0 m0 m0 m0 m0 m0 m0 m0 m0 m0 m0 m0 m0 m0 m0 m0 m0 m0 m0 m0 m0 m0 m0 m0 m0 m0 m0 m0 m0 m0 m0 m0 m0 m0 m0 m0 m0 m0 m0 m0 m0 m0 m0 m0 m0 m0 m0 m0 m0 m0 m0 m0 m0 m0 m0 m0 m0 m0 m0 m0 m0 m0 m0 m0 m0 {8 Bd Ae :~ ,~ '~ H8 *f *+ z  {7 {7 {7 >e `) f# Ta m0 [e m0 m0 m0 m0 m0 m0 m0 m0 m0 m0 m0 m0 m0 m0 m0 m0 m0 m0 m0 m0 m0 m0 m0 m0 m0 m0 m0 m0 m0 m0 m0 m0 m0 m0 m0 m0 m0 m0 m0 m0 m0 m0 m0 m0 m0 m0 m0 m0 Od 0{ Py wa k) mb xa D9 78  r /E i_ N; ZC L- S- w; N- Fc 0> }* jL li li Pi sw Rl cl Di hE kB UE Gx Dz _i Wj Wj Wj Wj Pi Aj DN >E iE mE Wh Zh EN _i Wj _i FB (C Ed e_ d[ S< {_ 4N 5N 5N 5N 5N 5N 5N 5N 5N 5N 5N 5N 5N 5N FN #N #N #N #N #N $N wM wM wM wM GN (M HN 8I 8I 8I 8I 8I =N 8f 8f 8f 8f 8f 8f 8f 8f 8f 8f 8f 0N to +n $# $# $# $# $# $# $# $# ",
"w7 w7 w7 w7 w7 w7 tJ uJ uJ uJ ,s 2M 2M 2M 2M 2M 2M 2M 2M 2M 2M 2M 2M 2M 2M cN cN dN dN dN dN dN dN dN dN IN <K JN gN N8 =J =J =J =J KN 'I Ss jN LN DJ DJ DJ DJ DJ {_ c_ d_ e_ f_ g_ B! u  v  `. ++ 0. 0. #+ -+ P+ Q+ :# ;@ z@ {# S# _$ _$ _$ _$ _$ C$ /% (% |% o% h& r, |& G& 3* &- I- *; U- v; C- MN NN L* M& mN 4w hx 58 cg d% mb X.  ! `p X, U~ m0 m0 m0 m0 m0 m0 m0 m0 m0 m0 m0 m0 m0 m0 m0 m0 m0 m0 m0 m0 m0 m0 m0 m0 m0 m0 m0 m0 m0 m0 m0 m0 m0 m0 m0 m0 m0 m0 m0 m0 m0 m0 m0 [e ;e %a :$ #+ {7 {7 {7 {7 {7 65 Y$ 5e [e 6e m0 m0 m0 m0 m0 m0 m0 m0 m0 m0 m0 m0 m0 m0 m0 m0 m0 m0 m0 m0 m0 m0 m0 m0 m0 m0 m0 m0 m0 m0 m0 m0 m0 m0 m0 m0 m0 m0 m0 m0 m0 m0 m0 m0 m0 m0 m0 m0 m0 m0 m0 m0 m0 m0 m0 m0 m0 m0 m0 m0 m0 m0 m0 m0 m0 m0 m0 m0 m0 m0 m0 m0 m0 m0 m0 m0 m0 m0 m0 m0 m0 m0 m0 m0 m0 m0 m0 m0 m0 m0 m0 m0 m0 m0 m0 m0 m0 m0 m0 m0 m0 m0 m0 m0 m0 m0 m0 m0 m0 m0 m0 m0 m0 m0 m0 m0 m0 m0 m0 m0 m0 m0 m0 m0 m0 m0 m0 m0 m0 m0 m0 m0 m0 m0 m0 m0 m0 m0 m0 m0 m0 m0 m0 m0 m0 m0 m0 m0 m0 m0 m0 m0 m0 m0 m0 m0 m0 m0 m0 m0 ;F yd 4e )~ ;~ '~ H8 *f *+ z  {7 {7 {7 >e `) f# Ta m0 [e m0 m0 m0 m0 m0 m0 m0 m0 m0 m0 m0 m0 m0 m0 m0 m0 m0 m0 m0 m0 m0 m0 m0 m0 m0 m0 m0 m0 m0 m0 m0 m0 m0 m0 m0 m0 m0 m0 m0 m0 m0 m0 m0 m0 m0 m0 m0 m0 Ad 68 Py wa k) mb xa D9 _8 -z /E 0F N; CD L- U- v; ~> 8c ]= EF ON PN li ^i yE bl KE eH QN @y Fx ^i Wj Wj Wj Wj Wj Wj Wj _i bl 4E 4H AE Dz (l _i Wj Wj _i FB (C Ed e_ d[ S< {_ 4N 5N 5N 5N 5N 5N 5N 5N 5N 5N 5N 5N 5N 5N 5N RN #N #N #N #N $N wM wM wM wM wM wM yM 8I 8I 8I 8I 8I >i 8f 8f 8f 8f 8f 8f 8f 8f 8f 8f aN 0N 9& $# $# $# $# $# $# $# $# $# ",
"w7 w7 w7 w7 w7 Dr uJ uJ uJ 1M 2M 2M 2M 2M 2M 2M 2M 2M 2M 2M 2M 2M 2M 2M 2M cN cN dN dN dN dN dN dN dN dN dN SN gN gN v+ =J =J =J =J =J 'I jN jN LN 4K DJ DJ DJ DJ Q' c_ d_ e_ f_ g_ B! u  v  `. ++ 0. 0. #+ -+ P+ Q+ :# ;@ z@ {# S# _$ _$ _$ _$ _$ C$ /% (% |% o% h& r, R& G& 4*  l P; N- w; #; 3; J= %= L* M& AH 4w hx 58 cg d% mb X.  ! `p s' m0 m0 m0 m0 m0 m0 m0 m0 m0 m0 m0 m0 m0 m0 m0 m0 m0 m0 m0 m0 m0 m0 m0 m0 m0 m0 m0 m0 m0 m0 m0 m0 m0 m0 m0 m0 m0 m0 m0 m0 m0 m0 m0 m0 [e ;e %a :$ #+ {7 {7 {7 {7 y  %+ /% Bd [e 6e m0 m0 m0 m0 m0 m0 m0 m0 m0 m0 m0 m0 m0 m0 m0 m0 m0 m0 m0 m0 m0 m0 m0 m0 m0 m0 m0 m0 m0 m0 m0 m0 m0 m0 m0 m0 m0 m0 m0 m0 m0 m0 m0 m0 m0 m0 m0 m0 m0 m0 m0 m0 m0 m0 m0 m0 m0 m0 m0 m0 m0 m0 m0 m0 m0 m0 m0 m0 m0 m0 m0 m0 m0 m0 m0 m0 m0 m0 m0 m0 m0 m0 m0 m0 m0 m0 m0 m0 m0 m0 m0 m0 m0 m0 m0 m0 m0 m0 m0 m0 m0 m0 m0 m0 m0 m0 m0 m0 m0 m0 m0 m0 m0 m0 m0 m0 m0 m0 m0 m0 m0 m0 m0 m0 m0 m0 m0 m0 m0 m0 m0 m0 m0 m0 m0 m0 m0 m0 m0 m0 m0 m0 m0 m0 m0 m0 m0 m0 m0 m0 m0 m0 m0 m0 m0 m0 m0 m0 m0 m0 {8 U~ B; qh ;~ '~ I8 *f *+ z  {7 {7 {7 >e `) f# Ta m0 [e m0 m0 m0 m0 m0 m0 m0 m0 m0 m0 m0 m0 m0 m0 m0 m0 m0 m0 m0 m0 m0 m0 m0 m0 m0 m0 m0 m0 m0 m0 m0 m0 m0 m0 m0 m0 m0 m0 m0 m0 m0 m0 m0 m0 m0 m0 m0 m0 Ad &h +) wa k) mb xa D9 _8 -z ^A S, TN ID M- U- v; &; UN ^= 1* Bi 1x li ^i Kj QG QG cJ VN WN EB ]J EN _i Wj Wj Wj Wj /i Kj cl +x 7E XN YN ZN _i Wj Wj _i FB (C Ed e_ d[ S< {_ 4N 5N 5N 5N 5N 5N 5N 5N 5N 5N 5N 5N 5N 5N 5N 5N (' #N #N #N `N wM wM wM wM wM  O 8I 8I 8I 8I 8I 8I 8f 8f 8f 8f 8f 8f 8f 8f 8f Y  Jg 1i 0N .O $# $# $# $# $# $# $# $# $# ",
"w7 w7 >9 T! T! uJ uJ uJ ^K 2M 2M 2M 2M 2M 2M 2M 2M 2M 2M 2M 2M 2M 2M 2M 2M cN cN qk dN @f @f @f dN dN dN dN +O @O #O $O =J =J =J =J =J %O jN jN &O 5K DJ DJ DJ DJ Q' c_ d_ e_ f_ g_ B! u  v  `. ++ 0. 0. #+ -+ P+ Q+ :# ;@ z@ {# S# _$ _$ _$ _$ _$ C$ /% (% |% o% K% '& R& G& 4*  l '> O- R; 9; *O =O %= 3= -O AH pC hx 58 cg d% mb X.  ! X' *% m0 m0 m0 m0 m0 m0 m0 m0 m0 m0 m0 m0 m0 m0 m0 m0 m0 m0 m0 m0 m0 m0 m0 m0 m0 m0 m0 m0 m0 m0 m0 m0 m0 m0 m0 m0 m0 m0 m0 m0 m0 m0 m0 m0 [e ;e %a :$ #+ {7 {7 {7 y  y  %+ Z$ Bd [e m0 m0 m0 m0 m0 m0 m0 m0 m0 m0 m0 m0 m0 m0 m0 m0 m0 m0 m0 m0 m0 m0 m0 m0 m0 m0 m0 m0 m0 m0 m0 m0 m0 m0 m0 m0 m0 m0 m0 m0 m0 m0 m0 m0 m0 m0 m0 m0 m0 m0 m0 m0 m0 m0 m0 m0 m0 m0 m0 m0 m0 m0 m0 m0 m0 m0 m0 m0 m0 m0 m0 m0 m0 m0 m0 m0 m0 m0 m0 m0 m0 m0 m0 m0 m0 m0 m0 m0 m0 m0 m0 m0 m0 m0 m0 m0 m0 m0 m0 m0 m0 m0 m0 m0 m0 m0 m0 m0 m0 m0 m0 m0 m0 m0 m0 m0 m0 m0 m0 m0 m0 m0 m0 m0 m0 m0 m0 m0 m0 m0 m0 m0 m0 m0 m0 m0 m0 m0 m0 m0 m0 m0 m0 m0 m0 m0 m0 m0 m0 m0 m0 m0 m0 m0 m0 m0 m0 m0 m0 m0 m0 67 m0 3% b{ '~ ;~ I8 *f *+ z  {7 {7 {7 >e `) f# Ta m0 [e m0 m0 m0 m0 m0 m0 m0 m0 m0 m0 m0 m0 m0 m0 m0 m0 m0 m0 m0 m0 m0 m0 m0 m0 m0 m0 m0 m0 m0 m0 m0 m0 m0 m0 m0 m0 m0 m0 m0 m0 m0 m0 m0 m0 m0 m0 m0 m0 Ad B; bz wa k) mb xa D9 _8 Kz cA 0G ;O >O ,O R; #; &; qA /= 1* Bi 1x PN 7j QG TJ ^y uE 'O )O !O PM kB Ly _i Wj Wj Pi ry QN 'y 1x nN ~O {O ]O Ly Wj Wj _i FB (C Ed e_ d[ S< {_ 4N 5N 5N 5N 5N 5N 5N 5N 5N 5N 5N 5N 5N 5N 5N 5N $3 #N #N #N ^O wM wM wM wM wM /O 8I 8I 8I 8I 8I 8I 8f 8f 8f 8f 8f 8f 8f 8f 8f 1l 1i (O Kl ng $# $# $# $# $# $# $# $# $# ",
"uJ uJ uJ uJ uJ uJ uJ uJ 1M 2M 2M 2M 2M 2M 2M 2M 2M 2M 2M 2M 2M 2M 2M 2M 2M cN cN cN cN cN cN cN cN _O dN dN dN :O <O [O hN =J =J =J =J }O jN jN |O |O 1O DJ DJ DJ Q' c_ d_ e_ f_ g_ B! u  v  `. ++ 0. 0. #+ -+ P+ Q+ :# ;@ z@ {# S# _$ _$ _$ _$ _$ C$ /% (% |% p% K% '& R& G& 2O  l '> ~> v; Y- 3O 4O 5O M* u* 6O pC hx 58 cg d% mb X.  ! `d =% m0 m0 m0 m0 m0 m0 m0 m0 m0 m0 m0 m0 m0 m0 m0 m0 m0 m0 m0 m0 m0 m0 m0 m0 m0 m0 m0 m0 m0 m0 m0 m0 m0 m0 m0 m0 m0 m0 m0 m0 m0 m0 m0 m0 [e ;e %a :$ #+ {7 {7 {7 y  y  %+ -% 7d [e m0 m0 m0 m0 m0 m0 m0 m0 m0 m0 m0 m0 m0 m0 m0 m0 m0 m0 m0 m0 m0 m0 m0 m0 m0 m0 m0 m0 m0 m0 m0 m0 m0 m0 m0 m0 m0 m0 m0 m0 m0 m0 m0 m0 m0 m0 m0 m0 m0 m0 m0 m0 m0 m0 m0 m0 m0 m0 m0 m0 m0 m0 m0 m0 m0 m0 m0 m0 m0 m0 m0 m0 m0 m0 m0 m0 m0 m0 m0 m0 m0 m0 m0 m0 m0 m0 m0 m0 m0 m0 m0 m0 m0 m0 m0 m0 m0 m0 m0 m0 m0 m0 m0 m0 m0 m0 m0 m0 m0 m0 m0 m0 m0 m0 m0 m0 m0 m0 m0 m0 m0 m0 m0 m0 m0 m0 m0 m0 m0 m0 m0 m0 m0 m0 m0 m0 m0 m0 m0 m0 m0 m0 m0 m0 m0 m0 m0 m0 m0 m0 m0 m0 m0 m0 m0 m0 m0 m0 m0 m0 m0 m0 m0 -e Ae :~ ;~ I8 *f *+ z  {7 {7 {7 >e `) f# Ta m0 [e m0 m0 m0 m0 m0 m0 m0 m0 m0 m0 m0 m0 m0 m0 m0 m0 m0 m0 m0 m0 m0 m0 m0 m0 m0 m0 m0 m0 m0 m0 m0 m0 m0 m0 m0 m0 m0 m0 m0 m0 m0 m0 m0 m0 m0 m0 m0 m0 U~ |% bz wa k) mb xa D9 _8 Kz cA 0G ;O ID M- v; #; 7O qA /= 2* Bi 1x PN .z <F ry 8O 9O 0O aO bO cO dO xE Ly Wj ^i }m eO 8E pN fO gO hO 5F TH TH :I _i _i FB (C Ed e_ d[ S< {_ 4N 5N 5N 5N 5N 5N 5N 5N 5N 5N 5N 5N 5N 5N 5N 5N 7N #N #N #N iO jO wM wM wM wM kO 8I 8I 8I 8I 8I hI 8f 8f 8f 8f 8f 8f 8f 8f lO 1i 1i 2l n9 ng Sg $# $# $# $# $# $# $# $# ",
"uJ uJ uJ uJ uJ uJ uJ S0 2M 2M 2M 2M 2M 2M 2M 2M 2M 2M 2M 2M 2M 2M 2M 2M 2M cN cN cN cN cN cN cN cN cN mO dN dN nO <O <O oO =J =J =J =J }O jN jN |O |O 4K DJ DJ DJ Q' c_ d_ e_ f_ g_ B! u  v  `. ++ 0. 0. #+ -+ P+ Q+ :# ;@ z@ {# S# _$ _$ _$ _$ _$ C$ /% (% |% p% K% '& R& G& 6* 2h J- ~> pO Z- z; qO rO M* u* AH pC hx 58 cg d% mb T~  ! Ed :% m0 m0 m0 m0 m0 m0 m0 m0 m0 m0 m0 m0 m0 m0 m0 m0 m0 m0 m0 m0 m0 m0 m0 m0 m0 m0 m0 m0 m0 m0 m0 m0 m0 m0 m0 m0 m0 m0 m0 m0 m0 m0 m0 m0 [e ;e %a :$ #+ {7 {7 {7 y  y  v0 ka 7d xd m0 m0 m0 m0 m0 m0 m0 m0 m0 m0 m0 m0 m0 m0 m0 m0 m0 m0 m0 m0 m0 m0 m0 m0 m0 m0 m0 m0 m0 m0 m0 m0 m0 m0 m0 m0 m0 m0 m0 m0 m0 m0 m0 m0 m0 m0 m0 m0 m0 m0 m0 m0 m0 m0 m0 m0 m0 m0 m0 m0 m0 m0 m0 m0 m0 m0 m0 m0 m0 m0 m0 m0 m0 m0 m0 m0 m0 m0 m0 m0 m0 m0 m0 m0 m0 m0 m0 m0 m0 m0 m0 m0 m0 m0 m0 m0 m0 m0 m0 m0 m0 m0 m0 m0 m0 m0 m0 m0 m0 m0 m0 m0 m0 m0 m0 m0 m0 m0 m0 m0 m0 m0 m0 m0 m0 m0 m0 m0 m0 m0 m0 m0 m0 m0 m0 m0 m0 m0 m0 m0 m0 m0 m0 m0 m0 m0 m0 m0 m0 m0 m0 m0 m0 m0 m0 m0 m0 m0 m0 m0 m0 m0 {8 ({ w' l~ ;~ I8 *f *+ z  {7 {7 {7 >e `) f# Ta m0 [e m0 m0 m0 m0 m0 m0 m0 m0 m0 m0 m0 m0 m0 m0 m0 m0 m0 m0 m0 m0 m0 m0 m0 m0 m0 m0 m0 m0 m0 m0 m0 m0 m0 m0 m0 m0 m0 m0 m0 m0 m0 m0 m0 m0 m0 m0 m0 m0 $0 1% bz wa k) mb xa D9 _8 Kz @I BG ;O SD *; W- Y- Q- qA b> 3* *B ii sO Fx 4z tO uO vO wO xO yO lM zO _z UE AO Aj My [N BO CO DO 0H EO FO GO HO TH Ly _i FB (C Ed e_ d[ S< {_ 4N 5N 5N 5N 5N 5N 5N 5N 5N 5N 5N 5N 5N 5N 5N 5N #N #N #N #N iO IO wM wM wM wM JO 8I 8I 8I 8I 8I -g 8f 8f 8f 8f 8f 8f 8f Y  _j 1i 1i KO $| ng {! $# $# $# $# $# $# $# $# ",
"uJ uJ uJ uJ uJ uJ uJ 2M 2M 2M 2M 2M 2M 2M 2M 2M 2M 2M 2M 2M 2M 2M 2M 2M 2M LO cN cN cN cN cN cN cN cN MO dN dN Oh :O <O =J =J =J =J =J }O jN jN NO |O |O DJ DJ DJ Q' c_ d_ e_ f_ g_ B! u  v  `. ++ 0. 0. #+ -+ P+ Q+ :# ;@ z@ {# S# _$ _$ _$ _$ _$ C$ /% (% |% p% K% '& R& %B 6* 2h J- &; 9; `- >; L= *= 2= v* AH pC hx 58 cg d% mb T~  ! <g /~ m0 m0 m0 m0 m0 m0 m0 m0 m0 m0 m0 m0 m0 m0 m0 m0 m0 m0 m0 m0 m0 m0 m0 m0 m0 m0 m0 m0 m0 m0 m0 m0 m0 m0 m0 m0 m0 m0 m0 m0 m0 m0 m0 m0 [e ;e %a :$ #+ {7 {7 {7 y  y  jb ka ({ zd m0 m0 m0 m0 m0 m0 m0 m0 m0 m0 m0 m0 m0 m0 m0 m0 m0 m0 m0 m0 m0 m0 m0 m0 m0 m0 m0 m0 m0 m0 m0 m0 m0 m0 m0 m0 m0 m0 m0 m0 m0 m0 m0 m0 m0 m0 m0 m0 m0 m0 m0 m0 m0 m0 m0 m0 m0 m0 m0 m0 m0 m0 m0 m0 m0 m0 m0 m0 m0 m0 m0 m0 m0 m0 m0 m0 m0 m0 m0 m0 m0 m0 m0 m0 m0 m0 m0 m0 m0 m0 m0 m0 m0 m0 m0 m0 m0 m0 m0 m0 m0 m0 m0 m0 m0 m0 m0 m0 m0 m0 m0 m0 m0 m0 m0 m0 m0 m0 m0 m0 m0 m0 m0 m0 m0 m0 m0 m0 m0 m0 m0 m0 m0 m0 m0 m0 m0 m0 m0 m0 m0 m0 m0 m0 m0 m0 m0 m0 m0 m0 m0 m0 m0 m0 m0 m0 m0 m0 m0 m0 m0 m0 {8 of g% d{ :~ I8 *f *+ z  {7 {7 {7 >e `) f# Ta m0 [e m0 m0 m0 m0 m0 m0 m0 m0 m0 m0 m0 m0 m0 m0 m0 m0 m0 m0 m0 m0 m0 m0 m0 m0 m0 m0 m0 m0 m0 m0 m0 m0 m0 m0 m0 m0 m0 m0 m0 m0 m0 m0 m0 m0 m0 m0 m0 m0 m0 (0 OO wa k) mb xa D9 (8 Kz @I BG ;O SD *; #; PO Q- xB c> 3* QO ii IM <F RO SO TO UO VO WO XO YO ZO `O 1z ZN 4E %x fM ZO  P .P +P @P #P $P 5F pG UE ^i FB (C Ed e_ d[ S< {_ 4N 5N 5N 5N 5N 5N 5N 5N 5N 5N 5N 5N 5N 5N 5N RN #N #N #N %P iO &P wM wM wM wM JO 8I 8I 8I 8I 8I [q 8f 8f 8f 8f 8f 8f 8f /J 1i 1i *P 4l ng ng ng g0 $# $# $# $# $# $# $# ",
"uJ uJ uJ uJ uJ uJ 1M 2M 2M 2M 2M 2M 2M 2M 2M 2M 2M 2M 2M 2M 2M 2M 2M 2M 2M LO cN cN cN cN cN cN cN cN qk dN dN dN dN =P =J =J =J =J =J }O jN jN LN |O |O 4K DJ DJ Q' c_ d_ e_ f_ g_ B! u  v  `. ++ 0. 0. #+ -+ P+ Q+ :# ;@ z@ {# S# _$ _$ _$ _$ _$ C$ /% (% |% p% K% '& R& I& 6* -- J- &; 9; S; G- L= *= 2= v*  D pC -P 58 Yg d% mb T~  ! <g 1~ m0 m0 m0 m0 m0 m0 m0 m0 m0 m0 m0 m0 m0 m0 m0 m0 m0 m0 m0 m0 m0 m0 m0 m0 m0 m0 m0 m0 m0 m0 m0 m0 m0 m0 m0 m0 m0 m0 m0 m0 m0 m0 m0 m0 [e ;e %a :$ #+ {7 {7 {7 y  y  jb La ({ zd m0 m0 m0 m0 m0 m0 m0 m0 m0 m0 m0 m0 m0 m0 m0 m0 m0 m0 m0 m0 m0 m0 m0 m0 m0 m0 m0 m0 m0 m0 m0 m0 m0 m0 m0 m0 m0 m0 m0 m0 m0 m0 m0 m0 m0 m0 m0 m0 m0 m0 m0 m0 m0 m0 m0 m0 m0 m0 m0 m0 m0 m0 m0 m0 m0 m0 m0 m0 m0 m0 m0 m0 m0 m0 m0 m0 m0 m0 m0 m0 m0 m0 m0 m0 m0 m0 m0 m0 m0 m0 m0 m0 m0 m0 m0 m0 m0 m0 m0 m0 m0 m0 m0 m0 m0 m0 m0 m0 m0 m0 m0 m0 m0 m0 m0 m0 m0 m0 m0 m0 m0 m0 m0 m0 m0 m0 m0 m0 m0 m0 m0 m0 m0 m0 m0 m0 m0 m0 m0 m0 m0 m0 m0 m0 m0 m0 m0 m0 m0 m0 m0 m0 m0 m0 m0 m0 m0 m0 m0 m0 m0 m0 {8 $0 3% a{ :~ I8 *f *+ z  {7 {7 {7 >e `) f# Ta m0 [e m0 m0 m0 m0 m0 m0 m0 m0 m0 m0 m0 m0 m0 m0 m0 m0 m0 m0 m0 m0 m0 m0 m0 m0 m0 m0 m0 m0 m0 m0 m0 m0 m0 m0 m0 m0 m0 m0 m0 m0 m0 m0 m0 m0 m0 m0 m0 m0 m0 5e ;P .{ k) mb xa D9 _8 Kz @I yH ym ]E N- 9; Z- Q; xB xx 3* QO ki >P ,P 'P )P !P ~P {P HK rF ]P ^P /P ;B iE sE lC [F (P /H _P :P RK <P [P }P |P UE ^i FB (C Ed e_ d[ S< {_ 4N 5N 5N 5N 5N 5N 5N 5N 5N 5N 5N 5N 5N 5N 5N rN #N #N #N %P iO iO wM wM wM wM 1P 8I 8I 8I 8I 8I 2P 8f 8f 8f 8f 8f 8f 8f 3P 1i 1i to Jl ng ng ng ng r} n. Y  Y  Y  =} r} ",
"2M ,s 7n ^K |M ,s 2M 2M 2M 2M 2M 2M 2M 2M 2M 2M 2M 2M 2M 2M 2M 2M 2M 2M 2M 4P cN cN cN cN cN cN cN cN @L dN dN dN vN =J =J =J =J =J =J iN jN jN LN |O |O |O 1O DJ Q' c_ d_ e_ f_ g_ B! u  v  `. ++ 0. 0. #+ -+ P+ Q+ :# ;@ z@ {# S# _$ _$ _$ _$ _$ C$ /% (% |% p% K% '& j* I& 6* -- J- 7O Y- .; HE wj == N* v*  D 5P -P 68 Yg 2j mb T~  ! <g 1~ m0 m0 m0 m0 m0 m0 m0 m0 m0 m0 m0 m0 m0 m0 m0 m0 6e 6e m0 m0 m0 m0 m0 m0 m0 m0 m0 m0 m0 m0 m0 m0 m0 m0 m0 m0 m0 m0 m0 m0 m0 m0 m0 m0 [e ;e %a :$ #+ {7 {7 {7 y  y  jb La ({ zd m0 m0 m0 m0 m0 m0 m0 m0 m0 m0 m0 m0 m0 m0 m0 m0 m0 m0 m0 m0 m0 m0 m0 m0 m0 m0 m0 m0 m0 m0 m0 m0 m0 m0 m0 m0 m0 m0 m0 m0 m0 m0 m0 m0 m0 m0 m0 m0 m0 m0 m0 m0 m0 m0 m0 m0 m0 m0 m0 m0 m0 m0 m0 m0 m0 m0 m0 m0 m0 m0 m0 m0 m0 m0 m0 m0 m0 m0 m0 m0 m0 m0 m0 m0 m0 m0 m0 m0 m0 m0 m0 m0 m0 m0 m0 m0 m0 m0 m0 m0 m0 m0 m0 m0 m0 m0 m0 m0 m0 m0 m0 m0 m0 m0 m0 m0 m0 m0 m0 m0 m0 m0 m0 m0 m0 m0 m0 m0 m0 m0 m0 m0 m0 m0 m0 m0 m0 m0 m0 m0 m0 m0 m0 m0 m0 m0 m0 m0 m0 m0 m0 m0 m0 m0 m0 m0 m0 m0 m0 m0 m0 m0 m0 m0 5e =e <{ Ua *f *+ z  {7 {7 {7 >e `) f# Ta m0 [e m0 m0 m0 m0 m0 m0 m0 m0 m0 m0 m0 m0 m0 m0 m0 m0 m0 m0 m0 m0 m0 m0 m0 m0 m0 m0 m0 m0 m0 m0 m0 m0 m0 m0 m0 m0 m0 m0 m0 m0 m0 m0 m0 m0 m0 m0 m0 m0 m0 5e ;P .{ k) mb xa D9 _8 Kz Qy yH ym ]E ;J PO `- $; xB xx 3* 6P hi 7P 8P 9P 0P aP bP cP dP eP fP gP hP :F mH sE iP jP kP lP mP nP HK oP pP qP mH xE hi FB (C Ed e_ d[ S< {_ 4N 5N 5N 5N 5N 5N 5N 5N 5N 5N 5N 5N 5N 5N 5N 7N #N #N #N %P iO iO '3 wM wM wM 1P 8I 8I 8I 8I 8I sp 8f 8f 8f 8f 8f 8f 6f 1i 1i *P to ng ng ng ng ng ng ng ng ng ng ng ng ",
"2M 2M 2M 2M 2M 2M 2M 2M 2M 2M 2M 2M 2M 2M 2M 2M 2M 2M 2M 2M 2M 2M 2M 2M 2M 4P cN cN cN cN cN cN cN cN @L dN dN dN N8 =J =J =J =J =J =J rP jN jN sP |O |O |O |O DJ Q' c_ d_ e_ f_ g_ B! u  v  `. ++ 0. 0. #+ -+ P+ Q+ :# ;@ z@ {# S# _$ _$ _$ _$ _$ C$ /% (% |% p% K% '& q& J& tP -- -; Q- 0; T; I- %t uP O* v*  D 5P }x 68 D9 2j mb T~  ! <g 1~ m0 m0 m0 m0 m0 m0 m0 m0 m0 m0 m0 m0 m0 m0 6e U~ P9 P9 ({ m0 m0 m0 m0 m0 m0 m0 m0 m0 m0 m0 m0 m0 m0 m0 m0 m0 m0 m0 m0 m0 m0 m0 m0 m0 [e ;e %a :$ #+ {7 {7 {7 y  y  jb La ({ zd m0 m0 m0 m0 m0 m0 m0 m0 m0 m0 m0 m0 m0 m0 m0 m0 m0 m0 m0 m0 m0 m0 m0 m0 m0 m0 m0 m0 m0 m0 m0 m0 m0 m0 m0 m0 m0 m0 m0 m0 m0 m0 m0 m0 m0 m0 m0 m0 m0 m0 m0 m0 m0 m0 m0 m0 m0 m0 m0 m0 m0 m0 m0 m0 m0 m0 m0 m0 m0 m0 m0 m0 m0 m0 m0 m0 m0 m0 m0 m0 m0 m0 m0 m0 m0 m0 m0 m0 m0 m0 m0 m0 m0 m0 m0 m0 m0 m0 m0 m0 m0 m0 m0 m0 m0 m0 m0 m0 m0 m0 m0 m0 m0 m0 m0 m0 m0 m0 m0 m0 m0 m0 m0 m0 m0 m0 m0 m0 m0 m0 m0 m0 m0 m0 m0 m0 m0 m0 m0 m0 m0 m0 m0 m0 m0 m0 m0 m0 m0 m0 m0 m0 m0 m0 m0 m0 m0 m0 m0 m0 m0 m0 m0 {8 yd Ke k9 Ua *f *+ z  {7 {7 {7 >e `) f# Ta m0 [e m0 m0 m0 m0 m0 m0 m0 m0 m0 m0 m0 m0 m0 m0 m0 m0 m0 m0 m0 m0 m0 m0 m0 m0 m0 m0 m0 m0 m0 m0 m0 m0 m0 m0 m0 m0 m0 m0 m0 m0 m0 m0 m0 m0 m0 m0 m0 m0 m0 -e %9 .{ k) mb xa D9 _8 Kz Qy t, ym :E &; Z- S; vP xB xx wP 6P xP >P 8P eG yP zP JG AP uL BP CP DP =0 EP xG sE FP IH kM hM lL GP HP IP _H JP 'E 4B Ly FB (C Ed e_ d[ S< {_ 4N 5N 5N 5N 5N 5N 5N 5N 5N 5N 5N 5N 5N 5N KP #N #N #N #N H^ iO iO LP wM wM wM 1P 8I 8I 8I 8I 8I E, 8f 8f 8f 8f 8f 8f hf 1i 1i MP o9 ng ng ng ng ng ng ng ng ng ng ng ng ",
"2M 2M 2M 2M 2M 2M 2M 2M 2M 2M 2M 2M 2M 2M 2M 2M 2M 2M 2M 2M 2M 2M 2M 2M 2M zn cN cN cN cN cN cN cN cN @L dN dN dN oH =J =J =J =J =J =J NP jN jN OP |O |O |O |O |O Q' c_ d_ e_ f_ g_ B! u  v  `. ++ 0. 0. #+ -+ P+ Q+ :# ;@ z@ {# S# _$ _$ _$ _$ _$ D$ /% (% |% p% K% '& q& J& tP Xz K- Q; PP U; `; %t uP O* ~* QP YB Zx 68 D9 xa mb T~  ! <g 1~ m0 m0 m0 m0 m0 m0 m0 m0 m0 m0 m0 m0 m0 m0 m0 We 0{ 69 7{ Bd m0 m0 m0 m0 m0 m0 m0 m0 m0 m0 m0 m0 m0 m0 m0 m0 m0 m0 m0 m0 m0 m0 m0 m0 [e ;e %a :$ #+ {7 {7 {7 y  y  jb La ({ zd m0 m0 m0 m0 m0 m0 m0 m0 m0 m0 m0 m0 m0 m0 m0 m0 m0 m0 m0 m0 m0 m0 m0 m0 m0 m0 m0 m0 m0 m0 m0 m0 m0 m0 m0 m0 m0 m0 m0 m0 m0 m0 m0 m0 m0 m0 m0 m0 m0 m0 m0 m0 m0 m0 m0 m0 m0 m0 m0 m0 m0 m0 m0 m0 m0 m0 m0 m0 m0 m0 m0 m0 m0 m0 m0 m0 m0 m0 m0 m0 m0 m0 m0 m0 m0 m0 m0 m0 m0 m0 m0 m0 m0 m0 m0 m0 m0 m0 m0 m0 m0 m0 m0 m0 m0 m0 m0 m0 m0 m0 m0 m0 m0 m0 m0 m0 m0 m0 m0 m0 m0 m0 m0 m0 m0 m0 m0 m0 m0 m0 m0 m0 m0 m0 m0 m0 m0 m0 m0 m0 m0 m0 m0 m0 m0 m0 m0 m0 m0 m0 m0 m0 m0 m0 m0 m0 m0 m0 m0 m0 m0 m0 m0 {8 ({ B; qh I8 *f *+ z  {7 {7 {7 >e `) f# Ta m0 [e m0 m0 m0 m0 m0 m0 m0 m0 m0 m0 m0 m0 m0 m0 m0 m0 m0 m0 m0 m0 m0 m0 m0 m0 m0 m0 m0 m0 m0 m0 m0 m0 m0 m0 m0 m0 m0 m0 m0 m0 m0 m0 m0 m0 m0 m0 m0 m0 m0 Bd %9 .{ k) mb xa ^e ^D ys IA t, <= RP &; Z- .; SP TP f> 5* 6P 1x >P ,P UP VP WP WG XL XL XP VF YP ZP <B ~E 4E `P  Q kP lP VG .Q +Q @Q #Q $Q mH xE hi FB (C Ed e_ d[ S< {_ 4N 5N 5N 5N 5N 5N 5N 5N 5N 5N 5N 5N 5N 5N (' #N #N #N #N H^ iO iO %Q wM wM &Q 1P *Q 8I 8I 8I 8I 8f 8f 8f 8f 8f 8f 8f Bg 1i =Q 0N .O ng ng ng ng ng ng ng ng ng ng ng ng ",
"2M 2M 2M 2M 2M 2M 2M 2M 2M 2M 2M 2M 2M 2M 2M 2M 2M 2M 2M 2M 2M 2M 2M 2M 2M ;N cN cN cN cN cN cN cN cN -Q dN dN dN Ba =J =J =J =J =J =J NP jN jN Ss |O |O |O |O |O Q' c_ d_ e_ f_ g_ B! u  v  `. ++ 0. 0. #+ -+ P+ Q+ :# ;@ z@ {# S# _$ _$ _$ _$ _$ D$ Z$ (% |% p% K% '& q& J& tP ;Q L- $; S; U; >Q P= -= =G x* QP YB Zx [8 D9 xa mb T~  ! <g 1~ m0 m0 m0 m0 m0 m0 m0 m0 m0 m0 m0 m0 m0 m0 7d f% !~ :~ {~ }% Bd m0 m0 m0 m0 m0 m0 m0 m0 m0 m0 m0 m0 m0 m0 m0 m0 m0 m0 m0 m0 m0 m0 m0 [e ;e %a :$ #+ {7 {7 {7 y  y  jb La ({ zd m0 m0 m0 m0 m0 m0 m0 m0 m0 m0 m0 m0 m0 m0 m0 m0 m0 m0 m0 m0 m0 m0 m0 m0 m0 m0 m0 m0 m0 m0 m0 m0 m0 m0 m0 m0 m0 m0 m0 m0 m0 m0 m0 m0 m0 m0 m0 m0 m0 m0 m0 m0 m0 m0 m0 m0 m0 m0 m0 m0 m0 m0 m0 m0 m0 m0 m0 m0 m0 m0 m0 m0 m0 m0 m0 m0 m0 m0 m0 m0 m0 m0 m0 m0 m0 m0 m0 m0 m0 m0 m0 m0 m0 m0 m0 m0 m0 m0 m0 m0 m0 m0 m0 m0 m0 m0 m0 m0 m0 m0 m0 m0 m0 m0 m0 m0 m0 m0 m0 m0 m0 m0 m0 m0 m0 m0 m0 m0 m0 m0 m0 m0 m0 m0 m0 m0 m0 m0 m0 m0 m0 m0 m0 m0 m0 m0 m0 m0 m0 m0 n0 $0 m0 m0 m0 m0 m0 m0 m0 m0 m0 m0 m0 {8 $0 2% 5{ :~ *f *+ z  {7 {7 {7 >e {7 f# _~ $0 6e 6e 6e 6e m0 m0 m0 m0 m0 m0 m0 m0 m0 m0 m0 m0 m0 m0 m0 m0 m0 m0 m0 m0 m0 m0 m0 m0 m0 m0 m0 m0 m0 m0 m0 m0 m0 m0 m0 m0 m0 m0 m0 m0 m0 m0 m0 m0 m0 m0 7d M8 /0 k) mb xa ^e ^D ys IA ,Q 'Q }E &; `- U; 8; cC f> 5* 6P ]i 8E ,P 6J )Q !Q ~Q {Q {Q ZL ]Q ^Q oG vF _i ^y /Q (Q _Q /H {Q :Q TG gM <Q [Q }Q UE ^i FB (C Ed e_ d[ S< {_ 4N 5N 5N 5N 5N 5N 5N 5N 5N 5N 5N 5N 5N 5N 7N #N #N #N #N |Q iO iO iO  O wM 1Q 1P 2Q 8I 8I 8I -g 8f 8f 8f 8f 8f 8f n* 1i 1i 4l 4l ng ng ng ng ng ng ng ng ng ng ng ng ng ",
"2M 2M 2M 2M 2M 2M 2M 2M 2M 2M 2M 2M 2M 2M 2M 2M 2M 2M 2M 2M 2M 2M 2M 2M 2M ;N cN cN cN cN cN cN cN cN @f dN dN dN >N =J =J =J =J =J =J NP kN jN kN |O |O |O |O |O Q' c_ d_ e_ f_ g_ B! u  v  `. ++ 0. 0. #+ -+ P+ Q+ :# ;@ z@ {# S# _$ _$ _$ _$ _$ D$ Z$ (% |% p% K% s, q& J& 8* 9n L- R-  ; b; -; 3Q 4Q P* x* QP YB Zx [8 D9 xa mb T~  ! <g 1~ m0 m0 m0 m0 m0 m0 m0 m0 m0 m0 m0 m0 m0 m0 /a b{ :~ ;~ ;~ ]~ Jd Ad m0 m0 m0 m0 m0 m0 m0 m0 m0 m0 m0 m0 m0 m0 m0 m0 m0 m0 m0 m0 m0 m0 [e ;e %a :$ #+ {7 {7 {7 y  y  jb La ({ zd m0 m0 m0 m0 m0 m0 m0 m0 m0 m0 m0 m0 m0 m0 m0 m0 m0 m0 m0 m0 m0 m0 m0 m0 m0 m0 m0 m0 m0 m0 m0 m0 m0 m0 m0 m0 m0 m0 m0 m0 m0 m0 m0 m0 m0 m0 m0 m0 m0 m0 m0 m0 m0 m0 m0 m0 m0 m0 m0 m0 m0 m0 m0 m0 m0 m0 m0 m0 m0 m0 m0 m0 m0 m0 m0 m0 m0 m0 m0 m0 m0 m0 m0 m0 m0 m0 m0 m0 m0 m0 m0 m0 m0 m0 m0 m0 m0 m0 m0 m0 m0 m0 m0 m0 m0 m0 m0 m0 m0 m0 m0 m0 m0 m0 m0 m0 m0 m0 m0 m0 m0 m0 m0 m0 m0 m0 m0 m0 m0 m0 m0 m0 m0 m0 m0 m0 m0 m0 m0 m0 m0 m0 m0 m0 m0 m0 m0 m0 m0 7d ^a (0 Bd U~ m0 m0 m0 m0 m0 m0 m0 m0 m0 {8 m0 3% :e [~ *f *+ {7 {7 {7 {7 .9 {7 f# $x ^f -e Nd n0 ({ yd ({ U~ m0 m0 m0 m0 m0 m0 m0 m0 m0 m0 m0 m0 m0 m0 m0 m0 m0 m0 m0 m0 m0 m0 m0 m0 m0 m0 m0 m0 m0 m0 m0 m0 m0 m0 m0 m0 m0 m0 m0 m0 m0 m0 m0 7d 5Q /0 k) mb xa ^e ^D ys IA aI 'Q }E {>  ; 6Q U- 7Q 8Q .I Qi ]i _i ^y Bz 9Q 0Q aQ bQ bQ cQ dQ 5G  z Zh ^i ^y KE UL eQ jH fQ gQ hQ iQ jQ kQ TE 7B ^i FB (C Ed e_ d[ S< {_ 4N 5N 5N 5N 5N 5N 5N 5N 5N 5N 5N 5N 5N RN #N #N #N #N #N lQ iO iO iO %Q mQ 1Q 1P 2Q 8I 8I 8I }j 8f 8f 8f 8f 8f 8f lO 1i 1i nQ oQ ng ng ng ng ng ng ng ng ng ng ng ng ng ",
"vN cN cN cN LO 4P bN 2M 2M 2M 2M 2M 2M 2M 2M 2M 2M 2M 2M 2M 2M 2M 2M 2M 2M pQ cN cN cN cN cN cN cN qQ dN dN dN dN rQ =J =J =J =J =J =J NP Ss jN jN |O |O |O |O |O Q' c_ d_ e_ f_ g_ B! u  v  `. ++ 0. 0. #+ -+ P+ Q+ :# ;@ z@ {# S# _$ _$ _$ _$ _$ D$ Z$ (% |% p% K% s, q& J& 8* 9n L- 7; T; sQ tQ Q= |q =A uQ vQ ;G Zx [8 D9 xa 7e T~  ! <g 1~ m0 m0 m0 m0 m0 m0 m0 m0 m0 m0 m0 m0 m0 ({ [% l~ ;~ ;~ >~ l~ f% Bd m0 m0 m0 m0 m0 m0 m0 m0 m0 m0 m0 m0 m0 m0 m0 m0 m0 m0 m0 m0 m0 m0 [e ;e %a :$ #+ {7 {7 {7 y  y  jb La ({ zd m0 m0 m0 m0 m0 m0 m0 m0 m0 m0 m0 m0 m0 m0 m0 m0 m0 m0 m0 m0 m0 m0 m0 m0 m0 m0 m0 m0 m0 m0 m0 m0 m0 m0 m0 m0 m0 m0 m0 m0 m0 m0 m0 m0 m0 m0 m0 m0 m0 m0 m0 m0 m0 m0 m0 m0 m0 m0 m0 m0 m0 m0 m0 m0 m0 m0 m0 m0 m0 m0 m0 m0 m0 m0 m0 m0 m0 m0 m0 m0 m0 m0 m0 m0 m0 m0 m0 m0 m0 m0 m0 m0 m0 m0 m0 m0 m0 m0 m0 m0 m0 m0 m0 m0 m0 m0 m0 m0 m0 m0 m0 m0 m0 m0 m0 m0 m0 m0 m0 m0 m0 m0 m0 m0 m0 m0 m0 m0 m0 m0 m0 m0 m0 m0 m0 m0 m0 m0 m0 m0 m0 m0 m0 m0 m0 m0 m0 m0 yd 7{ C' e{ u' .q U~ m0 m0 m0 m0 m0 m0 m0 m0 m0 m0 We =e l~ }C =+ {7 {7 {7 {7 .9 Yb f# B, e{ qw Ke g% |% <% Jd 7d m0 {8 m0 m0 m0 m0 m0 m0 m0 m0 m0 m0 m0 m0 m0 m0 m0 m0 m0 m0 m0 m0 m0 m0 m0 m0 m0 m0 m0 m0 m0 m0 m0 m0 m0 m0 m0 m0 m0 m0 m0 m0 m0 yd i8 /0 k) mb xa /b ^D ys IA aI wQ RP {> T; b; U- 7Q 8Q xQ Qi ii <i sw TJ 4E yQ zQ AQ BQ CQ DQ -M 7B ki Wj 'y eH >k EQ FQ GQ HQ IQ JQ KQ 7h LK Ly _i FB (C Ed e_ d[ S< {_ 4N 5N 5N 5N 5N 5N 5N 5N 5N 5N 5N 5N 6N 7N #N #N #N #N #N ,2 iO iO iO iO LQ MQ 1P 2Q 8I 8I 8I sp 8f 8f 8f 8f 8f 8f d0 1i 1i NQ ng ng ng ng ng ng ng ng ng ng ng ng ng ng ",
"cN cN cN cN cN cN cN cN OQ zn >N 2M 2M 2M 2M 2M 2M 2M 2M 2M 2M 2M 2M 2M 2M 2M cN cN cN cN cN cN cN @L dN dN dN dN dN oH =J =J =J =J =J NP Ss jN jN PQ |O |O |O |O Q' c_ d_ e_ f_ g_ B! u  v  `. ++ 0. 0. #+ -+ P+ Q+ :# ;@ z@ {# S# _$ _$ _$ _$ _$ D$ Z$ (% |% p% K% s, q& PB QQ 9n =; 7; U; RQ =; SQ |q Q* ]* DD ;G Zx 68 D9 xa 7e T~  ! <g 1~ m0 m0 m0 m0 m0 m0 m0 m0 m0 m0 m0 m0 6e K0 v' [~ ;~ ;~ ;~ ;~ ]~ (0 U~ m0 m0 m0 m0 m0 m0 m0 m0 m0 m0 m0 m0 m0 m0 m0 m0 m0 m0 m0 m0 m0 [e ;e %a :$ #+ {7 {7 {7 y  y  jb La ({ zd m0 m0 m0 m0 m0 m0 m0 m0 m0 m0 m0 m0 m0 m0 m0 m0 m0 m0 m0 m0 m0 m0 m0 m0 m0 m0 m0 m0 m0 m0 m0 m0 m0 m0 m0 m0 m0 m0 m0 m0 m0 m0 m0 m0 m0 m0 m0 m0 m0 m0 m0 m0 m0 m0 m0 m0 m0 m0 m0 m0 m0 m0 m0 m0 m0 m0 m0 m0 m0 m0 m0 m0 m0 m0 m0 m0 m0 m0 m0 m0 m0 m0 m0 m0 m0 m0 m0 m0 m0 m0 m0 m0 m0 m0 m0 m0 m0 m0 m0 m0 m0 m0 m0 m0 m0 m0 m0 m0 m0 m0 m0 m0 m0 m0 m0 m0 m0 m0 m0 m0 m0 m0 m0 m0 m0 m0 m0 m0 m0 m0 m0 m0 m0 m0 m0 m0 m0 m0 m0 m0 m0 m0 m0 m0 m0 m0 m0 m0 l9 ^~ [~ :~ k9 Ae .q U~ m0 m0 m0 m0 m0 m0 m0 m0 m0 <e [8 l~ }C =+ {7 {7 {7 {7 .9 1b f# 7- 4{ }{ [~ -$ ~~ B~ C' We 6e {8 m0 m0 m0 m0 m0 m0 m0 m0 m0 m0 m0 m0 m0 m0 m0 m0 m0 m0 m0 m0 m0 m0 m0 m0 m0 m0 m0 m0 m0 m0 m0 m0 m0 m0 m0 m0 m0 m0 m0 m0 m0 7d i8 /0 k) mb *f G! hD ys IA aI 'Q RP Q- U; s; w; HM *z 7* Qi ii <i wx }m <F Nv GC (l Dz TQ vF CE Hx /i Wj _i Aj 'z .z {H UQ VQ WQ Wx CE XQ kE /i EE FB (C Ed e_ d[ S< {_ 4N 5N 5N 5N 5N 5N 5N 5N 5N 5N KP 7N #N #N #N #N #N #N #N #N %P iO iO iO iO /O 1P 2Q 8I 8I ]K >i 8f 8f 8f 8f 8f 6f 1i 1i 1i Ll ng ng ng ng ng ng ng ng ng ng ng ng ng ng ",
"cN cN cN cN cN cN cN cN cN cN cN cN LO 4P YQ ;N ;N 2M 2M 2M 2M 2M 2M 2M 2M >N cN cN cN cN cN cN *} dN dN dN dN dN dN Nh =J =J =J =J =J NP Ss jN jN LN |O |O |O |O Q' c_ d_ e_ f_ g_ B! u  v  `. ++ 0. 0. #+ -+ P+ Q+ :# ;@ z@ {# S# _$ _$ _$ _$ _$ D$ `$ (% |% p% 5& s, r& PB QQ 9n =; S- U; d; x; ZQ `Q Q* y* DD ~y zp [8 D9 xa 7e T~  ! <g 1~ m0 m0 m0 m0 m0 m0 m0 m0 m0 m0 m0 m0 6e P! t' )~ ;~ ;~ ;~ >~ [~ v' Bd m0 m0 m0 m0 m0 m0 m0 m0 m0 m0 m0 m0 m0 m0 m0 m0 m0 m0 m0 m0 m0 [e ;e %a :$ #+ {7 {7 {7 y  y  jb La ({ zd m0 m0 m0 m0 m0 m0 m0 m0 m0 m0 m0 m0 m0 m0 m0 m0 m0 m0 m0 m0 m0 m0 m0 m0 m0 m0 m0 m0 m0 m0 m0 m0 m0 m0 m0 m0 m0 m0 m0 m0 m0 m0 m0 m0 m0 m0 m0 m0 m0 m0 m0 m0 m0 m0 m0 m0 m0 m0 m0 m0 m0 m0 m0 m0 m0 m0 m0 m0 m0 m0 m0 m0 m0 m0 m0 m0 m0 m0 m0 m0 m0 m0 m0 m0 m0 m0 m0 m0 m0 m0 m0 m0 m0 m0 m0 m0 m0 m0 m0 m0 m0 m0 m0 m0 m0 m0 m0 m0 m0 m0 m0 m0 m0 m0 m0 m0 m0 m0 m0 m0 m0 m0 m0 m0 m0 m0 m0 m0 m0 m0 m0 m0 m0 m0 m0 m0 m0 m0 m0 m0 m0 m0 m0 m0 m0 m0 m0 ({ }% D8 ;~ ;~ ;~ 3{ e{ Jd Od m0 m0 m0 m0 m0 m0 m0 {8 Ad :8 ~~ }C *+ {7 {7 {7 {7 .9 Yb f# 7- 4{ ,~ ;~ '~ ;~ ;~ 5{ 3% m0 {8 m0 m0 m0 m0 m0 m0 m0 m0 m0 m0 m0 m0 m0 m0 m0 m0 m0 m0 m0 m0 m0 m0 m0 m0 m0 m0 m0 m0 m0 m0 m0 m0 m0 m0 m0 m0 m0 m0 m0 m0 m0 Bd d$ /0 X. 7e *f G! xi ys IA aI 'Q }E Q- U; c; v; ZC *z 7* ~i  R <i ~H aC sE cJ EN kE Yh xG xE fB ZN Wj Wj Wj ^i 8E 2s 6E (l +x jE Wh 3B ki _i Wj _i FB (C Ed e_ d[ S< {_ 4N 5N 5N 5N 5N 5N 5N 5N 5N .R #N #N #N #N #N #N #N #N #N #N #N H^ iO iO iO /O 1P 2Q 8I 8I f@ 8f 8f 8f 8f 8f bd T0 8i 1i 1i .O ng ng ng ng ng ng ng ng ng ng ng ng ng ng ",
"cN cN cN cN cN cN cN cN cN cN cN cN cN cN cN cN cN cN cN cN cN cN cN cN cN cN cN cN cN cN cN *} dN dN dN dN dN dN dN +R =J =J =J =J =J 3K @R jN jN OP |O |O |O |O Q' c_ d_ e_ f_ g_ B! u  v  `. ++ 0. 0. #+ -+ P+ Q+ :# ;@ z@ {# S# _$ _$ _$ _$ _$ D$ `$ (% |% p% 5& !& r& PB 0* >- x; T- #R $R %R &R ,= *R y* DD ~y zp [8 D9 xa 7e T~  ! <g 1~ m0 m0 m0 m0 m0 m0 m0 m0 m0 m0 m0 m0 m0 l9 C' )~ ;~ ;~ ;~ ;~ ;~ 5{ Jd ({ m0 m0 m0 m0 m0 m0 m0 m0 m0 m0 m0 m0 m0 m0 m0 m0 m0 m0 m0 m0 [e ;e %a :$ #+ {7 {7 {7 y  y  jb La ({ zd m0 m0 m0 m0 m0 m0 m0 m0 m0 m0 m0 m0 m0 m0 m0 m0 m0 m0 m0 m0 m0 m0 m0 m0 m0 m0 m0 m0 m0 m0 m0 m0 m0 m0 m0 m0 m0 m0 m0 m0 m0 m0 m0 m0 m0 m0 m0 m0 m0 m0 m0 m0 m0 m0 m0 m0 m0 m0 m0 m0 m0 m0 m0 m0 m0 m0 m0 m0 m0 m0 m0 m0 m0 m0 m0 m0 m0 m0 m0 m0 m0 m0 m0 m0 m0 m0 m0 m0 m0 m0 m0 m0 m0 m0 m0 m0 m0 m0 m0 m0 m0 m0 m0 m0 m0 m0 m0 m0 m0 m0 m0 m0 m0 m0 m0 m0 m0 m0 m0 m0 m0 m0 m0 m0 m0 m0 m0 m0 m0 m0 m0 m0 m0 m0 m0 m0 m0 m0 m0 m0 m0 m0 m0 m0 m0 m0 {8 P! (e [~ ;~ ;~ ;~ ;~ :~ 6{ ^f U~ m0 m0 m0 m0 m0 m0 {8 m0 2% {~ *f H  z  {7 {7 {7 .9 Yb f# H! qh ,~ ,~ ;~ ;~ <~ B~ g% m0 {8 m0 m0 m0 m0 m0 m0 m0 m0 m0 m0 m0 m0 m0 m0 m0 m0 m0 m0 m0 m0 m0 m0 m0 m0 m0 m0 m0 m0 m0 m0 m0 m0 m0 m0 m0 m0 m0 m0 m0 m0 m0 l9 i8 /0 X. 7e *f G! xi /A VI aI 'Q }E $; U; d; v; =R i> -R ;R ni ii ~H Pi Sy 8E fE $I >R 4H ^i Wj Wj Wj Wj Wj Ez Wj (l 'y Cz ,R 'R YI _i Wj Ez Wj Wj !J )R Ed e_ d[ S< {_ 4N 5N 5N 5N 5N 5N 5N 5N FN #N #N #N #N #N #N #N #N #N #N #N #N #N iO iO iO /O 1P 2Q 8I 7I PI 8f 8f 8f {! 20 T0 T0 Z# 1i +R ng ng ng ng ng ng ng ng ng ng ng ng ng ng ng ",
"cN cN cN cN cN cN cN cN cN cN cN cN cN cN cN cN cN cN cN cN cN cN cN cN cN cN cN cN cN qQ Yf dN dN dN dN dN dN dN dN !R ~R =J =J =J =J 4M {R jN jN OP |O |O |O |O Q' c_ d_ e_ f_ g_ B! u  v  `. ++ 0. 0. #+ -+ P+ Q+ :# ;@ z@ {# S# _$ _$ _$ _$ _$ D$ `$ (% |% p% 5& !& r& M& 0* Be x; ]R b; e; ^R /R (R _R y* DD ~y zp [8 D9 xa 7e T~  ! <g 1~ m0 m0 m0 m0 m0 m0 m0 m0 m0 m0 m0 m0 m0 (0 a{ :~ ;~ ;~ ;~ ;~ >~ :~ u' -e m0 6e m0 m0 m0 m0 m0 m0 m0 m0 m0 m0 m0 m0 m0 m0 m0 m0 m0 m0 [e ;e %a :$ #+ {7 {7 {7 y  y  jb La ({ zd m0 m0 m0 m0 m0 m0 m0 m0 m0 m0 m0 m0 m0 m0 m0 m0 m0 m0 m0 m0 m0 m0 m0 m0 m0 m0 m0 m0 m0 m0 m0 m0 m0 m0 m0 m0 m0 m0 m0 m0 m0 m0 m0 m0 m0 m0 m0 m0 m0 m0 m0 m0 m0 m0 m0 m0 m0 m0 m0 m0 m0 m0 m0 m0 m0 m0 m0 m0 m0 m0 m0 m0 m0 m0 m0 m0 m0 m0 m0 m0 m0 m0 m0 m0 m0 m0 m0 m0 m0 m0 m0 m0 m0 m0 m0 m0 m0 m0 m0 m0 m0 m0 m0 m0 m0 m0 m0 m0 m0 m0 m0 m0 m0 m0 m0 m0 m0 m0 m0 m0 m0 m0 m0 m0 m0 m0 m0 m0 m0 m0 m0 m0 m0 m0 m0 m0 m0 m0 m0 m0 m0 m0 m0 m0 m0 m0 {8 l9 69 :~ ;~ ;~ ;~ ;~ ,~ [~ t' -e m0 m0 m0 m0 m0 m0 6e m0 h, JD zi H  {7 {7 {7 {7 .9 Yb f# H! qh ,~ ,~ ;~ ;~ >~ l~ B; ({ {8 m0 m0 m0 m0 m0 m0 m0 m0 m0 m0 m0 m0 m0 m0 m0 m0 m0 m0 m0 m0 m0 m0 m0 m0 m0 m0 m0 m0 m0 m0 m0 m0 m0 m0 m0 m0 m0 m0 m0 m0 $0 (0 i8 /0 X. 7e *f G! gD /A S& aI 'Q :R $; s; $R W- CD Iz 8* <R GC jk Ei ry QG QG Nv Nv Nv Nv Nv Nv Nv Nv Nv Nv Nv Nv Nv Ei 8E bl Ei Nv Nv Nv Nv Nv .z ,E [R Za e_ d[ S< {_ 4N 5N 5N 5N 5N 5N 5N 5N #N #N #N #N #N #N #N #N #N #N #N #N #N #N H^ iO iO }R 1P 2Q E1 PI f@ =  |R Wf h0 T0 T0 T0 4c 3P ng ng ng ng ng ng ng ng ng ng ng ng ng ng ng ng ",
"cN cN cN cN cN cN cN cN cN cN cN cN cN cN cN cN cN cN cN cN cN cN cN cN cN cN *} Yf @f dN dN dN dN dN dN dN dN dN dN 1R 2R =J =J =J =J 4M {R jN jN Ss |O |O |O |O Q' c_ d_ e_ f_ g_ B! u  v  `. ++ 0. 0. #+ -+ P+ Q+ :# ;@ z@ {# S# _$ _$ _$ _$ _$ D$ `$ (% |% $& L% !& r& M& 0* >- x; U- RQ f; ;J U= @, _R z* DD jC zp [8 D9 xa 7e T~  ! <g 1~ m0 m0 m0 m0 m0 m0 m0 m0 m0 m0 m0 6e m0 ^f a{ :~ ;~ ;~ ;~ ;~ >~ ;~ {~ g% 7d m0 m0 m0 m0 m0 m0 m0 m0 m0 m0 m0 m0 m0 m0 m0 m0 m0 m0 m0 [e ;e %a :$ #+ {7 {7 {7 y  y  jb La ({ zd m0 m0 m0 m0 m0 m0 m0 m0 m0 m0 m0 m0 m0 m0 m0 m0 m0 m0 m0 m0 m0 m0 m0 m0 m0 m0 m0 m0 m0 m0 m0 m0 m0 m0 m0 m0 m0 m0 m0 m0 m0 m0 m0 m0 m0 m0 m0 m0 m0 m0 m0 m0 m0 m0 m0 m0 m0 m0 m0 m0 m0 m0 m0 m0 m0 m0 m0 m0 m0 m0 m0 m0 m0 m0 m0 m0 m0 m0 m0 m0 m0 m0 m0 m0 m0 m0 m0 m0 m0 m0 m0 m0 m0 m0 m0 m0 m0 m0 m0 m0 m0 m0 m0 m0 m0 m0 m0 m0 m0 m0 m0 m0 m0 m0 m0 m0 m0 m0 m0 m0 m0 m0 m0 m0 m0 m0 m0 m0 m0 m0 m0 m0 m0 m0 m0 m0 m0 m0 m0 m0 m0 m0 m0 m0 m0 m0 m0 (0 :g ;~ ;~ ;~ ;~ ;~ ;~ ;~ D8 1% U~ m0 m0 m0 m0 m0 m0 m0 <e f% AK %+ {7 {7 {7 {7 .9 Yb f# H! qh ,~ ,~ ;~ ;~ >~ :~ 6{ (0 m0 6e m0 m0 m0 m0 m0 m0 m0 m0 m0 m0 m0 m0 m0 m0 m0 m0 m0 m0 m0 m0 m0 m0 m0 m0 m0 m0 m0 m0 m0 m0 m0 m0 m0 m0 m0 m0 m0 m0 m0 U~ Jd i8 /0 X. 7e *f G! gD /A >F GI := IE 7; c; e; X- CD Iz 8* 3R KI 4R 8j 5R  y fz 6R 6R 6R 6R 6R 6R 6R 6R 6R 7R 7R 7R 7R Ix Ix 8R 8R 8R 8R 8R 8R 8R 9R 0R aR Za e_ d[ S< q[ 4N 5N 5N 5N 5N 5N 5N 5N .R #N #N #N #N #N #N #N #N #N #N #N #N #N #N iO iO iO PI PI PI PI PI Yq =  =  bR 7A T0 T0 T0 n. ng ng ng ng ng ng ng ng ng ng ng ng ng ng ng ng ",
"cN cN cN cN cN cN cN og cR #u #u #u #u Ml dR cN cN cN cN cN cN cN cN cN MO wN dN dN dN dN dN dN dN dN eR lh +O +O .t fR  O =J =J =J =J 4M {R jN jN kN |O |O |O |O Q' c_ d_ e_ f_ g_ B! u  v  `. ++ 0. 0. #+ -+ P+ Q+ :# ;@ z@ {# S# _$ _$ _$ _$ _$ D$ `$ (% |% q% L% !& r& M& a* >- M- U- gR f; &; hR )= |= z* iR jC zp [8 D9 xa 7e T~  ! <g 1~ m0 m0 m0 m0 m0 m0 m0 m0 m0 m0 m0 6e m0 Jd b{ :~ ;~ ;~ ;~ ;~ ;~ ,~ k~ 7% g% 7d }e }e }e m0 m0 6e {8 {8 m0 m0 m0 m0 m0 m0 m0 m0 m0 m0 [e ;e %a :$ #+ {7 {7 {7 y  y  jb La ({ zd m0 m0 m0 m0 m0 m0 m0 m0 m0 m0 m0 m0 m0 m0 m0 m0 m0 m0 m0 m0 m0 m0 m0 m0 m0 m0 m0 m0 m0 m0 m0 m0 m0 m0 m0 m0 m0 m0 m0 m0 m0 m0 m0 m0 m0 m0 m0 m0 m0 m0 m0 m0 m0 m0 m0 m0 m0 m0 m0 m0 m0 m0 m0 m0 m0 m0 m0 m0 m0 m0 m0 m0 m0 m0 m0 m0 m0 m0 m0 m0 m0 m0 m0 m0 m0 m0 m0 m0 m0 m0 m0 m0 m0 m0 m0 m0 m0 m0 m0 m0 m0 m0 m0 m0 m0 m0 m0 m0 m0 m0 m0 m0 m0 m0 m0 m0 m0 m0 m0 m0 m0 m0 m0 m0 m0 m0 m0 m0 m0 m0 m0 m0 m0 m0 m0 m0 m0 m0 m0 m0 m0 m0 m0 m0 m0 m0 m0 Jd d{ ;~ ;~ ;~ ;~ ;~ ;~ ,~ k~ 6{ h, U~ m0 m0 m0 m0 m0 [e ;e Jd m' =+ {7 {7 {7 {7 .9 Yb f# H! qh ,~ ,~ ;~ ;~ ;~ ;~ l~ t' -e 6e 6e m0 m0 m0 m0 m0 m0 m0 m0 m0 m0 m0 m0 m0 m0 m0 m0 m0 m0 m0 m0 m0 m0 m0 m0 m0 m0 m0 m0 m0 m0 m0 m0 m0 m0 m0 m0 m0 m0 Ad f{ i8 /0 X. 7e *f G! gD /A cB GI yp jR S- c; e; 9; kR Iz lR mR nR oR {h pR !w qR [{ [{ [{ [{ [{ [{ [{ [{ [{ [{ ;~ ;~ >~ Jc Jc Kd Lf rR sR tR uR {% vR vR a$ la e_ d[ S< b_ [! 5N 5N 5N 5N 5N 5N 5N 5N RN wR #N #N #N #N #N #N #N #N #N #N #N #N lQ iO iO PI PI PI PI PI xR =  =  =  yR T0 T0 T0 Z# ng ng ng ng ng ng ng ng ng ng ng ng ng ng ng ng ",
"cN cN cN cN cN cN zR #u #u #u #u #u #u #u #u cR cN cN cN cN cN cN cN cN dN dN dN dN dN dN dN AR BR CR DR DR DR DR DR fR ER =J =J =J =J 4M PQ jN jN jN |O |O |O |O Q' c_ d_ e_ f_ g_ B! u  v  `. ++ 0. 0. #+ -+ P+ Q+ :# ;@ z@ {# S# _$ _$ _$ _$ _$ D$ `$ (% |% q% L% !& r& M& a* >- M- w; d; FR {> GR HR [, z* iR jC zp [8 D9 xa 7e T~  ! <g 1~ m0 m0 m0 m0 m0 m0 m0 m0 m0 m0 m0 {8 $0 g% c{ :~ ;~ ;~ ;~ ;~ ;~ ,~ >~ '~ 5{ w' 3% i% i% h, We -e <e Ad U~ m0 m0 m0 m0 m0 m0 m0 m0 m0 [e ;e %a :$ #+ {7 {7 {7 y  y  jb La ({ zd m0 m0 m0 m0 m0 m0 m0 m0 m0 m0 m0 m0 m0 m0 m0 m0 m0 m0 m0 m0 m0 m0 m0 m0 m0 m0 m0 m0 m0 m0 m0 m0 m0 m0 m0 m0 m0 m0 m0 m0 m0 m0 m0 m0 m0 m0 m0 m0 m0 m0 m0 m0 m0 m0 m0 m0 m0 m0 m0 m0 m0 m0 m0 m0 m0 m0 m0 m0 m0 m0 m0 m0 m0 m0 m0 m0 m0 m0 m0 m0 m0 m0 m0 m0 m0 m0 m0 m0 m0 m0 m0 m0 m0 m0 m0 m0 m0 m0 m0 m0 m0 m0 m0 m0 m0 m0 m0 m0 m0 m0 m0 m0 m0 m0 m0 m0 m0 m0 m0 m0 m0 m0 m0 m0 m0 m0 m0 m0 m0 m0 m0 m0 m0 m0 m0 m0 m0 m0 m0 m0 m0 m0 m0 m0 m0 m0 ({ M0 ~~ ;~ ;~ ;~ ;~ ;~ ;~ ;~ >~ [~ u' -e U~ m0 m0 m0 m0 [e [e (0 9= O+ y  {7 {7 {7 .9 Yb f# H! qh ,~ ,~ ;~ ;~ ;~ ;~ ;~ l~ w' [d m0 {8 6e m0 m0 m0 m0 m0 m0 m0 m0 m0 m0 m0 m0 m0 m0 m0 m0 m0 m0 m0 m0 m0 m0 m0 m0 m0 m0 m0 m0 m0 m0 m0 m0 m0 m0 m0 m0 Od 7{ i8 /0 X. 7e *f 1j gD /A cB >J ;= :R S- d; f; Y- ]E $A 0* IR JR ;A KR LR }{ tR E. <  <  <  <  <  <  <  <  <  1  1  (. :. 8  b  b  $@ |. 1. M. e  g  g  2g f_ e_ d[ S< b_ 9! WM 5N 5N 5N 5N 5N 5N 5N 5N MR #a NR #N #N #N #N #N #N #N #N #N #N H^ iO iO PI PI PI PI PI OR =  =  =  =  7A T0 T0 Z# ng ng ng ng ng ng ng ng ng ng ng ng ng ng ng ng ",
"cN cN cN cN Ug qt %. C1 #u #u #u #u #u #u #u #u cR cN cN cN cN cN cN cN dN dN dN dN dN dN lh DR DR DR DR DR DR DR DR fR PR =J =J =J =J vK }O jN jN jN NO |O |O |O Q' c_ d_ e_ f_ g_ B! u  v  `. ++ 0. 0. #+ -+ P+ Q+ :# ;@ z@ {# S# _$ _$ _$ _$ _$ D$ `$ (% |% q% L% !& ;* M& a* Be *; w; $R QR 7O RR HR [, z* iR jC zp [8 D9 xa 7e T~  ! <g 1~ m0 m0 m0 m0 m0 m0 m0 m0 m0 m0 m0 {8 U~ g% B~ '~ ;~ ;~ ;~ ;~ ;~ ;~ >~ >~ ;~ k9 B~ B~ qh B~ c{ 6& q) <8 2% 5e Ad m0 {8 m0 m0 m0 m0 m0 [e ;e %a :$ #+ {7 {7 {7 y  y  jb La ({ zd m0 m0 m0 m0 m0 m0 m0 m0 m0 m0 m0 m0 m0 m0 m0 m0 m0 m0 m0 m0 m0 m0 m0 m0 m0 m0 m0 m0 m0 m0 m0 m0 m0 m0 m0 m0 m0 m0 m0 m0 m0 m0 m0 m0 m0 m0 m0 m0 m0 m0 m0 m0 m0 m0 m0 m0 m0 m0 m0 m0 m0 m0 m0 m0 m0 m0 m0 m0 m0 m0 m0 m0 m0 m0 m0 m0 m0 m0 m0 m0 m0 m0 m0 m0 m0 m0 m0 m0 m0 m0 m0 m0 m0 m0 m0 m0 m0 m0 m0 m0 m0 m0 m0 m0 m0 m0 m0 m0 m0 m0 m0 m0 m0 m0 m0 m0 m0 m0 m0 m0 m0 m0 m0 m0 m0 m0 m0 m0 m0 m0 m0 m0 m0 m0 m0 m0 m0 m0 m0 m0 m0 m0 m0 m0 m0 {8 7d v' l~ ;~ ;~ ;~ ;~ ;~ ;~ ;~ ,~ ,~ -$ pf Od m0 m0 m0 m0 [e [e l9 R) =+ y  {7 {7 {7 .9 Yb f# H! qh ,~ ,~ ;~ ;~ ;~ ;~ ;~ ;~ 4{ 4e h, $0 {8 {8 {8 {8 m0 m0 m0 m0 m0 m0 m0 m0 m0 m0 m0 m0 m0 m0 m0 m0 m0 m0 m0 m0 m0 m0 m0 m0 m0 m0 m0 m0 m0 m0 m0 m0 m0 Bd [% _# /0 X. 7e *f 1j gD /A cB >J ;= IE T- d; V; ^> ]E j> 0* SR TR ;A =h LR >~ tR <  <  <  <  <  <  <  <  <  <  1  1  (. :. 8  b  $@ |. 1. e  f  1g UR 7) VR f_ e_ d[ S< b_ pM qM WR 5N 5N 5N 5N 5N 5N 5N XR YR YR ZR FN #N #N #N #N #N #N #N #N H^ iO iO vi PI PI PI PI [j =  =  =  =  `R T0 T0 Z& ng ng ng ng ng ng ng ng ng ng ng ng ng ng ng ng ",
"cN cN cN zR Ea Nb Nb Nb Ca #u #u #u #u #u #u #u #u  S cN cN cN cN cN qQ dN dN dN dN .S CR DR DR DR DR DR DR DR DR +S fR PR @S =J =J =J '6 }O jN jN jN #S |O |O |O Q' c_ d_ e_ f_ g_ B! u  v  `. ++ 0. 0. #+ -+ P+ Q+ :# ;@ z@ {# S# _$ _$ _$ _$ _$ D$ `$ (% |% q% L% !& ;* M& a* Be *; v; e; r; 7O W= $S 1H ^* UD jC zp [8 D9 xa 7e T~  ! <g 1~ m0 m0 m0 m0 m0 m0 m0 m0 m0 m0 m0 {8 U~ g% _e ;~ ;~ ;~ ;~ ;~ ;~ ;~ ;~ ;~ ;~ ;~ >~ <~ >~ >~ ;~ '~ )~ 4{ B~  q 88 5e ({ Sj m0 67 {8 m0 [e ;e %a :$ #+ {7 {7 {7 y  y  jb La ({ zd m0 m0 m0 m0 m0 m0 m0 m0 m0 m0 m0 m0 m0 m0 m0 m0 m0 m0 m0 m0 m0 m0 m0 m0 m0 m0 m0 m0 m0 m0 m0 m0 m0 m0 m0 m0 m0 m0 m0 m0 m0 m0 m0 m0 m0 m0 m0 m0 m0 m0 m0 m0 m0 m0 m0 m0 m0 m0 m0 m0 m0 m0 m0 m0 m0 m0 m0 m0 m0 m0 m0 m0 m0 m0 m0 m0 m0 m0 m0 m0 m0 m0 m0 m0 m0 m0 m0 m0 m0 m0 m0 m0 m0 m0 m0 m0 m0 m0 m0 m0 m0 m0 m0 m0 m0 m0 m0 m0 m0 m0 m0 m0 m0 m0 m0 m0 m0 m0 m0 m0 m0 m0 m0 m0 m0 m0 m0 m0 m0 m0 m0 m0 m0 m0 m0 m0 m0 m0 m0 m0 m0 m0 m0 m0 {8 {8 P9 JD :~ ;~ ;~ ;~ ;~ ;~ ;~ ;~ ;~ >~ )~ v' Bd m0 m0 m0 m0 [e [e -e -% P+ `) {7 {7 {7 .9 Yb f# H! qh ,~ ,~ ;~ ;~ ;~ ;~ ;~ ;~ ;~ [~ a{ |% -e U~ m0 m0 {8 {8 {8 {8 {8 {8 m0 m0 m0 m0 m0 m0 m0 m0 m0 m0 m0 m0 m0 m0 m0 m0 m0 m0 m0 m0 m0 m0 m0 m0 m0 m0 U~ 5e f% M8 /0 X. 7e *f 1j gD /A cB >J yp =F T- %S &S Z- ]E $A 0* *S TR ;A =h LR >~ tR <  <  <  <  <  <  <  <  <  <  1  1  (. :. 8  b  $@ |. 1. e  f  1g =S 2g _< f_ e_ d[ S< b_ pM qM qM -S 5N 5N 5N 5N 5N 5N YR YR YR YR YR ;S >S NR #N #N #N #N #N |Q iO iO I^ PI PI PI PI [j =  =  =  =  ,S T0 T0 `e ng ng ng ng ng ng ng ng ng ng ng ng ng ng ng ng ",
"cN zR Ca Nb Nb Nb Nb Nb Nb Ca #u #u #u #u #u #u #u #u LO cN cN cN cN MO dN dN dN eR DR DR DR DR DR DR DR DR DR DR 'S fR PR )S =J =J =J '6 }O jN jN jN jN NO |O |O Q' c_ d_ e_ f_ g_ B! u  v  `. ++ 0. 0. #+ -+ P+ Q+ :# ;@ z@ {# S# _$ _$ _$ _$ _$ D$ `$ (% |% q% L% !& ;* M& a* Be *; v; !S ~S $; W= $S T* {S UD jC zp [8 D9 xa 7e T~  ! <g 1~ m0 m0 m0 m0 m0 m0 m0 m0 m0 m0 m0 {8 }e P, 4{ ;~ ;~ ;~ ;~ ;~ ;~ ;~ ;~ ;~ ;~ ;~ ;~ ;~ ;~ ;~ ;~ ;~ ;~ ;~ ;~ '~ 4{ e{ KA g% Cd yd $0 6e [e ;e %a :$ #+ {7 {7 {7 y  y  jb La ({ zd m0 m0 m0 m0 m0 m0 m0 m0 m0 m0 m0 m0 m0 m0 m0 m0 m0 m0 m0 m0 m0 m0 m0 m0 m0 m0 m0 m0 m0 m0 m0 m0 m0 m0 m0 m0 m0 m0 m0 m0 m0 m0 m0 m0 m0 m0 m0 m0 m0 m0 m0 m0 m0 m0 m0 m0 m0 m0 m0 m0 m0 m0 m0 m0 m0 m0 m0 m0 m0 m0 m0 m0 m0 m0 m0 m0 m0 m0 m0 m0 m0 m0 m0 m0 m0 m0 m0 m0 m0 m0 m0 m0 m0 m0 m0 m0 m0 m0 m0 m0 m0 m0 m0 m0 m0 m0 m0 m0 m0 m0 m0 m0 m0 m0 m0 m0 m0 m0 m0 m0 m0 m0 m0 m0 m0 m0 m0 m0 m0 m0 m0 m0 m0 m0 m0 m0 m0 m0 m0 m0 m0 m0 6e {8 m0 7d <% !~ ;~ ;~ ;~ ;~ ;~ ;~ ;~ ;~ ;~ ;~ '~ e{ 5e $0 m0 m0 m0 [e [e 7d La y@ {7 {7 {7 {7 .9 Yb f# H! qh ,~ ,~ ;~ ;~ ;~ ;~ ;~ ;~ ;~ ,~ :~ !~ e{ w' h% We -e yd Sj n0 n0 m0 m0 {8 {8 {8 6e m0 m0 m0 m0 m0 m0 m0 m0 m0 m0 m0 m0 m0 m0 m0 m0 m0 m0 m0 m0 m0 Ad i% u' M8 /0 X. 7e *f 1j gD /A cB 4> |q =F T- e; r; Z- ]E Qb 0* x* ]S ;A =h LR ;~ Bt _  <  <  <  <  <  <  <  <  <  ^. }  tg .) e# Q~ $@ |. 1. e  f  1g ^S R< _< f_ e_ d[ S< b_ /S qM qM qM (S KP 5N 5N 5N 5N _S YR YR YR YR YR YR YR :S <S #N #N #N iO iO iO I^ PI PI PI PI [j =  =  =  =  ha B0 T0 B0 ng ng ng ng ng ng ng ng ng ng ng ng ng ng ng ng ",
"Ea Nb Nb Nb Nb Nb Nb Nb Nb Nb a& #u #u #u #u #u #u #u ns cN cN cN cN MO dN dN dN eR DR DR DR DR DR DR DR DR DR DR Ih fR PR )S =J =J =J '6 }O jN jN jN [S }S |S |O Q' c_ d_ e_ f_ g_ B! u  v  `. ++ 0. 0. #+ -+ P+ Q+ :# ;@ z@ {# S# _$ _$ _$ _$ _$ D$ `$ (% |% q% L% !& s& L& G* Pg *; W- 1S h; 2S 3S {= T* 4S UD jC zp [8 D9 xa 7e T~  ! <g 1~ m0 m0 m0 m0 m0 m0 m0 m0 m0 m0 m0 {8 U~ P, 4{ ;~ ;~ ;~ ;~ ;~ ;~ ;~ ;~ ;~ ;~ ;~ ;~ ;~ ;~ ;~ ;~ ;~ ;~ ;~ ;~ ;~ ;~ '~ )~ ~~ 69 68 2% Bd ;e [e X0 :$ #+ {7 {7 {7 y  y  jb La ({ zd m0 m0 m0 m0 m0 m0 m0 m0 m0 m0 m0 m0 m0 m0 m0 m0 m0 m0 m0 m0 m0 m0 m0 m0 m0 m0 m0 m0 m0 m0 m0 m0 m0 m0 m0 m0 m0 m0 m0 m0 m0 m0 m0 m0 m0 m0 m0 m0 m0 m0 m0 m0 m0 m0 m0 m0 m0 m0 m0 m0 m0 m0 m0 m0 m0 m0 m0 m0 m0 m0 m0 m0 m0 m0 m0 m0 m0 m0 m0 m0 m0 m0 m0 m0 m0 m0 m0 m0 m0 m0 m0 m0 m0 m0 m0 m0 m0 m0 m0 m0 m0 m0 m0 m0 m0 m0 m0 m0 m0 m0 m0 m0 m0 m0 m0 m0 m0 m0 m0 m0 m0 m0 m0 m0 m0 m0 m0 m0 m0 m0 m0 m0 m0 m0 m0 m0 m0 m0 m0 m0 m0 m0 m0 7d ^f (e ~~ :~ ;~ ;~ ;~ ;~ ;~ ;~ ;~ ;~ ;~ >~ '~ 6{ 5e $0 m0 m0 m0 [e [e 7d <c !# {7 {7 {7 {7 .9 Yb f# H! qh ,~ ,~ ;~ ;~ ;~ ;~ ;~ ;~ ;~ ;~ ;~ ;~ :~ 4{ 5{ :e Ae 0{ v' <% g% 3% We -e ({ n0 6e 6e {8 {8 6e m0 m0 m0 m0 m0 m0 m0 m0 m0 m0 m0 m0 m0 m0 m0 m0 m0 Od g% s' M8 /0 X. 7e *f G! gD /A cB 4> |q =F U- e; h; `- 5S Qb 0* ]* 6S 7S =h 8S @> ^; Z@ o$ >, n$ g& W$ W$ 1; 9S >, V@ >@ w# m+ ~+ 0S aS |. 1. e  f  bS V' _< _< f_ e_ d[ S< b_ cS dS qM qM qM qM XM 5N 5N 5N eS YR YR YR YR YR YR YR YR YR YR Y6 ,2 iO iO iO I^ PI PI PI PI [j =  =  =  =  {! |t T0 T0 n. ng ng ng ng ng ng 2M S0 /+ /+ S0 2M +# fS gS ",
"hS iS Nb Nb Nb Nb Nb Nb Nb Nb a& #u #u #u #u #u #u #u cR cN cN cN cN @L dN dN dN dN Kg DR DR DR DR DR DR DR DR DR jS fR PR )S =J =J =J hN kS jN jN ]+ ]+ lS mS nS Q' c_ d_ e_ f_ g_ B! u  v  `. ++ 0. 0. #+ -+ P+ Q+ :# ;@ z@ {# S# _$ _$ _$ _$ _$ D$ `$ (% |% q% L% !& s& oS G* Pg *; W- f; i; pS 3S {= T* 4S UD jC zp [8 D9 xa 7e T~  ! <g 1~ m0 m0 m0 m0 m0 m0 m0 m0 m0 m0 m0 {8 ({ B; [~ ,~ ;~ ;~ }{ }{ }{ }{ }{ }{ }{ }{ }{ }{ }{ }{ }{ }{ }{ 2{ 2{ 2{ 2{ 2{ }{ k~ $9 qh 5{ 4e i% Ad %a :$ #+ {7 {7 {7 y  y  jb La ({ zd m0 m0 m0 m0 m0 m0 m0 m0 m0 m0 m0 m0 m0 m0 m0 m0 m0 m0 m0 m0 m0 m0 m0 m0 m0 m0 m0 m0 m0 m0 m0 m0 m0 m0 m0 m0 m0 m0 m0 m0 m0 m0 m0 m0 m0 m0 m0 m0 m0 m0 m0 m0 m0 m0 m0 m0 m0 m0 m0 m0 m0 m0 m0 m0 m0 m0 m0 m0 m0 m0 m0 m0 m0 m0 m0 m0 m0 m0 m0 m0 m0 m0 m0 m0 m0 m0 m0 m0 m0 m0 m0 m0 m0 m0 m0 m0 m0 m0 m0 m0 m0 m0 m0 m0 m0 m0 m0 m0 m0 m0 m0 m0 m0 m0 m0 m0 m0 m0 m0 m0 m0 m0 m0 m0 m0 m0 m0 m0 m0 m0 m0 m0 m0 m0 m0 m0 m0 m0 m0 m0 m0 U~ (0 v' a{ [~ :~ ;~ ;~ ;~ ;~ ;~ ;~ ;~ ;~ ;~ ;~ >~ )~ B; yd m0 m0 m0 m0 [e [e 7d <c !# {7 {7 {7 {7 >e kb f# G! 90 ;~ ;~ :~ :~ :~ k~ k~ k~ k~ [{ [{ 2{ 2{ 2{ <{ <{ <{ )~ l~ ~~ 5{ a{ 6{ F9 v' g% 5e U~ m0 6e 6e m0 m0 m0 m0 m0 m0 m0 m0 m0 m0 m0 m0 m0 m0 m0 m0 m0 Ad P, X, M8 /0 X. 7e *f G! gD /A cB 4> |q =F w; !S h; S; 5S bA 0* ]* mN qS rS  B *%  % _$ _$ A# g# g# g# A# g# g# A# f# {# z@ -@ m+ Q+ F  $@ 1. e  f  sS _< N' _< f_ e_ d[ S< b_ cS tS uS vS qM qM qM wS 5N 5N 5N xS 49 YR YR YR YR YR YR YR YR YR yS iO iO iO I^ PI PI PI PI zS =  =  =  =  ng Z& T0 T0 's ng ng ng ng +n $. %. %. %. %. %. %. AS BS BS ",
"CS CS z2 DS Nb Nb Nb Nb Nb Nb a& #u #u #u #u #u #u #u cR cN cN cN cN @L dN dN dN dN eR CR DR DR DR DR DR DR DR DR ES fR PR )S =J =J =J =J 'I jN jN ]+ ]+ FS lS mS Q' c_ d_ e_ f_ g_ B! u  v  `. ++ 0. 0. #+ -+ P+ Q+ :# ;@ z@ {# S# _$ _$ _$ _$ _$ D$ Z$ (% |% q% L% !& s& oS G* Pg *; pO V; i; T- 3S {= }, 4S UD jC zp [8 D9 xa 7e T~  ! <g 1~ m0 m0 m0 m0 m0 m0 m0 m0 m0 m0 m0 6e Nd v' $9 ,~  { L8 L8 L8 L8 L8 L8 L8 L8 L8 L8 L8 L8 L8 L8 L8 L8 L8 L8 L8 L8 L8 L8 &0 GS Je Je +g Yi r' Z$ R# i+ {7 {7 {7 y  y  jb La ({ zd m0 m0 m0 m0 m0 m0 m0 m0 m0 m0 m0 m0 m0 m0 m0 m0 m0 m0 m0 m0 m0 m0 m0 m0 m0 m0 m0 m0 m0 m0 m0 m0 m0 m0 m0 m0 m0 m0 m0 m0 m0 m0 m0 m0 m0 m0 m0 m0 m0 m0 m0 m0 m0 m0 m0 m0 m0 m0 m0 m0 m0 m0 m0 m0 m0 m0 m0 m0 m0 m0 m0 m0 m0 m0 m0 m0 m0 m0 m0 m0 m0 m0 m0 m0 m0 m0 m0 m0 m0 m0 m0 m0 m0 m0 m0 m0 m0 m0 m0 m0 m0 m0 m0 m0 m0 m0 m0 m0 m0 m0 m0 m0 m0 m0 m0 m0 m0 m0 m0 m0 m0 m0 m0 m0 m0 m0 m0 m0 m0 m0 m0 m0 m0 m0 m0 m0 m0 m0 m0 m0 U~ (0 6{ [~ :~ ;~ ;~ ;~ ;~ ;~ ;~ ;~ ;~ ;~ ;~ ;~ ;~ >~ B~ 3% $0 m0 m0 m0 m0 [e [e 7d <c !# {7 {7 {7 {7 y  {7 :# -d &0 HS Je Je Je Je Je Je Je Je Lf Lf uj uj uj uj uj &0 &0 &0 &0 L8 ze 80 ze _0 Q9 H! s' :% Z~ IS L0 ({ m0 m0 m0 m0 m0 m0 m0 m0 m0 m0 m0 m0 m0 m0 m0 Od Ke @> M8 /0 X. 7e *f G! gD /A cB JS |q =F w; f; KS  ; 5S bA 0* ]* AH LS MS y' *% p) _$ _$ _$ _$ _$ _$ _$ _$ _$ _$ S# {# z@ -@ m+ Q+ -+ Bf L. e  e  U^ N' N' _< f_ e_ d[ S< :< cS tS tS uS NS qM qM qM OS PS 5N 5N 5N XR QS _S YR YR YR YR YR RS iO iO iO iO I^ PI PI PI PI xR =  =  =  yR ng r} B0 T0 T0 r} ng r} 3$ %. %. %. %. %. %. %. %. B% BS BS ",
"CS CS CS CS z2 iS Nb Nb Nb Nb Hh #u #u #u #u #u #u #u cR cN cN cN cN -Q dN dN dN dN dN dN SS DR DR DR DR DR DR DR TS fR PR )S =J =J =J =J 'I j@ jN jh ]+ ]+ FS lS b_ c_ d_ e_ f_ g_ B! u  v  `. ++ 0. 0. #+ -+ P+ Q+ :# ;@ z@ {# S# _$ _$ _$ _$ _$ D$ `$ (% |% q% L% !& s& u* ^, 8d *; #; &S j; T- US {= }, ]A iR jC zp 78 D9 xa 7e T~  ! <g 1~ m0 m0 m0 m0 m0 m0 m0 m0 m0 m0 m0 6e Db t' <{ K8 D~ c$ ;P b$ 7e 7e bz @) e$ @) @) @) *$ VS VS WS VS XS XS XS XS XS U@ U@ U@ ~u )# )# ~u VS [c r! >e +b {7 {7 y  y  jb La ({ zd m0 m0 m0 m0 m0 m0 m0 m0 m0 m0 m0 m0 m0 m0 m0 m0 m0 m0 m0 m0 m0 m0 m0 m0 m0 m0 m0 m0 m0 m0 m0 m0 m0 m0 m0 m0 m0 m0 m0 m0 m0 m0 m0 m0 m0 m0 m0 m0 m0 m0 m0 m0 m0 m0 m0 m0 m0 m0 m0 m0 m0 m0 m0 m0 m0 m0 m0 m0 m0 m0 m0 m0 m0 m0 m0 m0 m0 m0 m0 m0 m0 m0 m0 m0 m0 m0 m0 m0 m0 m0 m0 m0 m0 m0 m0 m0 m0 m0 m0 m0 m0 m0 m0 m0 m0 m0 m0 m0 m0 m0 m0 m0 m0 m0 m0 m0 m0 m0 m0 m0 m0 m0 m0 m0 m0 m0 m0 m0 m0 m0 m0 m0 m0 m0 m0 m0 m0 m0 m0 $0 5e t' [~ ;~ ;~ ;~ ;~ ;~ ;~ ;~ ;~ ;~ ;~ ;~ ;~ ;~ ;~ >~ qh ^f $0 m0 m0 m0 m0 [e [e 7d <c !# {7 {7 {7 {7 .9 ov Z. YS ZS {u ~u ~u ~u ~u ~u ~u ~u ~u ~u ~u ~u Y' Y' Y' U@ U@ `S U@ U@ U@ U@ U@ ~u ZS WS VS @) 7e se ;@ P0 X0 m0 [e m0 m0 m0 m0 m0 m0 m0 m0 m0 m0 m0 m0 m0 -e 0{ 7% 5Q /0 X. 7e *f G! gD /A  T .T >= =F w; f; i; .; }E m> 0* ]* JC +T @T 6% *% p) _$ _$ _$ _$ _$ _$ _$ _$ _$ _$ S# {# z@ -@ m+ Q+ -+ 5@ L. e  Q. s  }d N' _< f_ e_ d[ S< b| #T tS tS tS tS $T qM qM qM %T WR &T 5N 5N 5N 5N 5N 5N xS *T =T %P iO iO iO iO I^ PI PI PI PI Yq =  =  =  -T ng ng =} 3c Z# r} 4i k@ %. %. %. %. %. %. %. %. %. %. ;T BS ",
"/1 CS CS CS CS CS <; Nb Nb Nb d= #u #u #u #u #u #u #u ns cN cN cN cN @f dN dN dN dN dN dN dN CR DR DR DR DR DR DR TS fR PR )S =J =J =J =J 'I >T jN =a ]+ ]+ ]+ qm b_ c_ d_ e_ f_ g_ B! u  v  `. ++ 0. 0. #+ -+ P+ Q+ :# ;@ z@ {# S# _$ _$ _$ _$ _$ D$ `$ (% |% q% M% !& s& u* ^, !e N- 9; r; ,T ]R 'T /= ^I {S UD jC cy 78 D9 xa 7e T~  ! <g 1~ m0 m0 m0 m0 m0 m0 m0 m0 m0 m0 6e m0 l9 C' 3{ L8 )T X. !T ~T l! l! a| a| a| /0 ;2 +{ +{ A) A) ^< ^< A{ {_ {_ {_ lu q! q! q! O) O) O) mu mu lu {_ _A {T +b Yb {7 y  jb La ({ zd m0 m0 m0 m0 m0 m0 m0 m0 m0 m0 m0 m0 m0 m0 m0 m0 m0 m0 m0 m0 m0 m0 m0 m0 m0 m0 m0 m0 m0 m0 m0 m0 m0 m0 m0 m0 m0 m0 m0 m0 m0 m0 m0 m0 m0 m0 m0 m0 m0 m0 m0 m0 m0 m0 m0 m0 m0 m0 m0 m0 m0 m0 m0 m0 m0 m0 m0 m0 m0 m0 m0 m0 m0 m0 m0 m0 m0 m0 m0 m0 m0 m0 m0 m0 m0 m0 m0 m0 m0 m0 m0 m0 m0 m0 m0 m0 m0 m0 m0 m0 m0 m0 m0 m0 m0 m0 m0 m0 m0 m0 m0 m0 m0 m0 m0 m0 m0 m0 m0 m0 m0 m0 m0 m0 m0 m0 m0 m0 m0 m0 m0 m0 m0 m0 m0 m0 m0 m0 m0 yd P, ~~ ;~ ;~ ;~ ;~ ;~ ;~ ;~ ;~ ;~ ;~ ;~ ;~ ;~ ;~ ;~ >~ !~ }% yd m0 m0 m0 m0 [e [e 7d <c g. {7 {7 {7 .9 !! a0 S! ]T nu mu lu lu mu mu mu mu mu mu mu mu mu q! q! q! q! S! ^T S! S! S! S! q! q! q! p2 p2 lu lu ^< B! -@ Ra m0 [e m0 m0 m0 m0 m0 m0 m0 m0 m0 m0 m0 m0 U~ h, e{ {~ 5Q a| X. 7e *f G! xi dA QB .T >= DF R; QR j; .; }E m> 0* ]* Q& /T (T 6% *% p) _$ _$ _$ _$ _$ _$ _$ _$ _$ _$ S# {# z@ -@ m+ Q+ -+ $+ a+ e   h u  N' N' _< f_ e_ d[ S< b| _T :T tS tS tS tS dS NS qM qM qM qM -S <T [T KP 5N 5N 5N 5N 5N }T iO iO iO iO I^ PI PI PI PI =  =  =  =  |T ng ng ng lO 3P ;N %. %. %. %. %. %. %. %. %. %. %. %. %. ;T ",
"1T 2T CS CS CS CS CS <; Nb Nb Nb #u #u #u #u #u #u #u og cN cN cN cN @f dN dN dN dN dN dN dN eR DR DR DR DR DR DR fR fR PR 3T =J =J =J =J 'I kS (t 4T ]+ ]+ ]+ ]+ Q' c_ d_ e_ f_ g_ B! u  v  `. ++ 0. 0. #+ -+ P+ Q+ :# ;@ z@ {# S# _$ _$ _$ _$ _$ D$ `$ (% |% q% M% !& s& u* ^, 8d N- 9; Y; k; w; 'T /= ^I 4S UD jC cy 78 D9 xa 7e T~  ! <g 1~ m0 m0 m0 m0 m0 m0 m0 m0 m0 m0 {8 m0 Jd b{ 2{ L8 VS S' O) R! o) o) o) o) o) o) o) o) C^ C^ l) l) l) 5T () () () () () () () () () () () () () p! o) nv 6T +b {7 `) jb La ({ zd m0 m0 m0 m0 m0 m0 m0 m0 m0 m0 m0 m0 m0 m0 m0 m0 m0 m0 m0 m0 m0 m0 m0 m0 m0 m0 m0 m0 m0 m0 m0 m0 m0 m0 m0 m0 m0 m0 m0 m0 m0 m0 m0 m0 m0 m0 m0 m0 m0 m0 m0 m0 m0 m0 m0 m0 m0 m0 m0 m0 m0 m0 m0 m0 m0 m0 m0 m0 m0 m0 m0 m0 m0 m0 m0 m0 m0 m0 m0 m0 m0 m0 m0 m0 m0 m0 m0 m0 m0 m0 m0 m0 m0 m0 m0 m0 m0 m0 m0 m0 m0 m0 m0 m0 m0 m0 m0 m0 m0 m0 m0 m0 m0 m0 m0 m0 m0 m0 m0 m0 m0 m0 m0 m0 m0 m0 m0 m0 m0 m0 m0 m0 m0 m0 m0 m0 m0 m0 m0 l9 JD '~ ;~ ;~ ;~ ;~ ;~ ;~ ;~ ;~ ;~ ;~ ;~ ;~ ;~ ;~ ;~ >~ [~ v' Bd m0 m0 m0 m0 [e [e 7d <c g. {7 z  w  B! P' (a 5T 5T () () () () () () () () () () () () () () () () () () () () () () () () () () () 5T 5T z) S! !! -@ ]a n0 [e m0 m0 m0 m0 m0 m0 m0 m0 m0 m0 m0 m0 U~ g% 5{ ]~ i8 a| X. 7e *f G! xi [6 QB .T >= DF v; QR j; T; }E m> b* y, q& 7T A, 6% *% p) _$ _$ _$ _$ _$ _$ _$ _$ _$ _$ S# {# z@ -@ m+ Q+ -+ %+ b| R. Y. v  N' N' _< f_ e_ d[ S< m  _T 8T 9T 0T tS tS tS tS aT bT vS qM qM qM qM qM qM qM qM qM cT dT iO iO iO iO I^ PI PI PI M] =  =  =  =  eT ng ng fT NQ NQ a& %. %. %. %. %. %. %. %. %. %. %. %. %. %. ",
"gT gT hT {g CS CS CS CS <; Nb Nb iT #u #u #u #u #u #u dR cN cN cN cN @f dN dN dN dN dN dN dN dN nh DR DR DR DR jT fR fR PR =J =J =J =J =J 'I 'I kT jN jh ]+ ]+ ]+ {_ c_ d_ e_ f_ g_ B! u  v  `. ++ 0. 0. #+ -+ P+ Q+ :# ;@ z@ {# S# _$ _$ _$ _$ _$ D$ `$ (% |% q% M% !& s& u* ^, 8d N- Y- h; l; V- lT /= ^I 4S ^E jC cy 78 D9 xa 7e T~  ! <g 1~ m0 m0 m0 m0 m0 m0 m0 m0 m0 m0 {8 of g% B~ 2{ L8 @) A) l) z) p! l) l) l) l) l) l) l) l) l) l) l) l) l) 5T () () () () () () () () () () () 5T p! l) @8 F~ {} .9 `) jb La ({ zd m0 m0 m0 m0 m0 m0 m0 m0 m0 m0 m0 m0 m0 m0 m0 m0 m0 m0 m0 m0 m0 m0 m0 m0 m0 m0 m0 m0 m0 m0 m0 m0 m0 m0 m0 m0 m0 m0 m0 m0 m0 m0 m0 m0 m0 m0 m0 m0 m0 m0 m0 m0 m0 m0 m0 m0 m0 m0 m0 m0 m0 m0 m0 m0 m0 m0 m0 m0 m0 m0 m0 m0 m0 m0 m0 m0 m0 m0 m0 m0 m0 m0 m0 m0 m0 m0 m0 m0 m0 m0 m0 m0 m0 m0 m0 m0 m0 m0 m0 m0 m0 m0 m0 m0 m0 m0 m0 m0 m0 m0 m0 m0 m0 m0 m0 m0 m0 m0 m0 m0 m0 m0 m0 m0 m0 m0 m0 m0 m0 m0 m0 m0 m0 m0 m0 m0 m0 m0 ({ g% -$ ;~ ;~ ;~ ;~ ;~ ;~ ;~ ;~ ;~ ;~ ;~ ;~ ;~ ;~ ;~ ;~ ;~ :~ 0{ 5e m0 m0 m0 m0 [e [e 7d <c g. y  Rd g_ R' R! l) p! 5T () () () () () () () () () () () () () () () () () () () () () () () () () () () 5T p! S! ;2 .9 Y@ ]a n0 [e m0 m0 m0 m0 m0 m0 m0 m0 m0 m0 m0 m0 Od Ke !~ ]~ i8 a| X. 7e *f G! xi dA QB .T >= DF v; &S ,T T; }E bA b* y, -* >& v% 6% *% p) _$ _$ _$ _$ _$ _$ _$ _$ _$ _$ S# {# z@ -@ m+ Q+ -+ $+ d+ Y. `. u  N' N' _< f_ e_ d[ S< b_ mT nT 8T oT pT tS tS tS tS tS tS aT qT qT qT qT qT rT sT tT K~ uT iO iO iO iO I^ PI PI PI sK =  =  =  =  ha ng ng f0 NQ Wp %. %. %. %. %. %. %. %. %. %. %. %. %. %. %. ",
"gT gT gT gT 2T CS CS CS CS iS Nb g| #u #u #u #u #u #u OQ cN cN cN cN dN dN dN dN dN dN dN dN dN AR DR DR DR DR 'S fR fR PR =J =J =J =J =J NP 'I vT #S wT ]+ ]+ ]+ {_ c_ d_ e_ f_ g_ B! u  v  `. ++ 0. 0. #+ -+ P+ Q+ :# ;@ z@ {# S# _$ _$ _$ _$ _$ D$ `$ (% |% q% M% !& s& u* G* 8d N- Y- q; xT yT lT /= ^I 4S ^E zT xy 78 D9 xa 7e T~  ! <g 1~ m0 m0 m0 m0 m0 m0 m0 m0 m0 m0 {8 ({ f% l~ }{ ze #) la S! l) p! l) l) l) l) l) l) l) l) l) l) l) l) l) l) l) l) l) l) l) l) p! p! p! l) l) 5~ 5~ 5~ 5~ C^ P' /) ov ^c ]b ({ zd m0 m0 m0 m0 m0 m0 m0 m0 m0 m0 m0 m0 m0 m0 m0 m0 m0 m0 m0 m0 m0 m0 m0 m0 m0 m0 m0 m0 m0 m0 m0 m0 m0 m0 m0 m0 m0 m0 m0 m0 m0 m0 m0 m0 m0 m0 m0 m0 m0 m0 m0 m0 m0 m0 m0 m0 m0 m0 m0 m0 m0 m0 m0 m0 m0 m0 m0 m0 m0 m0 m0 m0 m0 m0 m0 m0 m0 m0 m0 m0 m0 m0 m0 m0 m0 m0 m0 m0 m0 m0 m0 m0 m0 m0 m0 m0 m0 m0 m0 m0 m0 m0 m0 m0 m0 m0 m0 m0 m0 m0 m0 m0 m0 m0 m0 m0 m0 m0 m0 m0 m0 m0 m0 m0 m0 m0 m0 m0 m0 m0 m0 m0 m0 m0 m0 m0 m0 m0 -e AT )~ ;~ ;~ ;~ ;~ ;~ ;~ ;~ ;~ ;~ ;~ ;~ ;~ ;~ ;~ ;~ ;~ ;~ ;~ a{ (0 m0 m0 m0 m0 [e [e yd La %+ Nf F~ BT l) 5~ l) l) l) l) l) l) l) l) l) l) l) l) l) l) l) l) l) l) l) l) l) l) l) l) l) l) l) l) l) l) p! O) U' 9. Yb x# ]a n0 [e m0 m0 m0 m0 m0 m0 m0 m0 m0 m0 m0 m0 -G CT )~ ]~ i8 a| T~ 7e *f G! xi dA QB .T >= DF W- r; DT a; }E bA G* 8G ;* >& H% 6% *% p) _$ _$ _$ _$ _$ _$ _$ _$ _$ _$ S# {# z@ -@ m+ Q+ -+ $+ ++ y  `. u  N' N' _< f_ e_ d[ S< b_ ET FT GT oT 8T HT IT tS tS tS tS tS tS tS tS tS tS tS H) L] K~ K~ JT iO iO iO I^ PI PI PI [j =  =  =  =  '$ ng ng d0 NQ KT %. %. %. %. %. %. %. %. %. %. %. %. %. %. %. ",
"YH gT gT gT gT LT i| CS CS MT B% Ca #u #u #u #u #u #u Ml cN cN cN cN NT dN dN dN dN dN dN dN dN dN SS DR DR DR OT fR fR PT =J =J =J =J =J NP QT vT kT jN XH ]+ ]+ {_ c_ d_ e_ f_ g_ B! u  v  `. ++ 0. 0. #+ -+ P+ Q+ :# ;@ z@ {# S# _$ _$ _$ _$ _$ D$ `$ (% |% q% M% !& s& u* G* 8d N- Y- i; RT yT lT /= ^I 4S ^E wy xy 78 D9 xa 7e T~  ! <g 1~ m0 m0 m0 m0 m0 m0 m0 m0 m0 m0 6e K0 u' )~ }{ ze B$ Aa a0 o) l) l) p! p! z) z) z) z) z) z) z) () () () () () () () () () () /{ /{ /{ /{ /{ mv mv mv mv mv /{ o) +4 kb ^b ({ zd m0 m0 m0 m0 m0 m0 m0 m0 m0 m0 m0 m0 m0 m0 m0 m0 m0 m0 m0 m0 m0 m0 m0 m0 m0 m0 m0 m0 m0 m0 m0 m0 m0 m0 m0 m0 m0 m0 m0 m0 m0 m0 m0 m0 m0 m0 m0 m0 m0 m0 m0 m0 m0 m0 m0 m0 m0 m0 m0 m0 m0 m0 m0 m0 m0 m0 m0 m0 m0 m0 m0 m0 m0 m0 m0 m0 m0 m0 m0 m0 m0 m0 m0 m0 m0 m0 m0 m0 6e m0 m0 m0 m0 m0 m0 m0 m0 m0 m0 m0 m0 m0 m0 m0 m0 m0 m0 m0 m0 m0 m0 m0 m0 m0 m0 m0 m0 m0 m0 m0 m0 m0 m0 m0 m0 m0 m0 m0 m0 m0 m0 m0 m0 m0 m0 m0 m0 m0 -e ST <~ >~ ;~ ;~ ;~ ;~ ;~ ;~ ;~ ;~ ;~ ;~ ;~ ;~ ;~ ;~ ;~ ;~ >~ l~ }% yd m0 m0 m0 [e [e Bd G$ 8. @8 () () /{ /{ () () () () () () () () () () () () () () z) z) z) z) z) z) z) z) z) p! p! p! p! p! p! p! 8: F~ }d z  i+ y# ]a n0 [e m0 m0 m0 m0 m0 m0 m0 m0 m0 m0 m0 m0 5e b{ '~ ]~ i8 a| T~ 7e *f G! xi dA QB .T >= DF W- r; xT U; IE p> G* ^* ;* >& H% 6% *% `$ _$ _$ _$ _$ _$ _$ _$ _$ _$ _$ S# {# z@ -@ m+ Q+ -+ $+ 0. y  `. u  N' N' _< f_ e_ d[ S< b_ rN TT FT UT VT oT 8T WT XT YT tS tS tS tS tS tS ZT `T  U .U K~ K~ +U iO iO iO I^ PI PI PI zS =  =  =  6r ng ng ng p9 lk %. %. %. %. %. %. %. %. %. %. %. %. %. %. %. %. ",
"@U #U $U gT gT gT gT %U Y% Ea &U #u #u #u #u #u #u #u #u og cN cN cN mO dN dN dN dN dN dN dN dN dN AR CR DR DR ES fR fR  O =J =J =J =J =J NP *U vT vT #S jN =U ]+ {_ c_ d_ e_ f_ g_ B! u  v  `. ++ 0. 0. #+ -+ P+ Q+ :# ;@ z@ {# S# _$ _$ _$ _$ _$ D$ `$ (% |% q% M% !& s& u* G* !e N- Y- q; m; X- lT /= ^I (* ^E wy xy 78 D9 xa 7e T~  ! <g 1~ m0 m0 m0 m0 m0 m0 m0 m0 m0 6e m0 ^a e{ :~ }{ ze zm 0. !! 3! O) C^ C^ o) O) O) O) O) O) O) S! lu q! q! lu p2 p2 -U -U A{ {_  ! S! p2 -U -U -U A{ A{ {_ {_ A{ P' ;2 &+ W& U~ [e m0 m0 m0 m0 m0 m0 m0 m0 m0 m0 m0 m0 m0 m0 m0 m0 m0 m0 m0 m0 m0 m0 m0 m0 m0 m0 m0 m0 m0 m0 m0 m0 m0 m0 m0 m0 m0 m0 m0 m0 m0 m0 m0 m0 m0 m0 m0 m0 m0 m0 m0 m0 m0 m0 m0 m0 m0 m0 m0 m0 m0 m0 m0 m0 m0 6e {8 {8 {8 {8 {8 {8 {8 {8 {8 m0 m0 m0 m0 m0 m0 m0 m0 m0 m0 $0 7d Bd U~ 6e m0 m0 m0 m0 m0 m0 m0 m0 m0 m0 m0 m0 m0 m0 m0 m0 m0 m0 m0 m0 m0 m0 m0 m0 m0 m0 m0 m0 m0 m0 m0 m0 m0 m0 m0 m0 m0 m0 m0 m0 m0 m0 m0 m0 m0 m0 m0 m0 -e CT )~ '~ ;~ ;~ ;~ ;~ ;~ ;~ ;~ ;~ ;~ ;~ ;~ ;~ ;~ >~ >~ >~ *e ;~ F9 5e m0 m0 m0 @t @t 3~ D^ k)  ! {_ {_ S! S! p2 {_ -U -U -U -U p2 S! q! lu lu lu q! lu S! ]T O) O) O) O) O) O) O) ;U o) o) o) o) l) (a a0 Jv +b {7 i+ y# ]a n0 [e m0 m0 m0 m0 m0 m0 m0 m0 m0 m0 m0 U~ h, c{ ;~ ]~ i8 a| T~ 7e *f G! xi dA QB .T >= DF W- h; xT >U IE ,U G* ^* ;* >& H% 6% =% `$ _$ _$ _$ _$ _$ _$ _$ _$ _$ _$ S# {# z@ -@ m+ Q+ -+ $+ 0. y  `. u  N' N' _< f_ e_ d[ S< b_ 6N 'U )U !U FT FT ~U nT {U {U ]U ^U /U (U (U (U _U  U  U `T K~ K~ :U iO iO iO I^ PI PI PI =  =  =  =  CF ng ng ng <U $. %. %. %. %. %. %. %. %. %. %. %. %. %. %. %. %. ",
"@U @U @U gu [U $U gT gT 1T #u #u #u #u #u #u #u #u #u #u #u og cN cN cN NT dN dN dN dN dN dN dN dN dN eR CR DR TS fR fR }U =J =J =J =J =J NP |U vT vT 1U jN jN 2U b_ c_ d_ e_ f_ g_ B! u  v  `. ++ 0. 0. #+ -+ P+ Q+ :# ;@ z@ {# S# _$ _$ _$ _$ _$ D$ `$ (% |% q% M% !& s& u* G* !e ;J Y- i; m; 3U 4U /= ^I (* ^E wy xy 78 D9 xa 7e T~  ! <g 1~ m0 m0 m0 m0 m0 m0 m0 m0 m0 {8 n0 g% ~~ '~ }{ ze c$ i+ Rd Nf <3 T~ h_ Aa y~ g~ g~ g~ |b |b !7 !7 !7 =+ =+ Sb W^ W^ h~ y0 y0 y0 C! w# TB TB TB V@ V@ V@ o! LD LD It Y$ Y~ m0 [e m0 m0 m0 m0 m0 m0 m0 m0 m0 m0 m0 m0 m0 m0 m0 m0 m0 m0 m0 m0 m0 m0 m0 m0 m0 m0 m0 m0 m0 m0 m0 m0 m0 m0 m0 m0 m0 m0 m0 m0 m0 m0 m0 m0 m0 m0 m0 m0 m0 m0 m0 m0 m0 m0 m0 m0 m0 m0 m0 m0 m0 6e {8 {8 m0 }e U~ Ad 7d 7d 7d yd Ad Ad U~ U~ m0 6e 6e m0 m0 m0 m0 m0 {8 Od g% Ke .q }e {8 m0 m0 m0 m0 m0 m0 m0 m0 m0 m0 m0 m0 m0 m0 m0 m0 m0 m0 m0 m0 m0 m0 m0 m0 m0 m0 m0 m0 m0 m0 m0 m0 m0 m0 m0 m0 m0 m0 m0 m0 m0 m0 m0 m0 m0 m0 m0 Od h% 4e e{ l~ ;~ ;~ ;~ ;~ ;~ ;~ ;~ ;~ ,~ >~ >~ >~ ;~ :~ :~ :~ ;~ b{ .q }e m0 m0 m0 $0 Qd 5U o! w# ;@ w# y0 y0 y0 y0 h~ h~ h~ h~ O9 Sb =+ =+ =+ =+ =+ =+ !7 6U |b |b m! g~ g~ g~ g~ g~ Aa Aa r! h_ N) 7U 8U 9U {7 {7 i+ y# ]a n0 [e m0 m0 m0 m0 m0 m0 m0 m0 m0 m0 m0 U~ 3% B~ ;~ ]~ i8 a| T~ 7e *f 7- xi dA QB .T >= DF W- h; RT >U 0U p> G* ^* ;* >& H% 6% =% `$ _$ _$ _$ _$ _$ _$ _$ _$ _$ _$ S# {# z@ -@ m+ Q+ -+ $+ 0. y  `. u  N' N' _< f_ e_ d[ S< b_ 6N 'U 'U 'U aU FT FT FT bU cU {U {U ]U dU (U eU  U  U fU gU K~ K~ ;) iO iO iO I^ PI PI PI Yq =  =  w2 hU ng ng ng J# %. %. %. %. %. %. %. %. %. %. %. %. %. %. %. %. %. ",
"@U @U @U @U @U @U @U @U iU jU #u #u #u #u #u #u #u #u #u #u #u LO cN cN MO dN dN dN dN dN dN dN dN dN dN dN Oh kU fR fR lU =J =J =J =J =J NP }O vT vT vT mU nU oU -( c_ d_ e_ f_ g_ B! u  v  `. ++ 0. 0. #+ -+ P+ Q+ :# ;@ z@ {# S# _$ _$ _$ _$ _$ D$ `$ (% |% q% M% !& s& u* G* 8d N- Y- W; n; 3U 4U /= ^I (* ^E wy xy 78 D9 xa 7e T~  ! <g 1~ m0 m0 m0 m0 m0 m0 m0 m0 m0 {8 ({ v' [~ ;~ }{ ze c$ &) .9 `) :# G$ La 5w %* %* #% #% x0 i, $x $x da J! J! J! aa (~ Y~ _~ _~ _~ _~ 3~ 3~ 3~ Qd E9 ^a P9 P9 P! P! P! 7d ({ n0 m0 m0 m0 m0 m0 m0 m0 m0 m0 m0 m0 m0 m0 m0 m0 m0 m0 m0 m0 m0 m0 m0 m0 m0 m0 m0 m0 m0 m0 m0 m0 m0 m0 m0 m0 m0 m0 m0 m0 m0 m0 m0 m0 m0 m0 m0 m0 m0 m0 m0 m0 m0 m0 m0 m0 m0 m0 m0 m0 {8 {8 67 $0 ({ yd -e Jd P, Ke 4e =e 0{ =e =e 68 _k uk We ({ m0 6e 6e m0 m0 {8 m0 .q e{ +r =e -e 6e 6e m0 m0 m0 m0 m0 m0 m0 m0 m0 m0 m0 m0 m0 6e 6e 6e m0 m0 m0 m0 m0 m0 m0 m0 m0 m0 m0 m0 m0 m0 m0 m0 m0 m0 m0 m0 m0 m0 m0 m0 m0 m0 m0 m0 m0 m0 m0 U~ Bd h, e{ '~ ;~ ;~ ;~ ;~ ;~ ;~ ;~ ,~ }{ <{ qh a{ =e &h (e a{ Ae h, U~ m0 m0 m0 $0 7d l9 3~ F0 F0 G8 _~ _~ _~ _~ _~ (~ (~ K! aa J! J! J! J! J! da da da i, x0 x0 %* 5w #% #% %* T9 5w W& 5w W& F$ k. `) `) {7 {7 i+ y# ]a n0 [e m0 m0 m0 m0 m0 m0 m0 m0 m0 m0 m0 U~ h% d{ :~ ]~ i8 a| T~ 7e *f 7- xi dA QB %B ,= DF W- h; pU >U =F o> G* ^* ;* >& H% 6% *% `$ _$ _$ _$ _$ _$ _$ _$ _$ _$ _$ S# {# z@ -@ m+ Q+ -+ $+ 0. y  `. u  N' N' _< f_ e_ d[ S< b_ 6N 'U 'U 'U 'U )U TT FT FT FT qU rU sU (U tU uU  U  U vU K~ K~ K~ ;) iO iO iO I^ PI PI PI :' =  =  wU xU r} /+ d= %. %. %. %. %. %. %. %. %. %. %. %. %. %. %. %. %. %. ",
"@U @U @U @U @U @U @U @U yU iU KT @| #u #u #u #u #u #u #u #u #u ns cN cN cN Yf dN dN dN dN dN dN dN dN dN dN dN fR fR fR ~R =J =J =J =J =J NP zU vT vT vT AU oU oU -( c_ d_ e_ f_ g_ B! u  v  `. ++ 0. 0. #+ -+ P+ Q+ :# ;@ z@ {# S# _$ _$ _$ _$ _$ D$ `$ (% |% q% M% ~& s& u* BU 8d N- PO CU n; DU 4U (= |, (* ^E wy xy 78 D9 xa 7e T~  ! <g 1~ m0 m0 m0 m0 m0 m0 m0 m0 m0 {8 Bd t' :~ ;~ }{ ze c$ &) .9 %+ ab F0 n0 m0 m0 U~ U~ U~ U~ U~ $0 C{ C{ C{ C{ $0 $0 ;e ;e @t @t @t @t [e [e [e {8 {8 [e [e [e [e [e [e 6e 6e m0 m0 m0 m0 m0 m0 m0 m0 m0 m0 m0 m0 m0 m0 m0 m0 m0 m0 m0 m0 m0 m0 m0 m0 m0 m0 m0 m0 m0 m0 m0 m0 m0 m0 m0 m0 m0 m0 m0 m0 m0 m0 m0 m0 m0 m0 m0 m0 m0 m0 m0 m0 m0 m0 m0 m0 m0 m0 {8 {8 m0 ({ Bd Jd P, v' 0{ a{ qh <{ }{ ;~ ;~ k~ [{ <{ 3{ c{ C' B; We ({ m0 {8 m0 6e 7d w' 3{ ,~ qh |% ({ {8 m0 m0 m0 m0 m0 m0 m0 m0 6e {8 {8 {8 m0 m0 m0 m0 m0 67 {8 {8 6e m0 m0 m0 m0 m0 m0 m0 m0 m0 m0 m0 m0 m0 m0 m0 m0 m0 m0 m0 m0 m0 m0 m0 m0 m0 m0 m0 m0 U~ Ke :~ ;~ ;~ ;~ ;~ ,~ ,~ <{ qh :e 4e W% .q 7d yd Bd 3% 3% <e $0 m0 m0 m0 m0 }e 6e {8 [e [e [e @t @t @t @t @t ;e ;e m0 m0 C{ C{ $0 $0 C{ C{ C{ $0 $0 U~ U~ U~ U~ U~ U~ m0 m0 m0 m0 m0 6e 3~ _$ i+ `) {7 {7 i+ y# ]a n0 [e m0 m0 m0 m0 m0 m0 m0 m0 m0 m0 m0 U~ h% B~ :~ ]~ i8 a| T~ 7e *f 7- xi dA QB %B ,= DF X- h; p; >U =F p> G* ^* ;* >& H% 6% *% `$ _$ _$ _$ _$ _$ _$ _$ _$ _$ _$ S# {# z@ -@ m+ Q+ -+ $+ 0. y  `. u  N' N' _< f_ e_ d[ S< b_ eS qM qM qM EU 'U 'U FU FT FT FT FT GU (U _U  U  U fU HU K~ K~ K~ IU iO iO iO I^ PI PI PI f@ =  bR CF Wf 7n %. %. %. %. %. %. %. %. %. %. %. %. %. %. %. %. %. %. %. %. ",
"@U @U @U @U @U @U @U @U @U JU iU iU jU #u #u #u #u #u #u #u #u #u cN cN cN KU dN dN dN dN dN dN dN dN dN dN dN fR fR LU =J =J =J =J =J =J NP MU vT vT vT NU oU oU :< c_ d_ e_ f_ g_ B! u  v  `. ++ 0. 0. #+ -+ P+ Q+ :# ;@ z@ {# S# _$ _$ _$ _$ _$ D$ Z$ (% |% q% M% ~& s& u* BU 8d ;J Z- CU o; OU PU (= 1, (* ^E wy xy 78 D9 xa 7e T~  ! <g 1~ m0 m0 m0 m0 m0 m0 m0 m0 m0 6e -e 0{ :~ ;~ }{ ze %9 &) .9 -+ ^b QU 67 [e [e [e [e [e [e [e [e [e [e [e [e [e [e [e [e [e [e [e [e {8 {8 {8 {8 6e m0 m0 m0 m0 m0 m0 m0 m0 m0 m0 m0 m0 m0 m0 m0 m0 m0 m0 m0 m0 m0 m0 m0 m0 m0 m0 m0 m0 m0 m0 6e 6e 6e 6e 6e 6e m0 m0 m0 m0 m0 m0 m0 m0 m0 m0 m0 m0 m0 m0 m0 m0 m0 m0 m0 m0 m0 m0 m0 m0 m0 6e 6e {8 67 m0 n0 ({ ^a }% 0{ b{ C~ )~ :~ :~ ;~ ,~ >~ >~ >~ >~ >~ >~ >~ ;~ '~ [~ e{ g% Ad 67 RU ({ g% 5{ ;~ >~ ;~ a{ Jd Sj {8 {8 {8 {8 {8 6e m0 m0 m0 m0 m0 ({ -e h, Jd Jd h, Bd ({ n0 m0 {8 {8 {8 {8 6e m0 m0 m0 m0 m0 m0 m0 m0 m0 m0 m0 m0 m0 m0 m0 m0 m0 m0 m0 m0 m0 m0 m0 $0 B; :~ ;~ ;~ ;~ >~ >~ 3{ qw |% gx Ad U~ m0 m0 {8 6e }e U~ m0 m0 m0 m0 m0 m0 m0 6e {8 {8 {8 {8 [e [e [e [e [e [e [e [e [e [e [e [e [e [e [e [e [e [e [e [e [e [e [e [e [e [e [e [e zd SU ee D$ i+ y  {7 {7 i+ y# ]a n0 [e m0 m0 m0 m0 m0 m0 m0 m0 m0 m0 m0 U~ h% B~ :~ ]~ i8 a| X. 7e *f 7- xi dA 'C %B ,= DF X- KS n; t; =F p> G* ^* ;* >& H% 6% *% p) _$ _$ _$ _$ _$ _$ _$ _$ _$ _$ S# {# z@ -@ m+ Q+ -+ $+ 0. y  `. u  N' N' _< f_ e_ d[ S< b_ pM qM qM qM qM $T 'U 'U FU FT FT FT FT uU  U  U  U TU HU K~ K~ K~ K~ iO iO iO vi PI PI PI PI l8 UU CF E, /+ %. %. %. %. %. %. %. %. %. %. %. %. %. %. %. %. %. %. %. %. ",
"@U @U @U @U @U @U @U @U @U VU iU iU iU KT @| #u #u #u #u #u #u #u LO cN cN cN qk dN dN dN dN dN dN dN dN dN dN fR fR WU =J =J =J =J =J =J XU vT vT vT vT [S YU =U Q' c_ d_ e_ f_ g_ B! u  v  `. ++ 0. 0. #+ -+ P+ Q+ :# ;@ z@ {# S# _$ _$ _$ _$ _$ D$ `$ (% |% q% L% ~& s& u* Sr 8d ;J ^> CU o; OU ^- (= 1, (* ^E wy xy 78 D9 xa 7e T~  ! <g 1~ m0 m0 m0 m0 m0 m0 m0 m0 m0 6e -e 0{ :~ ;~ }{ ze %9 &) .9 -+ ^b {a m0 m0 m0 m0 m0 m0 m0 m0 m0 m0 m0 m0 m0 m0 m0 m0 m0 m0 m0 m0 m0 m0 m0 m0 m0 m0 m0 m0 m0 m0 m0 m0 m0 m0 m0 m0 m0 m0 m0 m0 m0 m0 m0 m0 m0 6e {8 {8 {8 {8 {8 {8 6e m0 m0 m0 m0 m0 m0 m0 m0 m0 m0 m0 {8 {8 {8 {8 {8 {8 {8 6e 6e m0 m0 m0 m0 m0 m0 m0 m0 m0 m0 6e {8 {8 {8 6e m0 n0 yd 5e Jd [% e{ !~ :~ :~ ;~ >~ >~ ;~ ;~ ;~ ;~ ;~ ;~ ;~ ;~ ;~ ;~ ,~ >~ >~ ;~ b{ 2% $0 n0 /a a{ k~ ,~ ;~ >~ )~ 6{ 3% U~ m0 m0 m0 m0 ({ Bd gx .q g% P, w' C' a{ 5{ 5{ e{ t' P, Jd l9 7d ({ n0 m0 m0 {8 {8 {8 {8 6e m0 m0 m0 m0 m0 m0 m0 m0 m0 m0 m0 m0 m0 m0 m0 m0 m0 m0 U~ |% !~ ;~ >~ >~ >~ <{ Ae h, U~ $0 67 {8 m0 m0 m0 m0 6e m0 m0 m0 m0 m0 m0 m0 m0 m0 m0 m0 m0 m0 m0 m0 m0 m0 m0 m0 m0 m0 m0 m0 m0 m0 m0 m0 m0 m0 m0 m0 m0 m0 m0 m0 m0 m0 m0 m0 m0 m0 [e [e l9 D$ i+ y  {7 {7 i+ y# ]a n0 [e m0 m0 m0 m0 m0 m0 m0 m0 m0 m0 m0 U~ uk W~ :~ ]~ i8 a| X. 7e *f 7- xi dA 'C %B ,= DF X- KS n; t; =F p> G* ^* ;* ,& I% 6% *% p) _$ _$ _$ _$ _$ _$ _$ _$ _$ _$ S# {# z@ -@ m+ Q+ -+ $+ 0. y  `. u  N' N' _< f_ e_ d[ S< {_ wb ZU qM qM qM qM `U 'U 'U FU FT FT FT  U  U  U  U  V HU K~ K~ K~ K~ iO iO iO PI PI PI PI PI PI .V CF xU Dr %. %. %. %. %. %. %. %. %. %. %. %. %. %. %. %. %. %. %. %. ",
"@U @U @U @U @U @U @U @U @U @U JU iU iU iU iU @| #u #u #u #u #u #u OQ cN cN cN cN wN dN dN dN dN dN dN dN dN dN fR fR +V =J =J =J =J =J =J CJ vT vT vT vT &O 4K 4K Q' c_ d_ e_ f_ g_ B! u  v  `. ++ 0. 0. #+ -+ P+ Q+ :# ;@ z@ {# S# _$ _$ _$ _$ _$ D$ `$ (% |% q% L% ~& s& u* Sr 8d ;J Z- CU @V OU ^- #V 1, $V %V wy xy 78 D9 xa 7e T~  ! <g 1~ m0 m0 m0 m0 m0 m0 m0 m0 m0 6e -e 0{ :~ ;~ }{ ze c$ &) .9 -+ &V {a m0 m0 m0 m0 m0 m0 m0 m0 m0 m0 m0 m0 m0 m0 m0 m0 m0 m0 m0 m0 m0 m0 m0 m0 m0 m0 m0 m0 m0 m0 m0 m0 m0 m0 m0 m0 m0 {8 {8 {8 6e 6e 6e m0 m0 6e 6e 6e n0 ({ yd 7d 7d 5e gx (0 (0 (0 ^f ^f (0 ^a 5e Bd 7d ({ ({ Sj n0 m0 6e m0 m0 m0 m0 m0 {8 {8 {8 {8 {8 m0 m0 m0 n0 n0 ({ 7d 5e 1% _9 C' {~ [~ k~ ,~ >~ ;~ ;~ ;~ ;~ ;~ ;~ ;~ ;~ ;~ ;~ ;~ ;~ ;~ ;~ ;~ ;~ ,~ &e <{ Ae 3% 3% C' :~ ,~ ;~ ;~ ;~ ;~ )~ a{ w' pf Jd g% P, w' t' 6{ :g B~ k9 3{ '~ ;~ k~ :~ :~ :~ l~ 5{ 6{ v' Dd 1% Jd ^a -e ({ $0 m0 6e 6e 6e 6e {8 {8 {8 {8 {8 {8 {8 {8 {8 {8 {8 {8 {8 {8 {8 m0 -e %0 [~ ;~ :~ qh Ae .q U~ {8 67 m0 m0 m0 m0 m0 m0 m0 m0 m0 m0 m0 m0 m0 m0 m0 m0 m0 m0 m0 m0 m0 m0 m0 m0 m0 m0 m0 m0 m0 m0 m0 m0 m0 m0 m0 m0 m0 m0 m0 m0 m0 m0 m0 m0 m0 m0 m0 m0 [e [e l9 D$ i+ y  {7 {7 i+ y# ]a n0 [e m0 m0 m0 m0 m0 m0 m0 m0 m0 m0 m0 U~ 5% -~ ;~ ]~ i8 a| X. 7e *f 7- xi dA 'C %B ,= DF X- KS *V t; =F p> G* ^* ;* ,& I% 6% *% p) _$ _$ _$ _$ _$ _$ _$ _$ _$ _$ S# {# z@ -@ m+ Q+ -+ $+ 0. y  `. u  N' N' _< f_ e_ d[ S< {_ O~ =V -S qM qM qM NS 'U 'U 'U !U FT FT  U  U  U  U -V HU K~ K~ K~ +U iO iO iO PI PI PI PI PI PI k8 CF ;V %. %. %. %. %. %. %. %. %. %. %. %. %. %. %. %. %. %. %. %. %. ",
"@U @U @U @U @U @U @U @U @U @U >V iU iU iU iU gu #u #u #u #u #u #u ns cN cN cN cN qk dN dN dN dN dN dN dN dN dN fR fR ~k =J =J =J =J =J =J UI vT vT vT vT 4K 4K 4K Q' c_ d_ e_ f_ g_ B! u  v  `. ++ 0. 0. #+ -+ P+ Q+ :# ;@ z@ {# S# _$ _$ _$ _$ _$ D$ `$ (% |% q% L% ~& s& u* Sr 8d ;J Z- k; @V OU ^- #V 1, $V %V wy xy 78 D9 xa 7e T~  ! <g 1~ m0 m0 m0 m0 m0 m0 m0 m0 m0 {8 7d 4e :~ ;~ }{ ze c$ &) .9 -+ &V {a m0 m0 m0 m0 m0 m0 m0 m0 m0 m0 m0 m0 m0 m0 m0 m0 m0 m0 6e [e [e [e [e [e [e [e {8 6e 6e {8 {8 {8 {8 {8 67 m0 m0 m0 67 m0 }e ({ 7d -e We .q 3% Jd g% P, w' w' Ke 4e C' 6{ 6{ a{ :g a{ a{ 6{ C' 4e Ke w' P, g% Jd 3% h, h, gx 5e -e Od Ad U~ U~ U~ U~ Od -e 5e h, Jd |% Ke 6{ B~ [~ $9 ;~ ,~ ;~ ;~ ;~ ;~ ;~ ;~ ;~ ;~ ;~ ;~ ;~ ;~ ;~ ;~ ;~ ;~ ;~ ;~ ;~ ;~ ;~ ;~ 4{ e{ a{ k9 ;~ ;~ ;~ ;~ ;~ ;~ ;~ <{ _e 5{ d{ qh 4{ k9 [~ :~ k~ ;~ >~ >~ <~ ;~ ;~ }{ }{ 1{ }{ <{ <{ k9 qh B~ b{ C' Ke P, |% 3% We Od $0 6e {8 {8 {8 RU RU {8 {8 {8 {8 {8 {8 {8 {8 [e [e {8 67 5e 68  q Ae |% Bd m0 [e [e [e [e [e [e [e [e [e [e [e [e [e [e [e [e [e [e [e [e [e [e [e [e [e [e [e [e [e [e [e m0 m0 m0 m0 m0 m0 m0 m0 m0 m0 m0 m0 m0 m0 m0 m0 m0 m0 m0 m0 [e [e l9 D$ i+ y  {7 {7 i+ y# ]a n0 [e m0 m0 m0 m0 m0 m0 m0 m0 m0 m0 m0 U~ j% ,V ;~ ]~ i8 a| X. 7e *f 7- xi dA 'C %B ,= DF X- KS o; t; =F p> G* ^* ;* ,& I% 6% *% p) _$ _$ _$ _$ _$ _$ _$ _$ _$ _$ S# {# z@ -@ m+ Q+ -+ $+ 0. y  `. u  N' N' _< f_ e_ d[ S< {_ O~ =V =V 'V qM qM qM $T 'U 'U )U )V !V  U  U  U  U ~V HU K~ uT {V iO iO iO iO PI PI PI PI PI PI PI wU CF _; %. %. %. %. %. %. %. %. %. %. %. %. %. %. %. %. %. %. %. %. ",
"@U @U @U @U @U @U @U @U @U @U yU iU iU iU gu #u #u #u #u #u #u #u cR cN cN cN cN KU dN dN dN dN dN dN dN dN dN fR fR !R =J =J =J =J =J =J ]V vT vT vT fL 4K 4K 4K Q' c_ d_ e_ f_ g_ B! u  v  `. ++ 0. 0. #+ -+ P+ Q+ :# ;@ z@ {# S# _$ _$ _$ _$ _$ D$ `$ (% |% q% L% ~& s& u* Sr 8d ;J Z- k; @V OU ^- #V 1, ^V ^E wy xy 78 D9 xa 7e T~  ! <g 1~ m0 m0 m0 m0 m0 m0 m0 m0 m0 {8 Od Ke k9 ;~ }{ ze c$ &) .9 -+ &V {a m0 m0 m0 m0 m0 m0 m0 m0 m0 m0 m0 m0 m0 m0 m0 m0 m0 m0 m0 6e 6e KD KD KD {8 6e 6e 6e m0 6e m0 m0 m0 $0 Ad -e -e 5e 5e h, 3% g% w' 4e  q :e 5{ B~ _e l~ 4{ 4{ qh &B 3{ <{ <{ <{ [{ [{ <{ <{ 3{ k9 4{ 4{ 4{ B~ B~ 5{ :e  q  q =e KA w' 88 re re re re _k KA Ae a{ 5{ qh 4{ )~ ;~ ,~ ;~ ;~ ;~ ;~ ;~ '~ '~ '~ '~ '~ '~ ;~ ;~ ;~ ;~ ;~ ;~ ;~ ;~ ;~ ;~ ;~ ;~ ;~ ;~ :~ $9 :~ ;~ ;~ ;~ ;~ ;~ ;~ ;~ ;~ ;~ ;~ k~ ;~ ,~ ,~ ,~ <~ ;~ ;~ ;~ ;~ ;~ ;~ ;~ ;~ }{ }{ }{ }{ }{ }{ 1{ }{ }{ :~ )~ 4{ 4{ qh 5{ Ae B; 2% h, 5e -e Bd Bd Bd Bd -e -e -e -e -e -e -G -G -G -e Bd 5e 2% W% uk We Od Od Od Od Od Od Od Ad Ad Ad Ad U~ U~ U~ U~ U~ U~ C{ m0 m0 m0 m0 m0 ;e ;e ;e ;e m0 6e 6e 6e 6e 6e m0 m0 m0 m0 m0 m0 m0 m0 m0 m0 m0 m0 m0 m0 m0 m0 m0 m0 m0 m0 [e [e l9 D$ i+ y  {7 {7 i+ y# ]a n0 [e m0 m0 m0 m0 m0 m0 m0 m0 m0 m0 m0 m0 GD dd <~ ]~ i8 a| X. 7e *f 7- xi dA 'C %B ,= DF X- KS n; t; =F p> G* ^* ;* >& I% 6% *% p) _$ _$ _$ _$ _$ _$ _$ _$ _$ _$ S# {# z@ -@ m+ Q+ -+ $+ 0. y  `. u  N' N' _< f_ e_ d[ S< {_ O~ =V =V /V qM qM qM qM `U 'U 'U )U !V  U  U  U  U (V HU uT JT iO iO iO iO _V PI PI PI PI PI PI PI 2P CF {' %. %. %. %. %. %. %. %. %. %. %. %. %. %. %. %. %. %. %. %. ",
"@U @U @U @U @U @U @U @U @U @U yU iU iU iU jU $u iU gu #u #u #u #u #u LO cN cN cN cN @f dN dN dN dN dN dN dN !R fR fR dN =J =J =J =J =J =J :V vT vT vT 4K 4K 4K 4K Q' c_ d_ e_ f_ g_ B! u  v  `. ++ 0. 0. #+ -+ P+ Q+ :# ;@ z@ {# S# _$ _$ _$ _$ _$ D$ `$ (% |% q% L% ~& s& u* Sr 8d ;J Z- CU @V OU ^- (= 1, (* ^E wy xy 78 D9 xa 7e T~  ! <g 1~ m0 m0 m0 m0 m0 m0 m0 m0 m0 {8 Ad w' 4{ ;~ }{ ze c$ &) .9 -+ <V F0 m0 m0 m0 m0 m0 m0 m0 m0 m0 m0 m0 m0 m0 m0 m0 m0 m0 ({ 3~ da [V [V 3a $x ,' /~ [% M0 S9 Jd Jd 1% |% B; KA F9 JD @> {~ ~~ !~ l~ H8 I8 ;~ >~  { Jc Lf }V Kd Kd  {  { Kd Kd Kd Kd Kd Kd Kd Kd Kd Kd Kd Kd Kd Kd Lf Lf L8 L8 /e 80 _0 Va |V Va Va Va Va Va ze ze 1V 2V 2V Lf Lf Lf Lf Lf uj uj Lf Lf uj uj uj uj uj uj Lf Lf Lf Lf Lf Lf Je Je Je HS HS HS Bt Bt Bt Bt Bt Bt Bt Bt Bt Bt Bt Bt Bt Bt Bt Bt Bt Bt Bt Bt Bt Bt Bt Bt Bt Bt Bt Bt Bt Bt Bt Bt Bt Bt Bt Bt 3V 3V Ct Ct Ct Et Et Dt Je +g Tb @9 Q9 D9 ce ce ce /; /; D9 Yi Yi Yi Yi Yi Yi D9 /; /; ce /; /; :> :> :> :> :> :> :> :> :> ~' ~' ~' ~' 4V 4V @% @% @% @% @% @% 5V #% #% #% (% &% &% &% %* %* %* %* [V &a %a Am {8 m0 m0 m0 m0 m0 m0 m0 m0 m0 m0 m0 m0 m0 m0 m0 m0 m0 [e [e l9 D$ i+ y  {7 {7 i+ y# ]a n0 [e m0 m0 m0 m0 m0 m0 m0 m0 m0 m0 m0 m0 -G qw ;~ ]~ i8 a| X. 7e *f 7- xi dA 'C %B ,= DF X- h; 6V t; =F p> G* ^* ;* >& H% 6% *% p) _$ _$ _$ _$ _$ _$ _$ _$ _$ _$ S# {# z@ -@ m+ Q+ -+ $+ 0. y  `. u  N' N' _< f_ e_ d[ S< {_ O~ =V =V =V 'V qM qM qM NS 'U 'U 'U 7V  U  U  U  U fU HU JT iO iO iO iO iO _V PI PI PI PI PI PI PI 8V CF rb %. %. %. %. %. %. %. %. %. %. %. %. %. %. %. %. %. %. %. %. ",
"@U @U @U @U @U @U @U @U @U @U VU iU iU iU iU iU iU jU #u #u #u #u #u Ml cN cN cN cN qk dN dN dN dN dN dN dN ~k fR fR dN =J =J =J =J =J =J vT vT vT MU 4K 4K 4K 4K Q' c_ d_ e_ f_ g_ B! u  v  `. ++ 0. 0. #+ -+ P+ Q+ :# ;@ z@ {# S# _$ _$ _$ _$ _$ D$ `$ (% |% q% L% ~& s& u* Sr 8d ;J Z- CU o; DU 4U (= 1, (* ^E wy xy 78 D9 xa 7e T~  ! <g 1~ m0 m0 m0 m0 m0 m0 m0 m0 m0 {8 U~ |% B~ :~ }{ ze c$ &) .9 -+ <V F0 U~ m0 m0 m0 m0 m0 m0 m0 m0 m0 m0 m0 m0 m0 m0 {8 {8 F0 H$ P+ 0. ++ ++ Za Zd Zo c$ X$ ^% xa *f *f ,w D~ Qu 9V 0V Gt W$ @& @& @& @& @& G% G% W$ @& _  _  [u [u [u [u G% E. _  _  _  _  _  _  _  _  _  @& @& _  _  a$ a$ a$ 0$ 0$ 0$ 0$ }  |  |  |  |  }  }  }  >g >g >g >g >g lb lb lb lb lb lb lb lb lb lb lb lb lb lb lb lb lb lb >g XS XS XS )u )u )u !u !u !u !u !u !u !u !u !u !u !u !u ~u ~u ~u ~u !u !u !u !u ~u ~u ~u ~u {u {u {u {u {u {u {u aV bV )# )# )# )# )# rf rf ]u cV cV cV cV cV cV dV y{ ]u Ya Ya Ya rf rf ]u cV cV cV cV cV cV ]u rf rf ]u rf Ya `p `p rf rf W' W' W' W' m~ m~ m~ `] `] m~ eV eV xc xc xc `] m~ `] xc fV fV fV y~ y~ y~ fV fV xc Aa `) v0 D$ 3~ [e {8 m0 m0 m0 m0 m0 m0 m0 m0 m0 m0 m0 m0 m0 m0 m0 m0 [e [e l9 D$ i+ y  {7 {7 i+ y# ]a n0 [e m0 m0 m0 m0 m0 m0 m0 m0 m0 m0 m0 m0 Tj Ae <{ ]~ i8 a| X. 7e *f 7- xi dA QB %B ,= DF X- h; p; t; =F p> G* ^* ;* >& H% 6% *% p) _$ _$ _$ _$ _$ _$ _$ _$ _$ _$ S# {# z@ -@ m+ Q+ -+ $+ 0. y  `. u  N' N' _< f_ e_ d[ S< {_ O~ =V =V =V WR qM qM qM qM $T 'U 'U 'U gV  U  U  U  U hV iV iO iO iO iO iO jV PI PI PI PI PI PI PI e@ CF d= d= %. %. %. %. %. %. %. %. %. %. %. %. %. %. %. %. %. %. %. ",
"@U @U @U @U @U @U @U @U @U @U @U JU iU iU iU iU iU @| #u #u #u #u #u #u og cN cN cN KU wN dN dN dN dN dN dN ~k fR fR dN =J =J =J =J =J =J vT vT vT MU 4K 4K 4K 4K Q' c_ d_ e_ f_ g_ B! u  v  `. ++ 0. 0. #+ -+ P+ Q+ :# ;@ z@ {# S# _$ _$ _$ _$ _$ D$ `$ (% |% q% M% ~& s& u* BU 8d ;J Z- CU n; 3U 4U (= |, (* ^E wy xy 78 D9 xa 7e T~  ! <g 1~ m0 m0 m0 m0 m0 m0 m0 m0 m0 {8 m0 Jd 5{ :~ }{ ze c$ &) .9 %+ ab F0 U~ m0 m0 m0 m0 m0 m0 m0 m0 m0 m0 m0 m0 m0 m0 [e [e %a x# }d kV @8 5~ /{ /{ z) lV mV 7: wa sS sS sS nV nV k  nV nV :< wa wa wa ou oV nV sS sS sS sS ou sS sS sS sS sS nV nV 7: 7: 7: 7: 7: 7: 7: 7: 7: 7: 7: 7: 7: 7: 7: 7: 7: 7: ^< ^< pV pV pV pV S^ S^ S^ S^ S^ S^ S^ mV mV mV pV pV pV pV pV pV pV pV pV pV pV pV pV pV pV pV pV p2 p2 p2 p2 p2 p2 p2 lu lu lu lu lu lu lu lu lu lu lu lu lu lu lu lu lu lu lu lu lu lu lu lu mu mu mu O) O) O) O) O) O) R! R! R! R! R! C^ C^ C^ C^ R! l) (a l) l) qV qV p! p! p! z) z) z) z) z) z) z) z) z) z) z) z) z) z) z) z) z) z) z) () () () () () () () () () () /{ () () () () () rV mv () () () () sV sV sV /{ /{ () o) B{ Jv 4! (~ [e xd m0 m0 m0 m0 m0 m0 m0 m0 m0 m0 m0 m0 m0 m0 m0 m0 [e [e l9 D$ i+ y  {7 {7 i+ y# ]a n0 [e m0 m0 m0 m0 m0 m0 m0 m0 m0 m0 m0 m0 Tj tV k9 ]~ i8 a| X. 7e *f 7- xi [6 QB .T >= DF W- h; p; t; 0U o> G* ^* ;* >& H% 6% *% p) _$ _$ _$ _$ _$ _$ _$ _$ _$ _$ S# {# z@ -@ m+ Q+ -+ $+ 0. y  `. u  N' N' _< f_ e_ d[ S< {_ O~ =V =V =V =V ZU qM qM qM qM bT 'U 'U uV  U  U  U .U vV vV wV iO iO iO iO xV PI PI PI PI PI PI PI CS CF d= a& %. %. %. %. %. %. %. %. %. %. %. %. %. %. %. %. %. %. %. ",
"@U @U @U @U @U @U @U @U @U @U @U VU iU iU iU iU iU jU #u #u #u #u #u #u #u dR cN cN cN MO dN dN dN dN dN dN ~k fR fR dN =J =J =J =J =J =J vT vT vT vT 4K 4K 4K 4K Q' c_ d_ e_ f_ g_ B! u  v  `. ++ 0. 0. #+ -+ P+ Q+ :# ;@ z@ {# S# _$ _$ _$ _$ _$ D$ `$ (% |% q% M% ~& s& u* BU !e N- Y- W; n; 3U 4U /= ^I (* ^E wy xy 78 D9 xa 7e T~  ! <g 1~ m0 m0 m0 m0 m0 m0 m0 m0 m0 m0 m0 ^a e{ :~ }{ ze c$ &) .9 %+ ab F0 U~ m0 m0 m0 m0 m0 m0 m0 m0 m0 m0 m0 m0 m0 m0 [e [e %a `@ {7 6T /< {_ () +! yV zV +! AV AV +! +! +! +! +! +! P) P) P) P) BV /{ /{ mv mv mv mv mv mv mv mv mv mv mv mv mv mv P) P) P) P) P) P) P) P) P) P) P) P) P) P) P) P) P) P) P) P) P) P) P) P) P) P) P) P) P) P) P) P) P) P) P) P) P) P) P) P) P) P) P) P) P) P) P) P) P) P) P) P) P) P) P) P) P) P) P) P) P) P) P) P) P) P) P) P) P) P) P) P) P) P) P) P) P) P) P) P) P) P) P) P) P) P) P) P) P) P) P) P) P) P) P) P) P) P) P) P) P) P) P) P) P) P) P) mv mv mv mv mv mv mv mv mv mv mv mv mv mv mv mv mv mv mv mv mv P) P) P) P) P) P) P) AV AV P) AV AV AV AV AV +! +! +! +! +! +! +! +! +! +! b! mv z)  ! &A Jv .9 R# (~ KD xd m0 m0 m0 m0 m0 m0 m0 m0 m0 m0 m0 m0 m0 m0 m0 m0 [e [e l9 D$ i+ y  {7 {7 i+ y# ]a n0 [e m0 m0 m0 m0 m0 m0 m0 m0 m0 m0 m0 m0 <e <8 B~ ]~ i8 a| X. 7e *f G! xi dA QB .T >= DF W- h; RT >U =F o> G* ^* ;* >& H% 6% *% p) _$ _$ _$ _$ _$ _$ _$ _$ _$ _$ S# {# z@ -@ m+ Q+ -+ $+ 0. y  `. u  N' N' _< f_ e_ d[ S< {_ O~ =V =V =V =V wS qM qM qM qM qM bT 'U 'U _U  U  U CV vV vV DV EV FV iO iO GV PI PI PI PI PI HV CF CF CF d= #u $. %. %. %. %. %. %. %. %. %. %. %. %. %. %. %. %. %. %. ",
"@U @U @U @U @U @U @U @U @U @U @U @U JU iU iU iU iU iU a& #u #u #u #u #u #u #u cN cN cN cN -Q dN dN dN dN dN ~k fR fR dN =J =J =J =J =J =J vT vT kT vT &O 4K 4K 4K Q' c_ d_ e_ f_ g_ B! u  v  `. ++ 0. 0. #+ -+ P+ Q+ :# ;@ z@ {# S# _$ _$ _$ _$ _$ D$ `$ (% |% q% M% !& s& u* G* !e ;J Y- i; p; 3U 4U /= ^I (* ^E wy xy 78 D9 xa 7e T~  ! <g 1~ m0 m0 m0 m0 m0 m0 m0 m0 m0 m0 m0 P! t' :~ }{ ze c$ &) .9 %+ E$ F0 U~ m0 m0 m0 m0 m0 m0 m0 m0 m0 m0 m0 m0 m0 m0 [e [e G8 B# #+ |d {7 r! u  B! S' q! q! S! q! O) O) O) O) O) O) O) ]T O) O) O) O) O) O) O) ]T ]T ]T ]T ]T ]T ]T ]T ]T ]T ]T ]T ]T ]T ]T ]T ]T ]T ]T ]T ]T ]T ]T ]T ]T ]T ]T ]T ]T ]T ]T ]T ]T ]T ]T ]T ]T ]T ]T ]T S! S! S! S! S! S! S! S! S! S! S! S! S! S! S! S! S! S! S! S! S! S! S! S! S! S! S! S! S! S! S! S! S! S! S! S! S! S! S! S! S! S! S! S! S! S! S! S! S! S! S! S! S! S! S! S! S! S! S! S! S! S! S! S! S! S! S! S! S! S! S! S! S! S! S! S! S! S! S! S! S! S! S! S! S! S! S! S! S! S! S! S! S! S! S! S! S! S! S! S! S! S! S! S! S! S! S! S! S! S! S! S! S! S! S! S! S! S! S! S! S! S! S! q! p2 T' <3 Z. `) {7 {7 Yb x# Y~ KD xd m0 m0 m0 m0 m0 m0 m0 m0 m0 m0 m0 m0 m0 m0 m0 m0 [e [e l9 D$ i+ y  {7 {7 i+ y# ]a n0 [e m0 m0 m0 m0 m0 m0 m0 m0 m0 m0 m0 m0 Od W% 5{ ]~ i8 a| X. 7e *f G! xi dA QB .T >= DF W- IV xT U; IE ,U G* ^* ;* >& H% 6% *% p) _$ _$ _$ _$ _$ _$ _$ _$ _$ _$ S# {# z@ -@ m+ Q+ -+ $+ 0. y  `. u  N' N' _< f_ e_ d[ S< {_ O~ =V =V =V =V =V 'V qM qM qM qM qM bT 'U JV  U  U JV vV vV KV LV EV iO iO I^ PI PI PI PI PI CF CF CF CF d= #u $u %. %. %. %. %. %. %. %. %. %. %. %. %. %. %. %. %. %. ",
"@U @U @U @U @U @U @U @U @U @U @U @U VU iU iU iU iU iU iU $u #u #u #u #u #u #u og cN cN cN qQ dN dN dN dN dN ~k fR fR dN =J =J =J =J =J =J vT 1U MV NV vT 4K 4K 4K Q' c_ d_ e_ f_ g_ B! u  v  `. ++ 0. 0. #+ -+ P+ Q+ :# ;@ z@ {# S# _$ _$ _$ _$ _$ D$ `$ (% |% q% M% !& s& u* G* 8d N- Y- i; RT 3U OV /= ^I (* ^E wy xy 78 D9 xa 7e T~  ! <g 1~ m0 m0 m0 m0 m0 m0 m0 m0 m0 m0 {8 ({ Ke [~ }{ ze c$ 0. .9 %+ E$ 3~ }e m0 m0 m0 m0 m0 m0 m0 m0 m0 m0 m0 m0 m0 m0 [e [e G8 B# i+ +b |d y@ _$ Z$ :9 #& n! n! n! n! n! n! n! n! n! n! n! n! n! n! n! n! n! n! n! n! n! n! n! n! n! n! n! n! n! n! n! n! n! n! n! n! n! n! n! n! n! n! n! n! n! n! n! n! n! n! n! n! n! n! n! n! n! n! n! n! n! n! n! n! n! n! n! n! n! n! n! n! n! n! n! n! n! n! n! n! n! n! n! n! n! n! n! n! n! n! n! n! n! n! n! n! n! n! n! n! n! n! n! n! n! n! n! n! n! n! n! n! n! n! n! n! n! n! n! n! n! n! n! n! n! n! n! n! n! n! n! n! n! n! n! n! n! n! n! n! n! n! n! n! n! n! n! n! n! n! n! n! n! n! n! n! n! n! n! n! n! n! n! n! n! n! n! n! n! n! n! n! n! n! n! n! n! n! n! n! n! n! UB p$ -% La <$ P+ {7 {7 y# Y~ KD xd m0 m0 m0 m0 m0 m0 m0 m0 m0 m0 m0 m0 m0 m0 m0 m0 [e [e l9 D$ i+ y  {7 {7 i+ y# ]a n0 [e m0 m0 m0 m0 m0 m0 m0 m0 m0 m0 m0 m0 U~ 3% a{ {~ 5Q a| X. 7e *f G! xi dA QB .T >= DF W- r; l; U; IE bA G* ^* ;* >& H% 6% *% p) _$ _$ _$ _$ _$ _$ _$ _$ _$ _$ S# {# z@ -@ m+ Q+ -+ $+ 0. y  `. u  N' N' _< f_ e_ d[ S< {_ O~ =V =V =V =V =V =V WR PV qM qM qM qM QV RV  U  U SV vV vV TV LV LV UV iO ~2 PI PI PI PI PI CF CF CF CF d= #u #u k@ %. %. %. %. %. %. %. %. %. %. %. %. %. %. %. %. %. ",
"@U @U @U @U @U @U @U @U @U @U @U @U @U JU iU iU iU iU iU iU a& #u #u #u #u #u cR cN cN cN cN @f dN dN dN dN #B fR fR dN =J =J =J =J =J =J vT MV MV MV NV &O 4K 4K Q' c_ d_ e_ f_ g_ B! u  v  `. ++ 0. 0. #+ -+ P+ Q+ :# ;@ z@ {# S# _$ _$ _$ _$ _$ D$ `$ (% |% q% M% !& s& u* G* 8d N- Y- q; RT VV lT /= ^I 4S ^E zT xy 78 D9 xa 7e T~  ! <g 1~ m0 m0 m0 m0 m0 m0 m0 m0 m0 m0 {8 U~ B; 4{ }{ WV #) 0. .9 i+ D$ 3~ m0 m0 m0 m0 m0 m0 m0 m0 m0 m0 m0 m0 m0 m0 m0 [e [e G8 B# i+ .9 |d R# J! @t kD XV @t 67 67 67 67 67 67 67 67 67 67 67 67 67 67 67 67 67 67 67 67 67 67 67 67 67 67 67 67 67 67 67 67 67 67 67 67 67 67 67 67 67 67 67 67 67 67 67 67 67 67 67 67 67 67 67 67 67 67 67 67 67 67 67 67 67 67 67 67 67 67 67 67 67 67 67 67 67 67 67 67 67 67 67 67 67 67 67 67 67 67 67 67 67 67 67 67 67 67 67 67 67 67 67 67 67 67 67 67 67 67 67 67 67 67 67 67 67 67 67 67 67 67 67 67 67 67 67 67 67 67 67 67 67 67 67 67 67 67 67 67 67 67 67 67 67 67 67 67 67 67 67 67 67 67 67 67 67 67 67 67 67 67 67 67 67 67 67 67 67 67 67 67 67 67 67 67 67 67 67 67 @t YV ZV ,e zd &a :# y  `) y# Y~ KD xd m0 m0 m0 m0 m0 m0 m0 m0 m0 m0 m0 m0 m0 m0 m0 m0 [e [e l9 D$ i+ y  {7 {7 i+ y# ]a n0 [e m0 m0 m0 m0 m0 m0 m0 m0 m0 m0 m0 m0 U~ j%  q {~ 5Q a| X. 7e *f G! xi dA QB .T >= DF W- r; ,T T; }E bA b* 8G ;* >& H% 6% *% p) _$ _$ _$ _$ _$ _$ _$ _$ _$ _$ S# {# z@ -@ m+ Q+ -+ $+ 0. y  `. u  N' N' _< f_ e_ d[ S< {_ O~ =V =V =V =V =V =V =V =V =V `V -S ZU qM qM  W  U .U vV vV TV LV LV .W iO PI PI PI PI PI PI {2 CF CF CF d= #u #u KT %. %. %. %. %. %. %. %. %. %. %. %. %. %. %. %. %. ",
"@U @U @U @U @U @U @U @U @U @U @U @U @U VU iU iU iU iU iU iU iU a& #u #u #u #u #u LO cN cN cN @L dN dN dN dN dN fR fR +W hN =J =J =J =J =J vT @W #W @W MV 1U 5K 4K Q' c_ d_ e_ f_ g_ B! u  v  `. ++ 0. 0. #+ -+ P+ Q+ :# ;@ z@ {# S# _$ _$ _$ _$ _$ D$ `$ (% |% q% M% !& s& u* G* 8d N- Y- h; $W yT lT /= ^I 4S ^E zT xy 78 D9 xa 7e T~  ! <g 1~ m0 m0 m0 m0 m0 m0 m0 m0 m0 m0 {8 $0 g% B~ ;~ %W Ie 0. .9 &) p$ G8 m0 m0 m0 m0 m0 m0 m0 m0 m0 m0 m0 m0 m0 m0 m0 [e [e G8 B# i+ y  B  :# 5w C{ &W nd *W =W =W =W =W =W =W =W =W =W =W =W =W =W =W =W =W =W =W =W =W =W =W =W =W =W =W =W =W =W =W =W =W =W =W =W =W =W =W =W =W =W =W =W =W =W =W =W =W =W =W =W =W =W =W =W =W =W =W =W =W =W =W =W =W =W =W =W =W =W =W =W =W =W =W =W =W =W =W =W =W =W =W =W =W =W =W =W =W =W =W =W =W =W =W =W =W =W =W =W =W =W =W =W =W =W =W =W =W =W =W =W =W =W =W =W =W =W =W =W =W =W =W =W =W =W =W =W =W =W =W =W =W =W =W =W =W =W =W =W =W =W =W =W =W =W =W =W =W =W =W =W =W =W =W =W =W =W =W =W =W =W =W =W =W =W =W =W =W =W =W =W =W =W =W =W =W =W =W =W =W -W ;W od =W >W Y0 k. `) `) y# Y~ KD xd m0 m0 m0 m0 m0 m0 m0 m0 m0 m0 m0 m0 m0 m0 m0 m0 [e [e l9 D$ $+ y  {7 {7 i+ y# ]a n0 [e m0 m0 m0 m0 m0 m0 m0 m0 m0 m0 m0 m0 m0 GD Ae {~ 5Q a| X. 7e *f G! xi dA QB .T >= DF v; &S k; T; }E bA b* y, -* >& H% 6% *% p) _$ _$ _$ _$ _$ _$ _$ _$ _$ _$ S# {# z@ -@ m+ Q+ -+ $+ 0. y  `. u  N' N' _< f_ e_ d[ S< {_ O~ =V =V =V =V =V =V =V =V =V =V =V =V wS ZU qM ,W 'W CV vV )W LV LV !W ~W PI PI PI PI PI PI 2P CF Kh <p a& #u #u @| %. %. %. %. %. %. %. %. %. %. %. %. %. %. %. %. %. ",
"@U @U @U @U @U @U @U @U @U @U @U @U @U @U >V iU iU iU iU iU iU iU a& #u #u #u #u og cN cN cN @L dN dN dN dN dN fR fR ~k {W =J =J =J =J =J vT ]W #W ^W MV NV /W 4K Q' c_ d_ e_ f_ g_ B! u  v  `. ++ 0. 0. #+ -+ P+ Q+ :# ;@ z@ {# S# _$ _$ _$ _$ _$ D$ `$ (% |% q% M% !& s& u* G* 8d N- Y- h; l; yT lT /= ^I 4S ^E jC cy 78 D9 xa 7e T~  ! <g 1~ m0 m0 m0 m0 m0 m0 m0 m0 m0 m0 {8 m0 Jd :g :~ %W Ie 0. .9 i+ p$ G8 m0 m0 m0 m0 m0 m0 m0 m0 m0 m0 m0 m0 m0 m0 m0 [e [e G8 B# i+ .9 i+ k. C$ da ;e @d nd *W =W =W =W =W =W =W =W =W =W =W =W =W =W =W =W =W =W =W =W =W =W =W =W =W =W =W =W =W =W =W =W =W =W =W =W =W =W =W =W =W =W =W =W =W =W =W =W =W =W =W =W =W =W =W =W =W =W =W =W =W =W =W =W =W =W =W =W =W =W =W =W =W =W =W =W =W =W =W =W =W =W =W =W =W =W =W =W =W =W =W =W =W =W =W =W =W =W =W =W =W =W =W =W =W =W =W =W =W =W =W =W =W =W =W =W =W =W =W =W =W =W =W =W =W =W =W =W =W =W =W =W =W =W =W =W =W =W =W =W =W =W =W =W =W =W =W =W =W =W =W =W =W =W =W =W =W =W =W =W =W =W =W =W =W =W =W =W =W =W =W =W =W =W =W =W =W =W *W *W -W -W &W [e S9 Q) P+ `) (W y# Y~ KD xd m0 m0 m0 m0 m0 m0 m0 m0 m0 m0 m0 m0 m0 m0 m0 m0 [e [e l9 :9 $+ y  {7 {7 i+ y# ]a n0 [e m0 m0 m0 m0 m0 m0 m0 m0 m0 m0 m0 m0 m0 -G Ae 7% 5Q a| k) mb *f G! xi dA QB .T >= DF v; QR ,T T; }E m> 0* ]* -* ;& q, 6% *% p) _$ _$ _$ _$ _$ _$ _$ _$ _$ _$ S# {# z@ -@ m+ Q+ -+ $+ 0. y  `. u  N' N' _< f_ e_ d[ S< {_ O~ =V =V =V =V =V =V =V =V =V =V =V =V =V /V ZU qM _W :W vV <W LV LV EV _V PI PI PI PI PI e@ Wo Ku OQ cR #u #u #u #u qt %. %. %. %. %. %. %. %. %. %. %. %. %. %. %. %. ",
"@U @U @U @U @U @U @U @U @U @U @U @U @U @U @U iU iU iU iU iU iU iU iU a& #u #u #u #u cN cN cN Yf dN dN dN dN dN kU fR ~k {W =J =J =J =J =J kT #W #W #W [W MV kT 5K Q' c_ d_ e_ f_ g_ B! u  v  `. ++ 0. 0. #+ -+ P+ Q+ :# ;@ z@ {# S# _$ _$ _$ _$ _$ D$ `$ (% |% q% M% !& s& u* ^, '- N- Y- ~S k; w; 'T /= ^I 4S ^E jC cy 78 D9 xa 7e T~  ! <g 1~ m0 m0 m0 m0 m0 m0 m0 m0 m0 m0 {8 m0 l9 6{ :~ %W Ie 0. .9 i+ p$ G8 m0 m0 m0 m0 m0 m0 m0 m0 m0 m0 m0 m0 m0 m0 m0 [e [e G8 B# i+ .9 i+ k. l' Y0 }W |W 1W 2W 3W 3W 3W 3W 3W 3W 3W 3W 3W 3W 3W 3W 3W 3W 3W 3W 3W 3W 3W 3W 3W 3W 3W 3W 3W 3W 3W 3W 3W 3W 3W 3W 3W 3W 3W 3W 3W 3W 3W 3W 3W 3W 3W 3W 3W 3W 3W 3W 3W 3W 3W 3W 3W 3W 3W 3W 3W 3W 3W 3W 3W 3W 3W 3W 3W 3W 3W 3W 3W 3W 3W 3W 3W 3W 3W 3W 3W 3W 3W 3W 3W 3W 3W 3W 3W 3W 3W 3W 3W 3W 3W 3W 3W 3W 3W 3W 3W 3W 3W 3W 3W 3W 3W 3W 3W 3W 3W 3W 3W 3W 3W 3W 3W 3W 3W 3W 3W 3W 3W 3W 3W 3W 3W 3W 3W 3W 3W 3W 3W 3W 3W 3W 3W 3W 3W 3W 3W 3W 3W 3W 3W 3W 3W 3W 3W 3W 3W 3W 3W 3W 3W 3W 3W 3W 3W 3W 3W 3W 3W 3W 3W 3W 3W 3W 3W 3W 3W 3W 3W 3W 3W 3W 3W 3W 3W 3W 3W 2W 4W uD 5W [e Y~ 6W J$ P+ `) (W y# Y~ KD xd m0 m0 m0 m0 m0 m0 m0 m0 m0 m0 m0 m0 m0 m0 m0 m0 {8 [e P9 R) *+ Zb {7 {7 i+ y# ]a n0 [e m0 m0 m0 m0 m0 m0 m0 m0 m0 m0 m0 m0 m0 <e Ae ]~ 5Q a| k) mb *f G! xi /A  T .T >= =F R; QR W; T; }E m> 0* ]* -* ;& q, 6% *% p) _$ _$ _$ _$ _$ _$ _$ _$ _$ _$ S# {# z@ -@ m+ Q+ -+ $+ 0. y  `. u  N' N' _< f_ e_ d[ S< {_ O~ =V =V =V =V =V =V =V =V =V =V =V =V =V =V <T qM qM 7W vV 8W LV LV LV O@ PI PI PI PI PI ~1 }j >9 9W 0W #u #u #u #u d= %. %. %. %. %. %. %. %. %. %. %. %. %. %. %. %. ",
"@U @U @U @U @U @U @U @U @U @U @U @U @U @U @U yU iU iU iU iU iU iU iU iU a& #u #u #u dR cN KU dN dN dN dN dN dN aW fR ~k {W =J =J =J =J =J bW #W #W #W #W cW dW /W Q' c_ d_ e_ f_ g_ B! u  v  `. ++ 0. 0. #+ -+ P+ Q+ :# ;@ z@ {# S# _$ _$ _$ _$ _$ D$ `$ (% |% q% M% !& s& u* ^, 8d N- 9; r; ,T eW fW /= ^I {S iR jC cy 78 D9 xa 7e T~  ! <g 1~ m0 m0 m0 m0 m0 m0 m0 m0 m0 m0 m0 m0 P! (e )~ %W Ie 0. .9 i+ p$ G8 m0 m0 m0 m0 m0 m0 m0 m0 m0 m0 m0 m0 m0 m0 m0 [e [e G8 B# i+ .9 i+ k. g# 3a gW _d hW iW jW kW jW jW jW jW jW jW jW jW jW jW jW jW jW jW jW jW jW jW jW jW jW jW jW jW jW jW jW jW jW jW jW jW jW jW jW jW jW jW jW jW jW jW jW jW jW jW jW jW jW jW jW jW jW jW jW jW jW jW jW jW jW jW jW jW jW jW jW jW jW jW jW jW jW jW jW jW jW jW jW jW jW jW jW jW jW jW jW jW jW jW jW jW jW jW jW jW jW jW jW jW jW jW jW jW jW jW jW jW jW jW jW jW jW jW jW jW jW jW jW jW jW jW jW jW jW jW jW jW jW jW jW jW jW jW jW jW jW jW jW jW jW jW jW jW jW jW jW jW jW jW jW jW jW jW jW jW jW jW jW jW jW jW jW jW jW jW jW jW jW jW jW jW jW kW jW 2D lW $D mW G8 6W /% A# P+ `) (W y# Y~ KD xd m0 m0 m0 m0 m0 m0 m0 m0 m0 m0 m0 m0 m0 m0 m0 m0 {8 {8 -e :> #t `) {7 {7 i+ y# ]a n0 [e m0 m0 m0 m0 m0 m0 m0 m0 m0 m0 m0 m0 m0 <e =e ]~ 5Q a| k) mb *f G! xi /A  T .T |q =F w; FR X;  ; }E bA 0* ]* -* ;& q, 6% *% p) _$ _$ _$ _$ _$ _$ _$ _$ _$ _$ S# {# z@ -@ m+ Q+ -+ $+ 0. y  `. u  N' N' _< f_ e_ d[ S< {_ O~ =V =V =V =V =V =V =V =V =V =V =V =V =V =V /V qM qM qM nW vV oW LV LV pW PI PI PI PI PI ;6 }j qW 9W 9W vN #u #u #u qt %. %. %. %. %. %. %. %. %. %. %. %. %. %. %. %. ",
"@U @U @U @U @U @U @U @U @U @U @U @U @U @U @U @U JU iU iU iU iU iU iU iU iU $u #u #u Ml cN -Q dN dN dN dN dN dN kf fR ~k {W =J =J =J =J =J MV #W [S #W #W rW MV vT Q' c_ d_ e_ f_ g_ B! u  v  `. ++ 0. 0. #+ -+ P+ Q+ :# ;@ z@ {# S# _$ _$ _$ _$ _$ D$ `$ (% |% q% M% !& s& u* ^, 8d N- #; &S j; T- Y= sW }, {S UD jC cy 78 D9 xa 7e T~  ! <g 1~ m0 m0 m0 m0 m0 m0 m0 m0 m0 m0 m0 m0 yd Ke )~ bt Ie 0. ~7 i+ p$ G8 m0 m0 m0 m0 m0 m0 m0 m0 m0 m0 m0 m0 m0 m0 m0 [e [e G8 B# i+ .9 i+ y@ Z@ 3a tW Uc uW vW wW wW wW wW wW wW wW wW wW wW wW wW wW wW wW wW wW wW wW wW wW wW wW wW wW wW wW wW wW wW wW wW wW wW wW wW wW wW wW wW wW wW wW wW wW wW wW wW wW wW wW wW wW wW wW wW wW wW wW wW wW wW wW wW wW wW wW wW wW wW wW wW wW wW wW wW wW wW wW wW wW wW wW wW wW wW wW wW wW wW wW wW wW wW wW wW wW wW wW wW wW wW wW wW wW wW wW wW wW wW wW wW wW wW wW wW wW wW wW wW wW wW wW wW wW wW wW wW wW wW wW wW wW wW wW wW wW wW wW wW wW wW wW wW wW wW wW wW wW wW wW wW wW wW wW wW wW wW wW wW wW wW wW wW wW wW wW wW wW wW wW wW wW wW wW wW wW uW uW qd Yd Q! p)  % J$ P+ `) (W y# Y~ KD xd m0 m0 m0 m0 m0 m0 m0 m0 m0 m0 m0 m0 m0 m0 m0 m0 m0 U~ Jd Yi bf z  {7 {7 i+ y# ]a n0 [e m0 m0 m0 m0 m0 m0 m0 m0 m0 m0 m0 m0 m0 <e =e ]~ 5Q a| k) mb *f G! gD /A cB JS |q =F w; f; KS  ; 5S bA 0* ]* -* ;& q, 6% *% p) _$ _$ _$ _$ _$ _$ _$ _$ _$ _$ S# {# z@ -@ m+ Q+ -+ $+ 0. y  `. u  N' N' _< f_ e_ d[ S< {_ O~ =V =V =V =V =V =V =V =V =V =V =V =V =V =V PV qM qM qM xW vV yW zW LV AW PI PI PI PI PI [J }j BW 9W 9W 7n >9 a& #u qt %. %. %. %. %. %. %. %. %. %. %. %. %. %. %. %. ",
"iU >V @U @U @U @U @U @U @U VU yU >V JU JU JU >V >V iU iU iU iU iU iU iU iU iU KT @| #u dR qk dN dN dN dN dN dN +W fR ~k {W =J =J =J =J =J CW DW EW DW #W ^W MV 1U Q' c_ d_ e_ f_ g_ B! u  v  `. ++ 0. 0. #+ -+ P+ Q+ :# ;@ z@ {# S# _$ _$ _$ _$ _$ D$ Z$ (% |% q% L% !& s& u* G* Pg *; X- QR i; S- 3S {= }, 4S UD jC zp 78 D9 xa 7e T~  ! <g 1~ m0 m0 m0 m0 m0 m0 m0 m0 m0 m0 m0 {8 ({ P, ED bt Ie 0. ~7 i+ p$ G8 m0 m0 m0 m0 m0 m0 m0 m0 m0 m0 m0 m0 m0 m0 m0 [e [e G8 B# i+ .9 i+ :# C$ W& 7d FW GW HW HW HW HW HW HW HW HW HW HW HW HW HW HW HW HW HW HW HW HW HW HW HW HW HW HW HW HW HW HW HW HW HW HW HW HW HW HW HW HW HW HW HW HW HW HW HW HW HW HW HW HW HW HW HW HW HW HW HW HW HW HW HW HW HW HW HW HW HW HW HW HW HW HW HW HW HW HW HW HW HW HW HW HW HW HW HW HW HW HW HW HW HW HW HW HW HW HW HW HW HW HW HW HW HW HW HW HW HW HW HW HW HW HW HW HW HW HW HW HW HW HW HW HW HW HW HW HW HW HW HW HW HW HW HW HW HW HW HW HW HW HW HW HW HW HW HW HW HW HW HW HW HW HW HW HW HW HW HW HW HW HW HW HW HW HW HW HW HW HW HW HW HW HW HW HW HW HW wD IW j9 xd I! @%  % J$ P+ `) (W y# Y~ KD xd m0 m0 m0 m0 m0 m0 m0 m0 m0 m0 m0 m0 m0 m0 m0 m0 m0 -e 4e 00 bf z  {7 {7 i+ y# ]a n0 [e m0 m0 m0 m0 m0 m0 m0 m0 m0 m0 m0 m0 $0 GD Ae {~ 5Q a| k) mb *f G! gD /A cB 4> |q =F w; 1S h; S; 5S Qb 0* ]* -* ;& q, 6% *% p) _$ _$ _$ _$ _$ _$ _$ _$ _$ _$ S# {# z@ -@ m+ Q+ -+ $+ 0. y  `. u  N' N' _< f_ e_ d[ S< {_ O~ =V =V =V =V =V =V =V =V =V =V =V =V =V <T qM qM qM qM qM JW vV KW LV LW PI PI PI PI PI [p }j 9W 9W MW |t |t w7 #u $u %. %. %. %. %. %. %. %. %. %. %. %. %. %. %. %. ",
"iU iU iU yU @U @U VU >V iU iU iU iU iU iU iU iU iU iU iU iU iU iU iU iU iU iU iU iU jU cR cN qk dN dN dN dN dN dN NW dN {W =J =J =J =J =J ^W OW EW PW QW #W @W MV Q' c_ d_ e_ f_ g_ B! u  v  `. ++ 0. 0. #+ -+ P+ Q+ :# ;@ z@ {# S# _$ _$ _$ _$ _$ D$ Z$ (% |% q% L% !& s& oS G* Pg *; W- V; q; pS 3S {= }, 4S UD jC zp [8 D9 xa 7e T~  ! <g 1~ m0 m0 m0 m0 m0 m0 m0 m0 m0 m0 m0 {8 m0 g% _e bt #t 0. .9 i+ p$ G8 m0 m0 m0 m0 m0 m0 m0 m0 m0 m0 m0 m0 m0 m0 m0 [e [e G8 B# i+ .9 i+ :# :9  % /% RW S9 -e Bd P9 P9 P9 P9 P9 P9 P9 P9 P9 P9 P9 P9 P9 P9 P9 P9 P9 P9 P9 P9 P9 P9 P9 P9 P9 P9 P9 P9 P9 P9 P9 P9 P9 P9 P9 P9 P9 P9 P9 P9 P9 P9 P9 P9 P9 P9 P9 P9 P9 P9 P9 P9 P9 P9 P9 P9 P9 P9 P9 P9 P9 P9 P9 P9 P9 P9 P9 P9 P9 P9 P9 P9 P9 P9 P9 P9 P9 P9 P9 P9 P9 P9 P9 P9 P9 P9 P9 P9 P9 P9 P9 P9 P9 P9 P9 P9 P9 P9 P9 P9 P9 P9 P9 P9 P9 P9 P9 P9 P9 P9 P9 P9 P9 P9 P9 P9 P9 P9 P9 P9 P9 P9 P9 P9 P9 P9 P9 P9 P9 P9 P9 P9 P9 P9 P9 P9 P9 P9 P9 P9 P9 P9 P9 P9 P9 P9 P9 P9 P9 P9 P9 P9 P9 P9 P9 P9 P9 P9 P9 P9 P9 P9 P9 P9 P9 P9 P9 P9 P9 P9 P9 P9 P9 P9 P9 P9 P9 [d 7d F0 I! @%  % J$ P+ `) (W y# Y~ KD xd m0 m0 m0 m0 m0 m0 m0 m0 m0 m0 m0 m0 m0 m0 m0 m0 U~ g% B~ Je mb {7 {7 {7 i+ y# ]a n0 [e m0 m0 m0 m0 m0 m0 m0 m0 m0 m0 m0 m0 U~ j% qw {~ 5Q a| k) mb *f G! gD /A cB 4> |q =F w; !S SW `- 5S Qb 0* ]* q& ;& q, 6% *% p) _$ _$ _$ _$ _$ _$ _$ _$ _$ _$ S# {# z@ -@ m+ Q+ -+ $+ 0. y  `. u  N' N' _< f_ e_ d[ S< {_ O~ =V =V =V =V =V =V =V =V =V =V =V =V =V ZU qM qM qM qM TW UW vV VW LV OR PI PI PI PI PI }j rm 9W 9W WW |t |t |t -N @| %. %. %. %. %. %. %. %. %. %. %. %. %. %. %. %. ",
"iU iU iU iU iU JU iU iU iU iU iU iU iU iU iU iU iU iU iU iU iU iU iU iU iU iU iU iU iU iU @| LO qQ NT dN dN dN dN #B dN {W =J =J =J =J =J #W XW EW EW YW #W /f MV Q' c_ d_ e_ f_ g_ B! u  v  `. ++ 0. 0. #+ -+ P+ Q+ :# ;@ z@ {# S# _$ _$ _$ _$ _$ D$ Z$ (% |% q% L% !& ;* oS G* Pg *; W- f; q; 2S 3S {= T* 4S UD jC zp [8 D9 xa 7e T~  ! <g 1~ m0 m0 m0 m0 m0 m0 m0 m0 m0 m0 m0 m0 m0 h, a{ +g #t 0. .9 i+ p$ G8 m0 m0 m0 m0 m0 m0 m0 m0 m0 m0 m0 m0 m0 m0 m0 [e [e G8 B# i+ .9 i+ :# :9  % /% $% 8{ Bd 7d 7d 7d 7d 7d 7d 7d 7d 7d 7d 7d 7d 7d 7d 7d 7d 7d 7d 7d 7d 7d 7d 7d 7d 7d 7d 7d 7d 7d 7d 7d 7d 7d 7d 7d 7d 7d 7d 7d 7d 7d 7d 7d 7d 7d 7d 7d 7d 7d 7d 7d 7d 7d 7d 7d 7d 7d 7d 7d 7d 7d 7d 7d 7d 7d 7d 7d 7d 7d 7d 7d 7d 7d 7d 7d 7d 7d 7d 7d 7d 7d 7d 7d 7d 7d 7d 7d 7d 7d 7d 7d 7d 7d 7d 7d 7d 7d 7d 7d 7d 7d 7d 7d 7d 7d 7d 7d 7d 7d 7d 7d 7d 7d 7d 7d 7d 7d 7d 7d 7d 7d 7d 7d 7d 7d 7d 7d 7d 7d 7d 7d 7d 7d 7d 7d 7d 7d 7d 7d 7d 7d 7d 7d 7d 7d 7d 7d 7d 7d 7d 7d 7d 7d 7d 7d 7d 7d 7d 7d 7d 7d 7d 7d 7d 7d 7d 7d 7d 7d 7d 7d 7d 7d 7d 7d 7d 7d 7d 7d 7d ^a $x +%  % J$ P+ `) (W y# Y~ KD xd m0 m0 m0 m0 m0 m0 m0 m0 m0 m0 m0 m0 m0 m0 m0 m0 Bd KA )~ AB mb z  {7 {7 i+ y# ]a n0 [e m0 m0 m0 m0 m0 m0 m0 m0 m0 m0 m0 m0 U~ j% qw {~ 5Q a| k) mb *f 1j gD /A cB >J yp =F T- e; &S 0; 5S $A 0* ]* q& ;& q, 6% *% p) _$ _$ _$ _$ _$ _$ _$ _$ _$ _$ S# {# z@ -@ m+ Q+ -+ $+ 0. y  `. u  N' N' _< f_ e_ d[ S< {_ O~ =V =V =V =V =V =V =V wS cS `V =V =V PV qM qM qM qM qM +N ZW `W zW LV PI PI PI PI PI ~1 }j  X 9W 9W .X |t |t |t 's #u $. %. %. %. %. %. %. %. %. %. %. %. %. %. %. %. ",
"iU iU iU iU iU iU iU iU iU iU iU iU iU iU iU iU iU iU iU iU iU iU iU iU iU iU iU iU iU iU iU +X cN cN qk dN dN dN dN dN {W =J =J =J =J hN #W EW EW EW EW #W ^W MV Q' c_ d_ e_ f_ g_ B! u  v  `. ++ 0. 0. #+ -+ P+ Q+ :# ;@ z@ {# S# _$ _$ _$ _$ _$ D$ Z$ (% |% q% L% !& ;* M& G* Be *; W- @X h; 2S W= #X T* {S UD jC zp [8 D9 xa 7e T~  ! <g 1~ m0 m0 m0 m0 m0 m0 m0 m0 m0 m0 m0 m0 {8 Bd Ae -c #t 0. .9 i+ p$ G8 m0 m0 m0 m0 m0 m0 m0 m0 m0 m0 m0 m0 m0 m0 m0 [e [e G8 B# i+ .9 i+ :# :9  %  % :% -e ;e [e [e [e [e [e [e [e [e [e [e [e [e [e [e [e [e [e [e [e [e [e [e [e [e [e [e [e [e [e [e [e [e [e [e [e [e [e [e [e [e [e [e [e [e [e [e [e [e [e [e [e [e [e [e [e [e [e [e [e [e [e [e [e [e [e [e [e [e [e [e [e [e [e [e [e [e [e [e [e [e [e [e [e [e [e [e [e [e [e [e [e [e [e [e [e [e [e [e [e [e [e [e [e [e [e [e [e [e [e [e [e [e [e [e [e [e [e [e [e [e [e [e [e [e [e [e [e [e [e [e [e [e [e [e [e [e [e [e [e [e [e [e [e [e [e [e [e [e [e [e [e [e [e [e [e [e [e [e [e [e [e [e [e [e [e [e [e [e [e [e [e [e [e [e [e [e [e {8 {8 6e P9 $x +%  % J$ P+ `) (W y# Y~ KD xd m0 m0 m0 m0 m0 m0 m0 m0 m0 m0 m0 m0 m0 m0 m0 m0 h, :e ;~ $X %X z  {7 {7 i+ y# ]a n0 [e m0 m0 m0 m0 m0 m0 m0 m0 m0 m0 m0 m0 U~ i% qw {~ 5Q a| k) mb *f 1j gD /A cB >J ;= =F T- d; QR Y- ]E $A 0* x* q& ;& q, 6% *% p) _$ _$ _$ _$ _$ _$ _$ _$ _$ _$ S# {# z@ -@ m+ Q+ -+ $+ 0. y  `. u  N' N' _< f_ e_ d[ S< {_ O~ =V =V =V =V =V =V -S qM qM qM qM qM qM qM qM qM qM vS ZW ZW &X LV *X PI PI PI PI PI ;6 }j T! 9W 9W +C |t |t |t |t /+ $u %. %. %. %. %. %. %. %. %. %. %. %. %. %. %. ",
"iU iU iU iU iU iU iU iU iU iU iU iU iU iU iU iU iU iU iU iU iU iU iU iU iU iU iU iU iU iU iU iU og cN cN qQ @f dN dN dN {W =J =J =J =J =X #W EW EW EW EW -X #W @W Q' c_ d_ e_ f_ g_ B! u  v  `. ++ 0. 0. #+ -+ P+ Q+ :# ;@ z@ {# S# _$ _$ _$ _$ _$ D$ Z$ (% |% q% L% !& ;* M& a* Be *; v; e; r; ;X W= HR 1H ^* UD jC zp [8 D9 xa 7e T~  ! <g 1~ m0 m0 m0 m0 m0 m0 m0 m0 m0 m0 m0 m0 {8 yd Ke +g mb 0. .9 $+ C$ 3~ }e m0 m0 m0 m0 m0 m0 m0 m0 m0 m0 m0 m0 m0 m0 [e [e G8 B# i+ .9 i+ :# :9  %  % $x -e >X m0 m0 m0 m0 m0 m0 m0 m0 m0 m0 m0 m0 m0 m0 m0 m0 m0 m0 m0 m0 m0 m0 m0 m0 m0 m0 m0 m0 m0 m0 m0 m0 m0 m0 m0 m0 m0 m0 m0 m0 m0 m0 m0 m0 m0 m0 m0 m0 m0 m0 m0 m0 m0 m0 m0 m0 m0 m0 m0 m0 m0 m0 m0 m0 m0 m0 m0 m0 m0 m0 m0 m0 m0 m0 m0 m0 m0 m0 m0 m0 m0 m0 m0 m0 m0 m0 m0 m0 m0 m0 m0 m0 m0 m0 m0 m0 m0 m0 m0 m0 m0 m0 m0 m0 m0 m0 m0 m0 m0 m0 m0 m0 m0 m0 m0 m0 m0 m0 m0 m0 m0 m0 m0 m0 m0 m0 m0 m0 m0 m0 m0 m0 m0 m0 m0 m0 m0 m0 m0 m0 m0 m0 m0 m0 m0 m0 m0 m0 m0 m0 m0 m0 m0 m0 m0 m0 m0 m0 m0 m0 m0 m0 m0 m0 m0 m0 m0 m0 m0 m0 m0 m0 m0 m0 m0 m0 m0 m0 6e 6e P9 $x +%  % J$ P+ `) (W y# Y~ KD xd m0 m0 m0 m0 m0 m0 m0 m0 m0 m0 m0 m0 m0 m0 m0 U~ h% B~ ;~ |s %X z  {7 {7 i+ y# ]a n0 [e m0 m0 m0 m0 m0 m0 m0 m0 m0 m0 m0 m0 U~ i% e{ {~ 5Q a| k) mb *f 1j gD /A cB >J ;= IE T- d; V; Y- ]E $A F* x* q& ;& q, 6% *% `$ _$ _$ _$ _$ _$ _$ _$ _$ _$ _$ S# {# z@ -@ m+ Q+ -+ $+ 0. y  `. u  N' N' _< f_ e_ d[ S< {_ O~ =V =V =V =V =V =V ZU qM qM qM qM qM qM qM qM qM qM +N ZW ZW ~) LV ^s PI PI PI PI PI <q }j ,X 9W 9W Iv |t |t |t |t )a #u k@ %. %. %. %. %. %. %. %. %. %. %. %. %. %. ",
"iU iU iU iU iU iU iU iU iU iU iU iU iU iU iU iU iU iU iU iU iU iU iU iU iU iU iU iU iU iU iU iU gu cN cN cN qQ e) 'X !R )X =J =J =J =J =X #W EW EW EW EW !X #W /f Q' c_ d_ e_ f_ g_ B! u  v  `. ++ 0. 0. #+ -+ P+ Q+ :# ;@ z@ {# S# _$ _$ _$ _$ _$ D$ Z$ (% |% q% L% !& ;* M& a* >- M- w; $R ~X 7O GR HR [, z* UD jC zp [8 D9 xa 7e T~  ! <g 1~ m0 m0 m0 m0 m0 m0 m0 m0 m0 m0 m0 m0 6e Sj B; Tb mb 0. .9 %+ E$ 3~ U~ m0 m0 m0 m0 m0 m0 m0 m0 m0 m0 m0 m0 m0 m0 [e [e G8 B# i+ .9 i+ :# :9  %  % $x -e >X m0 m0 m0 m0 m0 m0 m0 m0 m0 m0 m0 m0 m0 m0 m0 m0 m0 m0 m0 m0 m0 m0 m0 m0 m0 m0 m0 m0 m0 m0 m0 m0 m0 m0 m0 m0 m0 m0 m0 m0 m0 m0 m0 m0 m0 m0 m0 m0 m0 m0 m0 m0 m0 m0 m0 m0 m0 m0 m0 m0 m0 m0 m0 m0 m0 m0 m0 m0 m0 m0 m0 m0 m0 m0 m0 m0 m0 m0 m0 m0 m0 m0 m0 m0 m0 m0 m0 m0 m0 m0 m0 m0 m0 m0 m0 m0 m0 m0 m0 m0 m0 m0 m0 m0 m0 m0 m0 m0 m0 m0 m0 m0 m0 m0 m0 m0 m0 m0 m0 m0 m0 m0 m0 m0 m0 m0 m0 m0 m0 m0 m0 m0 m0 m0 m0 m0 m0 m0 m0 m0 m0 m0 m0 m0 m0 m0 m0 m0 m0 m0 m0 m0 m0 m0 m0 m0 m0 m0 m0 m0 m0 m0 m0 m0 m0 m0 m0 m0 m0 m0 m0 m0 m0 $0 U~ m0 m0 m0 6e 6e P9 $x +%  % J$ P+ `) (W y# Y~ KD xd m0 m0 m0 m0 m0 m0 m0 m0 m0 m0 m0 m0 m0 m0 m0 Od 88 k9 >~ |s #t z  {7 {7 i+ y# ]a n0 [e m0 m0 m0 m0 m0 m0 m0 m0 m0 m0 m0 m0 U~ h, e{ {~ 5Q a| k) mb *f 1j gD /A cB >J ;= =F 7; RQ 1S 9; ]E j> F* x* q& ;& q, 6% =% `$ _$ _$ _$ _$ _$ _$ _$ _$ _$ _$ S# {# z@ -@ m+ Q+ -+ $+ 0. y  `. u  N' N' _< f_ e_ d[ S< {_ O~ =V =V =V =V =V /V qM qM qM qM qM qM qM qM qM qM TW ZW ZW ZW LV LV {X PI PI PI PI PI ]X }j ^X 9W 9W |t |t |t |t |t |t -N KT %. %. %. %. %. %. %. %. %. %. %. %. %. %. ",
"iU iU iU iU iU iU iU iU iU iU iU iU iU iU iU iU iU iU iU iU iU iU iU iU iU iU iU iU iU iU iU iU iU /X cN cN cN (X _X _X :X =J =J =J =J <X #W EW EW EW EW PW #W [X Q' c_ d_ e_ f_ g_ B! u  v  `. ++ 0. 0. #+ -+ P+ Q+ :# ;@ z@ {# S# _$ _$ _$ _$ _$ D$ Z$ (% |% q% L% !& r& M& a* >- M- w; d; QR {> GR HR |= z* iR jC zp [8 D9 xa 7e T~  ! <g /~ m0 m0 m0 m0 m0 m0 m0 m0 m0 m0 m0 m0 6e m0 1% 3j #t 0. .9 j+ D$ G8 U~ m0 m0 m0 m0 m0 m0 m0 m0 m0 m0 m0 m0 m0 m0 [e [e G8 B# i+ .9 i+ :# :9  %  % $x -e >X m0 m0 m0 m0 m0 m0 m0 m0 m0 m0 m0 m0 m0 m0 m0 m0 m0 m0 m0 m0 m0 m0 m0 m0 m0 m0 m0 m0 m0 m0 m0 m0 m0 m0 m0 m0 m0 m0 m0 m0 m0 m0 m0 m0 m0 m0 m0 m0 m0 m0 m0 m0 m0 m0 m0 m0 m0 m0 m0 m0 m0 m0 m0 m0 m0 m0 m0 m0 m0 m0 m0 m0 m0 m0 m0 m0 m0 m0 m0 m0 m0 m0 m0 m0 m0 m0 m0 m0 m0 m0 m0 m0 m0 m0 m0 m0 m0 m0 m0 m0 m0 m0 m0 m0 m0 m0 m0 m0 m0 m0 m0 m0 m0 m0 m0 m0 m0 m0 m0 m0 m0 m0 m0 m0 m0 m0 m0 m0 m0 m0 m0 m0 m0 m0 m0 m0 m0 m0 m0 m0 m0 m0 m0 m0 m0 m0 m0 m0 m0 m0 m0 m0 m0 m0 m0 m0 m0 m0 m0 m0 m0 m0 m0 m0 m0 m0 m0 m0 m0 m0 m0 m0 m0 Ad -G U~ m0 m0 6e 6e P9 $x +%  % J$ P+ `) (W y# Y~ KD xd m0 m0 m0 m0 m0 m0 m0 m0 m0 m0 m0 m0 m0 m0 m0 5e 4e :~ >~ |s #t z  {7 {7 i+ y# ]a n0 [e m0 m0 m0 m0 m0 m0 m0 m0 m0 m0 m0 m0 U~ h, e{ {~ 5Q a| k) mb *f G! gD /A >F GI yp jR 7; c; !S X- CD Iz 8* x* q& ;& q, 6% =% `$ _$ _$ _$ _$ _$ _$ _$ _$ _$ _$ S# {# z@ -@ m+ Q+ -+ $+ 0. y  `. u  N' N' _< f_ e_ d[ S< {_ O~ =V =V =V =V =V /V qM qM qM qM qM qM qM qM qM qM }X ZW ZW |X LV LV LW PI PI PI PI f@ }j }j 1X 9W WW |t |t |t |t |t |t ha #u k@ %. %. %. %. %. %. %. %. %. %. %. %. %. ",
"iU iU iU iU iU iU iU iU iU iU iU iU iU iU iU iU iU iU iU iU iU iU iU iU iU iU iU iU iU iU iU iU iU gu cN cN cN _X _X _X :X =J =J =J =J 2X #W EW EW EW EW EW [S #W Q' c_ d_ e_ f_ g_ B! u  v  `. ++ 0. 0. #+ -+ P+ Q+ :# ;@ z@ {# S# _$ _$ _$ _$ _$ D$ Z$ (% |% q% L% !& r& M& a* >- M- w; gR f; {> hR )= |= z* iR jC zp [8 D9 xa 7e T~  ! <g /~ m0 m0 m0 m0 m0 m0 m0 m0 m0 m0 m0 m0 m0 m0 h, .> hg 0. .9 i+ l' (~ ({ m0 m0 m0 m0 m0 m0 m0 m0 m0 m0 m0 m0 m0 m0 [e [e G8 B# i+ .9 i+ :# :9  %  % $x -e >X m0 m0 m0 m0 m0 m0 m0 m0 m0 m0 m0 m0 m0 m0 m0 m0 m0 m0 m0 m0 m0 m0 m0 m0 m0 m0 m0 m0 m0 m0 m0 m0 m0 m0 m0 m0 m0 m0 m0 m0 m0 m0 m0 m0 m0 m0 m0 m0 m0 m0 m0 m0 m0 m0 m0 m0 m0 m0 m0 m0 m0 m0 m0 m0 m0 m0 m0 m0 m0 m0 m0 m0 m0 m0 m0 m0 m0 m0 m0 m0 m0 m0 m0 m0 m0 m0 m0 m0 m0 m0 m0 m0 m0 m0 m0 m0 m0 m0 m0 m0 m0 m0 m0 m0 m0 m0 m0 m0 m0 m0 m0 m0 m0 m0 m0 m0 m0 m0 m0 m0 m0 m0 m0 m0 m0 m0 m0 m0 m0 m0 m0 m0 m0 m0 m0 m0 m0 m0 m0 m0 m0 m0 m0 m0 m0 m0 m0 m0 m0 m0 m0 m0 m0 m0 m0 m0 m0 m0 m0 m0 m0 m0 m0 m0 m0 m0 m0 m0 m0 m0 m0 {8 $0 5e .q 7d m0 m0 6e 6e P9 $x +%  % J$ P+ `) (W y# Y~ KD xd m0 m0 m0 m0 m0 m0 m0 m0 m0 m0 m0 m0 m0 m0 m0 -e 0{ :~ ,~ |s #t {7 {7 {7 i+ y# ]a n0 [e m0 m0 m0 m0 m0 m0 m0 m0 m0 m0 m0 m0 $0 GD  q {~ 5Q a| k) mb *f G! gD /A >F GI := IE 2S c; e; X- kR Iz 8* x* q& ;& q, 6% =% `$ _$ _$ _$ _$ _$ _$ _$ _$ _$ _$ S# {# z@ -@ m+ Q+ -+ $+ 0. y  `. u  N' N' _< f_ e_ d[ S< {_ O~ =V =V =V =V =V cS qM qM qM qM qM qM qM qM qM 3X ZW ZW ZW 4X LV LV PI PI PI PI PI ~1 }j }j 9W 9W #C |t |t |t |t |t |t |t @| KT %. %. %. %. %. %. %. %. %. %. %. %. %. ",
"iU iU iU iU iU iU iU iU iU iU iU iU iU iU iU iU iU iU iU iU iU iU iU iU iU iU iU iU iU iU iU iU iU iU og cN cN _X _X _X :X =J =J =J =J 2X #W EW EW EW EW EW 5X #W Q' c_ d_ e_ f_ g_ B! u  v  `. ++ 0. 0. #+ -+ P+ Q+ :# ;@ z@ {# S# _$ _$ _$ _$ _$ D$ Z$ (% |% p% L% !& r& M& 0* Be x; U- s; 6X ;J U= @, |= y* DD jC zp [8 D9 xa 7e T~  ! Ed :% m0 m0 m0 m0 m0 m0 m0 m0 m0 m0 m0 m0 m0 m0 l9 Y$ R  0. .9 i+ o$ (% l9 U~ m0 m0 m0 m0 m0 m0 m0 m0 m0 m0 m0 m0 m0 [e [e G8 B# i+ .9 i+ :# :9  %  % $x -e >X m0 m0 m0 m0 m0 m0 m0 m0 m0 m0 m0 m0 m0 m0 m0 m0 m0 m0 m0 m0 m0 m0 m0 m0 m0 m0 m0 m0 m0 m0 m0 m0 m0 m0 m0 m0 m0 m0 m0 m0 m0 m0 m0 m0 m0 m0 m0 m0 m0 m0 m0 m0 m0 m0 m0 m0 m0 m0 m0 m0 m0 m0 m0 m0 m0 m0 m0 m0 m0 m0 m0 m0 m0 m0 m0 m0 m0 m0 m0 m0 m0 m0 m0 m0 m0 m0 m0 m0 m0 m0 m0 m0 m0 m0 m0 m0 m0 m0 m0 m0 m0 m0 m0 m0 m0 m0 m0 m0 m0 m0 m0 m0 m0 m0 m0 m0 m0 m0 m0 m0 m0 m0 m0 m0 m0 m0 m0 m0 m0 m0 m0 m0 m0 m0 m0 m0 m0 m0 m0 m0 m0 m0 m0 m0 m0 m0 m0 m0 m0 m0 m0 m0 m0 m0 m0 m0 m0 m0 m0 m0 m0 m0 m0 m0 m0 m0 m0 m0 m0 m0 m0 {8 Ad 2% g% [d 6e 6e 6e 6e P9 $x +%  % J$ P+ `) (W y# Y~ KD xd m0 m0 m0 m0 m0 m0 m0 m0 m0 m0 m0 m0 m0 6e 6e -e t' )~ ,~ |s #t {7 {7 {7 i+ y# ]a n0 [e m0 m0 m0 m0 m0 m0 m0 m0 m0 m0 m0 m0 m0 GD  q {~ 5Q a| k) mb *f G! xi /A >F GI 'Q :R $; b; $R W- CD Iz 8* x* p& =& v% i% =% `$ _$ _$ _$ _$ _$ _$ _$ _$ _$ _$ S# {# z@ -@ m+ Q+ -+ $+ 0. y  `. u  N' N' _< f_ e_ d[ S< {_ O~ =V =V =V =V =V -S qM qM qM qM qM qM qM qM vS ZW ZW ZW ZW EV LV *X PI PI PI PI PI ;6 }j }j 9W 9W q~ |t |t |t |t |t |t |t /+ #u k@ %. %. %. %. %. %. %. %. %. %. %. %. ",
"iU iU iU iU iU iU iU iU iU iU iU iU iU iU iU iU iU iU iU iU iU iU iU iU iU iU iU iU iU iU iU iU iU iU a& cN @L _X _X _X :X =J =J =J =J 7X #W PW EW EW EW EW 8X #W b_ c_ d_ e_ f_ g_ B! u  v  `. ++ 0. 0. #+ -+ P+ Q+ :# ;@ z@ {# S# _$ _$ _$ _$ _$ D$ Z$ (% |% p% 5& !& -* PB ]D Be x; T- b; e; N- /R @, _R y* DD ~y zp [8 D9 xa 7e T~  ! `d :% m0 m0 m0 m0 m0 m0 m0 m0 m0 m0 m0 m0 m0 m0 3~ D$ =+ {7 .9 i+ (# /; B; 5e Pd }e m0 67 m0 m0 m0 m0 m0 m0 m0 m0 m0 [e [e G8 B# i+ .9 i+ :# :9  %  % $x -e >X m0 m0 m0 m0 m0 m0 m0 m0 m0 m0 m0 m0 m0 m0 m0 m0 m0 m0 m0 m0 m0 m0 m0 m0 m0 m0 m0 m0 m0 m0 m0 m0 m0 m0 m0 m0 m0 m0 m0 m0 m0 m0 m0 m0 m0 m0 m0 m0 m0 m0 m0 m0 m0 m0 m0 m0 m0 m0 m0 m0 m0 m0 m0 m0 m0 m0 m0 m0 m0 m0 m0 m0 m0 m0 m0 m0 m0 m0 m0 m0 m0 m0 m0 m0 m0 m0 m0 m0 m0 m0 m0 m0 m0 m0 m0 m0 m0 m0 m0 m0 m0 m0 m0 m0 m0 m0 m0 m0 m0 m0 m0 m0 m0 m0 m0 m0 m0 m0 m0 m0 m0 m0 m0 m0 m0 m0 m0 m0 m0 m0 m0 m0 m0 m0 m0 m0 m0 m0 m0 m0 m0 m0 m0 m0 m0 m0 m0 m0 m0 m0 m0 m0 m0 m0 m0 m0 m0 m0 m0 m0 m0 m0 m0 m0 m0 m0 m0 m0 m0 m0 6e 6e -e w' B; 7d {8 {8 6e 6e P9 $x +%  % J$ P+ `) (W y# Y~ KD xd m0 m0 m0 m0 m0 m0 m0 m0 m0 m0 m0 m0 m0 m0 m0 Bd v' [~ >~ |s #t {7 {7 {7 i+ y# ]a m0 [e m0 m0 m0 m0 m0 m0 m0 m0 m0 m0 m0 m0 m0 @c Ae {~ 5Q a| k) mb *f G! xi 9X VI aI 'Q :R Q; U; RQ v; =R 0X -R aX p& =& v% 3% _% Z$ _$ _$ _$ _$ _$ _$ _$ _$ _$ _$ S# {# z@ -@ m+ Q+ -+ $+ 0. y  `. u  N' N' _< f_ e_ d[ S< {_ O~ =V =V =V =V =V (S qM qM qM qM qM qM qM qM }X ZW ZW ZW |X LV LV bX PI PI PI PI PI <q }j rm 9W 9W iu |t |t |t |t |t |t |t ]6 #u $u %. %. %. %. %. %. %. %. %. %. %. %. ",
"iU iU iU iU iU iU iU iU iU iU iU iU iU iU iU iU iU iU iU iU iU iU iU iU iU iU iU iU iU iU iU iU iU iU iU cX dX _X _X _X :X =J =J =J =J eX #W XW EW EW EW EW EW [S b_ c_ d_ e_ f_ g_ B! u  v  `. ++ 0. 0. #+ -+ P+ Q+ :# ;@ z@ {# S# _$ _$ _$ _$ _$ D$ Z$ (% |% p% 5& !& r& PB QQ ,- x; S- t; $R %R /R ,= Q* y* DD ~y zp [8 D9 xa 7e T~  ! fX =% m0 m0 m0 m0 m0 m0 m0 m0 m0 m0 m0 m0 m0 m0 X0 [$ j+ {7 .9 $+ <A Va c{ gX h% .q 5e 5e We 5e <e U~ m0 m0 m0 m0 m0 [e [e G8 B# i+ .9 i+ :# :9  %  % $x -e >X m0 m0 m0 m0 m0 m0 m0 m0 m0 m0 m0 m0 m0 m0 m0 m0 m0 m0 m0 m0 m0 m0 m0 m0 m0 m0 m0 m0 m0 m0 m0 m0 m0 m0 m0 m0 m0 m0 m0 m0 m0 m0 m0 m0 m0 m0 m0 m0 m0 m0 m0 m0 m0 m0 m0 m0 m0 m0 m0 m0 m0 m0 m0 m0 m0 m0 m0 m0 m0 m0 m0 m0 m0 m0 m0 m0 m0 m0 m0 m0 m0 m0 m0 m0 m0 m0 m0 m0 m0 m0 m0 m0 m0 m0 m0 m0 m0 m0 m0 m0 m0 m0 m0 m0 m0 m0 m0 m0 m0 m0 m0 m0 m0 m0 m0 m0 m0 m0 m0 m0 m0 m0 m0 m0 m0 m0 m0 m0 m0 m0 m0 m0 m0 m0 m0 m0 m0 m0 m0 m0 m0 m0 m0 m0 m0 m0 m0 m0 m0 m0 m0 m0 m0 m0 m0 m0 m0 $0 $0 $0 m0 m0 m0 m0 m0 m0 m0 m0 m0 m0 {8 }e uk CT Ke Bd {8 {8 6e 6e P9 $x +%  % J$ P+ `) (W y# Y~ KD xd m0 m0 m0 m0 m0 m0 m0 m0 m0 m0 m0 m0 m0 m0 m0 Bd v' [~  { |s #t z  {7 {7 i+ y# Q! m0 [e m0 m0 m0 m0 m0 m0 m0 m0 m0 m0 m0 m0 m0 @c Ae 7% 5Q a| k) mb *f G! xi ys VI aI 'Q }E Q- U; c; R; ZC *z -R aX p& =& v% 3% _% Z$ _$ _$ _$ _$ _$ _$ _$ _$ _$ _$ S# {# z@ -@ m+ Q+ -+ $+ 0. y  `. u  N' N' _< f_ e_ d[ S< {_ O~ =V =V =V =V /V qM qM qM qM qM qM qM qM 3X ZW ZW ZW ZW 4X LV LV hX ]K PI PI PI PI [p }j  X 9W 9W 's |t |t |t |t |t |t |t |t @| #u $. %. %. %. %. %. %. %. %. %. %. %. ",
"iU iU iU iU iU iU iU iU iU iU iU iU iU iU iU iU iU iU iU iU iU iU iU iU iU iU iU iU iU iU iU iU iU iU iU zR (m _X _X _X :X =J =J =J =J eX #W #W EW EW EW EW EW -f b_ c_ d_ e_ f_ g_ B! u  v  `. ++ 0. 0. #+ -+ P+ Q+ :# ;@ z@ {# S# _$ _$ _$ _$ _$ D$ Z$ (% |% p% 5& !& r& PB QQ >- =; S- >U d; x; S= `Q Q* y* DD ~y Zx [8 D9 xa 7e T~  ! `p s' m0 m0 m0 m0 m0 m0 m0 m0 m0 m0 m0 m0 m0 m0 X0 [$ j+ {7 .9 $+ bb 80 ;~ 3{ 4{ d{ a{ e{ e{ Ae w' h, Od m0 m0 m0 m0 [e [e G8 B# i+ .9 i+ :# :9  %  % $x -e >X m0 m0 m0 m0 m0 m0 m0 m0 m0 m0 m0 m0 m0 m0 m0 m0 m0 m0 m0 m0 m0 m0 m0 m0 m0 m0 m0 m0 m0 m0 m0 m0 m0 m0 m0 m0 m0 m0 m0 m0 m0 m0 m0 m0 m0 m0 m0 m0 m0 m0 m0 m0 m0 m0 m0 m0 m0 m0 m0 m0 m0 m0 m0 m0 m0 m0 m0 m0 m0 m0 m0 m0 m0 m0 m0 m0 m0 m0 m0 m0 m0 m0 m0 m0 m0 m0 m0 m0 m0 m0 m0 m0 m0 m0 m0 m0 m0 m0 m0 m0 m0 m0 m0 m0 m0 m0 m0 m0 m0 m0 m0 m0 m0 m0 m0 m0 U~ U~ U~ U~ U~ U~ U~ U~ m0 m0 m0 6e m0 m0 m0 m0 m0 m0 m0 m0 m0 m0 m0 m0 m0 m0 m0 m0 m0 m0 6e m0 m0 U~ U~ U~ yd 7d 7d 7d -e h, h, h, 5e Bd 7d U~ U~ m0 m0 6e 6e 6e n0 5e =e 4{ =e Bd {8 {8 6e 6e P9 $x +%  % J$ P+ `) (W y# Y~ KD xd m0 m0 m0 m0 m0 m0 m0 m0 m0 m0 m0 m0 m0 m0 m0 5e t' )~  { .r =+ z  {7 {7 i+ o! (~ C{ {8 m0 m0 m0 m0 m0 m0 m0 m0 m0 m0 m0 m0 m0 <e Ae 7% 5Q a| k) mb *f /b hD ys IA aI 'Q }E %; a; s; w; ZC *z -R aX p& =& v% 3% *% `$ _$ _$ _$ _$ _$ _$ _$ _$ _$ _$ S# {# z@ -@ m+ Q+ -+ $+ 0. y  `. u  N' N' _< f_ e_ d[ S< {_ O~ WR cS /V iX PV qM qM qM qM qM qM qM TW ZW ZW ZW ZW ZW EV LV jX kX kX kX ^1 PI PI }j }j  X 9W 0W |t |t |t |t |t |t |t |t |t u+ #u $u %. %. %. %. %. %. %. %. %. %. %. ",
"iU iU iU iU iU iU iU iU iU iU iU iU iU iU iU iU iU iU iU iU iU iU iU iU iU iU iU iU iU iU iU iU iU iU iU iU ,) _X _X _X :X =J =J =J =J #W #W lX .J mX EW EW EW EW b_ c_ d_ e_ f_ g_ B! u  v  `. ++ 0. 0. #+ -+ P+ Q+ :# ;@ z@ {# S# _$ _$ _$ _$ _$ D$ Z$ (% |% p% K% s, q& PB QQ 9n =; 7; a; gR =; nX oX Q* y* DD ;G Zx [8 D9 xa 7e X.  ! `p X, U~ m0 m0 m0 m0 m0 m0 m0 m0 m0 m0 m0 m0 m0 X0 :$ j+ {7 .9 $+ bb _0 ;~ ,~ &e &e >~ >~ >~ ;~ [~ e{ g% Od m0 m0 m0 [e [e G8 B# i+ .9 i+ :# :9  %  % $x -e >X m0 m0 m0 m0 m0 m0 m0 m0 m0 m0 m0 m0 m0 m0 m0 m0 m0 m0 m0 m0 m0 m0 m0 m0 m0 m0 m0 m0 m0 m0 m0 m0 m0 m0 m0 m0 m0 m0 m0 m0 m0 m0 m0 m0 m0 m0 m0 m0 m0 m0 m0 m0 m0 m0 m0 m0 m0 m0 m0 m0 m0 m0 m0 m0 m0 m0 m0 m0 m0 m0 m0 m0 m0 m0 m0 m0 m0 m0 m0 m0 m0 m0 m0 m0 m0 m0 m0 m0 m0 m0 m0 m0 m0 m0 m0 m0 m0 m0 m0 m0 m0 m0 m0 m0 m0 m0 m0 m0 U~ U~ U~ Od 7d 7d -e 5e h, 3% g% g% g% 1% 3% 3% h, We 5e -e 7d 7d 7d 7d 7d yd U~ U~ U~ U~ U~ U~ yd 7d 7d 7d 7d 7d Bd 5e We 3% g% g% |% _9 t' F9 6{ a{ 5{ :g e{ t' w' g% Jd h, 5e -e -e P9 (0 KA 4{ :~ Ae Bd {8 {8 6e 6e P9 $x +%  % J$ P+ `) (W y# Y~ KD xd m0 m0 m0 m0 m0 m0 m0 m0 m0 m0 m0 m0 m0 m0 $0 h, C' :~  { D~ *+ z  {7 {7 i+ o! /~ >X {8 m0 m0 m0 m0 m0 m0 m0 m0 U~ U~ U~ m0 m0 <e =e ]~ 5Q a| k) mb xa ^e ^D ys IA aI 'Q }E {> T; #R U- HM 8Q -R aX p& =& v% 3% *% p) _$ _$ _$ _$ _$ _$ _$ _$ _$ _$ S# {# z@ -@ m+ Q+ -+ $+ 0. y  `. u  N' N' _< f_ e_ d[ S< b_ pM qM qM qM qM qM qM qM qM qM qM qM qM pX ZW ZW ZW ZW qX LV LV rX kX kX kX sX PI e@ }j }j tX 1t mC |t |t |t |t |t |t |t |t |t ha #u #u k@ %. %. %. %. %. %. %. %. %. %. ",
"iU iU iU iU iU iU iU iU iU iU iU iU iU iU iU iU iU iU iU iU iU iU iU iU iU iU iU iU iU iU iU iU iU iU iU iU _X _X _X _X :X =J =J =J =J #W uX vX vX OI wX EW EW EW b_ c_ d_ e_ f_ g_ B! u  v  `. ++ 0. 0. #+ -+ P+ Q+ :# ;@ z@ {# S# _$ _$ _$ _$ _$ D$ Z$ (% |% p% K% s, q& )* 8* 9n =; 7; .; c; Z; |x _= Q* ]* DD ;G Zx [8 D9 xa 7e X.  ! (k G! Bd m0 m0 m0 m0 m0 m0 m0 m0 m0 m0 m0 m0 m0 X0 :$ j+ {7 .9 $+ bb _0 ;~ ;~ ;~ ,~ ,~ ;~ ;~ ;~ >~ ;~ 6{ h, U~ m0 m0 [e [e G8 B# i+ .9 i+ :# :9  %  % $x -e >X m0 m0 m0 m0 m0 m0 m0 m0 m0 m0 m0 m0 m0 m0 m0 m0 m0 m0 m0 m0 m0 m0 m0 m0 m0 m0 m0 m0 m0 m0 m0 m0 m0 m0 m0 m0 m0 m0 m0 m0 m0 m0 m0 m0 m0 m0 m0 m0 m0 m0 m0 m0 m0 m0 m0 m0 m0 m0 m0 m0 m0 m0 m0 m0 m0 m0 m0 m0 m0 m0 m0 m0 m0 m0 m0 m0 m0 m0 m0 m0 m0 m0 m0 m0 m0 m0 m0 m0 m0 m0 m0 m0 m0 m0 m0 m0 U~ U~ U~ U~ Ad Ad Bd Bd Bd -e -e 5e h, Jd g% P, w' KA C' ST b{ 5{ D8 D8 D8 d{ 5{ 5{ a{ a{ e{ C' C' t' v' <% B; |% 1% Jd Jd Jd Jd g% g% P, <% v' u' t' C' e{ a{ 5{ D8 ~~ !~ [~ :~ '~ ,~ &e &e &e ,~ :~ [~ ~~ 5{ a{ 6{ C' C' e{ {~ [~ ;~ k~  q pw {8 {8 6e 6e P9 $x +%  % J$ P+ `) (W y# Y~ KD xd m0 m0 m0 m0 m0 m0 m0 m0 m0 m0 m0 m0 m0 {8 m0 i% 5{ ;~  { Jt *+ {7 {7 {7 i+ n! *% >X {8 m0 m0 m0 m0 m0 m0 m0 U~ 5e h, 7d 6e m0 <e 4e ]~ i8 a| k) mb xa ^e ^D ys IA aI 'Q }E &;  ; >U U- 7Q ay 6* w* p& =& v% 3% *% p) _$ _$ _$ _$ _$ _$ _$ _$ _$ _$ S# {# z@ -@ m+ Q+ -+ $+ 0. y  `. u  N' N' _< f_ e_ d[ S< b_ pM qM qM qM qM qM qM qM xX 3X yX yX zX ZW ZW ZW ZW ZW AX LV LV BX kX kX kX kX PI ~1 }j }j }j |t |t |t |t |t |t |t |t |t |t |t 's #u #u +* %. %. %. %. %. %. %. %. %. %. ",
"iU iU iU iU iU iU iU iU iU iU iU iU iU iU iU iU iU iU iU iU iU iU iU iU iU iU iU iU iU iU iU iU iU iU iU iU CX _X _X _X DX =J =J =J =J uX EX vX vX vX vX FX GX HX b_ c_ d_ e_ f_ g_ B! u  v  `. ++ 0. 0. #+ -+ P+ Q+ :# ;@ z@ {# S# _$ _$ _$ _$ _$ D$ Z$ (% |% p% K% s, q& J& 8* -- Z; $; .; b; Z; Q= _= =G x* QP YB Zx [8 D9 xa 7e X.  ! Xi @9 h% U~ m0 m0 m0 m0 m0 m0 m0 m0 m0 m0 m0 m0 X0 :$ j+ {7 .9 $+ bb _0 ;~ ;~ ;~ ;~ ;~ ;~ ;~ ;~ ,~ >~ B~ h% m0 {8 m0 [e [e G8 B# i+ .9 i+ :# :9  %  % $x -e >X m0 m0 m0 m0 m0 m0 m0 m0 m0 m0 m0 m0 m0 m0 m0 m0 m0 m0 m0 m0 m0 m0 m0 m0 m0 m0 m0 m0 m0 m0 m0 m0 m0 m0 m0 m0 m0 m0 m0 m0 m0 m0 m0 m0 m0 m0 m0 m0 m0 m0 m0 m0 m0 m0 m0 m0 m0 m0 m0 m0 m0 m0 m0 m0 m0 m0 m0 m0 m0 m0 m0 m0 m0 m0 m0 m0 m0 m0 m0 m0 m0 m0 m0 m0 m0 m0 m0 m0 }e U~ U~ U~ U~ U~ Ad Ad Od 5e gx h, 3% 1% Dd B; v' v' (e 0{ 6{ a{ :g {~ B~ k9 2{ }{ }{ }{ }{ }{ }{ }{ [{ }{ }{ }{ }{ 2{ <{ k9 4{ !~ ~~ :g ]~ ]~ ]~ ]~ ]~ 7% {~ {~ ~~ l~ )~ :~ ;~ ;~ ,~ ,~ ;~ ;~ ;~ ;~ ;~ ;~ ;~ ;~ ;~ ;~ ;~ ;~ ;~ ,~ ,~ <~ <~ '~ ;~ <~ <~ ;~ >~ k~  q pw 67 {8 6e 6e P9 $x +%  % J$ P+ `) (W y# Y~ KD xd m0 m0 m0 m0 m0 m0 m0 m0 m0 m0 m0 m0 m0 {8 U~ W% 4{ >~ K8 D~ *+ {7 {7 {7 &) i8 X, Ad {8 m0 m0 m0 m0 m0 m0 m0 <e &h 68 5e {8 m0 <e 4e ]~ i8 a| k) mb xa ^e ^D ys IA ,Q <= }E &; `- U; S- cC f> 6* u* p& =& v% 3% *% p) _$ _$ _$ _$ _$ _$ _$ _$ _$ _$ S# {# z@ -@ m+ Q+ -+ $+ 0. y  `. u  N' N' _< f_ e_ d[ S< b_ pM qM qM qM qM qM qM TW IX ZW ZW ZW ZW ZW ZW ZW ZW qX LV LV LV JX kX kX kX kX [j 'i }j }j }j Xs |t |t |t |t |t |t |t |t |t |t |t u+ d= %. %. %. %. %. %. %. %. %. %. %. ",
"iU iU iU iU iU iU iU iU iU iU iU iU iU iU iU iU iU iU iU iU iU iU iU iU iU iU iU iU iU iU iU iU iU iU iU iU -9 _X _X KX Uf zG .n M] 'i vX vX vX vX vX vX vX vX vX q[ c_ d_ e_ f_ g_ B! u  v  `. ++ 0. 0. #+ -+ P+ Q+ :# ;@ z@ {# S# _$ _$ _$ _$ _$ D$ Z$ (% |% p% K% '& q& J& 8* Xz -; Q;  ; >U >Q LX -= =G x* QP YB Zx [8 D9 xa mb X.  ! Hc ze =e 5e U~ U~ ({ U~ m0 m0 m0 m0 m0 m0 m0 m0 X0 :$ j+ {7 .9 $+ bb _0 ;~ ;~ ;~ ;~ ;~ ;~ ;~ ;~ ;~ >~ k9 re }e {8 m0 [e [e G8 B# i+ .9 i+ :# :9  %  % $x ^a U~ U~ ({ ({ ({ ({ ({ ({ ({ ({ ({ ({ ({ ({ ({ ({ ({ ({ ({ ({ ({ ({ ({ ({ ({ ({ ({ ({ ({ ({ ({ ({ ({ ({ ({ ({ ({ ({ ({ ({ ({ ({ ({ ({ ({ ({ ({ ({ ({ ({ ({ ({ ({ ({ ({ ({ ({ ({ ({ ({ ({ ({ ({ ({ ({ ({ ({ ({ ({ ({ ({ ({ ({ ({ ({ ({ ({ ({ ({ ({ ({ ({ ({ ({ ({ ({ yd yd 7d -e -e -e vj We h, h, h, 3% g% |% B; Ke t' C' e{ b{ ]~ 7% 7% {~ 5{ 5{ 5{ 5{ 5{ 5{ MX MX MX MX MX MX MX MX MX MX ,V ,V ,V -~ B~ B~ B~ -$ {~ -$ -$ -$ -$ -$ ~~ ~~ -$ -$ ~~ ~~ !~ !~ !~ !~ l~ l~ !~ !~ !~ !~ ~~ ~~ ~~ ~~ ~~ ~~ ~~ !~ !~ l~ l~ l~ [~ )~ )~ [~ l~ )~ [~ =e 5e Sj n0 of ({ F0 $x +%  % J$ P+ `) (W y# Y~ KD xd m0 m0 m0 m0 m0 m0 m0 m0 m0 m0 m0 m0 m0 m0 Bd Ke :~ >~ 'b .r *+ {7 {7 {7 0. de B, <e {8 m0 m0 m0 m0 m0 m0 $0 i% :g a{ h, m0 m0 <e 4e ]~ 5Q a| k) mb xa D9 _8 ys IA t, ym :E &; Z- +; S- TP f> 6* u* p& =& v% 3% *% p) _$ _$ _$ _$ _$ _$ _$ _$ _$ _$ S# {# z@ -@ m+ Q+ -+ $+ 0. y  `. u  N' N' _< f_ e_ d[ S< b_ pM qM qM qM qM qM xX IX ZW ZW ZW ZW ZW ZW ZW ZW ZW AX LV LV LV JX kX kX kX L| %. 6g }j }j }j `R |t X8 X8 t. X8 X8 X8 X8 X8 X8 w7 %. %. %. %. %. %. %. %. %. %. %. %. %. ",
"iU iU iU iU iU iU iU iU iU iU iU iU iU iU iU iU iU iU iU iU iU iU iU iU iU iU iU iU iU iU iU iU iU iU iU iU  S NX Uf zG zG zG zG zG zG zG zG zG zG zG t4 OX OX OX S< c_ d_ e_ f_ g_ B! u  v  `. ++ 0. 0. #+ -+ P+ Q+ :# ;@ z@ {# S# _$ _$ _$ _$ _$ D$ Z$ (% |% p% K% '& q& J& tP Xz -; Q- 0; U; PX QX uP =G x* QP YB zp <8 D9 xa mb X.  ! Hc Je qh Ke uk uk g% h, U~ m0 m0 m0 m0 m0 m0 m0 X0 :$ j+ {7 .9 $+ bb _0 ;~ ;~ ;~ ;~ ;~ ;~ ;~ ;~ ;~ &e <{ w' U~ {8 m0 [e [e G8 B# i+ .9 i+ :# :9  %  % W& J! 8{ 8{ 8{ 8{ 8{ 8{ 8{ 8{ 8{ 8{ 8{ 8{ 8{ 8{ 8{ 8{ 8{ 8{ 8{ 8{ 8{ 8{ 8{ 8{ 8{ 8{ 8{ 8{ 8{ 8{ 8{ 8{ 8{ 8{ 8{ 8{ 8{ 8{ 8{ 8{ 8{ 8{ 8{ 8{ 8{ 8{ 8{ 8{ 8{ 8{ 8{ 8{ 8{ 8{ 8{ 8{ 8{ 8{ 8{ 8{ 8{ 8{ 8{ 8{ 8{ 8{ 8{ 8{ 8{ 8{ 8{ 8{ 8{ 8{ 8{ 8{ 8{ 8{ 8{ 8{ 8{ 8{ 8{ 8{ _~ 2~ (~ 1~ /~ ,' :% da RX 3a &% &% &% &% *% *% *% (% %% %% r' q' Xa Xa Xa q' Xa %% %% r' %% }~ }~ }~ }~ }~ }~ }~ }~ }~ }~ X, E8 E8 E8 E8 B, q' q' q' +% +% +% +% SX W, W, ~' ~' ~' +% ~' p' ~' ~' ~' ~' p' p' p' p' p' p' p' p' p' p' p' p' p' p' p' p' p' p' :> :> :> :> ce G! TX 1~ 9{ 8{ 8{ _~ J! $%  %  % J$ P+ `) (W y# Y~ KD xd m0 m0 m0 m0 m0 m0 m0 m0 m0 m0 m0 m0 m0 U~ 3% a{ '~ ;~ 'b Jt =+ {7 {7 {7 0. J6 E! 3% m0 m0 m0 m0 m0 m0 m0 Ad 88 4{ qh |% U~ m0 -G q) 7% 5Q a| k) mb xa D9 _8 Kz Qy yH ym :E &; Z-  ; 7; UX e> 5* u* R& S% v% 3% *% p) _$ _$ _$ _$ _$ _$ _$ _$ _$ _$ S# {# z@ -@ m+ Q+ -+ $+ 0. y  `. u  N' N' _< f_ e_ d[ S< b_ pM qM qM qM qM qM 3X ZW ZW ZW ZW ZW ZW ZW ZW ZW 4X LV LV LV LV VX kX kX WX %. %. %. Kh XX }j w4 W# %. %. %. %. %. %. %. %. %. %. %. %. %. %. %. %. %. %. %. %. %. %. %. ",
"iU iU iU iU iU iU iU iU iU iU iU iU iU k@ ea ea ea ea ea ea ea YX iU iU iU iU iU iU iU iU iU iU ZX ra oo %F zG zG zG zG zG zG zG zG zG zG zG zG zG zG zG zG zG zG S< c_ d_ e_ f_ g_ B! u  v  `. ++ 0. 0. #+ -+ P+ Q+ :# ;@ z@ {# S# _$ _$ _$ _$ _$ D$ /% (% |% p% K% '& q& J& tP -- -; Q- 0; a; I- %t uP O* v*  D YB Zx 68 Yg 2j mb X.  ! Hc Je ;~ 4{ 5{ b{ 5{ _k Od m0 m0 m0 m0 m0 m0 m0 X0 :$ j+ {7 .9 $+ bb 80 ;~ ;~ ;~ ;~ ;~ ;~ ;~ ;~ ;~ &e [{ Ke Od 6e m0 [e [e G8 B# i+ .9 i+ :# :9  % R) A# Z@ Z@ l' l' l' l' l' l' l' l' l' l' l' l' l' l' l' l' l' l' l' l' l' l' l' l' l' l' l' l' l' l' l' l' l' l' l' l' l' l' l' l' l' l' l' l' l' l' l' l' l' l' l' l' l' l' l' l' l' l' l' l' l' l' l' l' l' l' l' l' l' l' l' l' l' l' l' l' l' l' l' l' l' l' l' It It It #& #& #& #& Z@ Z@ #& #& #& #& #& #& Z@ Z@ Z@ Z@ Z@ Z@ Z@ ^# ^# ^# ^# ^# ^# Z@ Z@ Z@ Z@ Z@ Z@ Z@ Z@ Z@ Z@ Z@ Z@ Z@ Z@ #& #& #& #& #& Z@ Z@ Z@ Z@ Z@ Z@ Z@ Z@ Z@ #& #& #& #& #& #& #& #& #& #& #& #& #& #& #& #& #& #& #& It It It It #& #& UB UB UB #& It g# g# g# It #& It It `X `X l' It #& J$ /%  % J$ P+ `) (W y# Y~ KD xd m0 m0 m0 m0 m0 m0 m0 m0 m0 m0 m0 m0 m0 U~ re k9 >~ ;~ 'b Jt =+ {7 {7 {7 0. Ie H8 <8 Od m0 m0 m0 m0 m0 m0 <e 4e <{ :~ 0{ 5e $0 h,  q {~ 5Q a| k) mb xa D9 _8 Kz @I yH ym ]E ;J Y- S; Q; xB xx 5* !* R& S% v% 3% s' p) _$ _$ _$ _$ _$ _$ _$ _$ _$ _$ S# {# z@ -@ m+ Q+ -+ $+ 0. y  `. u  N' N' _< f_ e_ d[ S< b_ pM qM qM qM qM qM yX ZW ZW ZW ZW ZW ZW ZW ZW 4X LV LV LV LV LV pg kX kX  Y %. %. %. %. %. %. %. %. %. %. %. %. %. %. %. %. %. %. %. %. %. %. %. %. %. %. %. %. %. %. %. ",
"iU iU .Y .Y .Y .Y .Y hS 9g xg +Y ;3 O^ @Y @Y @Y @Y @Y @Y @Y @Y @Y @Y @Y @Y @Y @Y @Y #Y mo zG zG zG zG zG zG zG zG zG zG zG zG zG zG zG zG zG zG zG zG zG zG zG zG S< c_ d_ e_ f_ g_ B! u  v  `. ++ 0. 0. #+ -+ P+ Q+ :# ;@ z@ {# S# _$ _$ _$ _$ _$ C$ /% (% |% p% K% '& $Y t* %Y -- J- 7O PO  ; G- M= == N* v*  D 5P -P 58 Yg 2j mb X.  ! Hc Je <~ ;~ ;~ }{ <{ FF -G m0 m0 m0 m0 m0 m0 m0 X0 :$ j+ {7 .9 $+ *6 80 ;~ ;~ ;~ ;~ ;~ ;~ ;~ ;~ ;~ >~ [{ =e -e m0 m0 [e [e G8 B# i+ .9 i+ :# :9 /% D# =+ Y. X. T~ T~ T~ T~ T~ T~ T~ T~ T~ T~ T~ T~ T~ T~ T~ T~ T~ T~ T~ T~ T~ T~ T~ T~ T~ T~ T~ T~ T~ T~ T~ T~ T~ T~ T~ T~ T~ T~ T~ T~ T~ T~ T~ T~ T~ T~ T~ T~ T~ T~ T~ T~ T~ T~ T~ T~ T~ T~ T~ T~ T~ T~ T~ T~ T~ T~ T~ T~ T~ T~ T~ T~ T~ T~ T~ T~ T~ T~ T~ T~ T~ T~ T~ T~ T~ T~ Z. Z. Z. Z. Z. Z. Z. Z. Z. Z. Z. Z. Z. Z. Z. Z. Z. Z. Z. Z. Z. Z. Z. Z. Z. Z. Z. Z. Z. Z. Z. Z. Z. Z. Z. Z. Z. Z. Z. Z. Z. Z. Z. Z. Z. Z. Z. Z. Z. Z. Z. Z. Z. Z. Z. Z. Z. Z. Z. Z. Z. Z. Z. h_ h_ h_ h_ h_ h_ h_ h_ h_ h_ h_ h_ h_ h_ h_ h_ h_ h_ r! r! r! r! r! r! r! Z. T~ T~ T~ T~ X. Z. *+ J$ /% J$ P+ `) (W y# Y~ KD xd m0 m0 m0 m0 m0 m0 m0 m0 m0 m0 m0 m0 {8 Bd 4e }{ >~ ;~ 'b D~ =+ {7 {7 {7 0. Ie J8 18 5e 6e m0 m0 m0 m0 m0 h, qw ;~ ;~ B~ |% Bd g% 5{ {~ 5Q a| k) mb xa D9 _8 Kz @I yH ym ]E N- 9; Z- Q; xB &Y 5= L& |& S% v% 3% s' p) _$ _$ _$ _$ _$ _$ _$ _$ _$ _$ S# {# z@ -@ m+ Q+ -+ $+ 0. y  `. u  N' N' _< f_ e_ d[ S< b_ pM qM qM qM qM qM ZW ZW ZW ZW ZW ZW ZW *Y J@ LV LV LV LV LV =Y kX kX -Y %. %. %. %. %. %. %. %. %. %. %. %. %. %. %. %. %. %. %. %. %. %. %. %. %. %. %. %. %. %. %. %. ",
"yM yM yM yM yM yM yM yM yM yM yM yM yM yM ;Y D% 2< >Y ,Y ,Y ,Y ,Y ,Y ,Y ,Y ,Y ,Y ,Y 'Y )Y zG zG zG zG zG zG zG zG zG zG zG !Y ~Y ~Y ~Y ~Y {Y {Y {Y {Y {Y {Y {Y {Y q[ c_ d_ e_ f_ g_ B! u  v  `. ++ 0. 0. #+ -+ P+ Q+ :# ;@ z@ {# S# _$ _$ _$ _$ _$ C$ /% (% |% p% K% '& j* H& 6* -- J- {> 9; S; ]Y M= == 2= v*  D 5P -P 58 Yg 2j mb X.  ! Hc Je ;~ ;~ ,~ ;~ <{ 4e Tj m0 m0 m0 m0 m0 m0 m0 X0 :$ j+ {7 .9 $+ *6 80 ;~ ;~ ;~ ;~ ;~ ;~ ;~ ;~ ;~ >~ ;~ 69 h, }e 6e [e [e G8 B# i+ .9 i+ m+ p$ p$ se X. a| V' V' a| a| a| a| a| a| a| a| a| a| a| a| a| a| a| a| a| a| a| a| a| a| a| a| a| a| a| a| a| a| a| a| a| a| a| a| a| a| a| a| a| a| a| a| a| a| a| a| a| a| a| a| a| a| a| a| a| a| a| a| a| a| a| a| a| a| a| a| a| a| a| a| a| a| a| a| a| a| a| a| a| a| a| a| a| a| a| a| a| a| a| a| a| a| a| a| a| a| a| a| a| a| a| a| a| a| a| a| a| a| a| a| a| a| a| a| a| a| a| a| a| a| a| a| a| a| a| a| a| a| a| a| a| a| a| a| a| a| a| a| a| a| a| a| a| a| a| a| a| a| a| a| a| a| a| a| a| a| a| a| a| a| a| a| a| a| a| a| a| a| a| a| a| a| a| a| a| a| V' V' X. R  J$ Z@ P+ `) (W y# Y~ KD xd m0 m0 m0 m0 m0 m0 m0 m0 m0 m0 m0 6e m0 .q a{ ;~ >~ ;~ 'b tq =+ {7 {7 {7 0. Ie L8 MX 3% }e m0 m0 m0 m0 U~ 2% 5{ ;~ ;~ )~ e{ P, F9 4{ {~ 5Q a| k) mb xa D9 _8 Kz @I BG ^Y ]E N- #; Z- Q; xB c> 3* L& |& S% v% 3% s' p) _$ _$ _$ _$ _$ _$ _$ _$ _$ _$ S# {# z@ -@ m+ Q+ -+ $+ 0. y  `. u  N' N' _< f_ e_ d[ S< b_ pM qM qM qM qM qM pX ZW y7 IO IO IO /Y LV LV LV LV LV LV AX pg kX kX kX kX -Y WX [p }H (Y z1 _Y _Y _Y _Y _Y _Y _Y (Y '6 WX WX WX WX WX WX WX WX -Y kX kX kX kX kX kX kX ",
"yM yM yM yM yM yM yM yM yM yM yM yM yM yM yM yM yM :Y :Y :Y :Y :Y :Y :Y :Y :Y :Y :Y :Y :Y <Y [Y }Y |Y |Y |Y 1Y [Y [Y :Y :Y :Y :Y :Y :Y :Y 2Y 2Y 2Y 2Y 2Y 2Y 2Y 2Y -( c_ d_ e_ f_ g_ B! u  v  `. ++ 0. 0. #+ -+ P+ Q+ :# ;@ z@ {# S# _$ _$ _$ _$ _$ C$ /% (% |% p% K% '& R& H& 6* 2h J- &; #; `- >; L= Rb M* v*  D pC hx 58 Yg d% mb X.  ! Hc Je ;~ ;~ ;~ ;~ '~ =e <e m0 m0 m0 m0 m0 m0 m0 X0 :$ j+ {7 ~7 $+ bb 80 ;~ ;~ ;~ ;~ ;~ ;~ ;~ ;~ ;~ >~ ;~ 5{ 3% }e 6e xd [e G8 B# i+ .9 B  Q+ 8@ k. Aa la la la la la la la la la la la la la la la la la la la la la la la la la la la la la la la la la la la la la la la la la la la la la la la la la la la la la la la la la la la la la la la la la la la la la la la la la la la la la la la la la la la la la la la la la la la la la la la la la la la la la la la la la la la la la la la la la la la la la la la la la la la la la la la la la la la la la la la la la la la la la la la la la la la la la la la la la la la la la la la la la la la la la la la la la la la la la la la la la la la la la la la la la Aa R  w# -+ `) (W y# Y~ KD xd m0 m0 m0 m0 m0 m0 m0 m0 m0 m0 m0 m0 Bd w' k9 >~ ;~ ;~ 'b Jt !7 {7 {7 {7 0. Ie L8 qh Ke Od m0 m0 m0 m0 Ad 88 4{ ;~ ;~ ;~ :~ 4{ 3{ :~ ]~ i8 a| k) mb xa D9 _8 Kz @I BG ;O SD *; v; Y- Q; qA b> 3* L& |& S% v% 3% s' p) _$ _$ _$ _$ _$ _$ _$ _$ _$ _$ S# {# z@ -@ m+ Q+ -+ $+ 0. y  `. u  N' N' _< f_ e_ d[ S< b_ pM qM qM qM qM qM 3Y ZW *Y LV LV LV LV LV jX rX 4Y VX pg kX kX kX kX kX kX kX kX kX kX kX kX kX kX kX kX kX kX kX kX kX kX kX kX kX kX kX kX kX kX kX kX kX kX kX kX kX ",
"yM yM yM yM yM yM yM yM yM yM yM yM yM yM yM yM 5Y 6Y :Y :Y :Y :Y :Y 7Y 8Y 8Y 8Y 8Y 8Y 9Y :Y :Y :Y :Y [Y [Y [Y [Y [Y [Y [Y [Y [Y [Y [Y [Y 0Y 0Y aY 2Y 2Y 2Y 2Y 2Y -( c_ d_ e_ f_ g_ B! u  v  `. ++ 0. 0. #+ -+ P+ Q+ :# ;@ z@ {# S# _$ _$ _$ _$ _$ C$ /% (% |% p% K% '& R& G& #d 2h J- &; W- Z- z; qO *= M* u* 6O pC hx 58 cg d% mb k)  ! Hc Je ;~ ;~ ;~ ;~ ;~  q <e m0 m0 m0 m0 m0 m0 m0 X0 :$ j+ {7 ~7 H  <A ze ;~ ;~ ;~ ;~ ;~ ;~ ;~ ;~ ;~ ;~ ;~ B~ h% $0 {8 zd [e G8 B# i+ y  0. -+ Q  0. r! r! Aa Aa Aa Aa Aa Aa Aa Aa Aa Aa Aa Aa Aa Aa Aa Aa Aa Aa Aa Aa Aa Aa Aa Aa Aa Aa Aa Aa Aa Aa Aa Aa Aa Aa Aa Aa Aa Aa Aa Aa Aa Aa Aa Aa Aa Aa Aa Aa Aa Aa Aa Aa Aa Aa Aa Aa Aa Aa Aa Aa Aa Aa Aa Aa Aa Aa Aa Aa Aa Aa Aa Aa Aa Aa Aa Aa Aa Aa Aa Aa Aa Aa Aa Aa Aa Aa Aa Aa Aa Aa Aa Aa Aa Aa Aa Aa Aa Aa Aa Aa Aa Aa Aa Aa Aa Aa Aa Aa Aa Aa Aa Aa Aa Aa Aa Aa Aa Aa Aa Aa Aa Aa Aa Aa Aa Aa Aa Aa Aa Aa Aa Aa Aa Aa Aa Aa Aa Aa Aa Aa Aa Aa Aa Aa Aa Aa Aa Aa Aa Aa Aa Aa Aa Aa Aa Aa Aa Aa Aa Aa Aa Aa Aa Aa Aa Aa Aa Aa Aa Aa Aa Aa Aa Aa Aa Aa Aa Aa Aa Aa Aa Aa Aa r! Z. ++ $+ %+ `) {7 y# Y~ KD xd m0 m0 m0 m0 m0 m0 m0 m0 m0 m0 6e U~ 3% a{ ;~ >~ ;~ ;~  { &w !7 {7 {7 {7 0. Ie L8 3{ e{ h, m0 m0 m0 m0 Od KA 3{ >~ ;~ ;~ >~ >~ >~ :~ ]~ i8 a| k) mb xa D9 _8 Kz cA 0G ;O ID M- v; #; {> qA /= 2* K& |& S% v% 3% (% p) _$ _$ _$ _$ _$ _$ _$ _$ _$ _$ S# {# z@ -@ m+ Q+ -+ $+ 0. y  `. u  N' N' _< f_ e_ d[ S< S< bY kX kX kX kX kX cY @0 dY wf `/ pg kX kX kX kX kX kX kX kX kX kX kX kX kX kX kX kX kX kX kX kX kX kX kX kX kX kX kX kX kX kX kX kX kX kX kX kX eY 6c fY fY fY fY fY nJ ",
"gY gY 5Y yM yM yM yM yM yM yM yM yM yM yM yM hY iY C0 jY kY lY mY nY nY oY pY pY pY pY qY |7 |7 |7 |7 |7 |7 |7 |7 |7 |7 |7 |7 |7 |7 |7 |7 |7 |7 |7 |7 |7 |7 |7 |7 {_ c_ d_ e_ f_ g_ B! u  v  `. ++ 0. 0. #+ -+ P+ Q+ :# ;@ z@ {# S# _$ _$ _$ _$ _$ C$ /% (% |% $& K% '& R& G& 5*  l '> ~> v; PO rY sY 5O M* u* AH pC hx 58 cg d% mb k)  ! Hc Je ;~ ;~ ;~ ;~ ;~ qw GD m0 m0 m0 m0 m0 m0 m0 X0 :$ j+ {7 +b H  <A ze ;~ ;~ ;~ ;~ ;~ ;~ ;~ ;~ ;~ ;~ >~ qh W% $0 {8 zd [e G8 B# i+ y  0. i+ #+ %+ tY uY vY vY vY vY vY vY vY vY vY vY vY vY vY vY vY vY vY vY vY vY vY vY vY vY vY vY vY vY vY vY vY vY vY vY vY vY vY vY vY vY vY vY vY vY vY vY vY vY vY vY vY vY vY vY vY vY vY vY vY vY vY vY vY vY vY vY vY vY vY vY vY vY vY vY vY vY vY vY vY vY vY vY vY vY vY vY vY vY vY vY vY vY vY vY vY vY vY vY vY vY vY vY vY vY vY vY vY vY vY vY vY vY vY vY vY vY vY vY vY vY vY vY vY vY vY vY vY vY vY vY vY vY vY vY vY vY vY vY vY vY vY vY vY vY vY vY vY vY vY vY vY vY vY vY vY vY vY vY vY vY vY vY vY vY vY vY vY vY vY vY vY vY vY vY vY vY vY vY vY vY vY vY vY Jb v0 &) {7 Yb {7 {7 y# Y~ KD xd m0 m0 m0 m0 m0 m0 m0 m0 m0 m0 {8 Bd KA 3{ >~ >~ ;~ ;~ L8 &w !7 {7 {7 {7 0. Ie L8 [{ qh :8 U~ m0 m0 m0 We qw '~ >~ ;~ ;~ ;~ ;~ ;~ :~ ]~ i8 a| V^ mb xa D9 _8 Kz ^A S, ;O ID M- wY W- {> qA /= 2* K& |& S% v% 2% (% /% _$ _$ _$ _$ _$ _$ _$ _$ _$ _$ S# {# z@ -@ m+ Q+ -+ $+ 0. y  `. u  N' N' _< f_ e_ d[ S< S< bY kX kX kX kX kX kX kX kX kX kX kX kX kX kX kX kX kX kX kX kX kX kX kX xY eY eY yY zY zY AY BY CY DY DY EY FY 5N /V /V #( GY HY HY HY HY IY IY IY '. JY KY KY KY KY KY ",
"LY LY LY LY iY MY NY OY }' gY gY hY OY yY PY LY LY C0 QY RY RY RY RY RY RY RY RY RY RY RY ;> SY |7 |7 |7 |7 |7 |7 |7 |7 |7 |7 |7 |7 |7 |7 |7 |7 |7 |7 |7 |7 |7 |7 {_ c_ d_ e_ f_ g_ B! u  v  `. ++ 0. 0. #+ -+ P+ Q+ :# ;@ z@ {# S# _$ _$ _$ _$ _$ C$ /% (% |% o% h& '& R& G& 4*  l '> ;J V- 9; *O =O 5O 3= -O AH pC hx 58 cg d% mb k)  ! Hc Je ;~ ;~ ;~ ;~ <~ dd gx $0 m0 m0 m0 m0 m0 m0 X0 :$ j+ {7 +b H  <A ze ;~ ;~ ;~ ;~ ;~ ;~ ;~ ;~ ;~ ;~ >~ k9 88 Ad {8 zd [e G8 B# i+ {7 kb &+ vY _c hb Ab Ab hb hb hb hb hb hb hb hb hb hb hb hb hb hb hb hb hb hb hb hb hb hb hb hb hb hb hb hb hb hb hb hb hb hb hb hb hb hb hb hb hb hb hb hb hb hb hb hb hb hb hb hb hb hb hb hb hb hb hb hb hb hb hb hb hb hb hb hb hb hb hb hb hb hb hb hb hb hb hb hb hb hb hb hb hb hb hb hb hb hb hb hb hb hb hb hb hb hb hb hb hb hb hb hb hb hb hb hb hb hb hb hb hb hb hb hb hb hb hb hb hb hb hb hb hb hb hb hb hb hb hb hb hb hb hb hb hb hb hb hb hb hb hb hb hb hb hb hb hb hb hb hb hb hb hb hb hb hb hb hb hb hb hb hb hb hb hb hb hb hb hb hb hb hb hb hb hb hb hb hb hb Hb Vb !C vY Fb Yb `) kb y# Y~ KD xd m0 m0 m0 m0 m0 m0 m0 m0 m0 {8 m0 3% b{ ;~ >~ ;~ ;~ ;~ L8 &w !7 {7 {7 {7 0. Ie L8 [{ $9  q h, }e m0 Od re -~ ;~ ;~ ;~ ;~ ;~ ;~ ;~ :~ ]~ i8 a| la v# xa D9 _8 -z ^A S, TN >O ,O U- v; &; qA ^= 1* )* |& Q% t% 2% (% /% _$ _$ _$ _$ _$ _$ _$ _$ _$ _$ S# {# z@ -@ m+ Q+ -+ $+ 0. y  `. u  N' N' _< f_ e_ d[ S< S< bY kX kX kX kX kX kX kX kX kX kX kX kX kX kX kX kX kX kX kX kX xY TY #( HY HY HY HY HY HY HY HY HY HY HY HY HY HY HY HY HY HY UY VY WY XY YY YY ZY ]$ ]$ `Y $3 KY KY KY ",
"LY LY LY LY LY LY LY LY LY LY LY LY LY LY LY LY LY  Z RY RY RY RY RY RY RY RY RY RY RY RY RY RY .Z +Z @Z #Z $Z |7 |7 |7 |7 |7 |7 |7 |7 |7 |7 |7 |7 |7 |7 |7 |7 |7 {_ c_ d_ e_ f_ g_ B! u  v  `. ++ 0. 0. #+ -+ P+ Q+ :# ;@ z@ {# S# _$ _$ _$ _$ _$ C$ /% (% |% o% h& r, R& G& 4* &- I- N- U- #; C- J= $= L* M& AH %Z hx 58 cg d% mb k)  ! Hc Je ;~ ;~ ;~ ;~ >~ qh x' U~ m0 m0 m0 m0 m0 m0 X0 :$ j+ {7 +b $+ Eb ze ;~ ;~ ;~ ;~ ;~ ;~ ;~ ;~ ;~ ;~ >~ 2{ KA <e 67 zd [e G8 B# Yb Yb 65 wz 9b $b Ub Ub Ub Ub Ub Ub Ub Ub Ub Ub Ub Ub Ub Ub Ub Ub Ub Ub Ub Ub Ub Ub Ub Ub Ub Ub Ub Ub Ub Ub Ub Ub Ub Ub Ub Ub Ub Ub Ub Ub Ub Ub Ub Ub Ub Ub Ub Ub Ub Ub Ub Ub Ub Ub Ub Ub Ub Ub Ub Ub Ub Ub Ub Ub Ub Ub Ub Ub Ub Ub Ub Ub Ub Ub Ub Ub Ub Ub Ub Ub Ub Ub Ub Ub Ub Ub Ub Ub Ub Ub Ub Ub Ub Ub Ub Ub Ub Ub Ub Ub Ub Ub Ub Ub Ub Ub Ub Ub Ub Ub Ub Ub Ub Ub Ub Ub Ub Ub Ub Ub Ub Ub Ub Ub Ub Ub Ub Ub Ub Ub Ub Ub Ub Ub Ub Ub Ub Ub Ub Ub Ub Ub Ub Ub Ub Ub Ub Ub Ub Ub Ub Ub Ub Ub Ub Ub Ub Ub Ub Ub Ub Ub Ub Ub Ub Ub Ub Ub Ub Ub Ub Ub Ub Ub Ub Ub Ub Ub Ub Ub Ub Ub Ub Ub Ub Ub Ub hb Lz 65 kb kb y# Y~ KD xd m0 m0 m0 m0 m0 m0 m0 m0 {8 {8 Od w' &B >~ ;~ ;~ ;~ ;~ L8 &w &+ {7 {7 {7 0. Ie L8 [{ ;~ qh 68 h, GD 2%  q <{ ,~ ;~ ;~ ;~ ;~ ;~ ;~ :~ ]~ i8 a| B! v# xa D9 _8  r cA 0F N; {D L- 8; R; &; Fc ~= |* )* }& Q% t% 2% (% /% _$ _$ _$ _$ _$ _$ _$ _$ _$ _$ S# {# z@ -@ m+ Q+ -+ $+ 0. y  `. u  N' N' _< f_ e_ d[ S< S< bY kX kX kX kX kX kX kX kX kX kX kX kX kX kX kX kX &Z D% *K *Z 3] =Z HY HY HY HY HY HY HY HY HY HY HY HY HY HY HY UY -Z VY ;Z ;Z ;Z >Z ZY ,Z ,Z ,Z 'Z ZY ]$ ]$ 3X KY KY ",
"LY LY LY LY LY LY LY LY LY LY LY LY LY LY LY )Z /M G+ RY RY RY RY RY RY RY RY RY RY RY RY RY RY RY RY RY RY RY RY RY .Z +Z @Z $Z |7 |7 |7 |7 |7 |7 |7 |7 |7 |7 |7 {_ c_ d_ e_ f_ g_ B! u  v  `. ++ 0. 0. #+ -+ P+ Q+ :# ;@ z@ {# S# _$ _$ _$ _$ _$ C$ /% (% |% o% h& r, |& N& 4* &- I- N- U- W- !Z P> $= L* M& AH 4w hx 58 cg d% mb k)  ! Hc Je ;~ ;~ ;~ ;~ >~ k9 Ke Od m0 m0 m0 m0 m0 m0 X0 :$ j+ {7 +b $+ Eb ze ;~ ;~ ;~ ;~ ;~ ;~ ;~ ;~ ;~ ;~ >~ ;~ qw h, $0 YV [e %a S# 65 ~Z ]_ hb $b $b $b $b $b $b $b $b $b $b $b $b $b $b $b $b $b $b $b $b $b $b $b $b $b $b $b $b $b $b $b $b $b $b $b $b $b $b $b $b $b $b $b $b $b $b $b $b $b $b $b $b $b $b $b $b $b $b $b $b $b $b $b $b $b $b $b $b $b $b $b $b $b $b $b $b $b $b $b $b $b $b $b $b $b $b $b $b $b $b $b $b $b $b $b $b $b $b $b $b $b $b $b $b $b $b $b $b $b $b $b $b $b $b $b $b $b $b $b $b $b $b $b $b $b $b $b $b $b $b $b $b $b $b $b $b $b $b $b $b $b $b $b $b $b $b $b $b $b $b $b $b $b $b $b $b $b $b $b $b $b $b $b $b $b $b $b $b $b $b $b $b $b $b $b $b $b $b $b $b $b $b $b $b $b $b $b $b $b $b hb Ib Jb Fb f# Y~ KD xd m0 m0 m0 m0 m0 m0 m0 m0 {8 m0 .q a{ ;~ >~ ;~ ;~ ;~ ;~ L8 {Z &+ {7 {7 {7 0. Ie L8 [{ ;~ ;~ l~ a{ Ae 5{ )~ ,~ ;~ ;~ ;~ ;~ ;~ ;~ ;~ :~ ]~ i8 a| B! v# xa D9 78  r cA 0F N; ZC L- FM wY O- Fc ~= }* )* [& Q% t% 2% (% /% _$ _$ _$ _$ _$ _$ _$ _$ _$ _$ S# {# z@ -@ m+ Q+ -+ $+ 0. y  `. u  N' N' _< f_ e_ d[ S< S< bY ]Z ^Z +L /Z Q] (Z _Z :Z nJ kX kX kX kX <Z [Z }Z }Z }Z |Z ;Z ;Z ;Z ;Z ;Z 1Z 1Z 1Z 2Z 2Z 2Z 2Z 2Z 2Z 1Z 1Z 3Z ;Z ;Z ;Z ;Z ;Z ;Z ;Z 4Z ]$ 5Z ,Z ,Z ,Z ,Z 6Z ]$ 7Z $3 KY ",
"LY LY LY LY LY LY LY LY LY LY LY LY LY i) [] #3 n3 RY RY RY RY RY RY RY RY RY RY RY RY RY RY RY RY RY RY RY RY RY RY RY RY RY RY ;> SY |7 |7 |7 |7 |7 |7 |7 |7 |7 {_ c_ d_ e_ f_ g_ B! u  v  `. ++ 0. 0. #+ -+ P+ Q+ :# ;@ z@ {# S# _$ _$ _$ _$ _$ C$ /% (% |% o% h& r, |& N& 2* [m I- M- S- v; !Z I= ;g |E lN mN 4w hx 58 cg d% mb k)  ! Hc Je ;~ ;~ ;~ ;~ ;~ ;~ qw h, U~ m0 m0 m0 m0 m0 X0 :$ j+ {7 +b $+ Eb ze ;~ ;~ ;~ ;~ ;~ ;~ ;~ ;~ ;~ ;~ ;~ <~ _e B; <e ;e C{ 8{ E$ :c ib $b Ub $b $b $b $b $b $b $b $b $b $b $b $b $b $b $b $b $b $b $b $b $b $b $b $b $b $b $b $b $b $b $b $b $b $b $b $b $b $b $b $b $b $b $b $b $b $b $b $b $b $b $b $b $b $b $b $b $b $b $b $b $b $b $b $b $b $b $b $b $b $b $b $b $b $b $b $b $b $b $b $b $b $b $b $b $b $b $b $b $b $b $b $b $b $b $b $b $b $b $b $b $b $b $b $b $b $b $b $b $b $b $b $b $b $b $b $b $b $b $b $b $b $b $b $b $b $b $b $b $b $b $b $b $b $b $b $b $b $b $b $b $b $b $b $b $b $b $b $b $b $b $b $b $b $b $b $b $b $b $b $b $b $b $b $b $b $b $b $b $b $b $b $b $b $b $b $b $b $b $b $b $b $b $b $b $b $b $b $b $b $b Ub $b /c :c 7' _~ ;e [e m0 m0 m0 m0 m0 m0 m0 {8 {8 Od Ke k9 >~ ,~ ;~ ;~ ;~ ;~ L8 {Z &+ {7 {7 {7 0. Ie L8 [{ ;~ ;~ ,~ ,~ >~ <~ ;~ ;~ ;~ ;~ ;~ ;~ ;~ ;~ ;~ :~ ]~ i8 a| B! v# xa D9 _8  r cA 0F [= ZC K- S- U- N- {N != }* J& [& Q% t% 2% (% /% _$ _$ _$ _$ _$ _$ _$ _$ _$ _$ S# {# z@ -@ m+ Q+ -+ $+ 0. y  `. u  N' N' _< f_ e_ d[ S< S< 8Z /Z /Z /Z 9Z 9Z 9Z 9Z 9Z 9Z 0Z aZ bZ cZ }Z }Z }Z }Z }Z dZ ;Z ;Z ;Z ;Z ;Z ;Z ;Z ;Z ;Z ;Z ;Z ;Z ;Z ;Z ;Z ;Z ;Z ;Z ;Z ;Z ;Z eZ fZ 4Z ]$ ]$ gZ hZ iZ jZ kZ ,Z lZ XY mZ KY ",
"nZ oZ pZ 'M qZ pZ pZ rZ sZ tZ LY i) uZ vZ wZ xZ %~ RY RY RY RY RY RY RY RY RY RY yZ GY zZ kJ RY RY RY RY RY RY RY RY RY RY RY RY RY RY .Z @Z |7 |7 |7 |7 |7 |7 |7 {_ c_ d_ e_ f_ g_ B! u  v  `. ++ 0. 0. #+ -+ P+ Q+ :# ;@ z@ {# S# _$ _$ _$ _$ _$ C$ /% (% |% o% h& ,& |& N& AZ [m I- x; S- w; A- O> @= 4= lN <C 4w Dn =e cg d% v# V^  ! Hc Je ;~ ;~ ;~ ;~ ;~ >~ 4{ W% Ad m0 m0 m0 m0 m0 X0 :$ j+ {7 +b $+ Eb ze ;~ ;~ ;~ ;~ ;~ ;~ ;~ ;~ ;~ ;~ ;~ >~ ;~ 5{ KA h% 2% <%  % ,b i9 BZ BZ BZ mc mc mc mc mc mc mc mc mc mc mc mc mc mc mc mc mc mc mc mc mc mc mc mc mc mc mc mc mc mc mc mc mc mc mc mc mc mc mc mc mc mc mc mc mc mc mc mc mc mc mc mc mc mc mc mc mc mc mc mc mc mc mc mc mc mc mc mc mc mc mc mc mc mc mc mc mc mc mc mc mc mc mc mc mc mc mc mc mc mc mc mc mc mc mc mc mc mc mc mc mc mc mc mc mc mc mc mc BZ BZ BZ BZ mc mc mc mc mc mc mc mc mc mc mc mc mc mc mc mc mc mc mc mc mc mc mc mc mc mc mc mc mc mc mc mc mc mc mc mc mc mc mc mc mc mc mc mc mc mc mc mc mc mc mc mc mc mc mc mc mc mc mc mc mc mc mc mc mc mc mc mc mc mc mc mc mc mc mc mc mc CZ DZ mc EZ ]a P9 ;e [e m0 m0 m0 m0 m0 m0 m0 m0 U~ 3% b{ ;~ >~ ;~ ;~ ;~ ;~ ;~ L8 {Z &+ {7 {7 {7 0. Ie L8 [{ ;~ ;~ ;~ ;~ ;~ ;~ ;~ ;~ ;~ ;~ ;~ ;~ ;~ ;~ ;~ :~ ]~ i8 a| B! v# xa D9 _8  r *E i_ [= ZC Z; R- FM *; FZ HR }* J& [& Q% t% 2% (% /% _$ _$ _$ _$ _$ _$ _$ _$ _$ _$ S# {# z@ -@ m+ Q+ -+ $+ 0. y  `. u  N' N' _< f_ e_ d[ S< b_ GZ /Z /Z /Z 9Z 9Z 9Z 9Z 9Z 9Z HZ IZ IZ JZ }Z }Z }Z }Z }Z }Z .@ KZ KZ KZ KZ KZ KZ KZ KZ KZ KZ KZ KZ KZ KZ LZ MZ NZ OZ OZ OZ OZ OZ PZ QZ RZ SZ TZ TZ TZ UZ VZ ,Z WZ XZ YZ ",
"qZ qZ qZ qZ qZ qZ qZ qZ ZZ `Z  ` .` wZ wZ +` RY RY kJ kJ @` RY @` GY GY zZ T] #( #( #( #( #( #( zZ kJ @` RY RY RY RY RY RY RY RY RY RY RY RY w) #Z |7 |7 |7 |7 |7 {_ c_ d_ e_ f_ g_ B! u  v  `. ++ 0. 0. #+ -+ P+ Q+ :# ;@ z@ {# S# _$ _$ _$ _$ _$ C$ /% (% |% o% h& >& |& N& EM [m H- L- $; U- #` O> @= 4= !N 'C 4w Dn =e cg d% v# V^  ! Hc Je ;~ ;~ ;~ ;~ ;~ >~ <{ =e 5e U~ m0 m0 m0 m0 X0 :$ j+ {7 +b $+ Eb ze ;~ ;~ ;~ ;~ ;~ ;~ ;~ ;~ ;~ ;~ ;~ ;~ ;~ ;~ '~ 4{ qh B~ {~ ^~ *% <% h% h, -e yd yd yd yd yd yd yd yd yd yd yd yd yd yd yd yd yd yd yd yd yd yd yd yd yd yd yd yd yd yd yd yd yd yd yd yd yd yd yd yd yd yd yd yd yd yd yd yd yd yd yd yd yd yd yd yd yd yd yd yd yd yd yd yd yd yd yd yd yd yd yd yd yd yd yd yd yd yd yd yd yd yd yd yd yd yd yd yd yd yd yd yd yd yd yd yd yd yd yd yd yd yd 7d 7d 7d Bd 5e 5e We (0 (0 We -e [d [d 7d 7d 7d yd yd yd yd yd yd yd yd yd yd yd yd yd yd yd yd yd yd yd yd yd yd yd yd yd yd yd yd yd yd yd yd yd yd yd yd yd yd yd yd yd yd yd yd yd yd yd yd yd yd yd yd yd yd yd yd yd yd yd yd yd yd yd yd yd yd yd yd yd yd yd yd yd yd ({ U~ m0 m0 m0 m0 m0 m0 m0 m0 {8 $0 h, Ae <{ >~ ,~ ;~ ;~ ;~ ;~ ;~ L8 {Z &+ {7 {7 {7 0. Ie L8 [{ ;~ ;~ ;~ ;~ ;~ ;~ ;~ ;~ ;~ ;~ ;~ ;~ ;~ ;~ ;~ :~ ]~ i8 a| B! v# xa D9 _8  r *E vy [= ZC J- $; S- M- TL HR C* t* [& Q% t% 2% (% /% _$ _$ _$ _$ _$ _$ _$ _$ _$ _$ S# {# z@ -@ m+ Q+ -+ $+ 0. y  `. u  N' N' _< f_ e_ d[ S< :< GZ /Z /Z /Z 9Z 9Z 9Z 9Z 9Z 9Z $` %` IZ &` *` }Z }Z }Z }Z }Z =` -` -` -` -` -` -` -` -` -` -` -` -` -` -` -` TZ TZ TZ TZ TZ TZ TZ ;` >` >` >` >` >` >` >` >` ,` '` )` ,Z ",
"!` !` f[ f[ ~` wZ wZ wZ wZ wZ wZ {` ]` w$ RY RY GY #( #( #( #( #( #( #( #( #( #( #( #( #( #( #( #( #( #( #( #( T] T] GY GY kJ @` RY RY RY RY RY RY +Z |7 |7 |7 |7 {_ c_ d_ e_ f_ g_ B! u  v  `. ++ 0. 0. #+ -+ P+ Q+ :# ;@ z@ {# S# _$ _$ _$ _$ _$ C$ /% (% |% o% h& >& |& F& 1* [m H- L- R- FM ~; G= += I* QL 'C 4w Dn =e cg d% v# V^  ! Hc Je ;~ ;~ ;~ ;~ ;~ ;~ ;~ qh _k -G m0 m0 m0 m0 X0 :$ j+ {7 +b $+ Eb ze ;~ ;~ ;~ ;~ ;~ ;~ ;~ ;~ ;~ ;~ ;~ ;~ ;~ ;~ <~ ;~ ;~ ;~ :~ :~ )~ B~ qw FF h% We 7d }e m0 m0 m0 m0 m0 m0 m0 m0 m0 m0 m0 m0 m0 m0 m0 m0 m0 m0 m0 m0 m0 m0 m0 m0 m0 m0 m0 m0 m0 m0 m0 m0 m0 m0 m0 m0 m0 m0 m0 m0 m0 m0 m0 m0 m0 m0 m0 m0 m0 m0 m0 m0 m0 m0 m0 m0 m0 m0 m0 m0 m0 m0 m0 m0 m0 m0 m0 m0 m0 m0 m0 m0 m0 m0 m0 m0 m0 m0 m0 m0 m0 m0 m0 m0 m0 m0 m0 m0 m0 m0 m0 m0 U~ U~ U~ U~ U~ Od GD j% 5% 2% h% re _k <8 KA KA _k 88 re ^` uk 3% j% k% <e Od U~ U~ U~ U~ }e }e }e U~ U~ $0 m0 m0 m0 m0 m0 m0 m0 m0 m0 m0 m0 m0 m0 m0 m0 m0 m0 m0 m0 m0 m0 m0 m0 m0 m0 m0 m0 m0 m0 m0 m0 m0 m0 m0 m0 m0 U~ U~ U~ U~ U~ U~ U~ U~ U~ U~ U~ $0 m0 m0 m0 m0 m0 m0 m0 m0 m0 m0 m0 m0 m0 m0 m0 m0 m0 m0 m0 m0 m0 m0 m0 m0 -G Ke k9 >~ >~ ;~ ;~ ;~ ;~ ;~ ;~ L8 {Z &+ {7 {7 {7 0. Ie L8 [{ ;~ ;~ ;~ ;~ ;~ ;~ ;~ ;~ ;~ ;~ ;~ ;~ ;~ ;~ ;~ :~ ]~ i8 a| B! v# xa D9 _8  r %A SL #= HM J- Q- 7; x; TL )= x, H& 1& R% u% 2% (% /% _$ _$ _$ _$ _$ _$ _$ _$ _$ _$ S# {# z@ -@ m+ Q+ -+ $+ 0. y  `. u  N' N' _< f_ e_ d[ S< m  GZ /Z /Z /Z 9Z 9Z 9Z 9Z 9Z /` (` _` IZ IZ :` }Z }Z }Z }Z }Z }Z HZ <` <` <` <` [` -` -` -` -` -` <` <` <` <` }` |` |` 1` 2` 3` 4` 4` 4` 4` 4` 4` 4` 4` 4` 4` 4` 4` 4` 4` ",
"5` 5` 5` 5` 5` 6` 7` 8` 9` 0` BL a` RY RY RY RY zZ #( #( #( #( #( #( #( #( #( #( #( #( #( #( #( #( #( #( #( #( #( #( #( #( #( #( #( #( RY RY RY RY RY .Z $Z |7 |7 {_ c_ d_ e_ f_ g_ B! u  v  `. ++ 0. 0. #+ -+ P+ Q+ :# ;@ z@ {# S# _$ _$ _$ _$ _$ C$ /% (% |% o% J% >& }& E& 1* 7c H- Z; Q; S- i- F= =d (, QL 'C 4w Dn =e cg d% v# V^  ! Hc Je ;~ ;~ ;~ ;~ ;~ ;~ ;~ '~ ,V W% Od m0 m0 m0 X0 :$ j+ {7 +b $+ Eb ze ;~ ;~ ;~ ;~ ;~ ;~ ;~ ;~ ;~ ;~ ;~ ;~ ;~ ;~ ;~ ;~ ;~ ;~ ;~ >~ >~ ;~ :~ <{ 4{ e{ P, .q -e Ad m0 m0 m0 m0 m0 m0 m0 m0 m0 m0 m0 m0 m0 m0 m0 m0 m0 m0 m0 m0 m0 m0 m0 m0 m0 m0 m0 m0 m0 m0 m0 m0 m0 m0 m0 m0 m0 m0 m0 m0 m0 m0 m0 m0 m0 m0 m0 m0 m0 m0 $0 $0 m0 m0 m0 m0 m0 m0 m0 m0 m0 m0 m0 m0 m0 m0 m0 m0 m0 m0 m0 m0 m0 m0 m0 m0 m0 m0 m0 m0 m0 m0 m0 m0 m0 m0 $0 U~ U~ 7d We h, .q 3% h% _k =e a{ B~ 4{ k9 3{ 3{ <{ <{ :~ 3{ 3{ 3{ &B _e 5{ a{ 6{ 4e B; g% pf 3% 3% .q We h, We We 5e Bd yd U~ U~ U~ U~ U~ U~ U~ U~ U~ $0 m0 m0 m0 m0 m0 m0 m0 m0 m0 m0 m0 m0 m0 m0 m0 m0 m0 m0 m0 m0 m0 $0 ({ Bd We .q 3% 3% 3% 3% 3% .q .q h, We 5e Bd Od U~ U~ U~ U~ U~ U~ U~ U~ U~ U~ U~ U~ U~ U~ U~ U~ U~ }e }e }e U~ 5e B; c{ ;~ >~ ;~ ;~ ;~ ;~ ;~ ;~ ;~ L8 {Z $+ {7 {7 {7 0. Ie L8 [{ ;~ ;~ ;~ ;~ ;~ ;~ ;~ ;~ ;~ ;~ ;~ ;~ ;~ ;~ ;~ :~ ]~ i8 a| B! v# xa D9 <8 xy -F 1E #= =c J- Q- R- L- TL )= [* H& 1& R% u% 2% (% H$ _$ _$ _$ _$ _$ _$ _$ _$ _$ _$ S# {# z@ -@ m+ Q+ -+ $+ 0. y  `. u  N' N' _< f_ e_ d[ S< m  GZ /Z /Z Q] 9Z 9Z 9Z 9Z 9Z b` (` (` vb IZ c` }Z }Z }Z }Z }Z }Z /V d` e` e` e` e` e` e` e` e` e` e` e` e` e` e` e` e` e` f` uZ KZ g` h` i` j` k` l` m` 4` 4` 4` 4` 4` 4` ",
"5` 5` 5` 5` 5` n` o` p` q` r` s` HY RY RY RY RY GY #( #( #( #( #( #( #( #( #( #( #( #( #( #( #( #( #( #( #( #( #( #( #( #( #( #( #( #( T] RY RY RY RY RY .Z $Z |7 {_ c_ d_ e_ f_ g_ B! u  v  `. ++ 0. 0. #+ -+ P+ Q+ :# ;@ z@ {# S# _$ _$ _$ _$ _$ C$ /% (% |% n% J% >& z, ], `g 7c 6; -; 7O R- ;L M> t` PL QL 'C &E Dn =e cg d% _b V^  ! Hc Je ;~ ;~ ;~ ;~ ;~ ;~ ;~ ;~ 2{ 5{ W% Od m0 m0 X0 :$ j+ {7 +b $+ Eb ze ;~ ;~ ;~ ;~ ;~ ;~ ;~ ;~ ;~ ;~ ;~ ;~ ;~ ;~ ;~ ;~ ;~ ;~ ;~ ;~ ;~ ;~ ;~ >~ >~ ;~ k9 b{ 4e W% h, 7d U~ m0 m0 m0 m0 m0 m0 m0 m0 m0 m0 m0 m0 m0 m0 m0 m0 m0 m0 m0 m0 m0 m0 m0 m0 m0 m0 m0 m0 m0 m0 m0 m0 m0 m0 m0 m0 m0 m0 m0 U~ U~ U~ yd 7d 7d Bd Bd Bd Bd 7d 7d yd U~ $0 m0 m0 m0 m0 m0 m0 m0 m0 m0 m0 m0 m0 m0 m0 m0 m0 m0 m0 m0 m0 m0 m0 m0 m0 m0 m0 m0 U~ Bd 5e .q h% w' Ae qw ,V _e 4{ k9 :~ ;~ <~ >~ >~ >~ >~ >~ >~ >~ >~ >~ >~ >~ >~ ;~ :~ :~ )~ [~ 4{ 4{ _e c{ b{ e{  q Ae q) KA w' P, h% 3% 3% .q h, h, We We 5e Bd 7d 7d yd U~ U~ m0 m0 m0 m0 m0 m0 m0 m0 m0 m0 m0 m0 m0 m0 U~ 7d 5e 1% Ke C' 5{ B~ 4{ 4{ _e _e c{ 5{ dd Ae 4e Ke re h% 2% 3% h, h, h, h, We We We We We We We We h, h, h, =v .q W% 4e B~ :~ ;~ ;~ ;~ ;~ ;~ ;~ ;~ ;~ ;~ L8 {Z $+ {7 {7 {7 0. Ie L8 [{ ;~ ;~ ;~ ;~ ;~ ;~ ;~ ;~ ;~ ;~ ;~ ;~ ;~ ;~ ;~ :~ ]~ i8 a| B! v# xa D9 [8 WA Jz Xx ;g cC '> {> Q; L- &f 5> [* G& <& R% u% 2% (% H$ _$ _$ _$ _$ _$ _$ _$ _$ _$ _$ S# {# z@ -@ m+ Q+ -+ $+ 0. y  `. u  N' N' _< f_ e_ d[ S< m  u` /Z /Z Q] 9Z 9Z 9Z 9Z v` (` (` (` w` IZ IZ JZ }Z }Z }Z }Z }Z x` y` z` d` e` e` e` e` e` e` e` e` e` e` e` e` e` e` e` e` e` e` e` e` e` e` e` e` e` A` B` C` D` E` 4` ",
"n` o` F` G` H` I` J` q` 3Z s` K` RY RY RY RY RY kJ #( #( #( #( #( #( #( #( #( #( #( #( #( #( #( #( #( #( #( #( #( #( #( #( #( #( #( #( #( T] RY RY RY RY RY .Z $Z {_ c_ d_ e_ f_ g_ B! u  v  `. ++ 0. 0. #+ -+ P+ Q+ :# ;@ z@ {# S# _$ _$ _$ _$ _$ C$ /% (% P, n% I% >& 1& ], }* 7c 6; -; %; R- ;L iL t` H* %B >L &E Dn =e cg d% _b V^  ! Hc Je ;~ ;~ ;~ ;~ ;~ ;~ ;~ ;~ ;~ :~ 5{ W% Od m0 X0 :$ j+ {7 +b $+ Eb ze ;~ ;~ ;~ ;~ ;~ ;~ ;~ ;~ ;~ ;~ ;~ ;~ ;~ ;~ ;~ ;~ ;~ ;~ ;~ ;~ ;~ ;~ ;~ ;~ ;~ >~ >~ ;~ :~ B~ e{ w' 3% h, h, h, GD GD GD GD @c @c L` L` Ad Ad Ad Ad Ad Ad Ad Ad Ad Ad Ad Ad Ad Ad <e <e <e @c @c GD GD GD GD RL j% h, h, h, 3% uk h% g% P, B; &h &h Ke Ke B; P, |% 2% h, 5e Bd U~ m0 m0 m0 m0 m0 m0 m0 m0 m0 m0 m0 m0 m0 m0 m0 m0 m0 m0 m0 m0 m0 m0 m0 Od h, <% C' c{ _e 4{ )~ '~ <~ >~ >~ >~ >~ ;~ ;~ ;~ ;~ ;~ ;~ ;~ ;~ ;~ ;~ ;~ ;~ ;~ ;~ ;~ ;~ ;~ ;~ >~ >~ >~ >~ >~ <~ '~ :~ :~ )~ l~ l~ qh B~ B~ d{ 5{ b{ a{  q Ae 4e Ke B; P, g% h% 3% h, h, j% GD GD <e Ad U~ U~ U~ }e m0 U~ Bd i% B; 6{ d{ l~ :~ ;~ >~ >~ >~ >~ >~ >~ ,~ ;~ :~ [~ k9 4{ 4{ B~ d{ b{ b{ b{ 6& qw Ae Ae Ae Ae Ae Ae  q qw :e b{ M` B~ qh 3{ ;~ ;~ ;~ ;~ ;~ ;~ ;~ ;~ ;~ ;~ ;~ L8 %9 i+ {7 {7 {7 0. Ie L8 [{ ;~ ;~ ;~ ;~ ;~ ;~ ;~ ;~ ;~ ;~ ;~ ;~ ;~ ;~ ;~ :~ ]~ i8 a| B! v# xa D9 [8 WA -F ^E ,L cC `; &; Q- Z; $d 5> N` G& <& R% u% 2% (% H$ _$ _$ _$ _$ _$ _$ _$ _$ _$ _$ S# {# z@ -@ m+ Q+ -+ $+ 0. y  `. u  N' N' _< f_ e_ d[ S< m  MI /Z /Z Q] 9Z 9Z 9Z 9Z $` (` (` (` O` IZ IZ P` }Z }Z }Z }Z }Z Q` y` y` y` R` S` e` e` e` e` e` e` e` e` e` e` e` e` e` e` e` e` e` e` e` e` e` e` e` T` T` T` T` T` T` ",
"I` I` I` I` I` I` U` q` V` s` HY RY RY RY RY RY kJ #( #( #( #( #( #( #( #( #( #( #( #( #( #( #( #( #( #( #( #( #( #( #( #( #( #( #( #( #( #( T] RY RY RY RY RY RY q[ c_ d_ e_ f_ g_ B! u  v  `. ++ 0. 0. #+ -+ P+ Q+ :# ;@ z@ {# S# _$ _$ _$ _$ _$ C$ Y$ %% P, n% I% >& 1& O& }* cd W` J- &; $; x- X` Y` /, %B >L &E Dn 4e cg d% _b V^  ! Hc Je <{ <{ <{ <{ <{ <{ <{ <{ <{ <{ k9 qw 6% U~ X0 B) -+ i+ Yb %+ bb J8 '~ <{ <{ <{ <{ <{ <{ <{ <{ <{ <{ <{ <{ <{ <{ <{ <{ <{ <{ <{ <{ <{ <{ <{ <{ <{ <{ <{ }{ }{ <{ qh MX :e :e  q =e =e 4e [8 78 78 (8 :8 W% W% W% x' x' 2% 2% 2% 2% x' x' W% W% :8 :8 _8 _8 78 [8 [8 FF }8 =e  q b8 b8 :e :e dd MX ,V c{ B~ B~ qh qh qh qh B~ B~ -~ MX :e =e :8 h, <e Ad U~ Ad Ad Ad Ad Ad U~ U~ U~ U~ U~ U~ m0 m0 m0 m0 m0 m0 m0 $0 Ad h% Ae B~ <{ }{ |{ }{ <{ <{ <{ <{ <{ <{ <{ <{ <{ <{ <{ <{ <{ <{ <{ <{ <{ <{ <{ <{ <{ <{ <{ <{ <{ <{ <{ <{ <{ <{ <{ <{ <{ <{ [{ [{ }{ }{ }{ 1{ 1{ 1{ }{ k~ <{ k9 4{ 4{ B~ B~ c{ ,V dd :e b8  q =e 68 _8 :8 h% 3% h, GD GD 3% Ke a{ B~ <{ }{ }{ <{ <{ <{ <{ <{ <{ <{ <{ <{ <{ <{ <{ }{ }{ 1{ 1{ 1{ }{ }{ }{ 2{ <{ 3{ <{ k9 k9 <{ <{ <{ <{ }{ }{ Mf |{ }{ }{ <{ <{ <{ <{ <{ <{ <{ <{ <{ <{ <{ 80 M8 $+ Yb i+ Yb i+ zm 'b <{ <{ <{ <{ <{ <{ <{ <{ <{ <{ <{ <{ <{ <{ <{ <{ 3{ a{ i8 a| B! v# 2j <m [8 cy -F ^E g- cC I- ;J {> -; $d ,= v, G& <& R% u% 2% (% H$ _$ _$ _$ _$ _$ _$ _$ _$ _$ _$ S# {# z@ -@ m+ Q+ -+ $+ 0. y  `. u  N' N' _< f_ e_ d[ S< m  Z` /Z /Z Q] 9Z 9Z 9Z `` (` (` (` (` w` IZ IZ   .}Z }Z }Z }Z . .y` y` y` y` y` y` R` d` e` e` e` e` e` e` e` e` e` e` e` e` e` e` e` e` e` e` e` e` e` + .T` T` T` T` T` ",
"I` I` I` I` I` @ .q` # .s` $ .RY RY RY RY RY kJ #( #( #( #( #( #( #( #( #( #( #( #( #( #( #( #( #( #( #( #( #( #( #( #( #( #( #( #( #( #( #( #( T] RY RY RY RY RY q[ c_ d_ e_ f_ g_ B! u  v  `. ++ 0. 0. #+ -+ P+ Q+ :# ;@ z@ {# S# _$ _$ _$ _$ _$ C$ Y$ %% P, n% I% ;& 1& D& w, cd !> J- &; Q; xK yK Y` G* .T cB &E Dn 0{ cg d% _b V^  ! ]u <{ % .% .% .% .% .% .% .% .% .& .% .* .= .- .; .$x x% > .#& A' 5{ , .' .& .& .& .& .& .& .& .& .& .& .& .& .& .& .& .& .& .& .& .& .& .& .& .& .& .& .& .& .& .& .!w % .% .% .!w & .) .) .! .! .{j 'A 'A 'A 'A 'A 'A ,A =h =h =h =h ,A 'A 'A 'A 'A 'A 'A ! .! .! .! .-n -n !w !w ~ .~ .{ .% .% .% .% .% .% .% .% .% .% .% .% .% .% .% .% .& .'A ] .@T ^ ./ .^ .^ .^ .^ .^ .( .( .( ._ ._ .: .%& && && && && && && %& XA < .& .% .% .% .% .% .% .% .% .% .% .% .% .% .% .% .% .% .% .% .% .% .% .% .% .% .% .% .% .% .% .% .% .% .% .% .% .% .% .% .% .% .% .% .% .% .% .% .% .% .;k ;k ;k ;k ;k ;k ;k [ .[ .[ .Lw ;k bn & .*h } ._h | .< .] .] .1 .*h ;k ;k ;k ;k ;k ;k ;k ;k ;k ;k ;k ;k ;k ;k ;k ;k ;k ;k ;k ;k ;k ;k ;k ;k ;k ;k ;k ;k ;k ;k ;k ;k ;k ;k ;k ;k ;k ;k ;k ;k ;k ;k ;k ;k ;k ;k ;k ;k ;k ;k % .% .2 .Q9 UB V@ V@ V@ o$ eg 2 .% .;k ;k ;k ;k ;k ;k ;k ;k ;k ;k ;k ;k ;k ;k ;k ;k 3 .Rh 4 .B! v# =f <m 78 cy -F ^E ,L cC I- N- &; J- !e >= <* G& <& R% u% 2% (% H$ _$ _$ _$ _$ _$ _$ _$ _$ _$ _$ S# {# z@ -@ m+ Q+ -+ $+ 0. y  `. u  N' N' _< f_ e_ d[ S< m  GZ /Z /Z 5 .9Z 9Z 9Z $` (` (` 6 .7 .%` IZ IZ IZ yS }Z }Z 8 . N y` y` y` y` y` y` y` y` 9 .e` e` e` e` e` e` e` e` e` e` e` e` e` e` e` e` e` e` e` e` 0 .T` T` T` T` T` ",
"I` I` I` J` U` q` q` a` s` a .RY RY RY RY kJ #( #( #( #( #( #( #( #( #( #( #( #( #( #( #( #( #( #( #( #( #( #( #( #( #( #( #( #( #( #( #( #( #( #( #( @` RY RY RY q[ c_ d_ e_ f_ g_ B! u  v  `. ++ 0. 0. #+ -+ P+ Q+ :# ;@ z@ {# S# _$ _$ _$ _$ _$ _$ G$ %% P, n% I% ;& 1& B& [* cd !> J- ~> %; v- b .5, G* 4> cB jv :m %0 cg d% _b V^  ! Gt c .d .d .d .d .d .d .d .d .d .d .d .e .f .g .h .&* 88 68 (e _8 i .j .d .d .d .d .d .d .d .d .d .d .d .d .d .d .d .d .d .d .d .d .d .d .d .d .d .d .d .d .d .d .d .d .d .d .d .d .d .d .d .d .d .d .d .d .k .l .m .n .n .n .n .n .n .n .n .o .p .p .p .p .p .p .p .p .p .p .p .p .p .p .p .p .p .p .p .q .r .r .r .r .r .r .r .r .r .r .r .r .s .s .t .u .v .w .x .x .x .w .y .z .A .B .9R 9R C .D .E .E .E .E .E .D .F .G .H .H .H .H .H .H .H .H .H .H .H .H .H .H .H .H .H .H .H .I .J .K .K .K .K .K .K .K .K .K .K .K .K .K .K .K .K .K .K .K .K .K .K .K .K .K .K .K .K .L .M .M .M .M .M .M .M .M .M .M .M .M .M .M .M .M .N .N .N .N .N .O .M .M .M .M .M .M .M .P .Q .Q .Q .Q .Q .Q .Q .Q .Q .Q .Q .Q .Q .Q .Q .Q .Q .Q .Q .Q .Q .Q .Q .Q .Q .Q .Q .R .R .S .T .T .T .T .T .T .T .T .T .T .T .T .U .U .V .W .5z X .Y .Z .Z .X .` .R .V .U .T .U . ...................................+..@..#..$..B! v# =f <m 78 zp =z DD eE WI 6; N- ~> J- '- _= e* F& o& 4& u% 2% (% H$ _$ _$ _$ _$ _$ _$ _$ _$ _$ _$ S# {# z@ -@ m+ Q+ -+ $+ 0. y  `. u  N' N' _< f_ e_ d[ S< :< GZ /Z /Z eY 9Z 9Z `` (` (` (` O` IZ IZ IZ IZ IZ %..x` &..*..y` y` y` y` y` y` y` y` y` y` =..e` e` e` e` e` e` e` e` e` e` e` e` e` e` e` e` e` e` e` -..T` T` T` T` T` ",
"@ .;..U` q` q` q` >..s` $ .RY RY RY RY kJ #( #( #( #( #( #( #( #( #( #( #( #( #( #( #( #( #( #( #( #( #( #( #( #( #( #( #( #( #( #( #( #( #( #( #( #( #( kJ RY RY q[ c_ d_ e_ f_ g_ B! u  v  `. ++ 0. 0. #+ -+ P+ Q+ :# ;@ z@ {# S# _$ _$ _$ _$ _$ _$ F$ %% P, n% I% =& <& C& [* cd ;; `; N- {> |J GJ 4, b* 4> cB iA :m %0 cg [g _b V^ ,..'..                                                                                                                                                                                                                                                                                                                                                                                                                                                                                                                                                                                                                                                                                                                                                                                                                                                                                                )..!..~..l! v# =f <m [8 zp Oy DD eE xB 6; *; N- `; 8d yp e* F& _& 4& u% 2% (% H$ _$ _$ _$ _$ _$ _$ _$ _$ _$ _$ S# {# z@ -@ m+ Q+ -+ $+ 0. y  `. u  N' N' _< f_ e_ d[ S< Q' GZ /Z /Z Q] 9Z 9Z {..(` (` (` ]..IZ IZ IZ IZ IZ ^..y` y` y` y` y` y` y` y` y` y` y` y` y` y` =..e` e` e` e` e` e` e` e` e` e` e` e` e` e` e` e` e` e` /..T` T` T` T` T` ",
"q` q` q` q` q` V` s` s` a .RY RY RY @` #( #( #( #( #( #( #( #( #( #( #( #( #( #( #( #( #( #( #( #( #( #( #( #( #( (.._..:..<..[..#( #( #( #( #( #( #( #( #( zZ kJ q[ c_ d_ e_ f_ g_ B! u  v  `. ++ 0. 0. #+ -+ P+ Q+ :# ;@ z@ {# S# _$ _$ _$ _$ _$ _$ F$ %% P, n% I% =& <& B& v, #e ;; I- *; &; |J z= 4, 0* >J cB iA :m 3J Zg [g _b V^ }..|..                                                                                                                                                                                                                                                                                                                                                                                                                                                                                                                                                                                                                                                                                                                                                                                                                                                                                                   1..2..U' Zd =f <m [8 zp Oy DD eE xB G- x; N- I- '- ;= e* E& _& 4& u% 2% (% H$ _$ _$ _$ _$ _$ _$ _$ _$ _$ _$ S# {# z@ -@ m+ Q+ -+ $+ 0. y  `. u  N' N' _< f_ e_ d[ S< {_ GZ /Z /Z Q] 9Z |9 (` (` (` (` 7 .IZ IZ IZ IZ IZ 3..y` y` y` y` y` y` y` y` y` y` y` y` y` y` y` =..e` e` e` e` e` e` e` e` e` e` e` e` e` e` e` e` e` 4..T` T` T` T` T` ",
"q` q` q` q` V` s` s` $ .RY RY RY RY T] #( #( #( #( #( #( #( #( #( #( #( #( #( #( #( #( #( #( #( #( #( #( #( #( 5..6..6..6..6..6..[..#( #( #( #( #( #( #( #( #( #( q[ c_ d_ e_ f_ g_ B! u  v  `. ++ 0. 0. #+ -+ P+ Q+ :# ;@ z@ {# S# _$ _$ _$ _$ _$ _$ F$ %% P, n% I% =& :& B& v, #e ;; I- x; ~> n- L> 2, 9* >J >F eA :m 0n Zg X$ _b V^ }..7..                                                                                                                                                                                                                                                                                                                                                                                                                                                                                                                                                                                                                                                                                                                                                                                                                                                                                                   1..2..nv Zd =f Q9 68 Zx Oy vQ eE 8..;; =; *; H- >- := (* O& _& P% r% 2% (% G$ _$ _$ _$ _$ _$ _$ _$ _$ _$ _$ S# {# z@ -@ m+ Q+ -+ $+ 0. y  `. u  N' N' _< f_ e_ d[ S< {_ GZ /Z /Z Q] 9Z 9..(` (` (` (` 0..IZ IZ IZ IZ IZ a..d` 7$ y` y` y` y` y` y` y` y` y` y` y` y` y` y` =..e` e` e` e` e` e` e` e` e` e` e` e` e` e` e` e` e` T` T` T` T` T` ",
"q` q` q` b..s` s` s` HY RY RY RY GY #( #( #( #( #( #( #( #( #( #( #( #( #( #( #( #( #( #( #( #( #( #( #( #( (..6..6..6..6..6..6..6..[..#( #( #( #( #( #( #( #( #( q[ c_ d_ e_ f_ g_ B! u  v  `. ++ 0. 0. #+ -+ P+ Q+ :# ;@ z@ {# S# _$ _$ _$ _$ _$ _$ R) %% P, ~I ** =& :& t, A*  I F- H- x; N- n- T> 2, 8* GI VI eA hd 0n ai X$ _b V^ }..7..                                                                                                                                                                                                                                                                                                                                                                                                                                                                                                                                                                                                                                                                                                                                                                                                                                                                                                   1..2..nv Zd d% cg 58 }x Oy vQ .= bB F- L- x; G- >- .o (* O& m& P% q% 2% (% G$ _$ _$ _$ _$ _$ _$ _$ _$ _$ _$ S# {# z@ -@ m+ Q+ -+ $+ 0. y  `. u  N' N' _< f_ e_ d[ S< {_ GZ /Z /Z Q] 9Z $` (` (` (` c..21 IZ IZ IZ IZ d..e..e` e` f..y` y` y` y` y` y` y` y` y` y` y` y` y` y` R` g..e` e` e` e` e` e` e` e` e` e` e` e` e` e` e` e` e` h..4..4..",
"q` q` q` r` s` s` i..RY RY RY @` #( #( #( #( #( #( #( #( #( #( #( #( #( #( #( #( #( #( #( #( #( #( #( #( (..6..6..6..6..6..6..6..6..:..#( #( #( #( #( #( #( #( #( q[ c_ d_ e_ f_ g_ B! u  v  `. ++ 0. 0. #+ -+ P+ Q+ :# ;@ z@ {# S# _$ _$ _$ _$ _$ _$ F$ %% P, ~I ** =& _& t, <* ye F- H- =; *; ); w= FI 8* ], IA ,D hd 6{ ai X$ _b V^ }..7..                                                                                                                                                                                                                                                                                                                                                                                                                                                                                                                                                                                                                                                                                                                                                                                                                                                                                                   1..2..nv Zd d% cg 58 Zx by  D /I bB F- Z; x; G- 9n .o TD O& n& P% &* 2% (% G$ _$ _$ _$ _$ _$ _$ _$ _$ _$ _$ S# {# z@ -@ m+ Q+ -+ $+ 0. y  `. u  N' N' _< f_ e_ d[ S< {_ Z` /Z /Z Q] j..vb k..%' l..m..IZ IZ IZ n..o..p..e` e` e` e` 7$ y` y` y` y` y` y` y` y` y` y` y` y` y` y` y` q..e` e` e` e` e` e` e` e` e` e` e` e` e` e` e` e` e` e` e` ",
"q` q` q` r..s` s` =Z RY RY RY T] #( #( #( #( #( #( #( #( #( #( #( #( #( #( #( #( #( #( #( #( #( #( (..6..6..6..6..6..6..6..6..6..6..6..<..#( #( #( #( #( #( #( #( q[ c_ d_ e_ f_ g_ B! u  v  `. ++ 0. 0. #+ -+ P+ Q+ :# ;@ z@ {# S# _$ _$ _$ _$ _$ _$ F$ %% [% ~I ** S% n& y& :* ye F- 6; L- x; ); v= FI 7* aI IA Ou hd 6{ ai X$ Zd V^ }..7..                                                                                                                                                                                                                                                                                                                                                                                                                                                                                                                                                                                                                                                                                                                                                                                                                                                                                                   1..2..nv Zd d% cg 58 Zx by  D /I bB F- -; =; ;; Xz <= ^* C& s..P% &* h% %% F$ _$ _$ _$ _$ _$ _$ _$ _$ _$ _$ S# {# z@ -@ m+ Q+ -+ $+ 0. y  `. u  N' N' _< f_ e_ d[ S< {_ t../Z /Z u..m..m..m..m..m..2> n..v..w..p..p..x..y..e` e` e` g..y` y` y` y` y` y` y` y` y` y` y` y` y` y` y` y` z..g..e` e` e` e` e` e` e` e` e` e` e` e` e` e` e` e` e` ",
"q` q` q` q` >..s` s` HY RY RY GY #( #( #( #( #( #( #( #( #( #( #( #( #( #( #( #( #( #( #( #( #( 5..6..6..6..6..6..6..6..6..6..6..6..6..6..[..#( #( #( #( #( #( #( q[ c_ d_ e_ f_ g_ B! u  v  `. ++ 0. 0. #+ -+ P+ Q+ :# ;@ z@ {# S# _$ _$ _$ _$ _$ _$ F$ %% [% ~I ** S% n& y& _*  I O; !> K- =; A..u= ^I 6* +I Qy dA (A 6{ Ka X$ Zd V^ }..7..                                                                                                                                                                                                                                                                                                                                                                                                                                                                                                                                                                                                                                                                                                                                                                                                                                                                                                   1..2..nv Zd d% cg 58 Zx by AH #I (I O; J- L- F- B..ym ^* C& (& P% q% h% %% E$ _$ _$ _$ _$ _$ _$ _$ _$ _$ _$ S# {# z@ -@ m+ Q+ -+ $+ 0. y  `. u  N' N' _< f_ e_ d[ S< {_ t../Z /Z xr m..m..C..D..p..p..p..p..p..p..p..A8 E..e` e` e` e` z..y` y` y` y` y` y` y` y` y` y` y` y` y` y` y` y` y` 7$ g..e` e` e` e` e` e` e` e` e` e` e` e` e` e` e` ",
"q` q` q` q` q` F..s` s` 3] RY RY kJ #( #( #( #( #( #( #( #( #( #( #( #( #( #( #( #( #( #( G..6..6..6..6..6..6..6..6..6..6..6..6..6..6..6..5..#( #( #( #( #( #( #( q[ c_ d_ e_ f_ g_ B! u  v  `. ++ 0. 0. #+ -+ P+ Q+ :# ;@ z@ {# S# _$ _$ _$ _$ _$ _$ F$ %% [% l% ** S% n& x& _*  I O; F- -; =; A..I> }, 5* +I =* dA (A 6{ Ka X$ Zd V^ }..7..                                                                                                                                                                                                                                                                                                                                                                                                                                                                                                                                                                                                                                                                                                                                                                                                                                                                                                   H..Lw nv Zd d% cg 58 Zx jC AH I..CH y; '> K- F- =- *= ]* t, (& )' q% h% %% E$ _$ _$ _$ _$ _$ _$ _$ _$ _$ _$ S# {# z@ -@ m+ Q+ -+ $+ 0. y  `. u  N' N' _< f_ e_ d[ S< {_ t../Z /Z xr %` J..p..p..p..p..p..p..p..p..p..K..>{ e..e` e` e` q..y` y` y` y` y` y` y` y` y` y` y` y` y` y` y` y` y` y` y` q..g..e` e` e` e` e` e` e` e` e` e` e` e` e` ",
"q` q` q` q` q` q` V` s` s` L..RY RY RY kJ T] #( #( #( #( #( #( #( #( #( #( #( #( #( R| :..6..6..6..6..6..6..6..6..6..6..6..6..6..6..6..6..6.._..#( #( #( #( #( #( q[ c_ d_ e_ f_ g_ B! u  v  `. ++ 0. 0. #+ -+ P+ Q+ :# ;@ z@ {# S# _$ _$ _$ _$ _$ _$ F$ %% <% l% %& S% n& x& _*  I E- F- J- L- r- q= M..5* t, cA dA (A 0n Ka X$ Zd la }..7..                                                                                                                                                                                                                                                                                                                                                                                                                                                                                                                                                                                                                                                                                                                                                                                                                                                                                                   H..Lw nv Zd d% cg =e hx jC dC `* hA D- I- J- O; bi ;O ]* z& /& M% q% h% %% F$ _$ _$ _$ _$ _$ _$ _$ _$ _$ _$ S# {# z@ -@ m+ Q+ -+ $+ 0. y  `. u  N' N' _< f_ e_ d[ S< {_ Z` /Z /Z n[ N..A8 p..p..p..p..p..p..p..p..p..K..>{ E..e` e` e` g..y` y` y` y` y` y` y` y` y` y` y` y` y` y` y` y` y` y` y` y` y` 7$ g..e` e` e` e` e` e` e` e` e` e` h..",
"q` q` q` q` q` q` 3Z s` s` s` i..O..RY RY RY @` GY #( #( #( #( #( #( #( #( #( :..6..6..6..6..6..6..6..6..6..6..6..6..6..6..6..6..6..6..6..6..6..6..5..[..#( #( #( q[ c_ d_ e_ f_ g_ B! u  v  `. ++ 0. 0. #+ -+ P+ Q+ :# ;@ z@ {# S# _$ _$ _$ _$ _$ _$ F$ @% <% k% %& S% m& w& (* ye E- F- '> L- +H i= |= 3* @H cA :A (A 0n Ka X$ [c la }..7..                                                                                                                                                                                                                                                                                                                                                                                                                                                                                                                                                                                                                                                                                                                                                                                                                                                                                                   H..Lw nv Zd d% cg =e |o jC 'C `* 4A D- I- J- E-  l ;O ]* z& /& M% q% h% %% F$ _$ _$ _$ _$ _$ _$ _$ _$ _$ _$ S# {# z@ -@ m+ Q+ -+ $+ 0. y  `. u  N' N' _< f_ e_ d[ S< b_ GZ /Z /Z /Z P..>{ p..p..p..p..p..p..p..p..p..K..>{ >{ y..e` e` e` Q..y` y` y` y` y` y` y` y` y` y` y` y` y` y` y` y` y` y` y` y` y` y` z` f..e` e` e` e` e` R..S..T..T..",
"q` q` q` q` q` q` q` s` s` s` s` i..HY RY RY RY RY yZ GY #( #( #( #( #( #( (..6..6..6..6..6..6..6..6..6..6..6..6..6..6..6..6..6..6..6..6..6..6..6..6..6..6.._..[..q[ c_ d_ e_ f_ g_ B! u  v  `. ++ 0. 0. #+ -+ P+ Q+ :# ;@ z@ {# S# _$ _$ _$ _$ _$ _$ F$ @% <% k% v% Q% (& w& Bc U..y; O; '> K- V..3- R* 3* @H cA :A (A 6{ Ka X$ [c B! }..7..                                                                                                                                                                                                                                                                                                                                                                                                                                                                                                                                                                                                                                                                                                                                                                                                                                                                                                   H..Lw nv Zd [g Zg =e |o ~y 'C W..4A D- H- P; E- &- %= GE z& /& M% q% |% %% E$ _$ _$ _$ _$ _$ _$ _$ _$ _$ _$ S# {# z@ -@ m+ Q+ -+ $+ 0. y  `. u  N' N' _< f_ e_ d[ S< b_ GZ /Z /Z /Z X..>{ ~} p..p..p..p..p..p..p..p..Y..>{ >{ 85 e` e` e` S` y` y` y` y` y` y` y` y` y` y` y` y` y` y` y` y` y` y` y` y` y` y` y` y` e` e` e` Z..S..T..T..T..T..",
"q` q` q` q` q` q` # .s` s` s` s` s` `..RY RY RY RY RY RY kJ #( #( #( #( #( <..6..6..6..6..6..6..6..6..6..6..6..6..6..6..6..6..6..6..6..6..6..6..6..6..6..6..6..6..q[ c_ d_ e_ f_ g_ B! u  v  `. ++ 0. 0. #+ -+ P+ Q+ :# ;@ z@ {# S# _$ _$ _$ _$ _$ _$ F$ @% <% k% v% Q% (& w& ^* @- y; E- I- J-  +.3- 1= 3* @H *E :A /k 6{ Ka X$ [c B! }..7..                                                                                                                                                                                                                                                                                                                                                                                                                                                                                                                                                                                                                                                                                                                                                                                                                                                                                                   H..Lw kV Zd [g Zg =e Dn ;G 'C aG GF bG H- I- y; .+.%= GE y& l& M% p% |% %% E$ _$ _$ _$ _$ _$ _$ _$ _$ _$ _$ S# {# z@ -@ m+ Q+ -+ $+ 0. y  `. u  N' N' _< f_ e_ d[ S< b_ GZ /Z /Z ++.>{ >{ Y..p..p..p..p..p..p..p..p..A8 >{ >{ >{ e` e` e` e` R` y` y` y` y` y` y` y` y` y` y` y` y` y` y` y` y` y` y` y` y` y` y` @+.e` e` #+.T..T..T..T..T..T..",
"q` q` q` q` q` q` # .s` s` s` s` $ .RY RY RY RY RY RY RY RY kJ #( #( #( #( 6_ 6..6..6..6..6..6..6..6..6..6..6..6..6..6..6..6..6..6..6..6..6..6..6..6..6..6..6..6..q[ c_ d_ e_ f_ g_ B! u  v  `. ++ 0. 0. #+ -+ P+ Q+ :# ;@ z@ {# S# _$ _$ _$ _$ _$ _$ F$ @% <% k% v% Q% /& v& ^* =E D- E- I- J- 9G k= P* 1* BG *E /A dE 6{ Ka X$ [c B! }..Q .                                                                                                                                                                                                                                                                                                                                                                                                                                                                                                                                                                                                                                                                                                                                                                                                                                                                                                   $+.Lw %+.[c [g Zg 0{ ow YB cB Z* GF &+.6; H- 3; 7c [= w* y& ^& M% p% |% %% E$ _$ _$ _$ _$ _$ _$ _$ _$ _$ _$ S# {# z@ -@ m+ Q+ -+ $+ 0. y  `. u  N' N' _< f_ e_ d[ S< b_ GZ /Z /Z +N >{ >{ >{ p..p..p..p..p..p..p..p..~} >{ >{ >{ e..e` e` e` g..R` y` y` y` y` y` y` y` y` y` y` y` y` y` y` y` y` y` y` y` y` y` q..e` h..T..T..T..T..T..T..T..",
"q` q` q` q` q` q` *+.s` s` s` s` HY RY RY RY RY RY RY RY RY RY T] #( #( #( :..6..6..6..6..6..6..6..6..6..6..6..6..6..6..6..6..6..6..6..6..6..6..6..6..6..6..6..6..q[ c_ d_ e_ f_ g_ B! u  v  `. ++ 0. 0. #+ -+ P+ Q+ :# ;@ z@ {# S# _$ _$ _$ _$ _$ _$ F$ @% <% k% v% Q% l& f* ^* =E D- y; H- I- 9G U> P* 1* S, %A +t dE ^~ Ka X$ [c B! }..=+.                                                                                                                                                                                                                                                                                                                                                                                                                                                                                                                                                                                                                                                                                                                                                                                                                                                                                                   $+.Lw %+.[c [g Zg 0n ow YB cB Z* *d B- 6; H- 3; cd #= u* x& k& L% $& g% %% E$ _$ _$ _$ _$ _$ _$ _$ _$ _$ _$ S# {# z@ -@ m+ Q+ -+ $+ 0. y  `. u  N' N' _< f_ e_ d[ S< b_ GZ /Z hY >{ >{ >{ >{ ~} p..p..p..p..p..p..p..p..>{ >{ >{ 85 e` e` e` e` e` =..y` y` y` y` y` y` y` y` y` y` y` y` y` y` y` y` y` y` y` q..e` h..T..T..T..T..T..T..T..T..",
"q` q` q` q` q` q` *+.s` s` s` s` rZ HY RY RY RY RY RY RY RY RY GY #( #( #( :..6..6..6..6..6..6..6..6..6..6..6..6..6..6..6..6..6..6..6..6..6..6..6..6..6..6..6..6..q[ c_ d_ e_ f_ g_ B! u  v  `. ++ 0. 0. #+ -+ P+ Q+ :# ;@ z@ {# S# _$ _$ _$ _$ _$ _$ F$ @% <% k% v% R% l& f* ]* @- 3; D- 6; I- 0U H> O* d* 0F -F +t /k ^~ Ka X$ [c B! }..U .                                                                                                                                                                                                                                                                                                                                                                                                                                                                                                                                                                                                                                                                                                                                                                                                                                                                                                   -+.Lw kV Za [g ai 0n %n #x >F Z* *d B- G- H- C- ae ;g u* vA k& L% o% g% %% E$ _$ _$ _$ _$ _$ _$ _$ _$ _$ _$ S# {# z@ -@ m+ Q+ -+ $+ 0. y  `. u  N' N' _< f_ e_ d[ S< b_ GZ /Z ;+.>{ >{ >{ >{ Y..p..p..p..p..p..p..p..p..>+.>{ >{ ,+.e` e` e` e` e` d` y` y` y` y` y` y` y` y` y` y` y` y` y` y` y` y` y` R` f..e` h..T..T..T..T..T..T..T..T..T..",
"q` q` q` q` q` q` F..s` s` s` s` s` s` s` =Z RY RY RY RY RY RY GY #( #( #( :..6..6..6..6..6..6..6..6..6..6..6..6..6..6..6..6..6..6..6..6..6..6..6..6..6..6..6..6..q[ c_ d_ e_ f_ g_ B! u  v  `. ++ 0. 0. #+ -+ P+ Q+ :# ;@ z@ {# S# _$ _$ _$ _$ _$ _$ F$ @% <% k% v% R% l& g* +c =E 3; 3; G- H- 0U G> 2= }* 0F -F ys fd 9l xb X$ [c <3 }..U .                                                                                                                                                                                                                                                                                                                                                                                                                                                                                                                                                                                                                                                                                                                                                                                                                                                                                                   -+.Lw +4 Za [g ai 38 Dn #x >F ,F be 4; ;; 6; B- ae g- L& w& ]& '' o% g% %% E$ _$ _$ _$ _$ _$ _$ _$ _$ _$ _$ S# {# z@ -@ m+ Q+ -+ $+ 0. y  `. u  N' N' _< f_ e_ d[ S< b_ GZ /Z '+.>{ >{ >{ >{ >{ uT p..p..p..p..p..p..p..)+.>{ >{ >{ e` e` e` e` e` f..y` y` y` y` y` y` y` y` y` y` y` y` y` y` y` R` S` e` e` R..T..T..T..T..T..T..T..T..T..T..",
"q` q` q` q` q` q` b..s` s` s` s` s` s` s` s` K` O..RY RY RY RY GY #( #( #( :..6..6..6..6..6..6..6..6..6..6..6..6..6..6..6..6..6..6..6..6..6..6..6..6..6..6..6..6..q[ c_ d_ e_ f_ g_ B! u  v  `. ++ 0. 0. #+ -+ P+ Q+ :# ;@ z@ {# S# _$ _$ _$ _$ _$ _$ F$ @% <% k% v% R% k& t& GE =E 3; 3; ;; H- =F F> 2= C* vy -F ys !+.9l xb X$ Za /) }..U .                                                                                                                                                                                                                                                                                                                                                                                                                                                                                                                                                                                                                                                                                                                                                                                                                                                                                                   -+.Lw +4 Za [g ai  q JA #x IA pE ke 4; F- G- B- ae ,L M& v& ]& '' o% g% %% E$ _$ _$ _$ _$ _$ _$ _$ _$ _$ _$ S# {# z@ -@ m+ Q+ -+ $+ 0. y  `. u  N' N' _< f_ e_ d[ S< Q' GZ /Z ~+.>{ >{ >{ >{ >{ Y..p..p..p..p..p..p..p..p..>{ >{ >{ e..e` e` e` e` z` y` y` y` y` y` y` y` y` y` y` y` y` y` z` f..e` e` e` e` Z..{+.T..T..T..T..T..T..T..T..T..",
"q` q` q` q` q` q` q` V` s` s` s` s` s` s` s` s` $ .RY RY RY RY GY #( #( #( :..6..6..6..6..6..6..6..6..6..6..6..6..6..6..6..6..6..6..6..6..6..6..6..6..6..6..6..6..q[ c_ d_ e_ f_ g_ B! u  v  `. ++ 0. 0. #+ -+ P+ Q+ :# ;@ z@ {# S# _$ _$ _$ _$ _$ _$ F$ @% <% k% v% R% k& t& GE Sf 3; 3; ;; 6; :R F> 3= [* vy -F Kz !+.]~ xb X$ Za /) }..U .                                                                                                                                                                                                                                                                                                                                                                                                                                                                                                                                                                                                                                                                                                                                                                                                                                                                                                   -+.Lw +4 Za X$ ai  q :m 7C Qy 3E ke 4; F- ;; B- ye += K& v& ]& '' o% |% %% E$ _$ _$ _$ _$ _$ _$ _$ _$ _$ _$ S# {# z@ -@ m+ Q+ -+ $+ 0. y  `. u  N' N' _< f_ e_ d[ S< b_ GZ z9 ~+.>{ >{ >{ >{ >{ >{ )+.p..p..p..p..p..p..p..>+.>{ >{ ]+.e` e` e` f..y` y` y` y` y` y` y` y` y` y` y` y` @+.S` e` e` e` e` e` e` e` Z..^+.T..T..T..T..T..T..T..T..",
"q` q` q` q` q` q` q` q` *+.s` s` s` s` s` s` s` s` HY RY RY RY GY #( #( #( :..6..6..6..6..6..6..6..6..6..6..6..6..6..6..6..6..6..6..6..6..6..6..6..6..6..6..6..6..q[ c_ d_ e_ f_ g_ B! u  v  `. ++ 0. 0. #+ -+ P+ Q+ :# ;@ z@ {# S# _$ _$ _$ _$ _$ _$ F$ @% <% 6% t% 4& k& t& GE ]- B- C- F- ;; :R E> L* A* 1E cE Kz dE ]~ xb X$ Za /) }..U .                                                                                                                                                                                                                                                                                                                                                                                                                                                                                                                                                                                                                                                                                                                                                                                                                                                                                                   -+.2..+4 Za X$ Ka 6{ :m 7C Qy 3E ke z- E- F- A- @- Gc )* g* ]& '' o% |% %% E$ _$ _$ _$ _$ _$ _$ _$ _$ _$ _$ S# {# z@ -@ m+ Q+ -+ $+ 0. y  `. u  N' N' _< f_ e_ d[ S< Q' GZ /+.~+.>{ >{ >{ >{ >{ >{ >{ ~} p..p..p..p..p..p..)+.>{ >{ 85 e` e` e` R` y` y` y` y` y` y` y` y` y` y` y` 7$ e` e` e` e` e` e` e` e` e` e` e` h..(+.T..T..T..T..T..T..",
"q` q` q` q` q` q` q` q` q` # ._+.s` s` s` s` s` s` $ .RY RY RY kJ #( #( #( <..6..6..6..6..6..6..6..6..6..6..6..6..6..6..6..6..6..6..6..6..6..6..6..6..6..6..6..6..q[ c_ d_ e_ f_ g_ B! u  v  `. ++ 0. 0. #+ -+ P+ Q+ :# ;@ z@ {# S# _$ _$ _$ _$ _$ _$ E$ @% <% 6% t% P% ]& {, ~* .g C- C- F- ;; }E :+.|E A* SL cE Kz dE 9l Kf X$ Za /) }..U .                                                                                                                                                                                                                                                                                                                                                                                                                                                                                                                                                                                                                                                                                                                                                                                                                                                                                                   -+.<+.nv Za X$ Ka 6{ :m &E cA kC qe z- E- F- A- @- .= J& g* ]& '' o% |% %% C$ _$ _$ _$ _$ _$ _$ _$ _$ _$ _$ S# {# z@ -@ m+ Q+ -+ $+ 0. y  `. u  N' N' _< f_ e_ d[ S< q[ GZ /+.~+.>{ >{ >{ >{ >{ >{ >{ [+.p..p..p..p..p..p..p..>{ >{ ,+.e` e` e` q..R` y` y` y` y` y` y` y` Q..q..e` e` e` e` e` e` e` e` e` e` e` e` e` e` e` h..(+.T..T..T..T..",
"q` q` q` q` q` q` q` q` q` # ._+.s` s` s` s` s` s` s` RY RY RY @` #( #( #( <..6..6..6..6..6..6..6..6..6..6..6..6..6..6..6..6..6..6..6..6..6..6..6..6..6..6..6..6..q[ c_ d_ e_ f_ g_ B! u  v  `. ++ 0. 0. #+ -+ P+ Q+ :# ;@ z@ {# S# _$ _$ _$ _$ _$ _$ E$ @% <% 6% t% P% ]& }+.|+.]- B- B- O; F- }E D> 4= 1+.1E =z -z xi ]~ Kf X$ Za /) }..U .                                                                                                                                                                                                                                                                                                                                                                                                                                                                                                                                                                                                                                                                                                                                                                                                                                                                                                   -+.<+.nv Za X$ Ka 6{ hd &E *E (E &f z- y; E- z- =E /I t* t& {& '' o% |% @% C$ _$ _$ _$ _$ _$ _$ _$ _$ _$ _$ S# {# z@ -@ m+ Q+ -+ $+ 0. y  `. u  N' N' _< f_ e_ d[ S< q[ GZ z9 ~+.>{ >{ >{ >{ >{ >{ >{ >{ ~} p..p..p..p..p..p..[+.>{ >{ e` e` e` e` e` g..S` 9 .7$ q..S` e` e` e` e` e` e` e` e` e` e` e` e` e` e` e` e` e` e` e` e` #+.^+.T..T..",
"q` q` q` q` q` q` q` q` r..s` s` s` s` s` s` s` s` s` RY RY RY @` #( #( #( <..6..6..6..6..6..6..6..6..6..6..6..6..6..6..6..6..6..6..6..6..6..6..6..6..6..6..6..6..q[ c_ d_ e_ f_ g_ B! u  v  `. ++ 0. 0. #+ -+ P+ Q+ :# ;@ z@ {# S# _$ _$ _$ _$ _$ _$ E$ @% <% 6% t% P% {E r& !* Cg B- B- E- F- 2+.D> 4= e* Xx Oy  r xi ]~ Kf X$ Za /) }..U .                                                                                                                                                                                                                                                                                                                                                                                                                                                                                                                                                                                                                                                                                                                                                                                                                                                                                                   -+.<+.nv Za M8 Ka 6{ hd &E /E (E &f ,; y; E- A- =E /I H& t& !& '' o% |% @% C$ _$ _$ _$ _$ _$ _$ _$ _$ _$ _$ S# {# z@ -@ m+ Q+ -+ $+ 0. y  `. u  N' N' _< f_ e_ d[ S< q[ GZ /Z ~+.>{ >{ >{ 85 >{ >{ >{ >{ >{ x..p..p..p..p..p..Y..>{ >{ e` e` e` e` e` e` e` e` e` e` e` e` e` e` e` e` e` e` e` e` e` e` e` e` e` e` e` e` e` e` e` e` e` e` h..",
"q` q` q` q` q` q` 3+._+.s` s` s` s` s` s` s` s` $ .a .RY RY RY @` #( #( #( <..6..6..6..6..6..6..6..6..6..6..6..6..6..6..6..6..6..6..6..6..6..6..6..6..6..6..6..6..q[ c_ d_ e_ f_ g_ B! u  v  `. ++ 0. 0. #+ -+ P+ Q+ :# ;@ z@ {# S# _$ _$ _$ _$ _$ _$ F$ @% f% 6% u% ), 4+.r& !* Cg B- A- y; z; ]E V> (, 5+.^E Oy xy xi ]~ Kf X$ Za /) }..U .                                                                                                                                                                                                                                                                                                                                                                                                                                                                                                                                                                                                                                                                                                                                                                                                                                                                                                   -+.<+.nv Za M8 Ka 6{ (A yA %A {C &f ,; 3; y; A- =E  = G& s& !& K% o% |% @% C$ _$ _$ _$ _$ _$ _$ _$ _$ _$ _$ S# {# z@ -@ m+ Q+ -+ $+ 0. y  `. u  N' N' _< f_ e_ d[ S< q[ GZ /Z 6+.>{ >{ >{ e` e..>{ >{ >{ >{ >{ ~} p..p..p..p..)+.>{ >{ e..e` e` e` e` e` e` e` e` e` e` e` e` e` e` e` e` e` e` e` e` e` q..7$ 7+.%~ %~ %~ %~ %~ q..e` e` e` e` ",
"q` q` q` q` 3+.a` s` s` s` s` s` s` s` s` i..HY RY RY RY RY RY RY #( #( #( 5..6..6..6..6..6..6..6..6..6..6..6..6..6..6..6..6..6..6..6..6..6..6..6..6..6..6..6..6..q[ c_ d_ e_ f_ g_ B! u  v  `. ++ 0. 0. #+ -+ P+ Q+ :# ;@ z@ {# S# _$ _$ _$ _$ _$ _$ E$ @% <% i% u% ), !& -* K& Cg B- A- y; E- SD 8+./, (* ^E $E xy xi ]~ Kf M8 Za /) }..U .                                                                                                                                                                                                                                                                                                                                                                                                                                                                                                                                                                                                                                                                                                                                                                                                                                                                                                   -+.<+.nv Za M8 Ka 6{ tk jv Jz {C &f h- C- D- z- ]- `* F& s& !& K% n% |% @% C$ _$ _$ _$ _$ _$ _$ _$ _$ _$ _$ S# {# z@ -@ m+ Q+ -+ $+ 0. y  `. u  N' N' _< f_ e_ d[ S< S< GZ /Z /S >{ >{ ,+.e` e` e..>{ >{ >{ >{ >{ Y..p..p..p..~} >{ >{ ]+.e` e` e` e` e` e` e` e` e` e..e..e..e` e` e` e` e` e` e` H+ f= %~ %~ %~ %~ %~ %~ %~ %~ %~ d` e` e` e` ",
"q` q` 9+.a` s` s` s` s` s` s` s` s` s` =Z O..RY RY RY RY RY RY RY T] #( #( :..6..6..6..6..6..6..6..6..6..6..6..6..6..6..6..6..6..6..6..6..6..6..6..6..6..5..(..6..q[ c_ d_ e_ f_ g_ B! u  v  `. ++ 0. 0. #+ -+ P+ Q+ :# ;@ z@ {# S# _$ _$ _$ _$ _$ _$ E$ @% f% i% u% P% !' -* K& Cg B- z- D- E- SD @E /, TD UD jC xy gD ]~ Kf M8 Za <3 }..U .                                                                                                                                                                                                                                                                                                                                                                                                                                                                                                                                                                                                                                                                                                                                                                                                                                                                                                   -+.0+.nv Za M8 Ka 6{ tk iA Jz {C &f h- C- D- ~; ]- a+.F& ;* s, K% n% |% @% _$ _$ _$ _$ _$ _$ _$ _$ _$ _$ _$ S# {# z@ -@ m+ Q+ -+ $+ 0. y  `. u  N' N' _< f_ e_ d[ S< S< GZ /Z b+.>{ >{ 85 e` e` e` 85 >{ >{ >{ >{ >{ >{ A8 ~} >{ >{ >{ >{ >{ 85 85 85 85 E..,+.>{ >{ >{ >{ >{ e..e` e` e` e` e` q..%~ %~ %~ %~ %~ %~ %~ %~ %~ %~ %~ c+.e` e` e` ",
"3Z r` s` s` s` s` s` $ .rZ rZ rZ 3] O..RY RY RY RY RY RY RY RY RY GY #( #( 6..6..6..6..6..6..6..6..6..6..6..6..6..6..6..6..6..6..6..6..6..6..6..6..6..5..#( #( :..q[ c_ d_ e_ f_ g_ B! u  v  `. ++ 0. 0. #+ -+ P+ Q+ :# ;@ z@ {# S# _$ _$ _$ _$ _$ _$ E$ +% f% i% u% M% !& q& J& Cg B- z- D- y; ID A> /, /* P& ~y WA gD ]~ W  c$ Ed /< }..U .                                                                                                                                                                                                                                                                                                                                                                                                                                                                                                                                                                                                                                                                                                                                                                                                                                                                                                   -+.LR nv Za M8 Ka 6{ tk iA -F MD 3w h- B- 3; ~; Cg 5, O& ;* s, V% n% }% @% _$ _$ _$ _$ _$ _$ _$ _$ _$ _$ _$ S# {# z@ -@ m+ Q+ -+ $+ 0. y  `. u  N' N' _< f_ e_ d[ S< S< GZ /Z b+.>{ >{ 85 e` e` e` e` >{ >{ >{ >{ >{ >{ >{ >{ >{ >{ >{ >{ >{ >{ >{ >{ >{ >{ >{ >{ >{ >{ >{ >{ e..e` e` e` e` e` 7+.%~ %~ %~ %~ %~ %~ %~ %~ %~ %~ %~ %~ d` e` e` ",
"_+.s` s` s` s` =Z O..RY RY RY RY RY RY RY RY RY RY RY RY RY RY RY yZ #( #( R| 6..6..6..6..6..6..6..6..6..6..6..6..6..6..6..6..6..6..6..6..6..6..6..6..[..#( #( :..q[ c_ d_ e_ f_ g_ B! u  v  `. ++ 0. 0. #+ -+ P+ Q+ :# ;@ z@ {# S# _$ _$ _$ _$ _$ _$ E$ +% f% i% u% M% !& p& J& Cg B- z- 3; D- ID z> G* ^* DD ~y WA gD 1j W  c$ Aa /< }..U .                                                                                                                                                                                                                                                                                                                                                                                                                                                                                                                                                                                                                                                                                                                                                                                                                                                                                                   -+.d+.nv Za M8 Ka 6{ /k eA =z 9D !e h- B- C- h- ^- Z* C& ;* s, J% m% [% @% _$ _$ _$ _$ _$ _$ _$ _$ _$ _$ _$ S# {# z@ -@ m+ Q+ -+ $+ 0. y  `. u  N' N' _< f_ e_ d[ S< S< GZ /Z b+.>{ >{ e..e` e` e` e` ,+.>{ >{ >{ >{ >{ >{ >+.e+.w..e+.e+.o{ x..A8 [+.>{ >{ >{ >{ >{ >{ >{ >{ e` e` e` e` e` e` H+ %~ %~ %~ %~ %~ %~ %~ %~ %~ %~ %~ %~ 7+.e` e` ",
"s` s` s` i..HY RY RY RY RY RY RY RY RY RY RY RY RY RY RY RY RY RY RY GY #( #( [..:..6..6..6..6..6..6..6..6..6..6..6..6..6..6..6..6..6..6..6..6..6..5..#( #( #( 6..q[ c_ d_ e_ f_ g_ B! u  v  `. ++ 0. 0. #+ -+ P+ Q+ :# ;@ z@ {# S# _$ _$ _$ _$ _$ _$ E$  % f% i% u% M% s, p& )* Cg xm ,; C- 3; =R W> 0* ]* DD ~y zp gD 1j W  c$ Aa /< }..U .                                                                                                                                                                                                                                                                                                                                                                                                                                                                                                                                                                                                                                                                                                                                                                                                                                                                                                   -+.d+.nv Za %9 Ka ]~ /k eA =z U* !e y- B- C- h-  - 'D C& -* '& J% l% [% @% _$ _$ _$ _$ _$ _$ _$ _$ _$ _$ _$ S# {# z@ -@ m+ Q+ -+ $+ 0. y  `. u  N' N' _< f_ e_ d[ S< S< GZ /Z b+.>{ >{ e..e` e` e` e` ,+.>{ >{ >{ >{ >{ ~} f+.f+.f+.f+.f+.f+.f+.f+.f+.g+.>{ >{ >{ >{ >{ E..e..e` e` e` e` e` e` e` c+.%~ %~ %~ %~ %~ %~ %~ %~ %~ %~ %~ %~ '. e` ",
"s` s` `..O..RY RY RY RY RY RY RY RY RY RY RY RY RY RY RY RY RY RY RY RY T] #( #( #( (..:..6..6..6..6..6..6..6..6..6..6..6..6..6..6..6..6..6..6..6..<..#( #( R| 6..q[ c_ d_ e_ f_ g_ B! u  v  `. ++ 0. 0. #+ -+ P+ Q+ :# ;@ z@ {# S# _$ _$ _$ _$ _$ _$ E$  % :% 3% &* M% s, Q& t* Cg xm h- B- 3; ZC y> ]D ]*  D |p Zx (8 G! W  c$ Aa /< }..U .                                                                                                                                                                                                                                                                                                                                                                                                                                                                                                                                                                                                                                                                                                                                                                                                                                                                                                   -+.d+.nv Ed c$ W  ]~ /k dA Oy U* !e '; B- C- h-  - 'D B& -* '& J% l% <% .% _$ _$ _$ _$ _$ _$ _$ _$ _$ _$ _$ S# {# z@ -@ m+ Q+ -+ $+ 0. y  `. u  N' N' _< f_ e_ d[ S< S< GZ /Z b+.>{ >{ e..e` e` e` e` ,+.>{ >{ >{ Y..e+.f+.f+.f+.f+.f+.f+.f+.f+.f+.f+.f+.>{ >{ >{ ,+.e..e` e` e` e` e` e` e` e` e` H+ %~ %~ %~ %~ %~ %~ %~ %~ %~ %~ %~ %~ %~ %~ ",
"s` L..RY RY RY RY RY RY RY RY RY RY RY RY RY RY RY RY RY RY RY RY RY RY RY #( #( #( #( #( (..:..6..6..6..6..6..6..6..6..6..6..6..6..6..6..6..6..6..6..#( [..6..:..q[ c_ d_ e_ f_ g_ B! u  v  `. ++ 0. 0. #+ -+ P+ Q+ :# ;@ z@ {# S# _$ _$ _$ _$ _$ _$ E$  % =% 3% &* M% '& R& G& Cg z- h- B- C- ZC `C 8* x*  D YB Zx _8 G! W  c$ Aa /< }..U .                                                                                                                                                                                                                                                                                                                                                                                                                                                                                                                                                                                                                                                                                                                                                                                                                                                                                                   -+.d+.nv Ed c$ W  ]~ /k dA YC U* 8d '; 4; B- y- sk X* t, q& r, J% l% <%  % :$ _$ _$ _$ _$ _$ _$ _$ _$ _$ _$ S# {# z@ -@ m+ Q+ -+ $+ 0. y  `. u  N' N' _< f_ e_ d[ S< S< GZ /Z b+.>{ >{ y..e` e` e` e` ,+.>{ >{ ~} f+.f+.f+.f+.f+.f+.f+.f+.f+.f+.f+.f+.<6 >{ >{ >{ ]+.e` e` e` e` e` e` e` e` e` e` '. %~ %~ %~ %~ %~ %~ %~ %~ %~ %~ %~ %~ %~ %~ ",
"h+.RY RY RY RY RY RY RY RY RY RY RY RY RY RY RY RY RY RY RY RY RY RY RY GY #( #( #( #( #( #( #( (..:..6..6..6..6..6..6..6..6..6..6..6..6..6..6..6..6..R| #( #( #( q[ c_ d_ e_ f_ g_ B! u  v  `. ++ 0. 0. #+ -+ P+ Q+ :# ;@ z@ {# S# _$ _$ _$ _$ _$ _$ E$  % =% 2% q% M% '& R& XD Cg z- h- B- B- ZC `C 6* ~* JC YB Zx _8 G! W  n$ Aa _A }..U .                                                                                                                                                                                                                                                                                                                                                                                                                                                                                                                                                                                                                                                                                                                                                                                                                                                                                                   -+.i+.nv Ed c$ W  ]~ y' :A jC j+.8d x- z- B- x- `= 2, z& q& r, J% l% <%  % _$ _$ _$ _$ _$ _$ _$ _$ _$ _$ _$ S# {# z@ -@ m+ Q+ -+ $+ 0. y  `. u  N' N' _< f_ e_ d[ S< S< GZ /Z b+.>{ >{ e` e` e` e` e` ,+.>{ k+.f+.f+.f+.f+.f+.f+.f+.f+.f+.f+.f+.f+.f+.k+.>{ >{ >{ y..e` e` e` e` e` e` e` e` e` '. %~ %~ %~ %~ %~ %~ %~ %~ %~ %~ %~ %~ %~ %~ %~ ",
"RY RY RY RY RY RY RY RY RY RY RY RY RY RY RY RY RY RY RY RY RY RY RY @` #( #( #( #( #( #( #( #( #( #( R| 6..6..6..6..6..6..6..6..6..6..6..6..6..6..6..:..#( #( l+.Q' c_ d_ e_ f_ g_ B! u  v  `. ++ 0. 0. #+ -+ P+ Q+ :# ;@ z@ {# S# _$ _$ _$ _$ _$ _$ E$  % :% 2% q% M% '& |& F& 0i z- h- B- B- oC w> 6* u* AH pC Zx _8 G! W  X$ Aa nv }..U .                                                                                                                                                                                                                                                                                                                                                                                                                                                                                                                                                                                                                                                                                                                                                                                                                                                                                                   -+.i+.nv Ed c$ W  ]~ Wi /A jC S* Pg x- z- 4; x- `= kC y& j* >& I% k% <%  % _$ _$ _$ _$ _$ _$ _$ _$ _$ _$ _$ S# {# z@ -@ m+ Q+ -+ $+ 0. y  `. u  N' N' _< f_ e_ d[ S< S< GZ /Z b+.>{ >{ e..e` e` e` e` ,+.>{ >+.f+.f+.f+.f+.f+.f+.f+.f+.f+.f+.f+.f+.e+.>{ >{ >{ E..e` e` e` e` e` e` e` e` g..'. %~ %~ %~ %~ %~ %~ %~ %~ %~ %~ %~ %~ %~ %~ %~ %~ ",
"RY RY RY RY RY RY RY RY RY RY RY RY RY RY RY RY RY RY RY RY RY RY RY #( #( #( #( #( #( #( #( #( #( #( #( #( 5..6..:..:.._..6_ :..:..6..6..6..6..6..6..6..#( #( m+.Q' c_ d_ e_ f_ g_ B! u  v  `. ++ 0. 0. #+ -+ P+ Q+ :# ;@ z@ {# S# _$ _$ _$ _$ _$ _$ E$  % =% 2% q% 5& r, [& E& 0i z- h- 4; B- n+.w> 4* u* dC 7C Mz _8 G! W  c$ `] nv }..U .                                                                                                                                                                                                                                                                                                                                                                                                                                                                                                                                                                                                                                                                                                                                                                                                                                                                                                   -+.i+.nv xc yi W  ]~ Wi /A ~y S* Pg x- z- 4; x- wm W* y& R& >& I% k% <%  % _$ _$ _$ _$ _$ _$ _$ _$ _$ _$ _$ S# {# z@ -@ m+ Q+ -+ $+ 0. y  `. u  N' N' _< f_ e_ d[ S< S< GZ /Z b+.>{ >{ e..e` e` e` e` >{ >{ >{ f+.f+.f+.f+.f+.f+.f+.f+.f+.f+.f+.f+.>+.>{ >{ >{ y..e` e` e` e` e` e` e` f..7+.%~ %~ %~ %~ %~ %~ %~ %~ %~ %~ %~ %~ %~ %~ %~ %~ %~ ",
"RY RY RY RY RY RY RY RY RY RY RY RY RY RY RY RY RY RY RY o+.29 z. #( #( #( #( #( #( #( #( #( #( #( #( #( #( #( #( #( #( #( #( #( #( #( [..(..<..:..6..6..(..#( #( q[ c_ d_ e_ f_ g_ B! u  v  `. ++ 0. 0. #+ -+ P+ Q+ :# ;@ z@ {# S# _$ _$ _$ _$ _$ _$ E$ `$ =% 2% p% K% ~, 1& O& 0i z- h- 4; 4; cC p+.4* u* 'C 7C |o 78 G! W  J6 Z. nv }..U .                                                                                                                                                                                                                                                                                                                                                                                                                                                                                                                                                                                                                                                                                                                                                                                                                                                                                                   -+.i+.nv `] 7e W  ]~ Wi +t |p S* Pg x- z- z- x- wm W* w& |& >& I% k% <%  % _$ _$ _$ _$ _$ _$ _$ _$ _$ _$ _$ S# {# z@ -@ m+ Q+ -+ $+ 0. y  `. u  N' N' _< f_ e_ d[ S< S< GZ /Z b+.>{ >{ e..e` e` e` e` ,+.>{ >{ f+.f+.f+.f+.f+.f+.f+.f+.f+.f+.f+.Y..>{ >{ >{ e..e` e` e` e` e` e` d` c+.%~ %~ %~ %~ %~ %~ %~ %~ %~ %~ %~ %~ %~ %~ %~ %~ %~ %~ %~ ",
"RY RY RY RY RY RY RY RY RY RY RY RY RY RY RY RY RY RY RY q+.r+.s+.#( #( #( #( #( #( #( #( #( #( #( #( #( #( #( #( #( #( #( #( #( #( #( #( #( #( #( #( #( #( #( #( q[ c_ d_ e_ f_ g_ B! u  v  `. ++ 0. 0. #+ -+ P+ Q+ :# ;@ z@ {# S# _$ _$ _$ _$ _$ _$ E$ `$ =% 1% p% K% >& 1& O& 0i z- y- t+.4; OB v> 3* M& <C 4w |o 78 G! W  J6 Z. _A }..U .                                                                                                                                                                                                                                                                                                                                                                                                                                                                                                                                                                                                                                                                                                                                                                                                                                                                                                   -+.i+.nv `] 7e W  ]~ xi +t ;G CB Vi x- z- z- x- wm 1, w& |& >& I% k% <%  % _$ _$ _$ _$ _$ _$ _$ _$ _$ _$ _$ S# {# z@ -@ m+ Q+ -+ $+ 0. y  `. u  N' N' _< f_ e_ d[ S< S< GZ /Z b+.>{ >{ e..e` e` e` e` E..>{ >{ e+.f+.f+.f+.f+.f+.f+.f+.f+.f+.Y..>{ >{ >{ e..e` e` g..q..u+.z..7+.%~ %~ %~ %~ %~ %~ %~ %~ %~ %~ %~ %~ %~ %~ %~ %~ %~ %~ %~ %~ %~ ",
"RY RY RY RY RY RY RY RY RY RY RY RY RY RY RY RY RY RY '. r+.v+.#( #( #( #( #( #( #( #( #( #( #( #( #( #( #( #( #( #( #( #( #( #( #( #( #( #( #( #( #( #( #( #( #( q[ c_ d_ e_ f_ g_ B! u  v  `. ++ 0. 0. #+ -+ P+ Q+ :# ;@ z@ {# S# _$ _$ _$ _$ _$ _$ _$ /% &% 1% p% K% >& 1& ], 0i z- x- z- A- ,C w+.EM M& QB 4w |o [8 ^e xa J6 Z. &A }..U .                                                                                                                                                                                                                                                                                                                                                                                                                                                                                                                                                                                                                                                                                                                                                                                                                                                                                                   -+.i+.nv Z. 7e W  ]~ xi +t YB CB Vi w- h- z- k- Y= |, v& }& >& I% k% <% `$ _$ _$ _$ _$ _$ _$ _$ _$ _$ _$ _$ S# {# z@ -@ m+ Q+ -+ $+ 0. y  `. u  N' N' _< f_ e_ d[ S< S< GZ /Z b+.>{ >{ ]+.e` e` e` e` ]+.>{ >{ ~} f+.f+.f+.f+.f+.f+.f+.w..>+.>{ >{ E..e` e` H+ z. %~ %~ %~ %~ %~ %~ %~ %~ %~ %~ %~ %~ %~ %~ %~ %~ %~ %~ %~ %~ %~ %~ %~ %~ %~ %~ ",
"RY RY RY RY RY RY RY RY RY RY RY RY RY RY RY RY RY RY x+.r+.w) #( #( #( #( #( #( #( #( #( #( #( #( #( #( #( #( #( #( #( #( #( #( #( #( #( #( #( #( #( #( #( #( #( q[ c_ d_ e_ f_ g_ B! u  v  `. ++ 0. 0. #+ -+ P+ Q+ :# ;@ z@ {# S# _$ _$ _$ _$ _$ _$ _$ /% &% g% f- K% >& o& B& aB 5; x- !; z- ,C t> 1* PB QB %w hx [8 D9 xa yi `] /< }..U .                                                                                                                                                                                                                                                                                                                                                                                                                                                                                                                                                                                                                                                                                                                                                                                                                                                                                                   -+.e8 _A `] 7e W  H! xi ys Jw 1= Vi w- 5; z- w- Y= |, v& }& ;& I% k% <% p) _$ _$ _$ _$ _$ _$ _$ _$ _$ _$ _$ S# {# z@ -@ m+ Q+ -+ $+ 0. y  `. u  N' N' _< f_ e_ d[ S< S< GZ /Z b+.>{ >{ 85 e` e` e` e` e` E..>{ >+.f+.f+.f+.f+.f+.f+.~} >{ >{ >{ ]+.e` H+ 7+.%~ %~ %~ %~ %~ %~ %~ %~ %~ %~ %~ %~ %~ %~ %~ %~ %~ %~ %~ %~ %~ %~ %~ %~ %~ %~ %~ %~ ",
"RY RY RY RY RY RY RY RY RY RY RY RY RY RY RY RY RY RY q+.;  #( #( #( #( #( #( #( #( #( #( #( #( #( #( #( #( #( #( #( #( #( #( #( #( #( #( #( #( #( #( #( #( #( #( q[ c_ d_ e_ f_ g_ B! u  v  `. ++ 0. 0. #+ -+ P+ Q+ :# ;@ z@ {# S# _$ _$ _$ _$ _$ _$ C$ /% (% g% f- K% >& o& B& aB 5; x- z- z- xB y+.}* J& yB %w hx [8 D9 xa yi `] /< }..U .                                                                                                                                                                                                                                                                                                                                                                                                                                                                                                                                                                                                                                                                                                                                                                                                                                                                                                   z+.e8 _A Z. 7e W  1j :8 ys 4w 1= Vi w- h- h- w- Y= |, t& <& =& d, j% f% p) _$ _$ _$ _$ _$ _$ _$ _$ _$ _$ _$ S# {# z@ -@ m+ Q+ -+ $+ 0. y  `. u  N' N' _< f_ e_ d[ S< S< GZ /Z b+.>{ >{ E..e` e` e` e` e` e` >{ >{ p..f+.f+.f+.p..>+.>{ >{ E..e` g..z..%~ %~ %~ %~ %~ %~ ^  .Z kJ A+.A+.A+.yZ .Z B+.%~ %~ %~ %~ %~ %~ %~ %~ %~ %~ %~ %~ %~ %~ %~ ",
"RY RY RY RY RY RY RY RY RY RY RY RY RY RY RY RY RY B+.r+.C+.#( #( #( #( #( #( #( #( #( #( #( #( #( #( #( #( #( #( #( #( #( #( #( #( #( #( #( #( #( #( #( #( #( #( q[ c_ d_ e_ f_ g_ B! u  v  `. ++ 0. 0. #+ -+ P+ Q+ :# ;@ z@ {# S# _$ _$ _$ _$ _$ _$ _$ /% &% g% f- K% >& _& A& 3A 5; x- z- z- xB Z> w, J& cB jv Dn 68 D9 xa 7e `] /< }..U .                                                                                                                                                                                                                                                                                                                                                                                                                                                                                                                                                                                                                                                                                                                                                                                                                                                                                                   z+.e8 _A Z. 7e He G! (8 -z 4w sA >- k- h- h- k- MA }, t& <& S% v% j% f% p) _$ _$ _$ _$ _$ _$ _$ _$ _$ _$ _$ S# {# z@ -@ m+ Q+ -+ $+ 0. y  `. u  N' N' _< f_ e_ d[ S< S< GZ /Z b+.>{ >{ ,+.e` e` e` e` e` e` e..>{ [+.w..D+.k+.>{ >{ >{ ]+.e` H+ %~ %~ %~ %~ %~ %~ k! kJ E+.E+.E+.E+.E+.E+.E+.E+.E+.E+.!{ RY B+.%~ %~ %~ %~ %~ %~ 7+.%~ %~ %~ %~ ",
"RY RY RY RY RY RY RY RY RY RY RY RY RY RY RY RY RY #$ r+.s+.#( #( #( #( #( #( #( #( #( #( #( #( #( #( #( #( #( #( #( #( #( #( #( #( #( #( #( #( #( #( #( #( #( #( q[ c_ d_ e_ f_ g_ B! u  v  `. ++ 0. 0. #+ -+ P+ Q+ :# ;@ z@ {# S# _$ _$ _$ _$ _$ _$ _$ H$ &% |% o% K% >& n& y& sk 5; '; h- z- bB r> [* G& F+.eA JA 68 D9 xa 7e Z. /< }..U .                                                                                                                                                                                                                                                                                                                                                                                                                                                                                                                                                                                                                                                                                                                                                                                                                                                                                                   z+.e8 _A X. 7e *f G! (8 -z &E sA 9n k- h- h- LA (- T* {, <& S% v% |g f% /% _$ _$ _$ _$ _$ _$ _$ _$ _$ _$ _$ S# {# z@ -@ m+ Q+ -+ $+ 0. y  `. u  N' N' _< f_ e_ d[ S< S< GZ /Z b+.>{ >{ >{ e` e` g..H+ d` e` e` ]+.>{ >{ >{ >{ >{ E..e` e` 7$ %~ %~ %~ %~ B+.kJ E+.E+.E+.E+.E+.E+.E+.E+.E+.E+.E+.E+.E+.E+.E+.E+.E+.%~ %~ %~ %~ |1 G+.H+.%~ %~ %~ ",
"RY RY RY RY RY RY RY RY RY RY RY RY RY RY RY RY RY .@ r+.I+.#( #( #( #( #( #( #( #( #( #( #( #( #( #( #( #( #( #( #( #( #( #( #( #( #( #( #( #( #( #( #( #( #( #( q[ c_ d_ e_ f_ g_ B! u  v  `. ++ 0. 0. #+ -+ P+ Q+ :# ;@ z@ {# S# _$ _$ _$ _$ _$ _$ _$ H$ &% |% o% h& ;& m& x& sk )> w- '; 5; (I q> <* G& IA eA JA 68 D9 xa 7e Z. /< }..U .                                                                                                                                                                                                                                                                                                                                                                                                                                                                                                                                                                                                                                                                                                                                                                                                                                                                                                   z+.e8 _A X. 7e *f G! _8 xy yA sA 9n k- h- h- LA W= S* {, :& S% v% 6% :% /% _$ _$ _$ _$ _$ _$ _$ _$ _$ _$ _$ S# {# z@ -@ m+ Q+ -+ $+ 0. y  `. u  N' N' _< f_ e_ d[ S< S< GZ /Z b+.>{ >{ >{ e` e` f..%~ %~ f= q..e` ]+.>{ >{ >{ 85 e` g..z..%~ %~ %~ .Z A+.E+.E+.E+.E+.E+.E+.E+.E+.E+.E+.E+.E+.E+.E+.E+.E+.E+.E+.E+.%~ %~ %~ |1 G+.G+.J+.%~ %~ %~ ",
"RY RY RY RY RY RY RY RY RY RY RY RY RY RY RY RY RY RY r+.C+.#( #( #( #( #( #( #( #( #( #( #( #( #( #( #( #( #( #( #( #( #( #( #( #( #( #( #( #( #( #( #( #( #( #( q[ c_ d_ e_ f_ g_ B! u  v  `. ++ 0. 0. #+ -+ P+ Q+ :# ;@ z@ {# S# _$ _$ _$ _$ _$ _$ _$ G$ &% |% o% h& =& m& x& sk h- w- h- 5; qA o> <* N& Qy eA :m 58 D9 xa Zo Z. /< }..U .                                                                                                                                                                                                                                                                                                                                                                                                                                                                                                                                                                                                                                                                                                                                                                                                                                                                                                   z+.f8 _A X. 7e *f G! 78 xy jv sA 9n k- '; h- LA W= |= ;* _& *& v% i% :% /% _$ _$ _$ _$ _$ _$ _$ _$ _$ _$ _$ S# {# z@ -@ m+ Q+ -+ $+ 0. y  `. u  N' N' _< f_ e_ d[ S< S< GZ /Z b+.>{ >{ >{ e..e` e` f= %~ %~ %~ f= H+ e` e..y..e` d` 7+.%~ %~ B+.A+.E+.E+.E+.E+.E+.E+.E+.E+.E+.E+.E+.E+.E+.E+.E+.E+.E+.E+.E+.E+.T] %~ %~ K+.G+.G+.G+.G+.%~ %~ %~ ",
"RY RY RY RY RY RY RY RY RY RY RY L+.GY GY e~ RY RY RY M+.N+.#( #( #( #( #( #( #( #( #( #( #( #( #( #( #( #( #( #( #( #( #( #( #( #( #( #( #( #( #( #( #( #( #( #( q[ c_ d_ e_ f_ g_ B! u  v  `. ++ 0. 0. #+ -+ P+ Q+ :# ;@ z@ {# S# _$ _$ _$ _$ _$ _$ _$ G$ (% |% o% I% S% (& w& sk h- w- h- h- hA o> <* 4> Qy Ou hd 58 D9 xa v# T~ /< O+.P+.                                                                                                                                                                                                                                                                                                                                                                                                                                                                                                                                                                                                                                                                                                                                                                                                                                                                                                   z+.Q+._A k) mb xa G! 78 xy UA R+.9n l- '; h- l- S+.|= JJ n& Q% v% i% =% /% _$ _$ _$ _$ _$ _$ _$ _$ _$ _$ _$ S# {# z@ -@ m+ Q+ -+ $+ 0. y  `. u  N' N' _< f_ e_ d[ S< S< GZ /Z b+.>{ >{ >{ ]+.e` e` f..f= %~ %~ %~ %~ '. g..e` f..%~ %~ %~ .Z E+.E+.E+.E+.E+.E+.E+.E+.E+.E+.E+.E+.E+.E+.E+.E+.E+.E+.E+.E+.E+.E+.k$ %~ %~ J+.G+.G+.G+.G+.%~ %~ %~ ",
"RY RY RY RY RY RY RY RY e~ T+.U+.U+.U+.U+.U+.e= RY RY o+.r+.C+.#( #( #( #( #( #( #( #( #( #( #( #( #( #( #( #( #( #( #( #( #( #( #( #( #( #( #( #( #( #( #( #( #( q[ c_ d_ e_ f_ g_ B! u  v  `. ++ 0. 0. #+ -+ P+ Q+ :# ;@ z@ {# S# _$ _$ _$ _$ _$ _$ _$ F$ (% |% o% I% *& /& v& 3A h- k- h- h- hA o> V+.O& Qy dA hd 58 D9 xa v# X. /< W+.X+.Y+.                                                                                                                                                                                                                                                                                                                                                                                                                                                                                                                                                                                                                                                                                                                                                                                                                                                                                                z+.Q+.;2 k) mb xa G! 78 xy eA Z+.9n l- '; '; l- V= |= q& n& Q% v% i% _% G$ _$ _$ _$ _$ _$ _$ _$ _$ _$ _$ _$ S# {# z@ -@ m+ Q+ -+ $+ 0. y  `. u  N' N' _< f_ e_ d[ S< S< GZ /Z b+.>{ >{ >{ 85 e` e` e` g..'. %~ %~ %~ %~ %~ c+.%~ %~ %~ `+.E+.E+.E+.E+.E+.E+.E+.E+.E+.E+.E+.E+.E+.E+.E+.E+.E+.E+.E+.E+.E+.E+. @.^  %~ K+.G+.G+.G+.G+..@.%~ %~ %~ ",
"RY RY RY RY RY RY RY E+.U+.U+.U+.U+.U+.U+.U+.U+.RY RY B+.~9 ~9 +@.#( #( #( #( #( #( #( #( #( #( #( #( #( #( #( #( #( #( #( #( #( #( #( #( #( #( #( #( #( #( #( #( q[ c_ d_ e_ f_ g_ B! u  v  `. ++ 0. 0. #+ -+ P+ Q+ :# ;@ z@ {# S# _$ _$ _$ _$ _$ _$ _$ F$ (% |% n% I% Q% l& f* 3A h- k- '; h- 4A n> _* ], =* dA hd =e Yg =f _b k) /< W+.X+.Y+.                                                                                                                                                                                                                                                                                                                                                                                                                                                                                                                                                                                                                                                                                                                                                                                                                                                                                                z+.Q+.;2 k) mb xa G! 78 zp dA *A 9n l- x- '; m- V= Q* p& /& Q% v% i% _% G$ _$ _$ _$ _$ _$ _$ _$ _$ _$ _$ _$ S# {# z@ -@ m+ Q+ -+ $+ 0. y  `. u  N' N' _< f_ e_ d[ S< S< GZ /Z b+.>{ >{ >{ ,+.e` e` e` e` e` d` 7+.%~ %~ %~ %~ %~ %~ %~  @.E+.E+.E+.E+.E+.E+.E+.E+.E+.E+.E+.E+.E+.E+.E+.E+.E+.E+.E+.E+.E+.E+.B+.%~ %~ N, G+.G+.G+.G+.|1 %~ %~ %~ ",
"RY RY RY RY RY RY  @.U+.U+.U+.U+.U+.U+.U+.U+.U+.RY RY RY @@.r+.29 #( #( #( #( #( #( #( #( #( #( #( #( #( #( #( #( #( #( #( #( #( #( #( #( #( #( #( #( #( #( #( #( q[ c_ d_ e_ f_ g_ B! u  v  `. ++ 0. 0. #+ -+ P+ Q+ :# ;@ z@ {# S# _$ _$ _$ _$ _$ _$ _$ F$ (% |% n% I% Q% ^& vy 3A h- k- '; '; 4A m> wH ], ^A :A hd =e cg bb [c k) /< W+.X+.Y+.                                                                                                                                                                                                                                                                                                                                                                                                                                                                                                                                                                                                                                                                                                                                                                                                                                                                                                z+.Q+.;2 k) mb xa G! [8 Zx :A *A Xz l- x- '; m- A; Q* p& /& P% t% 3% &% G$ _$ _$ _$ _$ _$ _$ _$ _$ _$ _$ _$ S# {# z@ -@ m+ Q+ -+ $+ 0. y  `. u  N' N' _< f_ e_ d[ S< S< GZ /Z b+.>{ >{ >{ >{ e` e` e` e` e` e` e` u+.%~ %~ %~ %~ %~ %~ E+.E+.E+.E+.E+.E+.E+.E+.E+.E+.E+.E+.E+.E+.E+.E+.E+.E+.E+.E+.E+.E+..Z %~ %~ %~ #@.G+.G+.G+.$@.%~ %~ %~ %~ ",
"RY RY RY RY RY @` U+.U+.U+.U+.U+.U+.U+.U+.U+.U+.RY RY RY .@ r+.r+.%@.#( #( #( #( #( #( #( #( #( #( #( #( #( #( #( #( #( #( #( #( #( #( #( #( #( #( #( #( #( #( #( q[ c_ d_ e_ f_ g_ B! u  v  `. ++ 0. 0. #+ -+ P+ Q+ :# ;@ z@ {# S# _$ _$ _$ _$ _$ _$ _$ E$ (% |% l% H% R% k& t& Bn h- k- '; '; Fc Qb ^* B& %A +t (A =e cg bb [c la /< W+.X+.Y+.                                                                                                                                                                                                                                                                                                                                                                                                                                                                                                                                                                                                                                                                                                                                                                                                                                                                                                z+.Q+.;2 k) Zo =f ^e 68 Zx +t &@.Xz l- x- '; l- A; =A Q& l& P% u% 3% &% F$ _$ _$ _$ _$ _$ _$ _$ _$ _$ _$ _$ S# {# z@ -@ m+ Q+ -+ $+ 0. y  `. u  N' N' _< f_ e_ d[ S< q[ GZ +L b+.>{ >{ >{ >{ e` e` e` e` e` e` e` e` 7+.%~ %~ %~ %~ %~ E+.E+.E+.E+.E+.E+.E+.E+.E+.E+.E+.E+.E+.E+.E+.E+.E+.E+.E+.E+.E+.c- %~ %~ %~ %~ #@.G+.G+.G+.7+.%~ %~ %~ %~ ",
"RY RY RY RY RY *@.U+.U+.U+.U+.U+.U+.U+.U+.U+.=@.RY RY RY RY -@.r+.r+.w) #( #( #( #( #( #( #( #( #( #( #( #( #( #( #( #( #( #( #( #( #( #( #( #( #( #( #( #( #( #( q[ c_ d_ e_ f_ g_ B! u  v  `. ++ 0. 0. #+ -+ P+ Q+ :# ;@ z@ {# S# _$ _$ _$ _$ _$ _$ _$ 8= (% P, l% H% R% ]& {, wm h- k- '; '; 4A Qb ^* t, %A +t (A 0{ cg bb Za {} /< W+.X+.Y+.                                                                                                                                                                                                                                                                                                                                                                                                                                                                                                                                                                                                                                                                                                                                                                                                                                                                                                z+.Q+.;2 k) Zo =f ^e 68 Zx +t ;z Xz l- x- x- m- yz P* |& l& P% u% 3% &% F$ _$ _$ _$ _$ _$ _$ _$ _$ _$ _$ _$ S# {# z@ -@ m+ Q+ -+ $+ 0. y  `. u  N' N' _< f_ e_ d[ S< q[ GZ 7I /Z >{ >{ >{ >{ e..e` e` e` e` e` e` e` '. %~ %~ %~ %~ %~ kJ E+.E+.E+.E+.E+.E+.E+.E+.E+.E+.E+.E+.E+.E+.E+.E+.E+.E+.E+.E+.^  %~ ;@.>@.,@.'@.G+.G+.|1 %~ %~ %~ %~ %~ ",
"RY RY RY RY  @.U+.U+.U+.U+.U+.U+.U+.U+.U+.U+.*@.RY RY RY RY )@.!@.r+.~@.#( #( #( #( #( #( #( #( #( #( #( #( #( #( #( #( #( #( #( #( #( #( #( #( #( #( #( #( #( #( q[ c_ d_ e_ f_ g_ B! u  v  `. ++ 0. 0. #+ -+ P+ Q+ :# ;@ z@ {# S# _$ _$ _$ _$ _$ _$ _$ E$ %% P, l% d, R% ]& {, Bn h- k- '; '; be $A ^* y& Jz +t tk 0{ cg bb Za {} /< W+.X+.Y+.                                                                                                                                                                                                                                                                                                                                                                                                                                                                                                                                                                                                                                                                                                                                                                                                                                                                                                z+.k~ ;2 k) v# =f ^e 68 Mz ys ;z 9n l- x- '; {@.yz P* }& l& P% u% 2% &% F$ _$ _$ _$ _$ _$ _$ _$ _$ _$ _$ _$ S# {# z@ -@ m+ Q+ -+ $+ 0. y  `. u  N' N' _< f_ e_ d[ S< q[ ]@.]K /Z >{ >{ >{ >{ ]+.e` e` e` e` e` e` e` u+.%~ %~ %~ %~ %~ ^@.E+.E+.E+.E+.E+.E+.E+.E+.E+.E+.E+.E+.E+.E+.E+.E+.E+.E+.E+.k$ %~ /@.MI MI MI >Y G+.N, %~ %~ %~ %~ %~ %~ ",
"RY RY RY @` (@.U+.U+.U+.U+.U+.U+.U+.U+.U+.U+.e= RY RY RY RY _@.U+.:@..@ #( #( #( #( #( #( #( #( #( #( #( #( #( #( #( #( #( #( #( #( #( #( #( #( #( #( #( #( #( #( q[ c_ d_ e_ f_ g_ B! u  v  `. ++ 0. 0. #+ -+ P+ Q+ :# ;@ z@ {# S# _$ _$ _$ _$ _$ _$ _$ E$ %% P, l% v% P% {& ;* wm h- k- x- x- be Iz ]* x& Jz ys tk 0n cg bb Za B! /< W+.X+.Y+.                                                                                                                                                                                                                                                                                                                                                                                                                                                                                                                                                                                                                                                                                                                                                                                                                                                                                                z+.k~ ;2 k) v# =f D9 58 hx Kz ;z Xz l- x- x- cz yz <@.1& =* P% u% 2% &% F$ _$ _$ _$ _$ _$ _$ _$ _$ _$ _$ _$ S# {# z@ -@ m+ Q+ -+ $+ 0. y  `. u  N' N' _< f_ e_ d[ S< q[ [@.]K /Z >{ >{ >{ >{ >{ >{ ]+.e` e` e` e` e` q..%~ %~ %~ %~ %~ %~ B+.A+.E+.E+.E+.E+.E+.E+.E+.E+.E+.E+.E+.E+.E+.E+.E+.E+.E+.^@./@.MI MI MI MI d9 #@.}@.%~ %~ %~ %~ %~ %~ ",
"RY RY RY T+.U+.U+.U+.U+.U+.U+.U+.U+.U+.U+.U+.GY RY RY RY |@.U+.U+.U+.U+.U+.=@.y} #( #( #( #( #( #( #( #( #( #( #( #( #( #( #( #( #( #( #( #( #( #( #( #( #( #( #( q[ c_ d_ e_ f_ g_ B! u  v  `. ++ 0. 0. #+ -+ P+ Q+ :# ;@ z@ {# S# _$ _$ _$ _$ _$ _$ _$ E$ %% P, l% v% P% ~& ;* wm h- l- Hz x- *d i> {* x& =z -z /k 6{ cg bb Za B! /< W+.X+.Y+.                                                                                                                                                                                                                                                                                                                                                                                                                                                                                                                                                                                                                                                                                                                                                                                                                                                                                                z+.k~ ;2 k) v# bb D9 58 hx -z ;z -- l- w- x- yy _- N* 1& k& N% r% 2% &% F$ _$ _$ _$ _$ _$ _$ _$ _$ _$ _$ _$ S# {# z@ -@ m+ Q+ -+ $+ 0. y  `. u  N' N' _< f_ e_ d[ S< q[ 1@.]K ;Y >{ >{ >{ >{ >{ >{ >{ 85 e` e` e` e` g..%~ %~ %~ %~ %~ %~ %~ %~ .Z GY E+.E+.E+.E+.E+.E+.E+.E+.E+.E+.E+.E+.E+.E+.E+./@.MI MI MI MI 2@.G+.o, %~ %~ %~ %~ %~ %~ %~ ",
"RY RY GY U+.U+.U+.U+.U+.U+.U+.U+.U+.U+.U+.U+.L+.RY RY GY U+.U+.U+.U+.U+.U+.U+.U+.U+.(@.tZ y} e= #( #( #( #( #( #( [..3@.3@.3@.3@.3@.3@.3@.tZ #( #( #( #( #( #( #( q[ c_ d_ e_ f_ g_ B! u  v  `. ++ 0. 0. #+ -+ P+ Q+ :# ;@ z@ {# S# _$ _$ _$ _$ _$ _$ _$ E$ $% <% l% v% P% ~& P& wm h- v- x- x- be 0X {* vA zD -z /k 6{ cg d% Za B! /< W+.X+.Y+.                                                                                                                                                                                                                                                                                                                                                                                                                                                                                                                                                                                                                                                                                                                                                                                                                                                                                                z+.k~ ;2 k) v# bb D9 =e hx  r ;z -- l- w- x- o- _- N* o& ]& N% r% 2% (% F$ _$ _$ _$ _$ _$ _$ _$ _$ _$ _$ _$ S# {# z@ -@ m+ Q+ -+ $+ 0. y  `. u  N' N' _< f_ e_ d[ S< S< 1@.]K *  >{ >{ >{ >{ >{ >{ >{ >{ 85 e` e` e` e` 7+.%~ %~ %~ %~ %~ %~ %~ %~ %~ ^@.RY  @.E+.E+.E+.E+.E+.E+.E+.E+.E+.E+.E+.4@.MI MI MI MI MI 5@.6@.%~ %~ %~ %~ %~ %~ %~ %~ ",
"RY L+.U+.U+.U+.U+.U+.U+.U+.U+.U+.U+.U+.U+.U+.RY RY L+.U+.U+.U+.U+.U+.U+.U+.U+.U+.U+.U+.7@.8@.8@.8@.8@.8@.31 9@.0@.a@.a@.a@.a@.0@.9@.9@.9@.9@.9@.9@.9@.9@.b@.c@.d@.S< c_ d_ e_ f_ g_ B! u  v  `. ++ 0. 0. #+ -+ P+ Q+ :# ;@ z@ {# S# _$ _$ _$ _$ _$ _$ _$ E$ @% <% l% A, P% !& P& wm h- v- x- x- ke *z ~* v& =z  r /k 6{ Zg d% Za B! /< W+.X+.Y+.                                                                                                                                                                                                                                                                                                                                                                                                                                                                                                                                                                                                                                                                                                                                                                                                                                                                                                z+.k~ ;2 B! v# bb <m =e Dn xy e@.-- l- w- w- yy _- ;z _& b, O% q% 2% (% E$ _$ _$ _$ _$ _$ _$ _$ _$ _$ _$ _$ S# {# z@ -@ m+ Q+ -+ $+ 0. y  `. u  N' N' _< f_ e_ d[ S< S< 1@.]K *  >{ >{ >{ >{ >{ >{ >{ >{ >{ ]+.e` e` e` q..%~ %~ %~ %~ %~ %~ %~ %~ %~ %~ %~ %~ `+.GY E+.E+.E+.E+.E+.E+.E+.E+.E+.C3 sq MI MI MI MI 1+ }@.%~ %~ %~ %~ %~ %~ %~ %~ ",
"GY U+.U+.U+.U+.U+.U+.U+.U+.U+.U+.U+.U+.U+.U+.@` |@.U+.U+.U+.U+.8@.f@.g@.H2 +L -K h@.h@.h@.h@.h@.h@.h@.h@.h@.h@.h@.h@.h@.h@.h@.h@.h@.h@.h@.h@.h@.h@.h@.h@.h@.h@.h@.S< c_ d_ e_ f_ g_ B! u  v  `. ++ 0. 0. #+ -+ P+ Q+ :# ;@ z@ {# S# _$ _$ _$ _$ _$ _$ _$ E$ $% <% l% A, N% !& q& wm h- l- x- x- ke g> w* v& =z xy Wi 6{ Zg d% Za B! /< W+.X+.Y+.                                                                                                                                                                                                                                                                                                                                                                                                                                                                                                                                                                                                                                                                                                                                                                                                                                                                                                z+.K8 ;2 B! v# bb <m =e %n zp `x -- l- w- w- yy _- ;z _& !& M% p% 2% (% E$ _$ _$ _$ _$ _$ _$ _$ _$ _$ _$ _$ S# {# z@ -@ m+ Q+ -+ $+ 0. y  `. u  N' N' _< f_ e_ d[ S< S< 1@.]K *  i@.>{ >{ >{ >{ >{ >{ >{ >{ ,+.e` e` e` g..%~ %~ %~ %~ %~ %~ %~ %~ %~ %~ %~ %~ %~ %~ .Z j@.j@.E+.E+.E+.E+.E+.E+.k@.]K E1 L4 MI MI %~ %~ %~ %~ %~ %~ %~ %~ %~ %~ ",
"U+.U+.U+.U+.U+.U+.U+.U+.U+.U+.U+.U+.U+.U+.l@.8@.d@.m@.+L n@.h@.h@.h@.h@.h@.h@.h@.h@.h@.h@.h@.h@.h@.h@.h@.h@.h@.h@.h@.h@.h@.h@.h@.h@.h@.h@.h@.h@.h@.h@.h@.h@.h@.h@.S< c_ d_ e_ f_ g_ B! u  v  `. ++ 0. 0. #+ -+ P+ Q+ :# ;@ z@ {# S# _$ _$ _$ _$ _$ _$ _$ E$ $% <% k% uy N% s, p& wm h- l- w- x- ke ay !* f* wy cy Wi 6{ Zg d% Aa B! /< W+.X+.Y+.                                                                                                                                                                                                                                                                                                                                                                                                                                                                                                                                                                                                                                                                                                                                                                                                                                                                                                z+.K8 ;2 B! v# bb Yg =e :m zp `x -- l- w- w- yy dy o@.(& !& M% p% 2% (% pd _$ _$ _$ _$ _$ _$ _$ _$ _$ _$ _$ S# {# z@ -@ m+ Q+ -+ $+ 0. y  `. u  N' N' _< f_ e_ d[ S< S< 1@.]K yM *  A2 ^9 p@.p@.q@.>{ >{ >{ >{ e` e` e` =..yZ r@.B+.%~ %~ %~ %~ %~ %~ %~ %~ %~ s@.8@.t@.]K ]K 7I d@.y} E+.E+.CA ]K ]K ]K ]K u@.MI v@.%~ %~ %~ %~ %~ %~ %~ %~ (@.",
"U+.U+.U+.U+.U+.U+.7@.8@.8@.d@.g@.w@.+L h@.h@.h@.h@.h@.h@.h@.x@.y@.nt nt &| 1r 1r &| nt z@.y@.A@.A@.A@.A@.A@.A@.A@.t~ *  x@.B@.>@.*  h@.h@.h@.h@.h@.h@.h@.h@.h@.h@.S< c_ d_ e_ f_ g_ B! u  v  `. ++ 0. 0. #+ -+ P+ Q+ :# ;@ z@ {# S# _$ _$ _$ _$ _$ _$ _$ E$ $% <% k% uy O% j& Q& wm h- l- w- w- C@.f> !* t& by cy xi 9l Ka [g g+ g_ /< W+.X+.Y+.                                                                                                                                                                                                                                                                                                                                                                                                                                                                                                                                                                                                                                                                                                                                                                                                                                                                                                z+.K8 ;2 B! v# bb cg 0n :m zp `x -- l- w- w- yy dy `x (& !& M% p% h% (% F$ _$ _$ _$ _$ _$ _$ _$ _$ _$ _$ _$ S# {# z@ -@ m+ Q+ -+ $+ 0. y  `. u  N' N' _< f_ e_ d[ S< S< 1@.]K ]K ]K ]K ]K ]K ]K ]K ]K ]K D@.n[ A2 E@.F@.F@.F@.F@.F@.F@.F@.F@.F@.G@.E@.H@.2Q ]K ]K ]K ]K ]K ]K ]K ]K k@.LY I@.]K ]K ]K ]K ]K ]K t@.MI J@.x@.-Y -g 7I ]K ]K ]K ]K ",
"h@.h@.h@.h@.h@.h@.h@.h@.h@.h@.h@.h@.h@.h@.h@.L4 I4 |t b' U! U! U! U! U! U! U! U! U! K@.F) 4$ 4$ 4$ 4$ 4$ 4$ 4$ 4$ 4$ g: n# `# `# L@.D% h@.h@.h@.h@.h@.h@.h@.h@.h@.S< c_ d_ e_ f_ g_ B! u  v  `. ++ 0. 0. #+ -+ P+ Q+ :# ;@ z@ {# S# _$ _$ _$ _$ _$ _$ _$ E$ @% <% 6% u% M% '& !y Bn h- l- w- w- &f e> M& {, M@.zp xi 9l Ka X$ `] /< /< W+.X+.Y+.                                                                                                                                                                                                                                                                                                                                                                                                                                                                                                                                                                                                                                                                                                                                                                                                                                                                                                z+.K8 ;2 B! _b bb cg 0n :m Mz `x -- m- w- w- o- R= `x (& !& 2; p% h% %% E$ _$ _$ _$ _$ _$ _$ _$ _$ _$ _$ _$ S# {# z@ -@ m+ Q+ -+ $+ 0. y  `. u  N' N' _< f_ e_ d[ S< S< 1@.]K ]K ]K ]K ]K ]K ]K ]K ]K ]K ]K ]K ]K ]K ]K ]K ]K ]K N@.]K ]K ]K ]K ]K ]K ]K ]K ]K ]K ]K ]K ]K ]K ]K ]K ]K ]K ]K ]K ]K ]K ]K ]K ]K ]K 7I O@.]K ]K ]K ]K ]K ]K ]K ]K ",
"h@.h@.h@.h@.h@.h@.h@.h@.h@.h@.h@.D% y@.2w Pj U! U! U! U! U! U! U! U! U! U! U! U! *# P@.4$ 4$ 4$ 4$ 4$ 4$ 4$ 4$ 4$ 4$ 4$ 4$ Z< `# `# Q@.h@.h@.h@.h@.h@.R@.S@.:' ;6 T@.c_ d_ e_ f_ g_ B! u  v  `. ++ 0. 0. #+ -+ P+ Q+ :# ;@ z@ {# S# _$ _$ _$ _$ _$ _$ _$ D$ @% <% 6% u% M% '& !y wm h- l- w- w- 3w xx PB Xx ~y zp xi 9l Ka M8 Z. /< /< W+.X+.Y+.                                                                                                                                                                                                                                                                                                                                                                                                                                                                                                                                                                                                                                                                                                                                                                                                                                                                                                z+.K8 ;2 B! _b bb cg 6{ 8l hx ix bi m- w- w- o- R= _, l& s, 5& $& h% %% E$ _$ _$ _$ _$ _$ _$ _$ _$ _$ _$ _$ S# {# z@ -@ m+ Q+ -+ $+ 0. y  `. u  N' N' _< f_ e_ d[ S< T@.1@.]K ]K ]K ]K ]K ]K ]K ]K ]K ]K ]K ]K ]K ]K ]K ]K ]K ]K ]K ]K ]K ]K ]K ]K ]K ]K ]K ]K ]K ]K ]K ]K ]K ]K ]K ]K ]K ]K ]K ]K ]K ]K ]K ]K ]K ]K ]K ]K ]K ]K ]K ]K ]K ]K ]K ",
"h@.h@.h@.h@.h@.h@.h@.D% y@.|t b' U! U! U! U! U! U! U! U! aA U@.U@.U@.U@.U@.U@.F) V@.V@.W@.4$ 4$ 4$ 4$ 4$ 4$ 4$ 4$ 4$ 4$ X@.`# `# `# `# Y@.h@.h@.h@.h@.n7 n7 n7 n7 Z@.c_ d_ e_ f_ g_ B! u  v  `. ++ 0. 0. #+ -+ P+ Q+ :# ;@ z@ {# S# _$ _$ _$ _$ _$ _$ _$ C$ +% <% 6% u% M% ,& z, wm h- l- w- w- 3w xx J& Xx |p Zx (8 ]~ Ka M8 Z. /< /< W+.X+.Y+.                                                                                                                                                                                                                                                                                                                                                                                                                                                                                                                                                                                                                                                                                                                                                                                                                                                                                                `@.K8 ;2 B! Zd d% cg 6{ tk Dn ix bi m- w- w- o- R= L* =* '& 5& $& h% %% E$ _$ _$ _$ _$ _$ _$ _$ _$ _$ _$ _$ S# {# z@ -@ m+ Q+ -+ $+ 0. y  `. u  N' N' _< f_ e_ d[ S<  #.1@.]K ]K ]K ]K ]K ]K ]K ]K ]K ]K ]K ]K ]K ]K ]K ]K ]K ]K ]K ]K ]K ]K ]K ]K ]K ]K ]K ]K ]K ]K ]K ]K ]K ]K ]K ]K ]K ]K ]K ]K ]K ]K ]K ]K ]K ]K ]K ]K ]K ]K ]K ]K ]K ]K ]K ",
"h@.k@.x@..#.nt &| Pj U! U! U! U! U! U! U! U! U! U! U! U! +#.@#.@#.@#.@#.@#.@#.@#.@#.@#.@#.@#.+#.##.$#.%#.&#.w! *#.{3 g) `# `# `# `# `# B@.h@.h@.h@.h@.n7 n7 n7 n7  #.c_ d_ e_ f_ g_ B! u  v  `. ++ 0. 0. #+ -+ P+ Q+ :# ;@ z@ {# S# _$ _$ _$ _$ _$ _$ _$ C$  % <% 6% r% L% ,& z, wm h- l- w- w- 3w d> J& P& YB }x (8 ]~ xb %9 Z. g_ /< W+.X+.Y+.                                                                                                                                                                                                                                                                                                                                                                                                                                                                                                                                                                                                                                                                                                                                                                                                                                                                                                `@.1V ;2 /< [c [g cg 6{ tk Dn ix bi m- w- w- o- R= K* ]& '& 5& $& g% %% E$ _$ _$ _$ _$ _$ _$ _$ _$ _$ _$ _$ S# {# z@ -@ m+ Q+ -+ $+ 0. y  `. u  N' N' _< f_ e_ d[ T@.4) 1@.]K ]K ]K ]K ]K ]K ]K ]K ]K ]K ]K ]K ]K ]K ]K ]K ]K ]K ]K ]K ]K ]K ]K ]K ]K ]K ]K ]K ]K ]K ]K ]K ]K ]K ]K ]K ]K ]K ]K ]K ]K ]K ]K ]K ]K ]K ]K ]K ]K ]K ]K ]K ]K ]K ]K ",
"U! U! U! U! U! U! U! U! U! U! U! U! U! U! U! U! U! U! U! =#.U@.U@.=#.@' -#.-#.-#.-#.-#.-#.-#.-#.Ia Ia Ia Ia Ia I, `# `# `# `# `# `# `# ;#.h@.h@.h@.h@.Xq n7 n7 o7 >#.R' d_ e_ f_ g_ B! u  v  `. ++ 0. 0. #+ -+ P+ Q+ :# ;@ z@ {# S# _$ _$ _$ _$ _$ _$ _$ C$  % <% 6% r% L% ,& 1& wm h- l- w- w- 3w d> G& P& #x }x (8 ]~ xb %9 Z. Nf /< W+.X+.Y+.                                                                                                                                                                                                                                                                                                                                                                                                                                                                                                                                                                                                                                                                                                                                                                                                                                                                                                `@.1V ;2 /< Za X$ cg 6{ /k ,#.ix  l m- k- w- o- R= K* k& '& K% o% g% %% E$ _$ _$ _$ _$ _$ _$ _$ _$ _$ _$ _$ S# {# z@ -@ m+ Q+ -+ $+ 0. y  `. u  N' N' _< f_ e_ d[ T@.'#.]7 e@ 7I ]K ]K ]K ]K ]K ]K ]K ]K ]K ]K ]K ]K ]K ]K ]K ]K ]K ]K ]K ]K ]K ]K ]K ]K ]K ^J 2Q 2Q 2Q 2Q 2Q 2Q 2Q 2Q ^1 ]K ]K ]K ]K ]K ]K ]K ]K ]K ]K ]K ]K ]K ]K ]K )#.Zp <+ ",
"U! U! U! U! U! U! U! U! U! U! U! U! U! U! U! U! U! U! U! U! Vz !#.-#.-#.-#.-#.-#.-#.-#.-#.-#.vs Ia Ia Ia Ia Ia Y< `# `# `# `# `# `# `# ~#.h@.h@.h@.h@.^Z ;6 o7 dI {#.c_ d_ e_ f_ g_ B! u  v  `. ++ 0. 0. #+ -+ P+ Q+ :# ;@ z@ {# S# _$ _$ _$ _$ _$ _$ _$ C$  % <% 6% q% '' >& 1& wm h- l- w- w- 3w b> N& p& #x |o _8 ]~ xb %9 `] B! /< W+.X+.Y+.                                                                                                                                                                                                                                                                                                                                                                                                                                                                                                                                                                                                                                                                                                                                                                                                                                                                                                `@.GS ;2 /< Za X$ +o 9l /k hd ]#. l m- w- w- o- R= ^#.]& r, K% n% |% $% 7' _$ _$ _$ _$ _$ _$ _$ _$ _$ _$ _$ S# {# z@ -@ m+ Q+ -+ $+ 0. y  `. u  N' N' _< f_ e_ d[ T@./#.np i[ i[ i[ $g Pf }p ]X )#.O@.]K ]K ]K ]K ]K ]K ]K ]K ]K ]K ]K ]K ]K ]K Qh [l `e s7 Lu Lu Lu Lu Lu Lu Lu Lu Lu |T (#.(#.(#.(#.]2 ]K ]K ]K ]K ]K ]K ]K ]K xR <+ u+ u+ u+ ",
"U! U! U! U! U! U! U! U! U! U! U! U! U! U! U! U! U! U! Vz !#.-#.-#.-#.-#.-#.-#.-#.-#.-#.-#.-#.2A Ia Ia Ia Ia Ia Y< `# `# `# `# `# `# `# `# h@.h@.h@.h@.h@.^Z ;6 n7 _#.T@.d_ e_ f_ g_ B! u  v  `. ++ 0. 0. #+ -+ P+ Q+ :# ;@ z@ {# S# _$ _$ _$ _$ _$ _$ _$ C$  % f% 6% p% K% >& :& wm h- l- k- w- 3w  , E& p& 4w hx Xg 1j Kf c$ Z. B! /< W+.X+.Y+.                                                                                                                                                                                                                                                                                                                                                                                                                                                                                                                                                                                                                                                                                                                                                                                                                                                                                                `@.GS ;2 g_ Za X$ Ka ]~ /k hd )w  l m- k- k- o- :#.J* !& >& V& n% |% @% C$ _$ _$ _$ _$ _$ _$ _$ _$ _$ _$ _$ S# {# z@ -@ m+ Q+ -+ $+ 0. y  `. u  N' N' _< f_ e_ d[ T@.<#.[#.9e i[ i[ i[ i[ i[ i[ i[ i[ r7 9e DS DS z2 XX XX XX 2P UU UU |R sp <j }#.-C |#.|#.|#.|#.|#.|#.|#.|#.|#.|#.|#.|#.|#.|#.|#.|#.|#.[q ]K ]K ]K ]K ]K xR nq u+ u+ u+ u+ u+ ",
"U! U! U! U! U! U! U! U! U! U! U! U! U! U! U! U! o~ !#.-#.-#.-#.-#.-#.-#.-#.-#.-#.-#.-#.-#.vs Ia Ia Ia Ia Ia Ia I, `# `# `# `# `# `# `# `# Y@.h@.h@.h@.h@.h@.h@.-Y 1#.Z@.d_ e_ f_ g_ B! u  v  `. ++ 0. 0. #+ -+ P+ Q+ :# ;@ z@ {# S# _$ _$ _$ _$ _$ _$ _$ C$  % f% i% p% K% S% :& wm h- l- k- w- 3w  , E& Q& 4w ow Xg 1j Kf c$ Z. B! /< W+.X+.Y+.                                                                                                                                                                                                                                                                                                                                                                                                                                                                                                                                                                                                                                                                                                                                                                                                                                                                                                `@.GS ;2 Nf Ed X$ Ka ]~ Wi hd )w  l m- k- w- o- :#.J* !& ;& V& n% |% @% _$ _$ _$ _$ _$ _$ _$ _$ _$ _$ _$ _$ S# {# z@ -@ m+ Q+ -+ $+ 0. y  `. u  N' N' _< f_ e_ d[ T@.gk uJ 2M z% 05 i[ i[ i[ m# S0 ng ng ng ng ng ng ng ng ng ng ng ng ng ng 8t }#.2#.|#.|#.|#.|#.|#.|#.|#.|#.|#.|#.|#.|#.|#.|#.|#.|#.|#.OQ d= $. k@ k@ $. qt u+ u+ u+ u+ u+ u+ ",
"U! U! U! U! U! U! U! U! U! U! U! U! U! U! U! @' -#.-#.-#.-#.-#.-#.-#.-#.-#.-#.-#.-#.-#.-#.%z Ia Ia Ia Ia Ia Ia I, `# `# `# `# `# `# `# `# ;3 h@.h@.h@.h@.h@.h@.h@.3#. #.d_ e_ f_ g_ B! u  v  `. ++ 0. 0. #+ -+ P+ Q+ :# ;@ z@ {# S# _$ _$ _$ _$ _$ _$ _$ C$ `$ f% 2% p% K% S% n& wm h- l- k- w- $w ^= E& |& 4w ow Xg G! W  J6 Z. B! /< W+.X+.Y+.                                                                                                                                                                                                                                                                                                                                                                                                                                                                                                                                                                                                                                                                                                                                                                                                                                                                                                `@.GS ;2 B! Aa M8 Ka ]~ Wi tk )w  l m- k- w- o- Q= I* s, ;& V& n% |% @% _$ _$ _$ _$ _$ _$ _$ _$ _$ _$ _$ _$ S# {# z@ -@ m+ Q+ -+ $+ 0. y  `. u  N' N' _< f_ e_ d[ T@.gk 4#.2M 2M ng [M Z& ng ng ng ng ng ng ng ng ng ng ng ng ng ng ng ng ng Y) }#.5#.|#.|#.|#.|#.|#.|#.|#.|#.|#.|#.|#.|#.|#.|#.|#.|#.|#.dR 6#.6#.$. k@ k@ k@ $. qt u+ u+ u+ u+ ",
"U! U! U! U! U! U! o~ U! U! U! U! U! U! Vz -#.-#.-#.-#.-#.-#.-#.-#.-#.-#.-#.-#.-#.-#.-#.2A Ia Ia Ia Ia Ia Ia Ia I, `# `# `# `# `# `# `# `# E@.h@.h@.h@.h@.h@.h@.h@.7#.'#.8#.e_ f_ g_ B! u  v  `. ++ 0. 0. #+ -+ P+ Q+ :# ;@ z@ {# S# _$ _$ _$ _$ _$ _$ _$ C$ Z$ f% 2% p% K% S% n& wm h- l- k- w- $w ]= C& }& %w :m 58 G! W  7e Z. B! /< W+.X+.Y+.                                                                                                                                                                                                                                                                                                                                                                                                                                                                                                                                                                                                                                                                                                                                                                                                                                                                                                   HS ;2 B! Aa c$ Ka ]~ Wi /k J* &- m- k- k- o- Q= I* '& -& I% l% |% @% _$ _$ _$ _$ _$ _$ _$ _$ _$ _$ _$ _$ S# {# z@ -@ m+ Q+ -+ $+ 0. y  `. u  N' N' _< f_ e_ d[ T@.9#.4#.2M 0#.a#.}#.}#.}#.Y) ng ng ng ng ng ng ng ng ng ng ng ng ng .O Qe }#.}#.|#.|#.|#.|#.|#.eR eR eR eR eR eR eR um |#.|#.|#.|#.|#.qk 6#.6#.k@ k@ k@ k@ k@ k@ $. u+ u+ u+ ",
"U! U! U! U! U! -#.-#.L~ U! U! U! U! @' -#.-#.-#.-#.-#.-#.-#.-#.-#.-#.-#.-#.-#.-#.-#.yt Ia Ia Ia Ia Ia Ia Ia Ia I, `# `# `# `# `# `# `# `# G@.h@.h@.h@.h@.h@.h@.h@.7#._#.b#.e_ f_ g_ B! u  v  `. ++ 0. 0. #+ -+ P+ Q+ :# ;@ z@ {# S# _$ _$ _$ _$ _$ _$ _$ _$ /% :% 2% f- K% *& m& wm h- l- w- w- 8d 0> B& z, jv :m 58 G! W  mb X. B! /< W+.X+.Y+.                                                                                                                                                                                                                                                                                                                                                                                                                                                                                                                                                                                                                                                                                                                                                                                                                                                                                                   ~..;2 B! g+ c$ Ka ]~ xi /k J* &- m- k- k- o- Q= (, '& S% I% l% |% @% _$ _$ _$ _$ _$ _$ _$ _$ _$ _$ _$ _$ S# {# z@ -@ m+ Q+ -+ $+ 0. y  `. u  N' N' _< f_ e_ d[ T@.c#.iv 2M d#.0#.e#.f#.}#.}#.g#.h#.ng ng ng ng ng ng ng $| h#.i#.}#.}#.}#.}#.}#.AR j#.Dg 6#.6#.6#.6#.6#.6#.6#.6#.6#.6#.6#.6#.6#.6#.6#.6#.#U d= k@ k@ k@ k@ k@ k@ k@ $. u+ u+ ",
"U! U! U! U! !#.-#.-#.-#.!#.o~ o~ !#.-#.-#.-#.-#.-#.-#.-#.-#.-#.-#.-#.-#.-#.-#.-#.H4 Ia Ia Ia Ia Ia Ia Ia Ia Ia I, `# `# `# `# `# `# `# `# k#.h@.l#.m#.h@.h@.h@.h@.7#.1#.5) e_ f_ g_ B! u  v  `. ++ 0. 0. #+ -+ P+ Q+ :# ;@ z@ {# S# _$ _$ _$ _$ _$ _$ _$ _$ /% =% 2% o% ,> *& l& wm h- l- k- w- 8d ~= z& 1& jv n#.%0 G! W  mb k) B! /< W+.X+.Y+.                                                                                                                                                                                                                                                                                                                                                                                                                                                                                                                                                                                                                                                                                                                                                                                                                                                                                                   ~..;2 B! `] c$ xb C8 xi Wi }u  l m- k- k- o- |x o#.,& *& ** l% |% @% _$ _$ _$ _$ _$ _$ _$ _$ _$ _$ _$ _$ S# {# z@ -@ m+ Q+ -+ $+ 0. y  `. u  N' N' _< f_ e_ d[ T@.p#.q#.2M Qj 0#.0#.r#.s#.}#.}#.}#.}#.>f .O ng ng ng Y) }#.}#.}#.}#.}#.}#.}#.i#.6#.6#.6#.6#.6#.6#.6#.6#.6#.6#.6#.6#.6#.6#.6#.6#.6#.6#.#U $. k@ k@ k@ k@ k@ k@ k@ k@ k@ +* u+ ",
"U! U! .' -#.-#.-#.-#.-#.-#.-#.-#.-#.-#.-#.-#.-#.-#.-#.-#.-#.-#.-#.-#.-#.-#.-#.-#.Ia Ia Ia Ia Ia Ia Ia Ia Ia Ia  ' `# `# `# `# `# `# `# `# ^3 h@.h@.t#.u#.v#.v#.v#.7#.3#.w#.d_ f_ g_ B! u  v  `. ++ 0. 0. #+ -+ P+ Q+ :# ;@ z@ {# S# _$ _$ _$ _$ _$ _$ _$ _$ /% =% 2% o% I% R% l& wm h- l- k- k- 8d ~= y& <& jv 8l %0 /b W  v# k) B! /< W+.X+.Y+.                                                                                                                                                                                                                                                                                                                                                                                                                                                                                                                                                                                                                                                                                                                                                                                                                                                                                                   ~..;2 B! Z. 7e Kf 1j gD xi }u Pl m- k- k- o- x#.H* >& *& q, k% [%  % :$ _$ _$ _$ _$ _$ _$ _$ _$ _$ _$ _$ S# {# z@ -@ m+ Q+ -+ $+ 0. y  `. u  N' N' _< f_ e_ d[ T@.p#.q#.2M :t y#.0#.0#.0#.z#.}#.}#.}#.}#.}#.}#.A#.g#.}#.}#.}#.B#.C#.D#.E#.F#.S0 k@ $. d= JU gu #U 6#.6#.6#.6#.6#.6#.6#.6#.6#.6#.6#.jU $. k@ k@ k@ k@ k@ k@ k@ k@ k@ k@ /+ u+ ",
"-#.-#.-#.-#.-#.-#.-#.:C 1r yt -0 %z %z Ia Ia Ia Ia %z -0 yt :C -#.-#.-#.-#.-#.2A Ia Ia Ia Ia Ia Ia Ia Ia Ia Ia `a `# `# `# `# `# `# `# `# ^3 h@.h@.G#.Y@.-Z fZ fZ H#.3#.I#.8#.f_ g_ B! u  v  `. ++ 0. 0. #+ -+ P+ Q+ :# ;@ z@ {# S# _$ _$ _$ _$ _$ _$ _$ _$ H$ =% 2% o% I% R% =* wm h- l- k- k- Pg 8> x& :& Ou 8l 0{ ^e He v# k) B! /< W+.X+.Y+.                                                                                                                                                                                                                                                                                                                                                                                                                                                                                                                                                                                                                                                                                                                                                                                                                                                                                                   ~..;2 B! X. 7e Kf G! _8 xi }u Pl m- k- k- o- {; Sr ;& *& q, k% [%  % :$ _$ _$ _$ _$ _$ _$ _$ _$ _$ _$ _$ S# {# z@ -@ m+ Q+ -+ $+ 0. y  `. u  N' N' _< f_ e_ d[ T@.J#.K#.d= d= -N L#.0#.0#.C#.}#.}#.}#.}#.}#.}#.}#.}#.}#.M#.N#.0#.0#.L#.p. k@ k@ k@ k@ k@ k@ k@ k@ k@ d= +* jU 6#.6#.6#.6#.6#.6#.gu k@ k@ k@ k@ k@ k@ k@ k@ k@ k@ k@ k@ u+ u+ ",
"-#.:C H4 yt %z Ia Ia Ia Ia Ia Ia Ia Ia Ia Ia Ia Ia Ia Ia Ia Ia Ia &| :C -#.-#.Ia Ia Ia Ia Ia Ia Ia Ia Ia Ia Ia `a `# `# `# `# `# `# `# `# ^3 h@.h@.O#.Y@.OY fZ fZ H#.3#.P#.Q#.f_ g_ B! u  v  `. ++ 0. 0. #+ -+ P+ Q+ :# ;@ z@ {# S# _$ _$ _$ _$ _$ _$ _$ _$ H$ =% 2% o% I% 4& =* wm h- l- k- k- Pg 8> >* n& Ou 8l 0{ D9 He v# k) B! /< W+.X+.Y+.                                                                                                                                                                                                                                                                                                                                                                                                                                                                                                                                                                                                                                                                                                                                                                                                                                                                                                   Dt ;2 B! k) 7e Kf G! _8 gD }u Pl m- k- k- o- {; Sr =& Q% v% k% <%  % :$ _$ _$ _$ _$ _$ _$ _$ _$ _$ _$ _$ S# {# z@ -@ m+ Q+ -+ $+ 0. y  `. u  N' N' _< f_ e_ d[ T@.J#.[#.k@ Nb n} qt 0#.0#.$v }#.}#.}#.}#.}#.}#.}#.R#.S#.0#.0#.T#.p. k@ k@ k@ k@ k@ k@ k@ %. |# |# Ea k@ k@ k@ k@ d= JU $u #U JU k@ k@ k@ k@ k@ k@ k@ k@ k@ k@ k@ k@ qt u+ u+ ",
"Ia Ia Ia Ia Ia Ia Ia Ia Ia Ia Ia Ia Ia Ia Ia Ia Ia Ia Ia Ia Ia Ia Ia Ia vs vs Ia Ia Ia Ia Ia Ia Ia Ia Ia Ia Ia Ee `# `# `# `# `# `# `# `# ^3 h@.h@.h@.{f Y@.U#.fZ H#.3#.I#.5) U' g_ B! u  v  `. ++ 0. 0. #+ -+ P+ Q+ :# ;@ z@ {# S# _$ _$ _$ _$ _$ _$ _$ _$ G$ =% 2% n% ** 4& ]& wm h- l- k- k- Pg 7> w& n& dA tk 0{ D9 He _b k) B! /< V#.X+.Y+.                                                                                                                                                                                                                                                                                                                                                                                                                                                                                                                                                                                                                                                                                                                                                                                                                                                                                                   W#.;2 B! k) 7e Kf G! 78 _8 }u Pl m- k- k- o- O= G* S% Q% v% j% <%  % :$ _$ _$ _$ _$ _$ _$ _$ _$ _$ _$ _$ S# {# z@ -@ m+ Q+ -+ $+ 0. y  `. u  N' N' _< f_ e_ d[ T@.J#.Ri n} n} n} n} y+ 0#.N#.}#.}#.}#.}#.}#.f#.X#.0#.0#.&g AM k@ k@ k@ k@ k@ k@ k@ k@ Nb n} n} n} n} n} Ea k@ k@ k@ k@ k@ k@ k@ k@ k@ k@ k@ k@ k@ k@ k@ k@ k@ k@ d= u+ u+ u+ ",
"Ia Ia Ia Ia Ia Ia Ia Ia Ia Ia Ia Ia Ia Ia Ia Ia Ia Ia Ia Ia Ia Ia Ia Ia 2A vs 2A -0 Ia Ia Ia Ia Ia Ia Ia Ia Ia 2A `# `# `# `# `# `# `# `# G@.h@.h@.h@.4# Y@.Y#.Z#.H#.3#.H#.>#.U' g_ B! u  v  `. ++ 0. 0. #+ -+ P+ Q+ :# ;@ z@ {# S# _$ _$ _$ _$ _$ _$ _$ _$ F$ =% |% m% %& P% ]& wm h- l- k- k- Pg 7> v& S& at y' 'u D9 He _b k) B! /< V#.`#.Y+.                                                                                                                                                                                                                                                                                                                                                                                                                                                                                                                                                                                                                                                                                                                                                                                                                                                                                                   Ft ;2 B! k) mb W  G! 78 _8  $.Pl m- k- k- o- O= 1p Q% P% w% j% f%  % _$ _$ _$ _$ _$ _$ _$ _$ _$ _$ _$ _$ S# {# z@ -@ m+ Q+ -+ $+ 0. y  `. u  N' N' _< f_ e_ d[ T@.J#.Ri n} n} n} n} n} FA 0#.R#.}#.}#.R#.X#.r#.0#.E#.AM k@ k@ k@ k@ k@ k@ k@ k@ k@ Nb n} n} n} n} n} n} n} n} %. k@ k@ k@ k@ k@ k@ k@ k@ k@ k@ k@ k@ k@ k@ k@ k@ u+ u+ u+ u+ ",
"Ia Ia Ia Ia Ia Ia Ia Ia Ia Ia Ia Ia Ia Ia Ia Ia Ia Ia Ia Ia Ia Ia Ia Ia Ia >u -#.-#.-0 Ia Ia Ia Ia Ia Ia Ia Ia 2A `# `# `# `# `# `# `# `# G@.h@.h@.h@.n@.Y@.Y@..$.H#.3#.H#.w#.T' g_ B! u  v  `. ++ 0. 0. #+ -+ P+ Q+ :# ;@ z@ {# S# _$ _$ _$ _$ _$ _$ _$ _$ E$ =% |% m% v% P% {& }o h- l- k- k- Pg 6> g* /& at y' 'u D9 *f [c k) B! /< +$.@$.Y+.                                                                                                                                                                                                                                                                                                                                                                                                                                                                                                                                                                                                                                                                                                                                                                                                                                                                                                   Ft ;2 B! k) 7e Kf ce 68 78 #$.Pl m- k- k- o- $$.1p Q% P% t% 6% f%  % _$ _$ _$ _$ _$ _$ _$ _$ _$ _$ _$ _$ S# {# z@ -@ m+ Q+ -+ $+ 0. y  `. u  N' N' _< f_ e_ d[ T@.J#.Ri n} n} n} n} n} n} a#.0#.0#.0#.0#.0#.0#.%$.k@ k@ k@ k@ k@ k@ k@ k@ k@ Ca n} n} n} n} n} n} n} n} n} n} n} Nb %. k@ k@ k@ k@ k@ k@ k@ k@ k@ k@ k@ k@ k@ J# u+ u+ u+ u+ ",
"Ia Ia Ia Ia Ia Ia Ia Ia Ia Ia Ia Ia Ia Ia Ia Ia Ia Ia Ia Ia Ia Ia Ia Ia Ia -0 -#.-#.1r Ia Ia Ia Ia Ia Ia @z &$.2A `# `# `# `# `# `# `# `# E@.h@.h@.h@.h@.Y@.Y@..$.*$.3#.H#.w#.=$.g_ B! u  v  `. ++ 0. 0. #+ -+ P+ Q+ :# ;@ z@ {# S# _$ _$ _$ _$ _$ _$ _$ _$ E$ =% |% l% v% M% ~& }o h- l- k- k- Pg 5> t& /& +t Wi ^~ D9 *f [c k) B! /< +$.@$.Y+.                                                                                                                                                                                                                                                                                                                                                                                                                                                                                                                                                                                                                                                                                                                                                                                                                                                                                                   Ft ;2 B! k) 7e Kf ^e 68 [8 Sr Pl m- k- k- o- $$.-$.Q% P% t% 6% f% -% _$ _$ _$ _$ _$ _$ _$ _$ _$ _$ _$ _$ S# {# z@ -@ m+ Q+ -+ $+ 0. y  `. u  N' N' _< f_ e_ d[ T@.J#.Ri n} n} n} n} n} n} Nb +V 0#.0#.0#.0#.;$.k@ k@ k@ k@ k@ k@ k@ k@ %. Nb n} n} n} n} n} n} n} n} n} n} n} n} n} n} |# k@ k@ k@ k@ k@ k@ k@ k@ k@ k@ k@ k@ u+ u+ u+ u+ u+ ",
"n. -0 Ia Ia Ia Ia Ia Ia Ia Ia Ia Ia Ia Ia Ia Ia Ia Ia Ia Ia Ia Ia Ia Ia Ia Ia 2A -#.:C Ia Ia Ia Ia @A &$.&$.&$.[s `# `# `# `# `# `# `# `# ;3 h@.h@.h@.h@.>$.]e .$.,$.3#.H#.w#.'$./< B! u  v  `. ++ 0. 0. #+ -+ P+ Q+ :# ;@ z@ {# S# _$ _$ _$ _$ _$ _$ _$ _$ E$ =% |% l% v% M% ~& wm h- l- k- k- Pg 5> t& )$.+t Wi ^~ <m *f [c la B! /< +$.@$.Y+.                                                                                                                                                                                                                                                                                                                                                                                                                                                                                                                                                                                                                                                                                                                                                                                                                                                                                                   Lt ;2 B! N' mb Kf ^e 68 58 Sr Pl m- k- k- u- QX -$.R% P% u% 6% =% Z$ _$ _$ _$ _$ _$ _$ _$ _$ _$ _$ _$ _$ S# {# z@ -@ m+ Q+ -+ $+ 0. y  `. u  N' N' _< f_ e_ d[ T@.J#.Ri n} n} n} n} n} n} n} /+ !$.0#.0#.ri k@ %. %. k@ k@ k@ k@ k@ %. n} n} n} n} n} n} n} n} n} n} n} n} n} n} n} n} n} Nb k@ k@ k@ k@ k@ k@ k@ k@ k@ k@ J# u+ u+ u+ u+ u+ ",
"=} =} j# Ia Ia Ia Ia Ia Ia Ia Ia Ia Ia Ia Ia Ia Ia Ia Ia Ia Ia Ia Ia Ia Ia Ia Ia -0 H4 Ia Ia Ia @z &$.&$.&$.&$.~$.`# `# `# `# `# `# `# `# x@.h@.h@.h@.h@.>$.{$..$.,$.3#.H#.I#.]$.f_ B! u  v  `. ++ 0. 0. #+ -+ P+ Q+ :# ;@ z@ {# S# _$ _$ _$ _$ _$ _$ _$ _$ D$ &% |% l% v% M% s, /- h- l- k- k- Pg 5> s& k& ys xi 9l Yg *f Za B! B! /< +$.@$.Y+.                                                                                                                                                                                                                                                                                                                                                                                                                                                                                                                                                                                                                                                                                                                                                                                                                                                                                                   Lt /< B! B! v# *f D9 58 58 Sr Pl m- w- k- o- $$.-$.R% ), u% 5% =% Z$ _$ _$ _$ _$ _$ _$ _$ _$ _$ _$ _$ _$ S# {# z@ -@ m+ Q+ -+ $+ 0. y  `. u  N' N' _< f_ e_ d[ T@.J#.Ri n} n} n} n} n} n} n} n} <U 0#.!$.|# n} n} n} n} Nb k@ k@ k@ n} n} n} n} n} n} n} n} n} n} n} n} n} n} n} n} n} n} n} n} k@ k@ k@ k@ k@ k@ k@ k@ $. u+ u+ u+ u+ u+ u+ ",
"=} =} =} =} -0 Ia Ia Ia Ia Ia Ia Ia Ia Ia Ia Ia Ia Ia Ia Ia Ia Ia Ia Ia Ia Ia Ia Ia Ia Ia (1 8z &$.&$.&$.&$.&$.&$.`# `# `# `# `# `# `# `# x@.h@.h@.h@.h@.2< .$..$.,$.3#.H#.I#.^$.;( B! u  v  `. ++ 0. 0. #+ -+ P+ Q+ :# ;@ z@ {# S# _$ _$ _$ _$ _$ _$ _$ _$ E$ (% |% l% v% M% j& /- h- l- k- w- Pg '= ;* ]&  r gD 9l cg *f Za B! B! /< +$.@$.Y+.                                                                                                                                                                                                                                                                                                                                                                                                                                                                                                                                                                                                                                                                                                                                                                                                                                                                                                   'w /< B! B! _b xa D9 58 58 Sr Pl m- k- w- o- QX -$.), M% &* 5% =% /% _$ _$ _$ _$ _$ _$ _$ _$ _$ _$ _$ _$ S# {# z@ -@ m+ Q+ -+ $+ 0. y  `. u  N' N' _< f_ e_ d[ T@.J#.Ri n} n} n} n} n} n} n} n} n} y+ <U n} n} n} n} n} n} |# k@ |# n} n} n} n} n} n} n} n} n} n} n} n} n} n} n} n} n} n} n} n} |# k@ k@ k@ k@ k@ k@ k@ +* u+ u+ u+ u+ u+ u+ ",
"=} =} =} =} =} F# Ia Ia Ia Ia Ia Ia Ia Ia Ia Ia Ia Ia Ia Ia Ia Ia Ia Ia Ia Ia Ia Ia Ia [s &$.&$.&$.&$.&$.&$.&$.&$.%  `# `# `# `# `# `# `# x@.h@.h@.h@.h@.C3 .$..$.,$.3#.H#.I#./#.b_ l! u  v  `. ++ 0. 0. #+ -+ P+ Q+ :# ;@ z@ {# S# _$ _$ _$ _$ _$ _$ _$ _$ 7' (% |% l% v% M% '& /$.5; l- w- w- Pg '= r& {&  r (8 ]~ cg xa Za B! B! /< +$.@$.Y+.                                                                                                                                                                                                                                                                                                                                                                                                                                                                                                                                                                                                                                                                                                                                                                                                                                                                                                   ]% /< B! B! _b *f D9 58 =e Sr [m m- k- w- o- QX 0* ), M% q% 5% *% /% _$ _$ _$ _$ _$ _$ _$ _$ _$ _$ _$ _$ S# {# z@ -@ m+ Q+ -+ $+ 0. y  `. u  N' N' _< f_ e_ d[ T@.J#.Ri n} n} n} n} n} n} n} n} n} n} n} n} n} n} n} n} n} n} |# n} n} n} n} n} n} n} n} n} n} n} n} n} n} n} n} n} n} n} n} n} n} %. k@ k@ k@ k@ $. +* u+ u+ u+ u+ u+ u+ u+ ",
"=} =} =} =} =} =} -0 Ia Ia Ia Ia Ia Ia Ia Ia Ia Ia Ia Ia Ia Ia Ia Ia Ia Ia Ia Ia Ia /@ &$.&$.&$.&$.&$.&$.&$.&$.&$.L@.`# `# `# `# `# `# `# h@.h@.h@.h@.h@..$..$..$.($.3#.H#.I#./#._$.l! u  v  `. ++ 0. 0. #+ -+ P+ Q+ :# ;@ z@ {# S# _$ _$ _$ _$ _$ _$ _$ _$ 7' (% [% j% t% M% r, /- 5; l- w- w- Pg >= q& ~&  r _8 H! cg xa Ed B! B! /< +$.@$.Y+.                                                                                                                                                                                                                                                                                                                                                                                                                                                                                                                                                                                                                                                                                                                                                                                                                                                                                                   ]% /< B! /< _b xa Yg =e =e 1p [m l- k- k- o- $$.0l O% M% q% 2% &% H$ _$ _$ _$ _$ _$ _$ _$ _$ _$ _$ _$ _$ S# {# z@ -@ m+ Q+ -+ $+ 0. y  `. u  N' N' _< f_ e_ d[ T@.J#.Ri n} n} n} n} n} n} n} n} n} n} n} n} n} n} n} n} n} n} n} n} n} n} n} n} n} n} n} n} n} n} n} n} n} n} n} n} n} n} n} n} n} Nb k@ k@ k@ k@ /+ u+ u+ u+ u+ u+ u+ u+ u+ ",
"=} =} =} =} =} =} =} Ia Ia Ia Ia Ia Ia Ia Ia Ia Ia Ia Ia Ia Ia Ia Ia Ia Ia Ia (1 ~$.&$.&$.&$.&$.&$.&$.&$.&$.&$.&$.L@.`# `# `# `# `# `# `# h@.h@.h@.h@.D% .$..$..$.($.3#.H#.I#./#.:$.V' u  v  `. ++ 0. 0. #+ -+ P+ Q+ :# ;@ z@ {# S# _$ _$ _$ _$ _$ _$ _$ _$ E$ (% [% 6% u% K% ,& /- h- l- w- w- Be 4- q& s, s% _8 1j cg xa Aa B! B! /< +$.@$.Y+.                                                                                                                                                                                                                                                                                                                                                                                                                                                                                                                                                                                                                                                                                                                                                                                                                                                                                                   ]% /< B! /< Za =f Yg 0{ 0n 1p [m l- k- k- o- $$.F* M% 2; q% 2% &% H$ _$ _$ _$ _$ _$ _$ _$ _$ _$ _$ _$ _$ S# {# z@ -@ m+ Q+ -+ $+ 0. y  `. u  N' N' _< f_ e_ d[ T@.J#.Ri n} n} n} n} n} n} n} n} n} n} n} n} n} n} n} n} n} n} n} n} n} n} n} n} n} n} n} n} n} n} n} n} n} n} n} n} n} n} n} n} n} n} Nb k@ k@ k@ $. u+ u+ u+ u+ u+ u+ u+ u+ ",
"=} =} =} =} =} =} =} <b Ia Ia Ia Ia Ia Ia Ia Ia Ia Ia Ia Ia Ia Ia Ia Ia Ia Ia &$.&$.&$.&$.&$.&$.&$.&$.&$.&$.&$.&$.u. `# `# `# `# `# `# `# h@.h@.h@.h@.N^ .$..$..$.($.3#.H#.I#./#.^$.-( s  v  `. ++ 0. 0. #+ -+ P+ Q+ :# ;@ z@ {# S# _$ _$ _$ _$ _$ _$ _$ _$ E$ %% [% 6% u% K% ,& /- h- l- k- w- Pg |q p& s, zp 78 1j Zg bb Aa B! B! /< +$.@$.Y+.                                                                                                                                                                                                                                                                                                                                                                                                                                                                                                                                                                                                                                                                                                                                                                                                                                                                                                   ]% /< B! /< Za =f Yg 0{ ^~ 1p [m l- k- k- o- $$.F* 2; 2; q% 2% &% H$ _$ _$ _$ _$ _$ _$ _$ _$ _$ _$ _$ _$ S# {# z@ -@ m+ Q+ -+ $+ 0. y  `. u  N' N' _< f_ e_ d[ T@.J#.Ri n} n} n} n} n} n} n} n} n} n} n} n} n} n} n} n} n} n} n} n} n} n} n} n} n} n} n} n} n} n} n} n} n} n} n} n} n} n} n} n} n} n} n} n} %. k@ k@ F, u+ u+ u+ u+ u+ u+ u+ ",
"=} =} =} =} =} =} =} n. Ia Ia Ia Ia Ia Ia Ia Ia Ia Ia Ia Ia Ia Ia Ia Ia Ia Ia 8z &$.&$.&$.&$.&$.&$.&$.&$.&$.&$.&$.ws %  `# `# `# `# `# Y/ h@.h@.h@.h@.<$..$..$.[$.,$.3#.H#.I#./#.^$.^S s  v  `. ++ 0. 0. #+ -+ P+ Q+ :# ;@ z@ {# S# _$ _$ _$ _$ _$ _$ _$ _$ E$ $% [% 6% u% K% >& /- h- l- k- k- Pg |q Q& s, zp [8 G! Zg bb `] B! B! /< +$.@$.Y+.                                                                                                                                                                                                                                                                                                                                                                                                                                                                                                                                                                                                                                                                                                                                                                                                                                                                                                   ]% /< B! B! Za bb cg 0n 9l 1p [m l- k- k- o- $$.8* K% K% p% 2% (% G$ _$ _$ _$ _$ _$ _$ _$ _$ _$ _$ _$ _$ S# {# z@ -@ m+ Q+ -+ $+ 0. y  `. u  N' N' _< f_ e_ d[ T@.J#.Ri n} n} n} n} n} n} n} n} n} n} n} n} n} n} n} n} n} n} n} n} n} n} n} n} n} n} n} n} n} n} n} n} n} n} n} n} n} n} n} n} n} n} n} n} n} Ea k@ k@ qt u+ u+ u+ u+ u+ u+ ",
"=} =} =} =} =} =} =} =} Ia Ia Ia Ia Ia Ia Ia Ia Ia Ia Ia Ia Ia Ia Ia Ia Ia Ia ~$.&$.&$.&$.&$.&$.&$.&$.&$.&$.&$.&$.&$.&$.E^ `# `# `# `# }$.h@.h@.h@.h@.|$..$..$./7 ,$.3#.H#.I#./#.^$.1$.r  v  `. ++ 0. 0. #+ -+ P+ Q+ :# ;@ z@ {# S# _$ _$ _$ _$ _$ _$ _$ _$ E$ @% <% 6% u% K% ;& /- h- k- k- k- Pg ;= |& '& zp 68 G! +o [g Z. /< B! /< +$.@$.Y+.                                                                                                                                                                                                                                                                                                                                                                                                                                                                                                                                                                                                                                                                                                                                                                                                                                                                                                   2$./< B! B! Za bb cg 6{ 9l 1p [m l- k- k- o- $$.8* K% K% p% 2% (% F$ _$ _$ _$ _$ _$ _$ _$ _$ _$ _$ _$ _$ S# {# z@ -@ m+ Q+ -+ $+ 0. y  `. u  N' N' _< f_ e_ d[ T@.J#.Ri n} n} n} n} n} n} n} n} n} n} n} n} n} n} n} n} n} n} n} n} n} n} n} n} n} n} n} n} n} n} n} n} n} n} n} n} n} n} n} n} n} n} n} n} n} n} k@ k@ k@ u+ u+ u+ u+ u+ u+ ",
"=} =} =} =} =} =} =} =} Ia Ia Ia Ia Ia Ia Ia Ia Ia Ia Ia Ia Ia Ia Ia Ia Ia Ia ~$.&$.&$.&$.&$.&$.&$.&$.&$.&$.&$.__ 3$.4$.&$.5$.`# `# `# y@.h@.h@.h@.h@.6$.[$./9 7$.,$.3#.H#.I#./#.^$.8$.q  v  `. ++ 0. 0. #+ -+ P+ Q+ :# ;@ z@ {# S# _$ _$ _$ _$ _$ _$ _$ _$ E$  % <% 6% &* I% S% uo !; k- k- k- Vi yp }& '& zp 68 G! Ka [g Z. /< B! /< +$.@$.Y+.                                                                                                                                                                                                                                                                                                                                                                                                                                                                                                                                                                                                                                                                                                                                                                                                                                                                                                   2$./< B! B! Za d% cg 6{ ]~ @o [m l- w- k- o- $$.7* V% K% o% 2% (% F$ _$ _$ _$ _$ _$ _$ _$ _$ _$ _$ _$ _$ S# {# z@ -@ m+ Q+ -+ $+ 0. y  `. u  N' N' _< f_ e_ d[ T@.J#.Ri n} n} n} n} n} n} n} n} n} n} n} n} n} n} n} n} n} n} n} n} n} n} n} n} n} n} n} n} n} n} n} n} n} n} n} n} n} n} n} n} n} n} n} n} n} n} k@ k@ k@ J# u+ u+ u+ u+ u+ ",
"=} =} =} =} =} =} =} j# Ia Ia Ia Ia Ia Ia Ia Ia Ia Ia Ia Ia Ia Ia Ia Ia Ia Ia ~$.&$.&$.&$.&$.&$.&$.&$.&$.&$.&$.9$.0$.0$.tI K@ `# `# _] *  h@.h@.h@.h@.a$.b$.7$.7$.,$.3#.H#.I#./#.^$.8$.o  u  `. ++ 0. 0. #+ -+ P+ Q+ :# ;@ z@ {# S# _$ _$ _$ _$ _$ _$ _$ _$ E$  % <% 6% q% I% *& uo h- k- w- k- Vi c$.[& ~, zp 68 /b Ka X$ Z. g_ B! /< +$.@$.Y+.                                                                                                                                                                                                                                                                                                                                                                                                                                                                                                                                                                                                                                                                                                                                                                                                                                                                                                   2$./< B! B! Aa d% {b ^~ ]~ @o Pl l- w- w- yy $$.7* I% K% o% 2% (% E$ _$ _$ _$ _$ _$ _$ _$ _$ _$ _$ _$ _$ S# {# z@ -@ m+ Q+ -+ $+ 0. y  `. u  N' N' _< f_ e_ d[ T@.I#.Ri n} n} n} n} n} n} n} n} n} n} n} n} n} n} n} n} n} n} n} n} n} n} n} n} n} n} n} n} n} n} n} n} n} n} n} n} n} n} n} n} n} n} n} n} n} <+ k@ k@ k@ k@ u+ u+ u+ u+ u+ ",
"=} =} =} =} =} =} =} -0 Ia Ia Ia Ia Ia Ia Ia Ia Ia Ia Ia Ia Ia Ia Ia Ia Ia Ia ~$.&$.&$.&$.&$.&$.&$.&$.&$.&$.d$.0$.0$.0$.0$.L@ m@ `# ]r h@.h@.h@.h@.h@.7$.7$.7$.7$.,$.3#.H#.I#./#.^$.8$.l  t  `. ++ 0. 0. #+ -+ P+ Q+ :# ;@ z@ {# S# _$ _$ _$ _$ _$ _$ _$ _$ D$  % <% 3% q% I% *& /- !; k- w- w- Vi := 1& ;& |o 58 ^e Ka M8 Z. B! B! /< +$.@$.Y+.                                                                                                                                                                                                                                                                                                                                                                                                                                                                                                                                                                                                                                                                                                                                                                                                                                                                                                   2$./< B! B! Aa M8 {b ^~ 7- 0l [m l- w- w- o- N= 6* I% V& o% 2% (% E$ _$ _$ _$ _$ _$ _$ _$ _$ _$ _$ _$ _$ S# {# z@ -@ m+ Q+ -+ $+ 0. y  `. u  N' N' _< f_ e_ d[ T@.H#.Ri n} n} n} n} n} n} n} n} n} n} n} n} n} n} n} n} n} n} n} n} n} n} n} n} n} n} n} n} n} n} n} n} n} n} n} n} n} n} n} n} n} n} n} n} n} |# k@ k@ k@ k@ /+ u+ u+ u+ u+ ",
"=} =} =} =} =} =} =} Ia Ia Ia Ia Ia Ia Ia Ia Ia Ia Ia Ia Ia Ia Ia Ia Ia Ia Ia &$.&$.&$.&$.&$.&$.&$.&$.&$.&$.C% 0$.0$.0$.0$.e$.~s f$.*  h@.h@.h@.h@.h@.7$.7$.7$.7$.,$.3#.H#.I#./#.^$.8$.j  s  `. ++ 0. 0. #+ -+ P+ Q+ :# ;@ z@ {# S# _$ _$ _$ _$ _$ _$ _$ _$ C$ `$ <% 3% p% I% Q% wm !; l- w- w- Vi := <& ;& |o 58 D9 Kf c$ Z. B! B! /< +$.@$.Y+.                                                                                                                                                                                                                                                                                                                                                                                                                                                                                                                                                                                                                                                                                                                                                                                                                                                                                                   2$./< B! B! `] %9 +o 9l G! 0l [m l- w- w- m- N= 5* %& I% o% h% $% E$ _$ _$ _$ _$ _$ _$ _$ _$ _$ _$ _$ _$ S# {# z@ -@ m+ Q+ -+ $+ 0. y  `. u  N' N' _< f_ e_ d[ T@.H#.Ri n} n} n} n} n} n} n} n} n} n} n} n} n} n} n} n} n} n} n} n} n} n} n} n} n} n} n} n} n} n} n} n} n} n} n} n} n} n} n} n} n} n} n} n} n} %. k@ k@ k@ k@ d= u+ u+ u+ u+ ",
"=} =} =} =} =} =} <b Ia Ia Ia Ia Ia Ia Ia Ia Ia Ia Ia Ia Ia Ia Ia Ia Ia Ia (1 &$.&$.&$.&$.&$.&$.&$.&$.&$.&$.9$.0$.0$.0$.e$.g$.h$.h$.h@.h@.h@.h@.h@.i$.7$.7$.7$.7$.,$.3#.H#.I#./#.^$.8$.g  r  `. ++ 0. 0. #+ -+ P+ Q+ :# ;@ z@ {# S# _$ _$ _$ _$ _$ _$ _$ _$ C$ `$ f% 3% f- I% Q% /- 5; l- w- w- Vi -= :& ;& j$.0{ D9 Kf J6 Z. B! B! /< +$.@$.Y+.                                                                                                                                                                                                                                                                                                                                                                                                                                                                                                                                                                                                                                                                                                                                                                                                                                                                                                   lb /< B! B! `] %9 Ka ]~ G! k$.[m l- w- w- o- <- 5* %& I% n% h% $% E$ _$ _$ _$ _$ _$ _$ _$ _$ _$ _$ _$ _$ S# {# z@ -@ m+ Q+ -+ $+ 0. y  `. u  N' N' _< f_ e_ d[ T@.H#.Ri n} n} n} n} n} n} n} n} n} n} n} n} n} n} n} n} n} n} n} n} n} n} n} n} n} n} n} n} n} n} n} n} n} n} n} n} n} n} n} n} n} n} n} n} n} Ca k@ k@ k@ k@ $. u+ u+ u+ u+ ",
"=} =} =} =} =} =} Ia Ia Ia Ia Ia Ia Ia Ia Ia Ia Ia Ia Ia Ia Ia Ia Ia Ia Ia N4 &$.&$.&$.&$.&$.&$.&$.&$.&$.__ 0$.0$.0$.l$.m$.h$.h$.h$.h@.h@.h@.h@.h@.n$.7$.7$.7$.7$.7#.3#.H#.I#./#.^$.8$.gk p  Z. ++ 0. 0. #+ -+ P+ Q+ :# ;@ z@ {# S# _$ _$ _$ _$ _$ _$ _$ _$ C$ p) f% 2% f- %& R% wm z- k- w- w- Vi .o :& =& Dn 0{ D9 Kf yi Z. B! B! /< +$.@$.Y+.                                                                                                                                                                                                                                                                                                                                                                                                                                                                                                                                                                                                                                                                                                                                                                                                                                                                                                   WS /< B! B! Z. c$ Ka ]~ E! 0l [m l- w- w- o$.N= .I %& I% n% h% $% D$ _$ _$ _$ _$ _$ _$ _$ _$ _$ _$ _$ _$ S# {# z@ -@ m+ Q+ -+ $+ 0. y  `. u  N' N' _< f_ e_ d[ T@.1#.Ri n} n} n} n} n} n} n} n} n} n} n} n} n} n} n} n} n} n} n} n} n} n} n} n} n} n} n} n} n} n} n} n} n} n} n} n} n} n} n} n} n} n} n} n} n} k@ k@ k@ k@ k@ d= u+ u+ u+ u+ ",
"=} =} =} =} =} j# Ia Ia Ia Ia Ia Ia Ia Ia Ia Ia Ia Ia Ia Ia Ia Ia Ia Ia Ia *. &$.&$.&$.&$.&$.&$.&$.&$.&$.p$.0$.0$.H4 h$.h$.h$.h$.h$.h@.h@.h@.h@.h@.n$.7$.7$.7$.7$.7#.3#.H#.I#./#.^$.8$.1g m  X. ++ 0. 0. #+ -+ P+ Q+ :# ;@ z@ {# S# _$ _$ _$ _$ _$ _$ _$ _$ _$ /% f% 2% o% v% P% Bn z- k- w- w- Cn .o n& =& Dn 0{ D9 W  7e X. B! B! /< +$.@$.Y+.                                                                                                                                                                                                                                                                                                                                                                                                                                                                                                                                                                                                                                                                                                                                                                                                                                                                                                   WS /< B! B! Z. c$ Ka ]~ D9 0l [m l- w- w- m- N= 5* %& I% m% g% $% D$ _$ _$ _$ _$ _$ _$ _$ _$ _$ _$ _$ _$ S# {# z@ -@ m+ Q+ -+ $+ 0. y  `. u  N' N' _< f_ e_ d[ T@.1#.Ri n} n} n} n} n} n} n} n} n} n} n} n} n} n} n} n} n} n} n} n} n} n} n} n} n} n} n} n} n} n} n} n} n} n} n} n} n} n} n} n} n} n} n} n} Nb k@ k@ k@ k@ k@ u+ u+ u+ u+ u+ ",
"=} =} =} =} =} -0 Ia Ia Ia Ia Ia Ia Ia Ia Ia Ia Ia Ia Ia Ia Ia Ia Ia Ia Ia &$.&$.&$.&$.&$.&$.&$.&$.&$.&$.q$.Ue oq h$.h$.h$.h$.h$.h$.^Z h@.h@.h@.h@.n$.7$.7$.7$.7$.3#.3#.H#.I#./#.^$.8$.1g i  W. A  0. 0. #+ -+ P+ Q+ :# ;@ z@ {# S# _$ _$ _$ _$ _$ _$ _$ _$ _$ /% f% 2% o% v% P% wm z- w- w- w- 9n <= m& S% %n 0n <m He 7e X. B! B! /< +$.@$.Y+.                                                                                                                                                                                                                                                                                                                                                                                                                                                                                                                                                                                                                                                                                                                                                                                                                                                                                                   WS /< B! B! Z. J6 Ka H! D9 0l [m l- w- w- m- $$.r$.t% d, m% g% $% _$ _$ _$ _$ _$ _$ _$ _$ _$ _$ _$ _$ _$ S# {# z@ -@ m+ Q+ -+ $+ 0. y  `. u  N' N' _< f_ e_ d[ T@.1#.Ri n} n} n} n} n} n} n} n} n} n} n} n} n} n} n} n} n} n} n} n} n} n} n} n} n} n} n} n} n} n} n} n} n} n} n} n} n} n} n} n} n} n} n} n} Ea k@ k@ k@ k@ J# u+ u+ u+ u+ u+ ",
"=} =} =} =} =} Ia Ia Ia Ia Ia Ia Ia Ia Ia Ia Ia Ia Ia Ia Ia Ia Ia Ia Ia Ia @A &$.&$.&$.&$.&$.&$.&$.&$.&$.s$.h$.h$.h$.h$.h$.h$.h$.h$.l#.h@.h@.h@.h@.n$.7$.7$.7$.7$.3#.3#.H#.I#./#.^$.8$.1g 1g U. @+ 0. 0. #+ -+ P+ Q+ :# ;@ z@ {# S# _$ _$ _$ _$ _$ _$ _$ _$ _$ H$ f% 2% o% v% P% wm z- w- w- w- 9n <= S& Q% %n 6{ Yg He mb k) B! B! /< +$.@$.Y+.                                                                                                                                                                                                                                                                                                                                                                                                                                                                                                                                                                                                                                                                                                                                                                                                                                                                                                   WS /< B! B! Z. J6 W  1j <m 0l [m l- w- w- o$.<- t$.(T v% l% |% @% _$ _$ _$ _$ _$ _$ _$ _$ _$ _$ _$ _$ _$ S# {# z@ -@ m+ Q+ -+ $+ 0. y  `. u  N' N' _< f_ e_ d[ T@.1#.Ri n} n} n} n} n} n} n} n} n} n} n} n} n} n} n} n} n} n} n} n} n} n} n} n} n} n} n} n} n} n} n} n} n} n} n} n} n} n} n} n} n} <+ <+ n} Ca k@ k@ k@ $. u+ u+ u+ u+ u+ u+ ",
"=} =} =} =} =} Ia Ia Ia Ia Ia Ia Ia Ia Ia Ia Ia Ia Ia Ia Ia Ia Ia Ia Ia Ia Ia Ia @z &$.&$.&$.&$.&$.&$.o# h$.h$.h$.h$.h$.h$.h$.h$.VX u$.h@.h@.h@.h@.n$.7$.7$.7$.7$.3#.3#.H#.I#./#.^$.8$.1g 1g R. g+ 0. 0. #+ -+ P+ Q+ :# ;@ z@ {# S# _$ _$ _$ _$ _$ _$ _$ _$ _$ H$ f% 2% o% A, P% wm z- w- w- w- Be *= l& R% %n 6{ cg xa bf k) B! B! /< +$.@$.Y+.                                                                                                                                                                                                                                                                                                                                                                                                                                                                                                                                                                                                                                                                                                                                                                                                                                                                                                   WS /< B! B! k) mb W  G! <m 0l [m l- w- w- o- <- v$.XA v% l% |% .% _$ _$ _$ _$ _$ _$ _$ _$ _$ _$ _$ _$ _$ S# {# z@ -@ m+ Q+ -+ $+ 0. y  `. u  N' N' _< f_ e_ d[ T@.1#.Ri n} n} n} n} n} n} |# Ea Nb n} n} n} n} n} n} n} n} n} n} n} n} n} n} n} n} n} n} n} n} n} n} n} n} n} n} n} n} n} Nb %. k@ k@ k@ k@ k@ k@ k@ k@ u+ u+ u+ u+ u+ u+ u+ ",
"=} =} =} =} =} Ia Ia Ia Ia Ia Ia Ia Ia Ia Ia Ia Ia Ia Ia Ia Ia Ia Ia Ia Ia Ia Ia Ia (1 /@ /@ @z &$.w$.h$.h$.h$.h$.h$.h$.h$.h$.x$.y$.z$.h@.h@.h@.h@.n$.7$.7$.7$.7$.3#.3#.H#.I#./#.^$.8$.1g g  P. f+ 0. 0. #+ -+ P+ Q+ :# ;@ z@ {# S# _$ _$ _$ _$ _$ _$ _$ _$ _$ F$ v' h% n% t% M% `= xm w- w- x- Be *= l& R% n#.^~ cg xa _b k) B! B! /< +$.@$.Y+.                                                                                                                                                                                                                                                                                                                                                                                                                                                                                                                                                                                                                                                                                                                                                                                                                                                                                                   ZS /< B! B! k) mb W  G! Yg 0l Pl l- w- w- o- <- A$.@T v% l% P,  % _$ _$ _$ _$ _$ _$ _$ _$ _$ _$ _$ _$ _$ S# {# z@ -@ m+ Q+ -+ $+ 0. y  `. u  N' N' _< f_ e_ d[ T@.3#.Ri n} n} n} n} n} n} |# k@ k@ k@ %. |# n} n} n} n} n} n} n} n} n} n} n} n} n} n} n} n} n} n} n} n} n} n} n} n} n} %. k@ k@ k@ k@ k@ k@ k@ k@ k@ +* u+ u+ u+ u+ u+ u+ u+ ",
"=} =} =} =} =} Ia Ia Ia Ia Ia Ia Ia Ia Ia Ia Ia Ia Ia Ia Ia Ia Ia Ia Ia Ia Ia Ia Ia Ia Ia Ia [s &$.tX h$.h$.h$.h$.h$.h$.B$.C$.D$.E$.F$.h@.h@.h@.h@.c~ 7$.7$.7$.7$.3#.3#.H#.I#./#.^$.8$.1g g  e  M+ 0. 0. #+ -+ P+ Q+ :# ;@ z@ {# S# _$ _$ _$ _$ _$ _$ _$ _$ _$ F$ =% h% l% q% L% `k B- w- w- w- >- *= =* P% n#.^~ cg xa [c k) B! B! /< +$.@$.Y+.                                                                                                                                                                                                                                                                                                                                                                                                                                                                                                                                                                                                                                                                                                                                                                                                                                                                                                   Ya /< B! B! la mb W  G! cg 0l Pl l- w- w- o- ci G$.H$.r% k% <%  % T# _$ _$ _$ _$ _$ _$ _$ _$ _$ _$ _$ _$ S# {# z@ -@ m+ Q+ -+ $+ 0. y  `. u  N' N' _< f_ e_ d[ T@.3#.Ri n} n} n} n} n} n} |# k@ k@ k@ k@ k@ k@ %. Nb n} n} n} n} n} n} n} n} n} n} n} n} n} n} n} n} n} n} n} n} n} n} Ea Ca k@ k@ k@ k@ k@ k@ k@ /+ u+ u+ u+ u+ u+ u+ u+ u+ ",
"=} =} =} =} =} <b Ia Ia Ia Ia Ia Ia Ia Ia Ia Ia Ia Ia Ia Ia Ia Ia Ia Ia Ia Ia (1 K| T0 T0 T0 I$.lA h$.h$.h$.h$.h$.VX J$.K$.L$.E$.E$.E$.h@.h@.h@.h@.h@.M$.N$.7$.7$.3#.3#.H#.I#./#.^$.8$.1g g  f  O$.A  0. #+ -+ P+ Q+ :# ;@ z@ {# S# _$ _$ _$ _$ _$ _$ _$ _$ _$ E$ =% h% l% yf L% `k B- w- w- w- 9n *= ]& P% 8l 9l Zg xa [c k) B! B! /< +$.@$.Y+.                                                                                                                                                                                                                                                                                                                                                                                                                                                                                                                                                                                                                                                                                                                                                                                                                                                                                                   Ya /< B! B! B! Zo W  G! cg 4j bi k- w- w- m- :k G$.P$.|o k% <% Z$ :$ _$ _$ _$ _$ _$ _$ _$ _$ _$ _$ _$ _$ S# {# z@ -@ m+ Q+ -+ $+ 0. y  `. u  N' N' _< f_ e_ d[ T@.3#.Ri n} n} n} n} n} n} |# k@ k@ k@ k@ k@ k@ k@ k@ k@ Ea n} n} n} n} n} n} n} n} n} n} n} n} n} n} n} n} n} n} n} n} n} n} n} Ca k@ k@ k@ k@ k@ u+ u+ u+ u+ u+ u+ u+ u+ u+ ",
"=} =} =} =} =} =} F# Ia Ia Ia Ia Ia Ia Ia Ia Ia Ia Ia Ia Ia Ia Ia Ia Ia 1t cI h$.h$.h$.h$.h$.h$.h$.h$.h$.h$.h$.Q$.R$.S$.T$.E$.E$.E$.U$.Y#.h@.h@.h@.h@.V$.W$.'Y 7$.3#.3#.H#.I#./#.^$.8$.1g g  f  b| @+ 0. #+ -+ P+ Q+ :# ;@ z@ {# S# _$ _$ _$ _$ _$ _$ _$ _$ _$ D$ =% |% l% yf '' `k B- w- w- w- >- ;O ]& P% ed ]~ Zg xa Za B! B! B! /< +$.@$.Y+.                                                                                                                                                                                                                                                                                                                                                                                                                                                                                                                                                                                                                                                                                                                                                                                                                                                                                                   Ya /< B! B! B! v# He ^e Zg 4j bi k- w- w- l- ci G$.X$.JA 6% :% Z$ _$ _$ _$ _$ _$ _$ _$ _$ _$ _$ _$ _$ _$ S# {# z@ -@ m+ Q+ -+ $+ 0. y  `. u  N' N' _< f_ e_ d[ T@.3#.Ri n} n} n} n} n} n} %. k@ k@ k@ k@ k@ k@ k@ k@ k@ k@ k@ Ea n} n} n} n} n} n} n} n} Nb n} n} n} n} n} n} n} n} n} n} n} n} %. k@ k@ k@ k@ k@ u+ u+ u+ u+ u+ u+ u+ u+ u+ ",
"=} =} =} =} =} =} =} n. -0 Ia Ia Ia Ia Ia Ia Ia Ia Ia Ia Ia Ia Ia (1 [l h$.h$.h$.h$.h$.h$.h$.h$.h$.h$.h$.f$.Y$.K$.S$.Z$.E$.E$.E$.`$.`$. %.h@.h@.h@.h@.u..W$..%.7$.3#.3#.H#.I#./#.^$.8$.1g g  f  1. e+ i+ #+ -+ P+ Q+ :# ;@ z@ {# S# _$ _$ _$ _$ _$ _$ _$ _$ _$ _$ &% |% l% j$.'' sk B- w- w- x- Be ;O ~& O% /k ]~ Ka =f Ed B! B! B! /< +$.@$.Y+.                                                                                                                                                                                                                                                                                                                                                                                                                                                                                                                                                                                                                                                                                                                                                                                                                                                                                                   {u /< B! B! B! v# He D9 ai 4j bi k- x- x- l- L= G$.bn +%.4% :% /% _$ _$ _$ _$ _$ _$ _$ _$ _$ _$ _$ _$ _$ S# {# z@ -@ m+ Q+ -+ $+ 0. y  `. u  N' N' _< f_ e_ d[ T@.7#.Ri n} n} n} n} n} Nb k@ k@ k@ k@ k@ k@ k@ k@ k@ k@ k@ k@ k@ k@ Ea n} n} n} |# %. k@ k@ %. n} n} n} n} n} n} n} n} n} n} n} k@ k@ k@ k@ k@ k@ u+ u+ u+ u+ u+ u+ u+ u+ u+ ",
"=} =} =} =} =} =} =} =} =} n. -0 Ia Ia Ia Ia Ia Ia Ia Ia Ia Ia Ia @%.h$.h$.h$.h$.h$.h$.h$.h$.h$.h$.h$.#%.$%.%%.K$.Z$.E$.E$.E$.E$.`$.`$. %.h@.h@.h@.h@.m[ W$.&%.7$.3#.3#.H#.I#./#.^$.8$.1g g  f  *%.d+ 0. #+ -+ P+ Q+ :# ;@ z@ {# S# _$ _$ _$ _$ _$ _$ _$ _$ _$ B) (% |% l% ,#.Ou  - B- x- x- x- Be ^k !& M% /k H! +o =f Ed B! B! B! /< +$.@$.Y+.                                                                                                                                                                                                                                                                                                                                                                                                                                                                                                                                                                                                                                                                                                                                                                                                                                                                                                   Ya /< B! B! B! v# *f D9 Ka Sh bi w- x- x- l- L= =%.bn -%.xi =% H$ _$ _$ _$ _$ _$ _$ _$ _$ _$ _$ _$ _$ _$ S# {# z@ -@ m+ Q+ -+ $+ 0. y  `. u  N' N' _< f_ e_ d[ T@.;%.>%.n} n} |# Ea %. k@ k@ k@ k@ k@ k@ k@ k@ k@ k@ k@ k@ k@ k@ k@ k@ k@ k@ k@ k@ k@ k@ k@ k@ k@ |# n} n} n} n} n} n} n} n} %. k@ k@ k@ k@ k@ k@ +* u+ u+ u+ u+ u+ u+ u+ u+ ",
"=} =} =} =} =} =} =} =} =} =} =} F# Ia Ia Ia Ia Ia Ia Ia Ia Ia ,%.h$.h$.h$.h$.h$.h$.h$.h$.h$.h$.h$.'%.$%.$%.)%.K$.E$.E$.E$.E$.E$.`$.`$. %.h@.h@.h@.h@.W$.W$.&%.7$.7#.3#.H#.I#./#.^$.8$.1g g  f  *%.c+ 0. i+ %+ =+ Q+ :# ;@ z@ {# S# _$ _$ _$ _$ _$ _$ _$ _$ _$ E$ %% |% 6% ZA J%  - 3; x- x- x- Be ^k !& M% y' H! Ka xa Aa B! B! B! /< +$.@$.Y+.                                                                                                                                                                                                                                                                                                                                                                                                                                                                                                                                                                                                                                                                                                                                                                                                                                                                                                   (k /< B! B! B! _b *f D9 Ka Sh bi k- x- x- l- Ac =%.;k (; ^D _% G$ _$ _$ _$ _$ _$ _$ _$ _$ _$ _$ _$ _$ _$ S# {# z@ -@ m+ Q+ -+ $+ 0. y  `. u  N' N' _< f_ e_ d[ T@.3#.!%.n} n} k@ k@ k@ k@ k@ k@ k@ k@ k@ k@ k@ k@ k@ k@ k@ k@ k@ k@ k@ k@ k@ k@ k@ k@ k@ k@ k@ k@ k@ %. n} n} n} n} n} Nb Ca k@ k@ k@ k@ k@ k@ k@ /+ u+ u+ u+ u+ u+ u+ u+ u+ ",
"=} =} =} =} =} =} =} =} =} =} =} M$ Ia Ia Ia Ia Ia Ia Ia Ia Ia @%.h$.h$.h$.h$.h$.h$.h$.h$.h$.h$.h$.~%.$%.$%.{%.K$.]%.E$.E$.E$.E$.^%.`$. %.h@.h@.h@.h@.W$.W$.K, 7$.*$.3#.H#.I#./#.^$.8$.1g g  f  *%.L+ f+ ++ Ed Z' O+ k. ;@ z@ {# S# _$ _$ _$ _$ _$ _$ _$ _$ _$ E$ $% |% 6% gd at ph 3; x- x- x- Pg ^k s, M% 08 7- Ka xa Aa B! B! B! /< +$./%.Y+.                                                                                                                                                                                                                                                                                                                                                                                                                                                                                                                                                                                                                                                                                                                                                                                                                                                                                                   (k /< B! B! /< Za xa D9 xb 4j bi w- x- x- k- ci (%._%.6z J] (% F$ _$ _$ _$ _$ _$ _$ _$ _$ _$ _$ _$ _$ _$ S# {# z@ -@ m+ Q+ -+ $+ 0. y  `. u  N' N' _< f_ e_ d[ T@.7#.:%.n} n} Ea k@ k@ k@ k@ k@ k@ k@ k@ k@ k@ k@ k@ k@ k@ k@ k@ k@ k@ k@ k@ k@ k@ k@ k@ k@ k@ k@ k@ k@ k@ |# Nb Ea k@ k@ k@ k@ k@ k@ k@ k@ k@ k@ J# u+ u+ u+ u+ u+ u+ u+ u+ ",
"=} =} =} =} =} =} =} =} =} =} F# Ia Ia Ia Ia Ia Ia Ia Ia Ia Ia [l h$.h$.h$.h$.h$.h$.h$.h$.h$.h$.h$.o# $%.$%.<%.K$.[%.E$.E$.E$.E$.^%.`$. %.h@.h@.h@.h@.(#.W$.W$.7$.}%.3#.H#.I#./#.^$.8$.1g g  f  2. 9+ 1. L. $@ b  y{ .) !+ z@ {# S# _$ _$ _$ _$ _$ _$ _$ _$ _$ D$ @% |% 6% |%.at ph D- x- x- x- Pg |j j& L% Wi 1j Ka =f Z. B! B! B! /< +$./%.1%.                                                                                                                                                                                                                                                                                                                                                                                                                                                                                                                                                                                                                                                                                                                                                                                                                                                                                                   2%./< B! B! /< Za =f <m gg Sh bi w- x- x- k- ci 3%._%.6z 4%.q' E$ _$ _$ _$ _$ _$ _$ _$ _$ _$ _$ _$ _$ _$ S# {# z@ -@ m+ Q+ -+ $+ 0. y  `. u  N' N' _< f_ e_ d[ Q#.7#.!g n} n} n} k@ k@ k@ k@ k@ k@ k@ k@ k@ k@ k@ k@ k@ k@ k@ k@ k@ k@ k@ k@ k@ k@ d= /+ /+ J# J# d= $. $. k@ k@ k@ k@ k@ k@ k@ k@ k@ k@ k@ k@ k@ d= u+ u+ u+ u+ u+ u+ u+ u+ ",
"=} =} =} =} =} =} =} =} =} j# Ia Ia Ia Ia Ia Ia Ia Ia Ia Ia Ia (1 Wq h$.h$.h$.h$.h$.h$.h$.h$.h$.'%.5%.$%.$%.$%.6%.7%.E$.E$.E$.E$.^%.`$. %.h@.h@.h@.h@.8%.W$.W$./6 9%.3#.H#.I#./#.^$.8$.1g g  f  2. 9+ 1. 1. |. b  T@ :. Ie R# {# S# _$ _$ _$ _$ _$ _$ _$ _$ _$ _$  % }% 6% `A ys ph D- x- x- x- Pg |j '& K% Wi G! Ka *6 T~ B! B! B! /< }..Q .0%.                                                                                                                                                                                                                                                                                                                                                                                                                                                                                                                                                                                                                                                                                                                                                                                                                                                                                                   `} /< B! B! /< Aa d% Q9 W  Sh bi w- '; x- l- ci (%.a%.X$.b%.7- E$ _$ _$ _$ _$ _$ _$ _$ _$ _$ _$ _$ _$ _$ S# {# z@ -@ m+ Q+ -+ $+ 0. y  `. u  N' N' _< f_ e_ d[ Q#.7#.!g ea n} n} n} %. k@ k@ k@ k@ k@ k@ k@ k@ k@ k@ k@ k@ k@ k@ k@ k@ k@ k@ d= u+ u+ u+ u+ u+ u+ u+ u+ u+ $u /+ qt d= $. k@ k@ k@ k@ k@ k@ k@ k@ $. u+ u+ u+ u+ u+ u+ u+ u+ ",
"=} =} =} =} =} =} =} =} =} Ia Ia Ia Ia (1 2w &v &v N4 Ia Ia Ia Ia c%.'%.h$.h$.h$.h$.h$.h$.@%.20 Ia d%.$%.$%.$%.)%.e%.E$.E$.E$.E$.f%.`$. %.h@.h@.h@.h@.g%.W$.W$.h%.i%.3#.H#.I#./#.^$.8$.1g g  f  2. 1. 1. 1. |. b  T@ 8  S@ ;@ {# S# _$ _$ _$ _$ _$ _$ _$ _$ _$ _$ /% [% 6% 3 .ys 0i D- x- x- x- Pg N; ,& K% :8 G! Kf X$ X. B! B! B! /< }..7..j%.                                                                                                                                                                                                                                                                                                                                                                                                                                                                                                                                                                                                                                                                                                                                                                                                                                                                                                   `} /< B! B! /< Aa d% cg W  Sh bi x- '; '; k- ci (%.a%.X$.LR /; 7' _$ _$ _$ _$ _$ _$ _$ _$ _$ _$ _$ _$ _$ S# {# z@ -@ m+ Q+ -+ $+ 0. y  `. u  N' N' _< f_ e_ d[ T@.7#.!g Cc n} n} n} n} Nb Ca k@ k@ k@ k@ k@ k@ k@ k@ k@ k@ k@ k@ k@ F, /+ u+ u+ u+ u+ u+ u+ -N $u a& #u cR cR cR -N u+ u+ u+ /+ J# $. k@ k@ k@ k@ $. u+ u+ u+ u+ u+ u+ u+ u+ ",
"=} =} =} =} =} =} =} =} <b Ia Ia Ia N4 1v 1v 1v 1v 1v 1v &v (1 Ia Ia Ia I$.T0 T0 T0 I$.(1 Ia Ia &v $%.$%.$%.$%.k%.S$.E$.E$.E$.E$.l%.`$. %.h@.h@.h@.h@.h@.m%.n%.B3 7#.3#.H#.I#./#.^$.8$.1g g  f  2. 1. 1. 1. |. b  T@ 8  _. !+ {# S# _$ _$ _$ _$ _$ _$ _$ _$ _$ _$ H$ <% 98 0' VA 0i D- '; '; '; Pg N; ,& K% 88 ce W  M8 k) B! B! B! /< }..7..j%.                                                                                                                                                                                                                                                                                                                                                                                                                                                                                                                                                                                                                                                                                                                                                                                                                                                                                                   E~ /< B! B! /< Aa X$ cg W  Sh -- x- '; '; w- N= (%.a%.X$.o%.@9 <$ _$ _$ _$ _$ _$ _$ _$ _$ _$ _$ _$ _$ _$ S# {# z@ -@ m+ Q+ -+ $+ 0. y  `. u  N' N' _< f_ e_ d[ T@.7#.!g [> n} n} n} n} n} n} k@ k@ k@ k@ k@ k@ k@ k@ k@ k@ k@ d= u+ u+ u+ u+ u+ u+ u+ p%.cR cR cR cR cR cR cR cR $u u+ u+ u+ u+ u+ u+ /+ $. k@ k@ $. u+ u+ u+ u+ u+ u+ u+ u+ ",
"=} =} =} =} =} =} =} =} Ia Ia Ia Ia 1v 1v 1v 1v 1v 1v 1v $z d%.$z q%.2w 2w 2w 2w 2w 2w 2w $z r%.$%.$%.$%.$%.$%.r%.K$.s%.E$.E$.E$.l%.`$. %.h@.h@.h@.h@.h@.t%.u%.u%.7#.3#.H#.I#./#.^$.8$.1g g  f  2. 1. 1. 1. |. b  T@ 8  5  se o! S# _$ _$ _$ _$ _$ _$ _$ _$ _$ _$ G$ ,' 4% v%._ .Cg D- '; '; '; Pg N; ,& ,, :8 ce W  se k) B! B! B! /< }..7..j%.                                                                                                                                                                                                                                                                                                                                                                                                                                                                                                                                                                                                                                                                                                                                                                                                                                                                                                   /0 /< B! B! Nf r! M8 cg He Sh -- x- h- '; w- <- (%.a%.X$.o%.ze o$ _$ _$ _$ _$ _$ _$ _$ _$ _$ _$ _$ _$ _$ S# {# z@ -@ m+ Q+ -+ $+ 0. y  `. u  N' N' _< f_ e_ d[ T@.3#.!g B% n} n} n} n} n} n} k@ k@ k@ k@ k@ k@ k@ k@ k@ $. +* u+ u+ u+ u+ u+ u+ $u cR cR cR cR cR cR cR cR cR cR u+ u+ u+ u+ u+ u+ u+ u+ u+ qt d= u+ u+ u+ u+ u+ u+ u+ u+ u+ ",
"=} =} =} =} =} =} =} Z# Ia Ia Ia N4 1v 1v 1v 1v 1v 1v r%.$%.$%.$%.$%.$%.$%.$%.$%.$%.$%.$%.$%.$%.$%.$%.$%.$%.$%.$%.%%.w%.E$.E$.E$.x%.`$. %.h@.h@.h@.h@.h@.y%.u%.u%.7#.3#.H#.I#./#.^$.8$.1g g  f  2. 1. 1. 1. |. b  T@ 8  f~ 7e 8@ S# _$ _$ _$ _$ _$ _$ _$ _$ _$ _$ F$ :% :8 6z  r ph y; '; '; h- 8d N; >& I% _8 D9 W  #t k) B! B! B! /< }..|..j%.                                                                                                                                                                                                                                                                                                                                                                                                                                                                                                                                                                                                                                                                                                                                                                                                                                                                                                   /0 l! B! B! B! Z. J6 cg xa E* -- x- h- h- w- <- z%.2 .A%.B%.rR X$ _$ _$ _$ _$ _$ _$ _$ _$ _$ _$ _$ _$ _$ S# {# z@ -@ m+ Q+ -+ $+ 0. y  `. u  N' N' _< f_ e_ d[ T@.3#.!g B% n} n} n} n} n} n} k@ k@ k@ k@ k@ k@ k@ k@ d= u+ u+ u+ $u $u C%.C%.#u cR cR cR cR cR #h D%.Dg cR cR @| u+ u+ u+ u+ u+ u+ u+ u+ u+ u+ u+ u+ u+ u+ u+ u+ u+ u+ u+ u+ ",
"=} =} =} =} =} =} =} M$ Ia Ia Ia &v 1v 1v 1v 1v 1v r%.$%.$%.$%.$%.$%.$%.$%.$%.$%.$%.$%.$%.$%.$%.$%.$%.$%.$%.$%.$%.E%.e%.E$.E$.E$.U$.`$. %.h@.h@.h@.h@.h@.F%.u%.u%.7#.3#.H#.I#./#.^$.8$.1g g  f  2. 1. 1. 1. |. b  T@ 8  _. @) 8@ S# _$ _$ _$ _$ _$ _$ _$ _$ _$ _$ E$ =% _8 G%. r Cg E- h- h- h- '- $= >& I% _8 D9 W  mb k) B! B! B! /< }..|..H%.                                                                                                                                                                                                                                                                                                                                                                                                                                                                                                                                                                                                                                                                                                                                                                                                                                                                                                   /0 l! B! B! B! Z. J6 cg w0 E* -- '; h- h- x- <- I%.LR _%.B%.tR b$ <$ _$ _$ _$ _$ _$ _$ _$ _$ _$ _$ _$ _$ S# {# z@ -@ m+ Q+ -+ $+ 0. y  `. u  N' N' _< f_ e_ d[ T@.3#.!g [> n} n} n} n} n} n} k@ k@ k@ k@ k@ k@ k@ $. u+ u+ @| cR cR cR cR cR cR cR cR cR Dg J%.J%.J%.K%.#h #u u+ u+ u+ u+ u+ u+ u+ u+ u+ u+ u+ u+ u+ u+ u+ u+ u+ u+ u+ u+ u+ ",
"=} =} =} =} =} =} n. Ia Ia Ia (1 1v 1v 1v 1v 1v 1v $%.$%.$%.$%.$%.$%.$%.$%.$%.$%.$%.$%.$%.$%.$%.$%.$%.$%.$%.$%.$%.L%.K$.E$.E$.E$.U$.`$. %.h@.h@.h@.h@.h@.F%.u%.M%.7#.3#.H#.I#./#.^$.8$.1g g  f  2. 1. 1. 1. |. b  T@ 8  5  *$ 8@ S# _$ _$ _$ _$ _$ _$ _$ _$ _$ _$ _$ =% }8 G%. r Cg y; h- h- h- '- $= =& I% _8 D9 W  Zd k) B! B! B! /< }..N%.H%.                                                                                                                                                                                                                                                                                                                                                                                                                                                                                                                                                                                                                                                                                                                                                                                                                                                                                                   /0 l! B! B! B! k) mb cg w0 E* -- '; h- h- w- ci I%.LR _%.f8 tR e$ Z@ _$ _$ _$ _$ _$ _$ _$ _$ _$ _$ _$ _$ S# {# z@ -@ m+ Q+ -+ $+ 0. y  `. u  N' N' _< f_ e_ d[ T@.3#.!g ea n} n} n} n} n} <+ k@ k@ k@ k@ k@ k@ k@ /+ u+ -N cR cR cR cR cR cR cR cR cR cR O%.J%.J%.J%.J%.D%.u+ u+ u+ u+ u+ u+ u+ u+ u+ u+ u+ u+ u+ u+ u+ u+ u+ u+ u+ u+ u+ u+ ",
"=} =} =} =} =} =} <b Ia Ia Ia 2w 1v 1v 1v 1v 1v $z $%.$%.$%.$%.$%.$%.$%.$%.$%.$%.$%.$%.$%.$%.$%.$%.$%.$%.$%.$%.$%.$%.K$.P%.E$.E$.U$.`$. %.h@.h@.h@.h@.h@.F%.GN va 7#.3#.H#.I#./#.^$.8$.1g g  f  2. 1. 1. 1. |. b  T@ 8  5  *$ 8@ S# _$ _$ _$ _$ _$ _$ _$ _$ _$ _$ _$ =% 18 A%.(T ph y; h- h- h- Pg [= =& ** &h %e He Ed B! B! B! B! /< }..Q%.R%.                                                                                                                                                                                                                                                                                                                                                                                                                                                                                                                                                                                                                                                                                                                                                                                                                                                                                                   /0 l! B! B! B! B! v# ai bb E* -- '; h- h- w- <- I%.S%._%.f8 Et A$ o$ _$ _$ _$ _$ _$ _$ _$ _$ _$ _$ _$ _$ S# {# z@ -@ m+ Q+ -+ $+ 0. y  `. u  N' N' _< f_ e_ d[ T@.3#.!g n} n} n} n} n} n} |# k@ k@ k@ k@ k@ k@ k@ J# u+ $u cR cR cR cR cR cR cR cR cR Dg K%.J%.J%.J%.T%.u+ u+ u+ u+ u+ u+ u+ u+ u+ u+ u+ u+ u+ u+ u+ u+ u+ u+ u+ u+ u+ u+ u+ ",
"=} =} =} =} =} =} Ia Ia Ia Ia 1v 1v 1v 1v 1v 1v 1v 1A $%.$%.$%.$%.$%.$%.$%.$%.$%.$%.$%.$%.$%.$%.$%.$%.$%.$%.$%.$%.$%.U%.L$.E$.E$.F$.`$.yM h@.h@.h@.h@.h@.F%.V%.va 3#.3#.H#.I#./#.^$.8$.1g g  f  2. 1. 1. 1. |. b  T@ 8  5  tg 8@ S# _$ _$ _$ _$ _$ _$ _$ _$ _$ _$ B) &% W%.A%.s% Cg E- h- h- h- Pg Qg S% v% &h %e He Aa B! B! B! B! /< }..Q%.X%.                                                                                                                                                                                                                                                                                                                                                                                                                                                                                                                                                                                                                                                                                                                                                                                                                                                                                                   A) l! B! B! B! B! v# Ka [g E* -- h- 5; h- x- <- I%.o%._%.<{ Y%._  ^% _$ _$ _$ _$ _$ _$ _$ _$ _$ _$ _$ _$ S# {# z@ -@ m+ Q+ -+ $+ 0. y  `. u  N' N' _< f_ e_ d[ T@.3#.B1 n} n} n} n} n} n} %. k@ k@ k@ k@ k@ k@ k@ qt u+ u+ cR cR cR cR cR cR cR cR cR Z%.J%.J%.J%.`%.u+ u+ u+ u+ u+ u+ u+ u+ u+ u+ u+ u+ u+ u+ u+ u+ u+ u+ u+ u+ u+ u+ u+ u+ ",
"=} =} =} =} =} =} Ia Ia Ia N4 1v 1v 1v 1v 1v 1v 1v 1v $%.$%.$%.$%.$%.$%.$%.$%.$%.$%.$%.$%.$%.$%.$%.$%.$%.$%.$%.$%.$%.E%. &.E$.E$.E$.`$.h@.h@.h@.h@.h@.h@.F%.V%.va 3#.3#.H#.I#./#.^$.8$.1g g  f  2. 1. 1. 1. |. b  T@ 8  5  S@ 8@ S# _$ _$ _$ _$ _$ _$ _$ _$ _$ _$ 7' &% .&.+&.(T Cg E- h- h- h- 8d Qg S% v% 68 cg *f Aa B! B! B! B! /< }..Q%.X%.                                                                                                                                                                                                                                                                                                                                                                                                                                                                                                                                                                                                                                                                                                                                                                                                                                                                                                   A{ l! B! B! B! B! Zd Ka X$ E* -- h- 5; 5; x- <- I%.B%.a%.<{ Et _  >, _$ _$ _$ _$ _$ _$ _$ _$ _$ _$ _$ _$ S# {# z@ -@ m+ Q+ -+ $+ 0. y  `. u  N' N' _< f_ e_ d[ T@.3#.Ri n} n} n} n} n} Nb k@ k@ k@ k@ k@ k@ k@ k@ u+ u+ u+ tK cR cR cR cR cR cR cR cR @&.J%.J%.K%.p%.u+ u+ u+ u+ u+ u+ u+ u+ u+ u+ u+ u+ u+ u+ u+ u+ u+ u+ u+ u+ u+ u+ u+ u+ ",
"=} =} =} =} =} n. Ia Ia Ia N4 1v 1v 1v 1v 1v 1v 1v 1v $z $%.$%.$%.$%.$%.$%.$%.$%.$%.$%.$%.$%.$%.$%.$%.$%.$%.$%.$%.$%.L%.K$.]%.E$.E$.`$.h@.h@.h@.h@.h@.h@.F%.#&.va 3#.3#.H#.I#./#.^$.8$.1g g  f  2. 1. 1. 1. |. b  T@ 8  5  2  8@ S# _$ _$ _$ _$ _$ _$ _$ _$ _$ _$ _$ %% W~ _%.zp Cg E- 5; 5; z- !e Qg Q% A, 68 cg *f Z. B! B! B! B! /< }..O .$&.                                                                                                                                                                                                                                                                                                                                                                                                                                                                                                                                                                                                                                                                                                                                                                                                                                                                                                   A{ l! B! B! B! /< [c Ka X$ E* -- h- z- z- x- <- I%.Bl a%.<{ %&._  d% _$ _$ _$ _$ _$ _$ _$ _$ _$ _$ _$ _$ S# {# z@ -@ m+ Q+ -+ $+ 0. y  `. u  N' N' _< f_ e_ d[ T@.3#.Ri n} n} n} n} n} k@ k@ k@ k@ k@ k@ k@ k@ qt u+ u+ u+ tK cR cR cR cR cR cR cR nj J%.J%.J%.Wp u+ u+ u+ u+ u+ u+ u+ u+ u+ u+ u+ u+ u+ u+ u+ u+ u+ u+ u+ u+ u+ u+ u+ u+ u+ ",
"=} =} =} =} =} =} Ia Ia Ia Ia 1v 1v 1v 1v 1v 1v 1v 1v 1v &&.$%.$%.$%.$%.$%.$%.$%.$%.$%.$%.$%.)A r%.$%.$%.$%.$%.$%.$%.$%.K$.*&.E$.E$.`$.h@.h@.h@.h@.h@.h@.=&.>{ va 3#.3#.H#.I#./#.^$.8$.1g g  f  2. 1. 1. 1. |. b  T@ 8  5  2  8@ S# _$ _$ _$ _$ _$ _$ _$ _$ _$ _$ C$ +% d8 8S yx Cg O; ,; z- z- !e #= Q% A, 68 cg =f k) B! B! B! B! /< }..O .$&.                                                                                                                                                                                                                                                                                                                                                                                                                                                                                                                                                                                                                                                                                                                                                                                                                                                                                                   A{ l! B! B! B! /< Za xb X$ E* 'g h- z- z- x- <- I%.Bl 2 .;~ -&.A$ ^% _$ _$ _$ _$ _$ _$ _$ _$ _$ _$ _$ _$ S# {# z@ -@ m+ Q+ -+ $+ 0. y  `. u  N' N' _< f_ e_ d[ T@.3#.Ri n} n} n} Nb k@ k@ k@ k@ k@ k@ k@ k@ qt u+ u+ u+ -N cR cR cR cR cR cR cR cR `%.J%.J%.J%.p%.u+ u+ u+ u+ u+ u+ u+ u+ u+ u+ u+ u+ u+ u+ u+ u+ u+ u+ u+ u+ u+ u+ u+ u+ u+ ",
"=} =} =} =} =} =} Ia Ia Ia Ia &v 1v 1v 1v 1v 1v 1v 1v 1v 1v r%.$%.$%.$%.$%.$%.$%.$%.$%.;&.1v 1v 1v ;&.$%.$%.$%.$%.$%.$%.%%.>&.E$.E$.,&.h@.h@.h@.h@.h@.h@.h@.'&.va 7#.3#.H#.I#./#.^$.8$.1g g  f  2. 1. 1. 1. |. b  T@ 8  5  2  V@ S# _$ _$ _$ _$ _$ _$ _$ _$ _$ _$ _$ W, )&.2 .yf ]- F- ,; z- z- !e qg Jw A, 68 cg d% k) B! B! B! B! /< }..O .$&.                                                                                                                                                                                                                                                                                                                                                                                                                                                                                                                                                                                                                                                                                                                                                                                                                                                                                                   A{ l! B! B! B! /< Za W  X$ ,g 'g h- z- z- x- <- I%.Bl 2 .;~ -&.1; o$ _$ _$ _$ _$ _$ _$ _$ _$ _$ _$ _$ _$ S# {# z@ -@ m+ Q+ -+ $+ 0. y  `. u  N' N' _< f_ e_ d[ T@.3#.Ri n} n} Nb k@ k@ k@ k@ k@ k@ k@ d= u+ u+ u+ u+ -N cR cR cR cR cR cR cR cR cR !&.J%.J%.Z% u+ u+ u+ u+ u+ u+ u+ u+ u+ u+ u+ u+ u+ u+ u+ u+ u+ u+ u+ u+ u+ u+ u+ u+ u+ u+ ",
"=} =} =} =} =} =} -0 Ia Ia Ia (1 1v 1v 1v 1v 1v 1v 1v 1v 1v $z $%.$%.$%.$%.$%.$%.$%.$%.1v 1v 1v 1v 1v r%.$%.$%.$%.$%.$%.)%.S$.E$.E$.~&.h@.h@.h@.h@.h@.h@.h@.{&.va 7#.3#.H#.I#./#.^$.8$.1g g  f  2. 1. 1. 1. |. b  T@ 8  5  2  V@ S# _$ _$ _$ _$ _$ _$ _$ _$ _$ _$ _$ +> k9 2 .yf ]- F- ,; z- z- !e ;g P% u% 0{ Ka [g k) B! B! B! B! /< }..O .$&.                                                                                                                                                                                                                                                                                                                                                                                                                                                                                                                                                                                                                                                                                                                                                                                                                                                                                                   A{ l! B! B! B! /< Ed *f c$ Fd -- h- z- z- x- :k ]&.Bl LR >~ -&.A$ d% _$ _$ _$ _$ _$ _$ _$ _$ _$ _$ _$ _$ S# {# z@ -@ m+ Q+ -+ $+ 0. y  `. u  N' N' _< f_ e_ d[ T@.3#.Ri n} n} k@ k@ k@ k@ k@ k@ F, u+ u+ u+ u+ u+ p%.cR cR cR cR cR cR cR cR cR cR J%.K%.D%.cR u+ u+ u+ u+ u+ u+ u+ u+ u+ u+ u+ u+ u+ u+ u+ u+ u+ u+ u+ u+ u+ u+ u+ u+ u+ u+ ",
"=} =} =} =} =} =} Z# Ia Ia Ia Ia 1v 1v 1v 1v 1v 1v 1v 1v 1v 1v ;&.$%.$%.$%.$%.$%.$%.9z 1v 1v 1v 1v 1v d%.$%.$%.$%.$%.$%.^&.K$.]%.E$./&.h@.h@.h@.h@.h@.h@.h@.{&.va 7#.3#.H#.I#./#.^$.8$.1g g  f  2. 1. 1. 1. |. b  T@ 8  5  (. >@ S# _$ _$ _$ _$ _$ _$ _$ _$ _$ _$ _$ o' 4{ 2 .|o ]- ;; z- z- z- !e ;g P% u% 0{ Ka M8 k) B! B! B! B! /< }..O .(&.                                                                                                                                                                                                                                                                                                                                                                                                                                                                                                                                                                                                                                                                                                                                                                                                                                                                                                   A{ l! B! B! B! /< Aa xa c$ E* 'g h- z- z- '; <- _&.Bl LR  { -&.<  A$ ^% A# <$ _$ _$ _$ _$ _$ _$ _$ _$ _$ S# {# z@ -@ m+ Q+ -+ $+ 0. y  `. u  N' N' _< f_ e_ d[ T@.;%.Ri n} %. k@ k@ k@ k@ k@ /+ u+ u+ u+ u+ $u #u cR cR cR cR cR cR cR cR cR cR nj :&.nj cR cR u+ u+ u+ u+ u+ u+ u+ u+ u+ u+ u+ u+ u+ u+ u+ u+ u+ u+ u+ u+ u+ u+ u+ u+ u+ u+ ",
"=} =} =} =} =} =} n. Ia Ia Ia Ia (1 1v 1v 1v 1v 1v 1v 1v 1v 1v $z $%.$%.$%.$%.$%.$%.1v 1v 1v 1v 1v 1v 1v r%.$%.$%.$%.$%.<&.K$.[&.E$.OH h@.h@.h@.h@.h@.h@.}&.|&.1&.7#.3#.H#.I#./#.^$.8$.1g g  f  2. 1. 1. 1. |. b  T@ 8  5  (. d$ S# _$ _$ _$ _$ _$ _$ _$ _$ _$ _$ _$ !b k9 2 .yf Sf ;; z- z- z- !e ;g P% u% C' Ka %9 k) B! B! B! B! /< }..O .2&.                                                                                                                                                                                                                                                                                                                                                                                                                                                                                                                                                                                                                                                                                                                                                                                                                                                                                                   A{ l! B! B! B! g_ Aa =f c$ 7* ;- ~; z- z- '; 3&.4&.5&.LR  { E. <  <  5+ 1; n$ ^% g# <$ _$ _$ _$ _$ _$ _$ S# {# z@ -@ m+ Q+ -+ $+ 0. y  `. u  N' N' _< f_ e_ d[ T@.;%.Ri Nb k@ k@ k@ k@ k@ +* u+ u+ u+ -N #u cR cR cR cR cR cR cR cR cR cR cR cR Dg Dg cR cR cR p%.u+ u+ u+ u+ u+ u+ u+ u+ u+ u+ u+ u+ u+ u+ u+ u+ u+ u+ u+ u+ u+ u+ u+ u+ u+ ",
"=} =} =} =} =} =} =} M$ Ia Ia Ia Ia (1 2w &v 1v 1v 1v 1v 1v 1v 1v r%.$%.$%.$%.$%.)A 1v 1v 1v 1v 1v 1v 1v r%.$%.$%.$%.$%.<%.K$.7%.E$.CY h@.h@.h@.h@.h@.R@.|&.|&.)X 7#.3#.H#.I#./#.^$.8$.1g g  f  2. 1. 1. 1. |. b  T@ 8  5  f~ d$ S# _$ _$ _$ _$ _$ _$ _$ _$ _$ _$ _$ AK k9 2 .j$..g ;; z- z- z- !e ;g N% q% C' Ka yi k) B! B! B! B! /< }..6&.7&.                                                                                                                                                                                                                                                                                                                                                                                                                                                                                                                                                                                                                                                                                                                                                                                                                                                                                                   A{ l! B! B! B! B! Aa d% c$ Fd >- ~; z- z- i- :k 4&.5&.LR Kd _  <  <  <  <  _  _  A$ g& Z@ _$ _$ _$ _$ _$ S# {# z@ -@ m+ Q+ -+ $+ ++ `. `. u  N' N' _< f_ e_ d[ T@.;%.Ri %. k@ k@ k@ k@ +* u+ u+ u+ -N cR cR cR cR cR cR cR cR cR cR cR cR cR cR cR cR cR cR cR #u u+ u+ u+ u+ u+ u+ u+ u+ u+ u+ u+ u+ u+ u+ u+ u+ u+ u+ u+ u+ u+ u+ u+ u+ u+ ",
"=} =} =} =} =} =} =} <b Ia Ia Ia Ia Ia Ia Ia &v 1v 1v 1v 1v 1v 1v 9z $%.$%.$%.$%.$%.r%.d%.1v 1v 1v 1v 1v ;&.$%.$%.$%.$%.$%.K$.e%.E$.8&.h@.h@.h@.h@.h@.9&.|&.|&.|&.0&.3#.H#.I#./#.^$.8$.1g g  f  2. 1. 1. 1. |. b  T@ 8  5  f~ d$ S# _$ _$ _$ _$ _$ _$ _$ _$ _$ _$ <$ *f k9 2 .a&.]- ;; z- z- z- !e Tf O% p% ^~ xb mb k) B! B! B! B! /< }..b&.c&.                                                                                                                                                                                                                                                                                                                                                                                                                                                                                                                                                                                                                                                                                                                                                                                                                                                                                                   A{ l! B! B! B! B! Z. M8 b$ Fd >- z- A-  > h- :k 4&.5&.LR Lf <  <  <  <  <  <  <  <  <  g& g# _$ _$ _$ _$ S# {# z@ -@ m+ Q+ -+ $+ M+ ^u Y. v  N' N' _< f_ e_ d[ T@.3#.Ri k@ k@ k@ k@ /+ u+ u+ u+ u+ @| cR cR cR cR cR cR cR cR cR cR cR cR cR cR cR cR cR cR cR cR $u u+ u+ u+ u+ u+ u+ u+ u+ u+ u+ u+ u+ u+ u+ u+ u+ u+ u+ u+ u+ u+ u+ u+ u+ ",
"=} =} =} =} =} =} =} j# Ia Ia Ia Ia Ia Ia Ia &v 1v 1v 1v 1v 1v 1v $z $%.$%.$%.$%.$%.$%.$%.9z 1v 1v 1v 1v 9z $%.$%.$%.$%.$%.K$. &.d&.e&.h@.h@.h@.h@.vi |&.|&.|&.|&.f&.3#.H#.I#./#.^$.8$.1g g  f  2. 1. 1. 1. |. b  T@ 8  5  f~ _# `@ _$ _$ _$ _$ _$ _$ _$ _$ _$ _$ <$ bb <{ 2 .a&.]- ;; z- z- z- !e g- M% p% ^~ W  _b k) B! B! B! B! /< }..b&.c&.                                                                                                                                                                                                                                                                                                                                                                                                                                                                                                                                                                                                                                                                                                                                                                                                                                                                                                   A{ l! B! B! B! B! Z. M8 b$ Fd >- z- A- A- h- ci g&.5&.LR rR <  <  <  <  <  <  <  <  <  <  ^% A# _$ _$ _$ S# {# z@ -@ m+ Q+ -+ $+ b| O. W. v  N' N' _< f_ e_ d[ T@.3#.h&.k@ k@ k@ $. u+ u+ u+ u+ u+ cR cR cR cR cR cR cR cR cR cR cR cR eu D1 cR cR cR cR cR cR cR cR u+ u+ u+ u+ u+ u+ u+ u+ u+ u+ u+ u+ u+ u+ u+ u+ u+ u+ u+ u+ u+ u+ u+ u+ ",
"=} =} =} =} =} =} =} n. Ia Ia Ia Ia Ia Ia (1 1v 1v 1v 1v 1v 1v 1v 1v $%.$%.$%.$%.$%.$%.$%.$%.d%.1v 1v 1v 1v $%.$%.$%.$%.$%.U%.K$.|&.h@.h@.h@.h@.^Z i&.|&.|&.|&.|&.f&.3#.H#.I#./#.^$.8$.1g g  f  2. 1. 1. 1. |. b  T@ 8  5  f~ _# {# _$ _$ _$ _$ _$ _$ _$ _$ _$ _$ B# $) <{ j&.j$.{- ;; A- A-  > &f g- M% p% ^~ W  [c k) B! B! B! B! /< }..b&.c&.                                                                                                                                                                                                                                                                                                                                                                                                                                                                                                                                                                                                                                                                                                                                                                                                                                                                                                   A{ l! B! B! B! B! Z. c$ 7e 7* >- z- 4; 4; h- ci k&.}{ B%.rR <  <  <  <  <  <  <  <  <  <  $* Z@ _$ _$ _$ S# {# z@ -@ m+ Q+ -+ m! L+ f   h u  N' N' _< f_ e_ c_  #.3#.h&.k@ k@ k@ u+ u+ u+ u+ u+ u+ cR cR cR cR cR cR cR cR cR cR cR  S l&.l&.m&.cR cR cR cR cR cR cR #u -N u+ u+ u+ u+ u+ u+ u+ u+ u+ u+ u+ u+ u+ u+ u+ u+ u+ u+ u+ u+ u+ u+ ",
"=} =} =} =} =} =} =} n. Ia Ia Ia Ia Ia Ia &v 1v 1v 1v 1v 1v 1v 1v 1v r%.$%.$%.$%.$%.$%.$%.$%.r%.1v 1v 1v 1v 9z $%.$%.$%.$%.n&.o&.#. h@.h@.h@.h@.F@ |&.|&.|&.|&.|&.f&.3#.H#.I#./#.^$.8$.1g g  f  2. 1. 1. 1. |. b  T@ 8  5  5  zm {# _$ _$ _$ _$ _$ _$ _$ _$ _$ _$ A# 0V ;~ p&.a&.{- H- 4; A-  > &f g- M% f- ^~ W  Za la B! B! B! B! /< }..b&.c&.                                                                                                                                                                                                                                                                                                                                                                                                                                                                                                                                                                                                                                                                                                                                                                                                                                                                                                   A{ l! B! B! B! B! k) J6 bf Fd >- z- B- 4; h- ci k&.}{ B%.Bt 1  <  <  <  <  <  <  <  <  <  A$ #& _$ _$ _$ S# {# z@ -@ m+ Q+ -+ Ed L. 3. U. u  N' N' _< f_ e_ S< q&.0&.h&.k@ k@ d= u+ u+ u+ u+ u+ u+ cR cR cR cR cR cR cR cR cR cR cR r&.l&.l&.l&.r&.cR cR cR cR cR cR cR cR #u #u tK $u u+ u+ u+ u+ u+ u+ u+ u+ u+ u+ u+ u+ u+ u+ u+ u+ u+ u+ ",
"=} =} =} =} =} j# -0 Ia Ia Ia Ia Ia Ia &v 1v 1v 1v 1v 1v 1v 1v 1v 1v ;&.$%.$%.$%.$%.$%.$%.$%.$%.1v 1v 1v 1v 1v r%.$%.$%.s&.t&.t&.u&.hI h@.h@.vi |&.|&.|&.|&.|&.|&.f&.3#.H#.I#./#.^$.8$.1g g  f  2. 1. 1. 1. |. b  T@ 8  5  (. zm {# _$ _$ _$ _$ _$ _$ _$ _$ _$ _$ A# 1; K8 p&.v&.{- H- 4; 4; B- &f g- '' o% ^~ W  Aa B! B! B! B! B! /< }..b&.c&.                                                                                                                                                                                                                                                                                                                                                                                                                                                                                                                                                                                                                                                                                                                                                                                                                                                                                                   A{ l! B! B! B! B! k) mb @) Fd >- z- B- B- h- ci k&.}{ B%.tR 1  <  <  <  <  <  <  <  <  <  <  o$ _$ _$ _$ S# {# z@ -@ m+ Q+ -+ Bf L. e  S. k) (< N' _< f_ d_ w&.0&.0&.h&.k@ $. u+ u+ u+ u+ u+ u+ u+ cR cR cR cR cR cR cR cR cR cR eu l&.l&.l&.l&.l&.Dg cR cR cR cR cR cR cR cR cR cR cR p%.u+ u+ u+ u+ u+ u+ u+ u+ u+ u+ u+ u+ u+ u+ u+ u+ u+ ",
"=} =} j# -0 Ia Ia Ia Ia Ia Ia Ia Ia N4 1v 1v 1v 1v 1v 1v 1v 1v 1v 1v 1v 1v 9z 1A $%.$%.$%.$%.9z 1v 1v 1v 1v 1v 1v r%.$%.x&.t&.t&.|&.hI R@.y&.|&.|&.|&.|&.|&.|&.|&.f&.3#.H#.I#./#.^$.8$.1g g  f  2. 1. 1. 1. |. b  T@ 8  5  f~ b$ {# _$ _$ _$ _$ _$ _$ _$ _$ _$ _$ A# A$  { d8 z&.@- H- B- B- B- &f g- K% o% H! W  xc B! B! B! B! B! /< }..b&.c&.                                                                                                                                                                                                                                                                                                                                                                                                                                                                                                                                                                                                                                                                                                                                                                                                                                                                                                   A{ l! B! B! B! B! B! mb @) Fd >- z- B- B- h- ci k&.}{ f8 Et 1  <  <  <  <  <  <  <  <  <  <  o$ _$ _$ _$ S# {# z@ -@ m+ Q+ %+ aS 1. e  A&.s  }d N' _< f_ d_  #.7#.0&.h&.$. +* u+ u+ u+ u+ u+ u+ u+ cR cR cR cR cR cR cR cR cR  S l&.l&.l&.l&.l&.l&.l&.cR cR cR cR cR cR cR cR cR cR cR cR p%.u+ u+ u+ u+ u+ u+ u+ u+ u+ u+ u+ u+ u+ u+ u+ u+ ",
"<b Ia Ia Ia Ia Ia Ia Ia Ia Ia Ia Ia 2w 1v 1v 1v 1v 1v 1v 1v 1v 1v 1v 1v 1v 1v 1v 1v 1v 1v 1v 1v 1v 1v 1v 1v 1v 1v 1v r%.x&.t&.t&.|&.|&.|&.|&.|&.|&.|&.|&.|&.|&.|&.f&.3#.H#.I#./#.^$.8$.1g g  f  2. 1. 1. 1. |. b  T@ 8  5  f~ sg {# _$ _$ _$ _$ _$ _$ _$ _$ _$ _$ A# _  rR d8 z&.@- H- B- B- B- &f 3e 5& n% H! W  Z. B! B! B! B! B! /< }..b&.c&.                                                                                                                                                                                                                                                                                                                                                                                                                                                                                                                                                                                                                                                                                                                                                                                                                                                                                                   A{ l! B! B! B! B! B! _b v# Fd >-  > B- B- z- <- k&.>~ f8 Y%.1  <  <  <  <  <  <  <  <  <  ]. ^% _$ _$ _$ S# {# z@ -@ m+ Q+ %+ $@ 1. e  Q. s  }d N' _< f_ 8#.B&.7#.0&..e u+ u+ u+ u+ u+ u+ u+ u+ u+ cR cR cR cR cR cR cR cR )2 l&.l&.l&.l&.l&.l&.l&.l&.D1 cR cR cR cR cR cR cR cR cR cR cR cR @| C%.a& $u u+ u+ u+ u+ u+ u+ u+ u+ u+ u+ u+ u+ ",
"Ia Ia Ia Ia Ia Ia Ia Ia Ia Ia Ia Ia Ia 2w 1v 1v 1v 1v 1v 1v 1v 1v 1v 1v 1v 1v 1v 1v 1v 1v 1v 1v 1v 1v 1v 1v 1v 1v 1v 1v C&.t&.t&.|&.|&.|&.|&.|&.|&.|&.|&.|&.|&.|&.f&.3#.H#.I#./#.^$.8$.1g g  f  2. 1. 1. 1. |. b  T@ 8  5  f~ }  8@ _$ _$ _$ _$ _$ _$ _$ g# Z@ #& U# _  D&.d8 8l @- I- B- B- B- &f 3e K% n% H! *f X. B! B! B! B! B! /< }..b&.c&.                                                                                                                                                                                                                                                                                                                                                                                                                                                                                                                                                                                                                                                                                                                                                                                                                                                                                                   A{ l! B! B! B! B! B! _b v# Fd Be  > B- B- z- <- E&.>~ <{ %&.1  <  <  <  <  <  <  <  <  <  ]. >, A# _$ _$ S# {# z@ -@ m+ Q+ Za K. 1. e  P. la }d N' _< ;( F&.1#.7#.0&.[#.u+ u+ u+ u+ u+ u+ u+ u+ u+ #u cR cR cR cR cR cR )2 l&.l&.l&.l&.l&.l&.l&.l&.l&.m&.cR cR cR cR cR cR cR cR cR cR cR cR cR cR cR cR cR C%.u+ u+ u+ u+ u+ u+ u+ u+ u+ u+ ",
"Ia Ia Ia Ia Ia Ia Ia Ia Ia Ia Ia Ia Ia Ia Ia 2w 1v 1v 1v 1v 1v 1v 1v 1v 1v 1v 1v 1v 1v 1v 1v 1v 1v 1v 1v 1v 1v 1v 1v 1v Z+ t&.t&.|&.|&.|&.|&.|&.|&.|&.|&.|&.|&.|&.f&.3#.H#.I#./#.^$.8$.1g g  f  2. 1. 1. 1. |. b  T@ 8  5  f~ 1  V@ _$ _$ _$ _$ _$ Z@ ^% B$ g& 1; W$ <  Y%.)&.8l Ve H- B- B- B- qe 3e K% l% H! xa k) B! B! B! B! B! /< }..b&.c&.                                                                                                                                                                                                                                                                                                                                                                                                                                                                                                                                                                                                                                                                                                                                                                                                                                                                                                   A{ l! B! B! B! B! B! [c [c Fd Be  > C- C- z- <- G&.>~ :~ %&.<  <  <  <  <  <  <  <  <  <  (  X$ A# _$ _$ S# {# z@ -@ m+ Q  Bf K. 1. e  O. r  }d N' _< b_ w#.3#.7#.0&.[#.u+ u+ u+ u+ u+ u+ u+ u+ u+ #u cR cR cR cR cR D1 l&.l&.l&.l&.l&.l&.l&.l&.l&.l&.l&.cR cR cR cR cR cR cR cR cR cR cR cR cR cR cR cR cR cR cR $u u+ u+ u+ u+ u+ u+ u+ u+ ",
"Ia Ia Ia Ia Ia Ia Ia Ia Ia Ia Ia Ia Ia Ia Ia Ia Ia (1 2w &v 1v 1v 1v 1v 1v 1v 1v 1v 1v 1v 1v 1v 1v 1v 1v 1v 1v 1v 1v 1v 1v H&.t&.|&.|&.|&.|&.|&.|&.|&.|&.|&.|&.|&.f&.3#.H#.I#./#.^$.8$.1g g  f  2. 1. 1. 1. |. b  T@ 8  5  f~ 3  d$ A# _$ _$ A# o$ g& <  <  <  <  <  <  -&.I&.8l ye I- C- 3; 3; qe 3e V& l% 7- d% k) B! B! B! B! B! /< }..b&.c&.                                                                                                                                                                                                                                                                                                                                                                                                                                                                                                                                                                                                                                                                                                                                                                                                                                                                                                   A{ l! B! B! B! B! /< Za J&.#d '- B- 3; C- z- N= E&.>~ ;~ -&.<  <  <  <  <  <  <  <  <  <  <  n$ g# _$ _$ S# {# z@ -@ m+ Q  4@ |. 1. e  e  q  }d N' R< K&.H#.3#.7#.0&.[#.u+ u+ u+ u+ u+ u+ u+ u+ @| cR cR cR cR cR cR l&.l&.l&.l&.l&.l&.l&.l&.l&.l&.l&.l&. S cR cR cR cR cR cR cR cR cR cR cR cR cR cR cR cR cR cR cR $u u+ u+ u+ u+ u+ u+ u+ ",
"Ia Ia Ia Ia Ia Ia Ia Ia Ia Ia Ia Ia Ia Ia Ia Ia Ia Ia Ia Ia Ia (1 (1 2w &v 1v 1v 1v 1v 1v 1v 1v 1v 1v 1v 1v 1v 1v 1v 1v 1v L&.t&.|&.|&.|&.|&.|&.|&.|&.|&.|&.|&.|&.f&.3#.H#.I#./#.^$.8$.1g g  f  2. 1. 1. 1. |. b  T@ 8  5  f~ 1  c$ g# _$ Z@ B$ 5+ <  <  <  <  <  <  <  E. 3{ 8l ye I- C- 3; 3; qe 3e V& l% G! J6 B! B! B! B! B! B! /< }..b&.c&.                                                                                                                                                                                                                                                                                                                                                                                                                                                                                                                                                                                                                                                                                                                                                                                                                                                                                                   A{ l! B! B! B! B! /< <g 5@ #d '- B- 3; 3; z- <- k&.*e ;~ -&.<  <  <  <  <  <  <  <  <  <  <  $* Z@ _$ _$ S# {# z@ -@ m+ O+ $@ |. 1. e  f  q  }d N' -( M&.I#.3#.7#.0&.Kh u+ u+ u+ u+ u+ u+ a& cR cR cR cR cR cR cR cR l&.l&.l&.l&.l&.l&.l&.l&.l&.l&.l&.l&.eu cR cR cR cR cR cR cR cR cR cR cR cR cR cR cR cR cR cR cR cR u+ u+ u+ u+ u+ u+ u+ ",
"Ia Ia Ia Ia Ia Ia Ia Ia Ia Ia Ia Ia Ia Ia Ia Ia Ia Ia Ia Ia Ia Ia Ia Ia Ia Ia (1 2w 1v 1v 1v 1v 1v 1v 1v 1v 1v 1v 1v 1v 1v N&.t&.|&.|&.|&.|&.|&.|&.|&.|&.N6 |&.|&.f&.3#.H#.I#./#.^$.8$.1g g  f  2. 1. 1. 1. |. b  T@ 8  5  f~ 1  }  d% ^% 1; <  <  <  <  <  <  <  <  <  <  )~ 4% ae `; 3; 3; 3; ke g- I% k% ce mb k) B! B! B! B! B! /< }..6&.c&.                                                                                                                                                                                                                                                                                                                                                                                                                                                                                                                                                                                                                                                                                                                                                                                                                                                                                                   A{ l! B! B! B! B! /< Aa cf Fd '- C- D- 3; z- <- G&.Kd  { [u <  <  <  <  <  <  <  <  <  <  <  $* Z@ _$ _$ S# {# z@ -@ ~+ Z' $@ |. 1. e  f  o  N' _< O&./#.I#.3#.7#.0&.P&.u+ u+ u+ u+ $u #u cR cR cR cR cR cR cR cR cR l&.l&.l&.l&.l&.l&.l&.l&.l&.l&.l&.l&.m&.cR cR cR cR cR cR cR cR cR cR cR cR cR cR cR cR cR cR cR cR -N u+ u+ u+ u+ u+ u+ ",
"Ia Ia Ia Ia Ia Ia Ia Ia Ia Ia Ia Ia Ia Ia Ia Ia Ia Ia Ia Ia Ia Ia Ia Ia Ia Ia Ia Ia Ia &v 1v 1v 1v 1v 1v 1v 1v 1v 1v 1v 1v #  Q&.R&.|&.|&.|&.|&.|&.|&.S&.T&.|&.|&.f&.3#.H#.I#./#.^$.8$.1g g  f  2. 1. 1. 1. |. b  T@ 8  5  f~ 1  1  <  _  <  <  <  <  <  <  <  <  <  <  <  :~ y' ae '> 3; 3; 3; be @= I% 6% ce |b {} B! B! B! B! B! /< }..Q%.c&.                                                                                                                                                                                                                                                                                                                                                                                                                                                                                                                                                                                                                                                                                                                                                                                                                                                                                                   A{ l! B! B! B! B! B! Aa e+ Fd 8d 3; D- D- A- N= G&.Kd Kd E. <  <  <  <  <  <  <  <  <  <  <  s* #& _$ _$ S# {# z@ -@ k. U&.$@ |. 1. e  f  l  _< .{ =S /#.I#.3#.7#.V&.P&.u+ u+ u+ u+ #u cR cR cR cR cR cR cR cR cR cR l&.l&.l&.l&.l&.l&.l&.l&.l&.l&.l&.l&.l&.cR cR cR cR cR cR cR cR cR cR cR cR cR cR cR cR cR cR cR cR $u u+ u+ u+ u+ u+ u+ ",
"Ia Ia Ia Ia Ia Ia Ia Ia Ia Ia Ia Ia Ia Ia Ia Ia Ia Ia Ia Ia Ia Ia Ia Ia Ia Ia Ia Ia Ia Ia N4 1v 1v 1v 1v 1v 1v 1v 1v 1v 1v Ny Q&.W&.|&.|&.|&.|&.|&.X&.T&.T&.|&.|&.f&.3#.H#.I#./#.^$.8$.1g g  f  2. 1. 1. 1. |. b  T@ 8  5  f~ 1  1  <  <  <  <  <  <  <  <  <  <  <  <  ]. J8 y' #e '> D- 3; 3; ke g- I% 6% .> g~ B! B! B! B! B! B! /< }..Q%.c&.                                                                                                                                                                                                                                                                                                                                                                                                                                                                                                                                                                                                                                                                                                                                                                                                                                                                                                   A{ l! B! B! B! B! B! Z. la Fd 8d 3; y; y; A- $$.k&.Kd rR <  <  <  <  <  <  <  <  <  <  <  <  _  o$ _$ _$ S# {# z@ -@ R  w@ $@ |. 1. e  f  bS 7) =S Y&./#.I#.3#.7#.V&.P&.u+ u+ u+ u+ #u cR cR cR cR cR cR cR cR cR  S l&.l&.l&.l&.l&.l&.l&.l&.l&.l&.l&.l&.l&. S cR cR cR cR cR cR cR cR cR cR cR cR cR cR cR cR cR cR cR -N u+ u+ u+ u+ u+ u+ ",
"Ia Ia Ia Ia Ia Ia Ia Ia Ia Ia Ia Ia Ia Ia Ia Ia Ia Z# <b -0 Ia Ia Ia Ia Ia Ia Ia Ia Ia Ia Ia N4 1v 1v 1v 1v 1v 1v 1v 1v 1v Ny Q&.Z&.|&.|&.|&.|&.|&.S&.T&.T&.#. |&.f&.3#.H#.I#./#.^$.8$.1g g  f  2. 1. 1. 1. |. b  T@ 8  5  f~ 1  1  <  <  <  <  <  <  <  <  <  <  <  <  <  'b :8 #e J- D- D- y; 2e 3e ** 6% %e Z. B! B! B! B! B! B! /< }..Q%.c&.                                                                                                                                                                                                                                                                                                                                                                                                                                                                                                                                                                                                                                                                                                                                                                                                                                                                                                   A{ l! B! B! B! B! B! Z. l! Fd 8d 3; y; y; B- $$.k&.Kd Bt <  <  <  <  <  <  <  <  <  <  <  <  <  d% _$ _$ S# {# z@ m+ `' b  $@ |. 1. e  f  1g =S 8$.Y&./#.I#.3#.7#.V&.P&.u+ u+ u+ u+ @| cR cR cR cR cR cR cR cR cR r&.l&.l&.l&.l&.l&.l&.l&.l&.l&.l&.l&.l&.l&.z0 cR cR cR cR cR cR cR cR cR cR cR cR cR cR cR cR @| u+ u+ u+ u+ u+ u+ u+ u+ u+ ",
"Ia Ia Ia Ia Ia Ia Ia Ia Ia Ia Ia Ia Ia Ia Ia Ia Z# =} =} =} =} <b Ia Ia Ia Ia Ia Ia Ia Ia Ia Ia (1 &v 1v 1v 1v 1v 1v 1v 1v Ny Q&.Q&.R&.|&.|&.|&.|&.`&.T&.T&.`&.|&.f&.3#.H#.I#./#.^$.8$.1g g  f  2. 1. 1. 1. |. b  T@ 8  5  f~ 1  1  <  <  <  <  <  <  <  <  <  <  <  <  <  Lf :8 #e J- y; y; E- $e =d v% 6% %e k) B! B! B! B! B! B! /< }..Q%.c&.                                                                                                                                                                                                                                                                                                                                                                                                                                                                                                                                                                                                                                                                                                                                                                                                                                                                                                   A{ l! B! B! B! B! B! k) ;( #d 8d 3; E- E- B- $$.k&.Kd Bt }  <  <  <  <  <  <  <  <  <  <  <  <  1; #& _$ S# {# ;@ V  9  b  $@ |. 1. e  f  1g UR UR 8$./#.I#.3#.7#.V&.P&.u+ u+ u+ u+ -N cR cR cR cR cR cR cR cR m&.l&.l&.l&.l&.l&.l&.l&.l&.l&.l&.l&.l&.l&.l&.l&.)2 cR cR cR cR cR cR cR cR cR cR cR cR cR cR cR u+ u+ u+ u+ u+ u+ u+ u+ u+ u+ ",
"Ia Ia Ia Ia Ia Ia Ia Ia Ia Ia Ia Ia Ia Ia Ia Z# =} =} =} =} =} =} =} <b Ia Ia Ia Ia Ia Ia Ia Ia Ia Ia 2w 1v 1v 1v 1v 1v 1v Ny Q&.Q&. *.|&.|&.|&.|&.`&.T&.T&.T&..*.f&.3#.H#.I#./#.^$.8$.1g g  f  2. 1. 1. 1. |. b  T@ 8  5  f~ 1  1  <  <  <  <  <  <  <  <  <  <  <  <  <  Bt &h #e -; E- E- E- $e =d v% 3% {b k) B! B! B! B! B! B! /< }..Q%.c&.                                                                                                                                                                                                                                                                                                                                                                                                                                                                                                                                                                                                                                                                                                                                                                                                                                                                                                   A{ l! B! B! B! B! B! k) d_ #d '- 3; E- E- B- $$.+*.rR Et 1  <  <  <  <  <  <  <  <  <  <  <  <  <  n$ Z@ S# {# !+ @*.8  b  $@ |. 1. e  f  1g UR UR 8$./#.I#.3#.7#.V&.P&.u+ u+ u+ u+ u+ tK cR cR cR cR  S m&.l&.l&.l&.l&.l&.l&.l&.l&.l&.l&.l&.l&.l&.l&.l&.l&.l&.l&.r&.z0  S cR cR cR cR cR cR cR cR cR cR cR cR @| -N u+ u+ u+ u+ u+ u+ u+ u+ ",
"Ia Ia Ia Ia Ia Ia Ia Ia Ia Ia Ia Ia Ia Ia Z# =} =} =} =} =} =} =} =} =} n. M$ Ia Ia Ia Ia Ia Ia Ia Ia Ia (1 &v 1v 1v 1v 1v Ny Q&.Q&.#*.|&.|&.|&.|&.$*.T&.T&.T&.T&.f&.3#.H#.I#./#.^$.8$.1g g  f  2. 1. 1. 1. |. b  T@ 8  5  f~ 1  1  <  <  <  <  <  <  <  <  <  <  <  <  <  %*.&h #e -; E- E- E- $e =d v% 2% -d k) B! B! B! B! B! B! /< }..Q%.c&.                                                                                                                                                                                                                                                                                                                                                                                                                                                                                                                                                                                                                                                                                                                                                                                                                                                                                                   A{ l! B! B! B! B! B! s  R' #d 8d D- E- E- C- $$.&*.**.%&.1  <  <  <  <  <  <  <  <  <  <  <  <  <  _  g& c$ #) *$ :. 8  b  $@ |. 1. e  f  1g UR UR 8$./#.I#.3#.7#.V&.P&.u+ u+ u+ u+ u+ u+ #u cR cR cR cR r&.l&.l&.l&.l&.l&.l&.l&.l&.l&.l&.l&.l&.l&.l&.l&.l&.l&.l&.l&.l&.l&.r&.D1 cR cR cR cR cR cR cR cR cR cR cR cR #u -N u+ u+ u+ u+ u+ u+ ",
"Ia Ia Ia Ia Ia Ia Ia Ia Ia Ia Ia Ia Ia F# =} =} =} =} =} =} =} =} =} =} =} =} Z# Ia Ia Ia Ia Ia Ia Ia Ia Ia Ia 2w 1v 1v 1v Ny Q&.Q&.Q&.|&.|&.|&.|&.=*.T&.T&.T&.T&.f&.3#.H#.I#./#.^$.8$.1g g  f  2. 1. 1. 1. |. b  T@ 8  5  f~ 1  1  <  <  <  <  <  <  <  <  <  <  <  <  <  Kt &h cd -; E- E- E- *d =d v% W% o$ k) B! B! B! B! B! B! /< }..Q%.c&.                                                                                                                                                                                                                                                                                                                                                                                                                                                                                                                                                                                                                                                                                                                                                                                                                                                                                                   A{ l! B! B! B! B! B! B! -*.Fd $d y; F- E- C- $$.G&.P# -&.<  <  <  <  <  <  <  <  <  <  <  <  <  <  <  (  1  1  (. :. 8  b  $@ |. 1. e  f  1g UR UR 8$./#.I#.3#.7#.V&.P&.u+ u+ u+ u+ u+ u+ u+ #u cR cR cR cR l&.l&.l&.l&.l&.l&.l&.l&.l&.l&.l&.l&.l&.l&.l&.l&.l&.l&.l&.l&.l&.l&.l&.l&.eu cR cR cR cR cR cR cR cR cR cR cR cR u+ u+ u+ u+ u+ u+ ",
"Ia Ia Ia Ia Ia Ia Ia Ia Ia Ia Ia Ia F# =} =} =} =} =} =} =} =} =} =} =} =} =} =} =} n. <b F# Ia Ia Ia Ia Ia Ia Ia N4 1v 1v Ny Q&.Q&.Q&.;*.|&.|&.|&.|&.T&.T&.T&.T&.f&.3#.H#.I#./#.^$.8$.1g g  f  2. 1. 1. 1. |. b  T@ 8  5  f~ 1  1  <  <  <  <  <  <  <  <  <  <  <  <  <  [u &h 7c -; E- E- E- *d =d t% W% i8 k) B! B! B! B! B! B! /< }..Q%.c&.                                                                                                                                                                                                                                                                                                                                                                                                                                                                                                                                                                                                                                                                                                                                                                                                                                                                                                   A{ l! B! B! B! B! B! B! >*.#d $d E- F- F- C- $$.&*.:  [u <  <  <  <  <  <  <  <  <  <  <  <  <  <  <  <  1  1  (. :. 8  b  $@ |. 1. e  f  1g UR UR 8$./#.I#.3#.7#.V&.P&.u+ u+ u+ u+ u+ u+ u+ u+ #u cR cR cR )2 l&.l&.l&.l&.l&.l&.l&.l&.l&.l&.l&.l&.l&.l&.l&.l&.l&.l&.l&.l&.l&.l&.l&.l&.D1 cR cR cR cR cR cR cR cR cR cR cR -N u+ u+ u+ u+ u+ ",
"Ia Ia Ia Ia Ia Ia Ia Ia Ia Ia Ia -0 =} =} =} =} =} =} =} =} =} =} =} =} =} =} =} =} =} =} =} n. Ia Ia Ia Ia Ia Ia Ia (1 &v Ia ,*.Q&.Q&.'*.|&.|&.|&.|&.)*.T&.T&.T&.f&.3#.H#.I#./#.^$.8$.1g g  f  2. 1. 1. 1. |. b  T@ 8  5  f~ 1  1  <  <  <  <  <  <  <  <  <  <  <  <  <  [u v' 7c K- E- E- z; Fc .= u% |% de k) B! B! B! B! B! B! /< }..Q%.c&.                                                                                                                                                                                                                                                                                                                                                                                                                                                                                                                                                                                                                                                                                                                                                                                                                                                                                                   A{ l! B! B! B! B! B! /) !*.#d &f E- F- F- 3; N= ~*.4  E. <  <  <  <  <  <  <  <  <  <  <  <  <  <  <  <  1  1  (. :. 8  b  $@ |. 1. e  f  1g UR UR 8$./#.I#.3#.7#.V&.P&.u+ u+ u+ u+ u+ u+ u+ u+ u+ a& cR cR cR cR z0 l&.l&.l&.l&.l&.l&.l&.l&.l&.l&.l&.l&.l&.l&.l&.l&.l&.l&.l&.l&.l&.l&.r&.cR cR cR cR cR cR cR cR cR cR cR $u u+ u+ u+ u+ u+ ",
"Ia Ia Ia Ia Ia Ia Ia Ia Ia Ia M$ =} =} =} =} =} =} =} =} =} =} =} =} =} =} =} =} =} =} =} =} =} -0 Ia Ia Ia Ia Ia Ia Ia Z# =} s7 {*.]*.^*.[J m8 |&.|&.$*.T&.T&.T&.f&.3#.H#.I#./#.^$.8$.1g g  f  2. 1. 1. 1. |. b  T@ 8  5  f~ 1  1  <  <  <  <  <  <  <  <  <  <  <  <  <  _  s' [m L- F- F- ;; 8c .= u% |% hg k) B! B! B! B! B! B! /< }..Q%.c&.                                                                                                                                                                                                                                                                                                                                                                                                                                                                                                                                                                                                                                                                                                                                                                                                                                                                                                   A{ <3 B! B! B! B! B! B! /*.zc &f E- ;; ;; 3; O= &*.(*.<  <  <  <  <  <  <  <  <  <  <  <  <  <  <  <  <  1  1  (. :. 8  b  $@ |. 1. e  f  1g UR UR 8$./#.I#.3#.7#.V&.P&.u+ u+ u+ u+ u+ u+ u+ u+ u+ u+ a& cR cR cR cR cR  S l&.l&.l&.l&.l&.l&.l&.l&.l&.l&.l&.l&.l&.l&.l&.l&.l&.l&.l&.l&.l&.)2 cR cR cR cR cR cR cR cR cR cR C%.u+ u+ u+ u+ u+ ",
"Ia Ia Ia Ia Ia Ia Ia Ia Ia Ia n. =} =} =} =} =} =} =} =} =} =} =} =} =} =} =} =} =} =} =} =} =} n. Ia Ia Ia Ia Ia Ia F# =} ~e R@.R@._*.^*.n7 R@.f@ To :*.<*.;f ;f f&.3#.H#.I#./#.^$.8$.1g g  f  2. 1. 1. 1. |. b  T@ 8  5  f~ 1  1  <  <  <  <  <  <  <  <  <  <  <  <  <  [*.%% 7c =; F- F- ;; Fc .= u% }% =+ {} B! B! B! B! B! B! /< }..Q%.c&.                                                                                                                                                                                                                                                                                                                                                                                                                                                                                                                                                                                                                                                                                                                                                                                                                                                                                                   A{ <3 B! B! B! B! B! B! }*.5= &f E- ;; ;; D- O= |*.6  <  <  <  <  <  <  <  <  <  <  <  <  <  <  <  <  <  1  1  (. :. 8  b  $@ |. 1. e  f  1g UR UR 8$./#.I#.3#.7#.V&.P&.u+ u+ u+ u+ u+ u+ u+ u+ u+ -N cR cR cR cR cR cR cR l&.l&.l&.l&.l&.l&.l&.l&.l&.l&.l&.l&.l&.l&.l&.l&.l&.l&.l&.l&.l&.eu cR cR cR cR cR cR cR cR cR cR cR p%.u+ u+ u+ u+ ",
"-0 Ia Ia Ia Ia Ia Ia Ia Ia Z# =} =} =} =} =} =} =} =} =} =} =} =} =} =} =} =} =} =} =} =} =} =} =} Z# Ia Ia Ia Ia F# =} ~e hI R@.R@.1*.^*.n7 R@.R@.R@.$*.2*.2*.2*.f&.3#.H#.I#./#.^$.8$.1g g  f  2. 1. 1. 1. |. b  T@ 8  5  f~ 1  1  <  <  <  <  <  <  <  <  <  <  <  <  <  [*.+% 7c =; ;; ;; ;; Fc .= u% %E $+ N' B! B! B! B! B! B! /< }..Q%.c&.                                                                                                                                                                                                                                                                                                                                                                                                                                                                                                                                                                                                                                                                                                                                                                                                                                                                                                   A{ <3 B! B! B! B! B! B! 3*.2* 2e z; ;; ;; D- $$.4*.R~ <  <  <  <  <  <  <  <  <  <  <  <  <  <  <  <  <  1  1  (. :. 8  b  $@ |. 1. e  f  1g UR UR 8$./#.I#.3#.7#.V&.P&.u+ u+ u+ u+ u+ u+ u+ u+ p%.cR cR cR cR cR cR cR cR l&.l&.l&.l&.l&.l&.l&.l&.l&.l&.l&.l&.l&.l&.l&.l&.l&.l&.l&.l&.l&.l&.cR cR cR cR cR cR cR cR cR cR cR cR @| -N u+ u+ ",
"=} M$ Ia Ia Ia Ia Ia Ia -0 =} =} =} =} =} =} w+ 5*.Y) Y) Y) h#.$| 4i =} =} =} =} =} =} =} =} =} =} =} Z# Ia -0 n. =} ~e hI R@.R@.R@.^*.^*.n7 R@.R@.R@.9I '6 '6 '6 f&.3#.H#.I#./#.^$.8$.1g g  f  2. 1. 1. 1. |. b  T@ 8  5  f~ 1  1  <  <  <  <  <  <  <  <  <  <  <  <  <  _  W, $- =; ;; ;; ;; Fc .= u% <% 0. B! B! B! B! B! B! B! /< }..Q%.c&.                                                                                                                                                                                                                                                                                                                                                                                                                                                                                                                                                                                                                                                                                                                                                                                                                                                                                                   A{ <3 B! B! B! B! B! B! 6*.7*.2e ;; G- ;; D- O= 8*.R~ <  <  <  <  <  <  <  <  <  <  <  <  <  <  <  <  <  1  1  (. :. 8  b  $@ |. 1. e  f  1g UR UR 8$./#.I#.3#.7#.V&.ra u+ u+ u+ u+ u+ u+ u+ @| cR cR cR cR cR cR cR cR eu l&.l&.l&.l&.l&.l&.l&.l&.l&.l&.l&.l&.l&.l&.l&.l&.l&.l&.l&.l&.l&.l&.z0 cR cR cR cR cR cR cR cR cR cR cR cR cR #u p%.",
"=} =} <b Ia Ia Ia Ia Ia n. =} =} =} =} r} h#.Y) Y) Y) Y) Y) Y) Y) Y) 9*.4i =} =} =} =} =} =} =} =} =} =} =} =} =} 8g hI R@.R@.R@.R@.^*.^*.n7 R@.R@.R@.R@.R@.R@.R@.f&.3#.H#.I#./#.^$.8$.1g g  f  2. 1. 1. 1. |. b  T@ 8  5  f~ 1  1  <  <  <  <  <  <  <  <  <  <  <  <  <  _  D; %- =; ;; ;; ;; 8c t` p% =% 0. B! B! B! B! B! B! B! /< }..Q%.c&.                                                                                                                                                                                                                                                                                                                                                                                                                                                                                                                                                                                                                                                                                                                                                                                                                                                                                                   A{ <3 B! B! B! B! B! B! 6*.AZ 2e ;; G- G- y; $$.0*.v@ <  <  <  <  <  <  <  <  <  <  <  <  <  <  <  <  <  1  1  (. :. 8  b  $@ |. 1. e  f  1g UR UR 8$./#.I#.3#.7#.V&.B+ a*.u+ u+ u+ u+ u+ #u cR cR cR cR cR cR cR cR D1 l&.l&.l&.l&.l&.l&.l&.l&.l&.l&.l&.l&.l&.l&.l&.l&.l&.l&.l&.l&.l&.l&.l&.l&.l&.m&.m&.eu cR cR cR cR cR cR cR cR cR cR cR ",
"=} =} =} =} j# <b Z# n. =} =} =} =} r} Y) Y) Y) Y) Y) Y) Y) Y) Y) Y) Y) Y) r} =} =} =} =} =} =} =} =} =} =} 8f wp R@.R@.R@.R@.R@.R@.^*.vm R@.R@.R@.R@.R@.R@.R@.R@.f&.3#.H#.I#./#.^$.8$.1g g  f  2. 1. 1. 1. |. b  T@ 8  5  f~ 1  1  <  <  <  <  <  <  <  <  <  <  <  <  <  _  Q) [m x; G- G- HE qA .= o% @% 0. B! B! B! B! B! B! B! /< }..Q%.c&.                                                                                                                                                                                                                                                                                                                                                                                                                                                                                                                                                                                                                                                                                                                                                                                                                                                                                                   A{ <3 B! B! B! B! B! B! 6*.`g b*.;; H- H- E- $$.c*.v@ <  <  <  <  <  <  <  <  <  <  <  <  <  <  <  <  <  1  1  (. :. 8  b  $@ |. 1. e  f  1g UR UR 8$./#.I#.3#.7#.V&.B+ d*.u+ u+ u+ u+ #u cR cR cR cR cR cR cR )2 m&.l&.l&.l&.l&.l&.l&.l&.l&.l&.l&.l&.l&.l&.l&.l&.l&.l&.l&.l&.l&.l&.l&.l&.l&.l&.l&.l&.l&.l&.l&.r&.eu D1  S cR cR cR cR cR cR ",
"=} =} =} =} =} =} =} =} =} =} =} 4i Y) Y) Y) Y) Y) Y) Y) Y) Y) Y) Y) Y) Y) Y) 4i =} =} =} =} =} =} =} =} 8g 9I R@.R@.R@.R@.R@.R@.R@.^*.[p R@.R@.R@.R@.R@.R@.R@.R@.f&.3#.H#.I#./#.^$.8$.1g g  f  2. 1. 1. 1. |. b  T@ 8  5  f~ 1  1  <  <  <  <  <  <  <  <  <  <  <  <  <  _  l' bi *; G- G- HE qA .= o% `$ 0. B! B! B! B! B! B! B! /< }..Q%.c&.                                                                                                                                                                                                                                                                                                                                                                                                                                                                                                                                                                                                                                                                                                                                                                                                                                                                                                   A{ <3 B! B! B! B! B! B! e*.7*.4A HE H- H- O; f*.c*.3@ <  <  <  <  <  <  <  <  <  <  <  <  <  <  <  <  <  1  1  (. :. 8  b  $@ |. 1. e  f  1g UR UR 8$./#.I#.3#.7#.V&.mj d*.u+ <9 <9 )2 g*.!I h*.i*.g*.eu z0 r&.l&.l&.l&.l&.l&.l&.l&.l&.l&.l&.l&.l&.l&.l&.l&.l&.l&.l&.l&.l&.l&.l&.l&.l&.l&.l&.l&.l&.l&.l&.l&.l&.l&.l&.l&.l&.l&.r&.eu cR cR cR ",
"=} =} =} =} =} =} =} =} =} =} =} %g Y) Y) Y) Y) Y) Y) Y) Y) Y) Y) Y) Y) Y) Y) r} =} =} =} =} =} 8f wU 9I R@.R@.R@.R@.R@.R@.R@.R@.R@.sK R@.R@.R@.R@.R@.R@.R@.R@.R@.f&.3#.H#.I#./#.^$.8$.1g g  f  2. 1. 1. 1. |. b  T@ 8  5  f~ 1  1  <  <  <  <  <  <  <  <  <  <  <  <  <  _  J$ -- O- H- G- HE qA .= n% Y$ 0. B! B! B! B! B! B! B! /< }..Q%.c&.                                                                                                                                                                                                                                                                                                                                                                                                                                                                                                                                                                                                                                                                                                                                                                                                                                                                                                   A{ <3 B! B! B! B! B! B! j*.k*.l*.HE H- H- O; f*.IR 2. <  <  <  <  <  <  <  <  <  <  <  <  <  <  <  <  <  1  1  (. :. 8  b  $@ |. 1. e  f  1g UR UR 8$./#.I#.3#.7#.V&.m*.]W ]W ]W ]W ]W ]W ]W bW n*.n*.o*.p*.q*.r*.l&.l&.l&.l&.l&.l&.l&.l&.l&.l&.l&.l&.l&.l&.l&.l&.l&.l&.l&.l&.l&.l&.l&.l&.l&.l&.l&.l&.|S |O |O |O |O |O |O p0 l&.l&.l&.)2 cR ",
"=} =} =} ~e Ha Ha Ha Ha Ha Ha %# Y) Y) Y) Y) Y) Y) Y) Y) Y) Y) Y) Y) Y) Y) Y) r} 8f Ha Ng s*.t7 R@.R@.R@.R@.R@.R@.R@.R@.R@.R@.R@.R@.R@.R@.R@.R@.R@.R@.R@.R@.R@.R@.f&.3#.H#.I#./#.^$.8$.1g g  f  2. 1. 1. 1. |. b  T@ 8  5  f~ 1  1  <  <  <  <  <  <  <  <  <  <  <  <  <  _  J$ xB 7; H- H- H- qA t` m% _$ 0. B! B! B! B! B! B! B! /< }..Q%.c&.                                                                                                                                                                                                                                                                                                                                                                                                                                                                                                                                                                                                                                                                                                                                                                                                                                                                                                   A{ <3 B! B! B! B! B! B! t*.u*.v*.!> H- H- E- N= w*.2. <  <  <  <  <  <  <  <  <  <  <  <  <  <  <  <  <  1  1  (. :. 8  b  $@ |. 1. e  f  1g UR UR 8$./#.I#.3#.7#.V&.x*.Ze Ze y*.p8 p8 z*.z*.z*.z*.z*.z*.z*.z*.z*.A*.B*.2X C*.D*.l&.l&.l&.l&.l&.l&.l&.l&.l&.l&.l&.l&.p3 p3 p3 p3 p3 p3 p3 p3 (p pm E*.F*.F*.F*.F*.F*.F*.F*.F*.F*.F*.F*.F*..Y ",
"R@.R@.R@.R@.R@.R@.R@.R@.R@.R@.R@.R@.R@.R@.R@.R@.R@.R@.S@.}j }j }j }j }j }j }j S@.R@.R@.R@.R@.R@.R@.R@.R@.R@.R@.R@.R@.R@.R@.R@.R@.R@.R@.R@.R@.R@.R@.R@.R@.R@.R@.R@.f&.3#.H#.I#./#.^$.8$.1g g  f  2. 1. 1. 1. |. b  T@ 8  5  f~ 1  1  <  <  <  <  <  <  <  <  <  <  <  <  <  _  g# ]I PO ;; H- H- qA t` k% S# ++ B! B! B! B! B! B! B! /< }..Q%.c&.                                                                                                                                                                                                                                                                                                                                                                                                                                                                                                                                                                                                                                                                                                                                                                                                                                                                                                   A{ <3 B! B! B! B! B! B! G*.H*.I*.;; I- I- E- _- J*.*%.<  <  <  <  <  <  <  <  <  <  <  <  <  <  <  <  <  1  1  (. :. 8  b  $@ |. 1. e  f  1g UR UR 8$./#.I#.3#.7#.V&.K*.z*.z*.z*.z*.z*.z*.z*.z*.z*.z*.z*.z*.z*.z*.z*.z*.z*.z*.z*.z*.z*.z*.z*.z*.z*.z*.z*.z*.Yp L*.L*.L*.L*.L*.L*.L*.L*.L*.L*.L*.L*.L*.L*.L*.L*.L*.L*.L*.L*.L*.L*.L*.L*.L*.L*.",
"R@.R@.R@.R@.R@.R@.R@.R@.R@.R@.R@.R@.R@.R@.R@.R@.R@.R@.R@.R@.R@.R@.R@.R@.R@.R@.R@.R@.R@.R@.R@.R@.R@.R@.R@.R@.R@.R@.R@.R@.R@.R@.R@.R@.R@.R@.R@.R@.R@.R@.R@.R@.R@.R@.f&.3#.H#.I#./#.^$.8$.1g g  f  2. 1. 1. 1. |. b  T@ 8  5  f~ 1  1  <  <  <  <  <  <  <  <  <  <  <  <  <  _  Z@ M*.N*.L- =; *; O*.P*.7{ f# ++ B! B! B! B! B! B! B! /< }..Q%.c&.                                                                                                                                                                                                                                                                                                                                                                                                                                                                                                                                                                                                                                                                                                                                                                                                                                                                                                   A{ <3 B! B! B! B! B! B! Q*.R*.S*.-; I- I- E- T*.U*.V*.<  <  <  <  <  <  <  <  <  <  <  <  <  <  <  <  <  1  1  (. :. 8  b  $@ |. 1. e  f  1g UR UR 8$./#.I#.3#.7#.V&.K*.z*.z*.z*.z*.z*.z*.z*.z*.z*.z*.z*.z*.z*.z*.z*.z*.z*.z*.z*.z*.z*.z*.z*.z*.z*.z*.z*.z*.W*.L*.L*.L*.L*.*8 g@ g@ g@ g@ X*.L*.L*.L*.L*.L*.L*.L*.L*.L*.L*.L*.L*.L*.L*.L*.L*.",
"R@.R@.R@.R@.R@.R@.R@.R@.R@.R@.R@.R@.R@.R@.R@.R@.R@.R@.R@.R@.R@.R@.R@.R@.R@.R@.R@.R@.R@.R@.R@.R@.R@.R@.R@.t#.t#.t#.2Q R@.R@.R@.R@.R@.R@.R@.R@.R@.R@.R@.R@.R@.R@.R@.f&.3#.H#.I#./#.^$.8$.1g g  f  2. 1. 1. 1. |. b  T@ 8  5  f~ 1  1  <  <  <  <  <  <  <  <  <  <  <  <  <  _  Z@ Y*.9n Q= nX S= i= 8* W& S# ++ B! B! B! B! B! B! B! /< }..Q%.c&.                                                                                                                                                                                                                                                                                                                                                                                                                                                                                                                                                                                                                                                                                                                                                                                                                                                                                                   A{ <3 B! B! B! B! B! B! Z*.`*. =..=.7; +=.+=.@=.tw 1g <  <  <  <  <  <  <  <  <  <  <  <  <  <  <  <  <  1  1  (. :. 8  b  $@ |. 1. e  f  1g UR UR 8$./#.I#.3#.7#.V&.K*.z*.z*.z*.z*.z*.z*.z*.z*.z*.z*.z*.z*.z*.z*.z*.z*.z*.z*.z*.z*.z*.z*.z*.z*.z*.z*.z*.z*.#=.po po $=.%=.%=.%=.%=.&=.&=.&=.&=.&=.&=.&=.*=.==.-=.W< n8 L*.L*.L*.L*.L*.L*.L*.",
"R@.R@.R@.R@.R@.R@.R@.R@.R@.R@.R@.R@.R@.R@.R@.R@.R@.R@.R@.R@.R@.-Y A2 R@.R@.R@.R@..#.;} ;} ;} 4r ;=.>=.,=.'=.)=.)=.!=.~=.{=.g' ]=.]=.]=.]=.^=.L^ L^ L^ ]=.]=.]=.]=.f&.3#.H#.I#./#.^$.8$.1g g  f  2. 1. 1. 1. |. b  T@ 8  5  f~ 1  1  <  <  <  <  <  <  <  <  <  <  <  <  <  _  #& /=.(=.)* L& L& A& _=.7' S# 0. N' B! B! B! B! _< /< :=.<=.K .c&.                                                                                                                                                                                                                                                                                                                                                                                                                                                                                                                                                                                                                                                                                                                                                                                                                                                                                                   S! /< B! B! B! B! B! B! [=.}=.|=.1=./- MA /- 2=.3=.|. <  <  <  <  <  <  <  <  <  <  <  <  <  <  <  <  <  1  1  (. :. 8  b  $@ |. 1. e  f  1g UR UR 8$./#.I#.3#.7#.V&.K*.z*.z*.z*.z*.z*.z*.z*.z*.z*.z*.z*.z*.z*.z*.z*.z*.z*.4=.5=.6=.7=.7=.7=.7=.7=.7=.7=.7=.6=.8=.9=.0=.0=.0=.0=.0=.0=.0=.0=.0=.0=.0=.0=.a=.b=.c=.c=.c=.c=.c=.d=.e=.mo L*.L*.",
"R@.R@.R@.R@.R@.R@.R@.R@.R@.R@.R@.R@.R@.R@.R@.R@.R@.R@.R@.R@.R@.F+ f=.f=.g=. b &` L^ h=.]=.]=.]=.]=.]=.]=.]=.]=.]=.]=.]=.]=.]=.]=.|]  b i=.f=.f=.f=.f=.f=.f=.i=.g=.f&.3#.H#.I#./#.^$.8$.1g g  f  2. 1. 1. 1. |. b  T@ 8  5  f~ 1  1  <  <  <  <  <  <  <  <  <  <  <  <  <  _  #& x# A# &% 2% h% |% %* _$ _$ :# =+ i+ 9C j=.k=.l=.08 m=.n=.o=.p=.                                                                                                                                                                                                                                                                                                                                                                                                                                                                                                                                                                                                                                                                                                                                                                                                                                                                                                   Yg q=.nv B! B! B! B! B! {} ~# ba P! r=.,, Ad ,' $) ]. <  <  <  <  <  <  <  <  <  <  <  <  <  <  <  <  <  1  1  (. :. 8  b  $@ |. 1. e  f  1g UR UR 8$./#.I#.3#.7#.V&.s=.z*.z*.z*.z*.z*.z*.z*.z*.z*.z*.z*.z*.z*.z*.z*.z*.z*.t=.0=.5=.u=.7=.7=.7=.7=.v=.w=.x=.0=.0=.0=.0=.0=.0=.0=.0=.0=.0=.0=.0=.y=.y=.z=.A=.B=.:&.-J c=.c=.c=.c=.c=.n} C=.L*.",
"0~ 0~ 0~ 0~ 0~ 0~ 0~ 0~ 0~ 0~ 0~ 0~ 9i =N =N @%.R@.R@.R@.R@.R@.f=.f=.f=.f=.f=.f=.f=.f=.f=.f=.f=.f=.f=.D=.D=.D=.D=.D=.D=.E=.F=.G=.i=.f=.f=.f=.f=.f=.f=.f=.f=.f=.f=.V&.3#.H#.I#./#.^$.8$.1g g  f  *%.2. 1. 1. |. b  T@ 8  5  f~ 1  1  <  <  <  <  <  <  <  <  <  <  <  <  <  _  #& _$ _$ &% 6% l% 2% .% E$ ab ^b [% H=.I=.J=.K=.L=.M=.N=.O=.P=.Q=.                                                                                                                                                                                                                                                                                                                                                                                                                                                                                                                                                                                                                                                                                                                                                                                                                                                                                                   R=.S=.;h T=./) B! B! B! k) -+ S# S# H$ -% <$ o$ A$ <  <  <  <  <  <  <  <  <  <  <  <  <  <  <  <  <  <  1  1  (. :. 8  b  $@ |. 1. e  f  1g UR UR 8$./#.I#.3#.7#.V&.Oh U=.V=.z*.z*.z*.z*.z*.z*.z*.z*.z*.z*.z*.z*.z*.z*.z*.z*.(r 0=.0=.W=.X=.X=.Y=.0=.0=.0=.0=.0=.0=.0=.0=.0=.0=.0=.Z=.`=. -..-..-..-..-..-..-.+-.@-.a& Ig #-.#-.99 n} n} ]1 ",
"0~ 0~ 0~ 0~ 0~ 0~ 0~ 0~ 0~ 0~ 0~ 0~ 0~ 0~ 0~ =N R@.R@.R@.R@.R@.$-.f=.f=.f=.f=.f=.f=.f=.f=.f=.f=.f=.f=.f=.f=.f=.f=.f=.f=.f=.f=.f=.f=.T4 v$ v$ v$ v$ v$ v$ v$ v$ v$ 3#.P#./#./#.8$.UR =S g  3@ %-.&-.*-.=-.--.;-.>-.,-.'-.f& O# )-.!-.O# ~-.{-.{-.{-.{-.]-.^-./-.(-._-._-.:-.<-.J$ [-.E$ #% 3% m% g% }-.G$ W& h, |-.1-.2-.3-.4-.5-.6-.6-.6-.6-.6-.                                                                                                                                                                                                                                                                                                                                                                                                                                                                                                                                                                                                                                                                                                                                                                                                                                                                                                      7-.8-.9-.0-.Z. B! B! u  65 _$ _$ _$ _$ _$ #& A$ <  <  <  <  <  <  <  <  <  <  <  <  <  <  <  <  <  <  1  1  (. :. 8  b  $@ |. 1. e  f  1g UR UR 8$./#.I#.3#.7#.3#..S SN a-.b-.z*.z*.z*.z*.z*.z*.z*.z*.z*.z*.z*.z*.z*.z*.z*.c-.0=.0=.0=.0=.Z=.d-.5n n} n} n} n} n} n} n} n} n} n} n} n} n} n} n} g| KT KT n} n} n} n} n} n} n} n} n} n} n} ",
"0~ 0~ 0~ 0~ 0~ 0~ 0~ 0~ 0~ 0~ 0~ 0~ 0~ 0~ 0~ 0~ R@.R@.R@.R@.R@.e-.f=.f=.f=.f=.f=.f=.f=.f=.f=.f=.f=.f=.f=.f=.f=.T4 f-.#+.#+.#+.#+.#+.#+.#+.#+.#+.#+.#+.#+.#+.#+.#+.g-.h-.i-.i-.j-.k-.l-.m-.n-.o-.p-.q-.r-.s-.t-.u-.v-.w-.x-.9# n-.A! A! A! A! y-.z-.z-.z-.A-.B-.C-.D-.E-.7F 7F %% [V T9 T9 pf m% F-.                                                                                                                                                                                                                                                                                                                                                                                                                                                                                                                                                                                                                                                                                                                                                                                                                                                                                                                                                   6-.G-.H-.I-.mb k) Y. 8. 65 _$ _$ _$ _$ _$ o$ A$ (  <  <  <  <  <  <  <  <  <  <  <  <  <  <  <  <  ]. 1  1  (. :. 8  b  $@ |. 1. e  f  1g UR UR 8$./#.I#.3#.J-.K-.DR SN SN SN U=.V=.z*.z*.z*.z*.z*.z*.z*.z*.z*.z*.z*.z*.z*.z*.L-.0=.0=.M-.n} n} n} n} n} n} n} n} n} n} n} n} n} n} n} n} n} n} n} n} n} n} n} n} n} n} n} n} n} n} n} n} ",
"0~ 0~ 0~ 0~ 0~ 0~ 0~ 0~ 0~ 0~ 0~ 0~ 0~ 0~ 0~ 0~ R@.R@.R@.R@.R@.N-.f=.f=.f=.f=.f=.f=.f=.f=.f=.f=.f=.f=.f=.f=.f=.p..#+.#+.#+.#+.#+.#+.#+.#+.#+.#+.#+.#+.#+.#+.#+.#+.M%.O-.e` e` e` e` e` e` '&.'&.e..%( P-.=' Q-.Q-.Q-.Q-.Q-.Q-.Q-.Q-.Q-.Q-.Q-.Q-.Q-.Q-.Q-.Q-.Q-.R-.a_ Q-.Q-.Q-.                                                                                                                                                                                                                                                                                                                                                                                                                                                                                                                                                                                                                                                                                                                                                                                                                                                                                                                                                                                       _< k) {} -+ _$ _$ _$ _$ _$ o$ 1; 5+ _  _  _  _  _  _  _  _  _  _  _  _  _  _  _  _  5+ }  ^. 2  G. :. w@ 4@ $@ L. O. e  g  S-.=S 8$./#.T-._#.U-.V-.W-.SN SN SN SN a-.b-.z*.z*.z*.z*.z*.z*.z*.z*.z*.z*.z*.z*.z*.X-.0=.Y-.n} n} n} n} n} n} n} n} n} n} n} n} n} n} n} n} n} n} n} n} n} n} n} n} n} n} n} n} n} n} n} n} n} ",
"0~ 0~ 0~ 0~ 0~ 0~ 0~ 0~ 0~ 0~ 0~ 0~ 0~ 0~ 0~ 0~ R@.R@.R@.R@.R@.-Y f=.f=.f=.f=.f=.f=.f=.f=.f=.f=.f=.f=.f=.f=.Z-.#+.#+.#+.#+.#+.#+.#+.#+.#+.#+.#+.#+.#+.#+.#+.#+.#+.#+.#+.#+.#+.#+.#+.#+.#+.#+.#+.#+.#+.`-. ;. ;. ;. ;. ;. ;. ;. ;. ;. ;. ;. ;. ;. ;. ;. ;. ;. ;. ;. ;. ;. ;. ;.                                                                                                                                                                                                                                                                                                                                                                                                                                                                                                                                                                                                                                                                                                                                                                                                                                                                                                                                                                                             N' P+ B# A# A# A# A# #& d% X$ >, bb bb w0 +9 w0 w0 w0 w0 w0 w0 ^% ^% ^% ^% ^% >, zm #) qf z{ .) [c Ed X' e+ W' Xi U. p  n  l  O&..;.Z@.+;.lk SN SN SN SN SN SN SN U=.@;.z*.z*.z*.z*.z*.z*.z*.z*.z*.z*.z*.9=.#;.g| n} n} n} n} n} n} n} n} n} n} n} n} n} n} n} n} n} n} n} n} n} n} n} n} n} n} n} n} n} n} n} n} n} "};
