/* XPM */
static char * door_0_xpm[] = {
"512 512 10744 3",
"   	c #FF00FF",
".  	c #675C58",
"+  	c #6A5E5A",
"@  	c #72655F",
"#  	c #736660",
"$  	c #7A6D65",
"%  	c #786B64",
"&  	c #5A5050",
"*  	c #362E2F",
"=  	c #453D3D",
"-  	c #665B57",
";  	c #837166",
">  	c #816F64",
",  	c #7B695E",
"'  	c #79675C",
")  	c #77645A",
"!  	c #766359",
"~  	c #736157",
"{  	c #716056",
"]  	c #6F5E55",
"^  	c #6D5D54",
"/  	c #514842",
"(  	c #222828",
"_  	c #212829",
":  	c #222728",
"<  	c #212728",
"[  	c #222627",
"}  	c #212727",
"|  	c #202728",
"1  	c #202727",
"2  	c #202627",
"3  	c #1F2627",
"4  	c #202526",
"5  	c #202425",
"6  	c #1F2424",
"7  	c #1E2324",
"8  	c #1E2223",
"9  	c #1D2224",
"0  	c #1D2123",
"a  	c #1C2224",
"b  	c #1C2124",
"c  	c #1E2224",
"d  	c #1C2123",
"e  	c #1C2122",
"f  	c #1C2021",
"g  	c #1B1F21",
"h  	c #1A1F20",
"i  	c #191E1F",
"j  	c #1A1E20",
"k  	c #191E1E",
"l  	c #191E20",
"m  	c #191F20",
"n  	c #192021",
"o  	c #192022",
"p  	c #192123",
"q  	c #192223",
"r  	c #192224",
"s  	c #192324",
"t  	c #192325",
"u  	c #192326",
"v  	c #192427",
"w  	c #192428",
"x  	c #192528",
"y  	c #192529",
"z  	c #19262A",
"A  	c #1A262A",
"B  	c #1A272A",
"C  	c #1A272B",
"D  	c #1B272B",
"E  	c #1B282C",
"F  	c #1B272C",
"G  	c #1B282D",
"H  	c #1C282C",
"I  	c #1C282D",
"J  	c #1C272D",
"K  	c #1C292D",
"L  	c #1C292E",
"M  	c #1C292F",
"N  	c #1D282E",
"O  	c #1D292E",
"P  	c #1D2A2F",
"Q  	c #1E2A30",
"R  	c #1F2930",
"S  	c #1F2A30",
"T  	c #1D2A2E",
"U  	c #1E2B2E",
"V  	c #1E2A2F",
"W  	c #1D292F",
"X  	c #1D2A30",
"Y  	c #212D30",
"Z  	c #3A3E3F",
"`  	c #6A615E",
" . 	c #6F6560",
".. 	c #7D736E",
"+. 	c #9E948D",
"@. 	c #A89D96",
"#. 	c #8D837F",
"$. 	c #3C3739",
"%. 	c #423C3E",
"&. 	c #68615D",
"*. 	c #665F5B",
"=. 	c #625A56",
"-. 	c #685D58",
";. 	c #756861",
">. 	c #726660",
",. 	c #4E4545",
"'. 	c #5E5553",
"). 	c #7A685D",
"!. 	c #61534B",
"~. 	c #3F3B37",
"{. 	c #212628",
"]. 	c #212627",
"^. 	c #1F2527",
"/. 	c #1F2526",
"(. 	c #1F2426",
"_. 	c #1F2324",
":. 	c #1D2324",
"<. 	c #1E2124",
"[. 	c #1E2323",
"}. 	c #1C2023",
"|. 	c #1B2021",
"1. 	c #1A2020",
"2. 	c #1B1F1F",
"3. 	c #1A1F1F",
"4. 	c #1A1E1F",
"5. 	c #1A1E1E",
"6. 	c #1A1F21",
"7. 	c #1A2021",
"8. 	c #1A2123",
"9. 	c #192124",
"0. 	c #192327",
"a. 	c #192628",
"b. 	c #192629",
"c. 	c #1B282B",
"d. 	c #1B282E",
"e. 	c #1C282E",
"f. 	c #1C282F",
"g. 	c #1C2930",
"h. 	c #1D2931",
"i. 	c #1D2930",
"j. 	c #1E2930",
"k. 	c #1E2A31",
"l. 	c #1D2B30",
"m. 	c #1E2B30",
"n. 	c #1F2A2F",
"o. 	c #33393B",
"p. 	c #6A615D",
"q. 	c #6E6560",
"r. 	c #766C68",
"s. 	c #7E746F",
"t. 	c #9B908A",
"u. 	c #9A908A",
"v. 	c #5A5452",
"w. 	c #645C58",
"x. 	c #71645E",
"y. 	c #786B63",
"z. 	c #574E4D",
"A. 	c #5C5352",
"B. 	c #78665B",
"C. 	c #554A44",
"D. 	c #2C2D2D",
"E. 	c #232829",
"F. 	c #222628",
"G. 	c #222829",
"H. 	c #222729",
"I. 	c #1F2628",
"J. 	c #1E2526",
"K. 	c #202426",
"L. 	c #1E2325",
"M. 	c #1B2122",
"N. 	c #1B1F20",
"O. 	c #1A2022",
"P. 	c #1A2122",
"Q. 	c #1A2223",
"R. 	c #1A2224",
"S. 	c #1A2225",
"T. 	c #1A2325",
"U. 	c #1A2326",
"V. 	c #1A2426",
"W. 	c #1A2527",
"X. 	c #1A2528",
"Y. 	c #1A2628",
"Z. 	c #1A2629",
"`. 	c #1A2529",
" + 	c #1B262B",
".+ 	c #1B272A",
"++ 	c #1B262A",
"@+ 	c #1C292C",
"#+ 	c #1B292D",
"$+ 	c #1C2A2D",
"%+ 	c #1C2A2C",
"&+ 	c #1D292D",
"*+ 	c #1D2A2D",
"=+ 	c #1C2A2E",
"-+ 	c #1E2B31",
";+ 	c #1F2B31",
">+ 	c #1F2B30",
",+ 	c #1F2B2F",
"'+ 	c #2F3538",
")+ 	c #5E5957",
"!+ 	c #68615E",
"~+ 	c #69625F",
"{+ 	c #6B635F",
"]+ 	c #706661",
"^+ 	c #756B67",
"/+ 	c #474242",
"(+ 	c #645D59",
"_+ 	c #6E625D",
":+ 	c #584E4E",
"<+ 	c #827065",
"[+ 	c #6C5C53",
"}+ 	c #4D443F",
"|+ 	c #212729",
"1+ 	c #202628",
"2+ 	c #202527",
"3+ 	c #1E2425",
"4+ 	c #1C2022",
"5+ 	c #1B2022",
"6+ 	c #1B2020",
"7+ 	c #1B2223",
"8+ 	c #1B2224",
"9+ 	c #1B2325",
"0+ 	c #1B2425",
"a+ 	c #1B2426",
"b+ 	c #1B2427",
"c+ 	c #1B2527",
"d+ 	c #1B2528",
"e+ 	c #1B2628",
"f+ 	c #1B2629",
"g+ 	c #1B2529",
"h+ 	c #1B292C",
"i+ 	c #1B2A2D",
"j+ 	c #1E2A2E",
"k+ 	c #1D2B31",
"l+ 	c #1E2C31",
"m+ 	c #1F2C30",
"n+ 	c #1E2C30",
"o+ 	c #1F2C31",
"p+ 	c #1E2B32",
"q+ 	c #1F2A31",
"r+ 	c #263034",
"s+ 	c #464647",
"t+ 	c #665F5D",
"u+ 	c #6C6460",
"v+ 	c #746A66",
"w+ 	c #736964",
"x+ 	c #736965",
"y+ 	c #786E6A",
"z+ 	c #908580",
"A+ 	c #403A3C",
"B+ 	c #605A57",
"C+ 	c #6D615C",
"D+ 	c #746761",
"E+ 	c #514748",
"F+ 	c #7D6D63",
"G+ 	c #746258",
"H+ 	c #715F56",
"I+ 	c #5E514A",
"J+ 	c #3B3735",
"K+ 	c #232728",
"L+ 	c #1F2425",
"M+ 	c #1D2B2E",
"N+ 	c #1D2B2F",
"O+ 	c #1E2C32",
"P+ 	c #1F2B32",
"Q+ 	c #1F2C32",
"R+ 	c #202B31",
"S+ 	c #202D32",
"T+ 	c #202C32",
"U+ 	c #33383B",
"V+ 	c #645E5C",
"W+ 	c #726863",
"X+ 	c #645C5A",
"Y+ 	c #5A5555",
"Z+ 	c #6B605B",
"`+ 	c #78655B",
" @ 	c #76645A",
".@ 	c #504641",
"+@ 	c #282B2B",
"@@ 	c #1D2223",
"#@ 	c #1B2121",
"$@ 	c #1B2326",
"%@ 	c #1E2B2F",
"&@ 	c #1F2D32",
"*@ 	c #1E2D31",
"=@ 	c #1F2D31",
"-@ 	c #202D31",
";@ 	c #202C31",
">@ 	c #212C32",
",@ 	c #2C3437",
"'@ 	c #605B58",
")@ 	c #716762",
"!@ 	c #4C4849",
"~@ 	c #84817E",
"{@ 	c #695E59",
"]@ 	c #766963",
"^@ 	c #564D4D",
"/@ 	c #7A6A62",
"(@ 	c #79665C",
"_@ 	c #756258",
":@ 	c #726056",
"<@ 	c #6A5A52",
"[@ 	c #463F3B",
"}@ 	c #212629",
"|@ 	c #1E2525",
"1@ 	c #1C2223",
"2@ 	c #1C2121",
"3@ 	c #1C2628",
"4@ 	c #1C2B2F",
"5@ 	c #1F2E32",
"6@ 	c #202E32",
"7@ 	c #212D32",
"8@ 	c #202D33",
"9@ 	c #1E2D32",
"0@ 	c #263135",
"a@ 	c #4C4C4B",
"b@ 	c #67605C",
"c@ 	c #403B3C",
"d@ 	c #352F31",
"e@ 	c #342E30",
"f@ 	c #353032",
"g@ 	c #3B3638",
"h@ 	c #848180",
"i@ 	c #817C7A",
"j@ 	c #796C64",
"k@ 	c #7B6E66",
"l@ 	c #8E8077",
"m@ 	c #554B4B",
"n@ 	c #4C4343",
"o@ 	c #72645D",
"p@ 	c #5A4E47",
"q@ 	c #363432",
"r@ 	c #1F2728",
"s@ 	c #212828",
"t@ 	c #1E2426",
"u@ 	c #1D2222",
"v@ 	c #1D2122",
"w@ 	c #1D2628",
"x@ 	c #1D2B2D",
"y@ 	c #1D2C2F",
"z@ 	c #1F2D33",
"A@ 	c #202E33",
"B@ 	c #212E33",
"C@ 	c #212D33",
"D@ 	c #343A3C",
"E@ 	c #655E5B",
"F@ 	c #393335",
"G@ 	c #3D383A",
"H@ 	c #93918F",
"I@ 	c #787370",
"J@ 	c #71645F",
"K@ 	c #776A63",
"L@ 	c #85786F",
"M@ 	c #8F8178",
"N@ 	c #695E5A",
"O@ 	c #483F3F",
"P@ 	c #4A423D",
"Q@ 	c #232929",
"R@ 	c #222727",
"S@ 	c #1D2323",
"T@ 	c #1D2526",
"U@ 	c #1E2C2F",
"V@ 	c #202E31",
"W@ 	c #212E32",
"X@ 	c #1F2E33",
"Y@ 	c #212F33",
"Z@ 	c #202F34",
"`@ 	c #202E34",
" # 	c #202C30",
".# 	c #2A3436",
"+# 	c #635C58",
"@# 	c #726864",
"## 	c #3E393A",
"$# 	c #665E5A",
"%# 	c #635B57",
"&# 	c #70635E",
"*# 	c #7A6E67",
"=# 	c #403738",
"-# 	c #6E615B",
";# 	c #726157",
"># 	c #705F55",
",# 	c #695951",
"'# 	c #403B38",
")# 	c #1F2325",
"!# 	c #1D2424",
"~# 	c #1D282B",
"{# 	c #1D2C30",
"]# 	c #1D2D30",
"^# 	c #1E2D30",
"/# 	c #202F33",
"(# 	c #212E34",
"_# 	c #212F34",
":# 	c #212D31",
"<# 	c #212C31",
"[# 	c #202D30",
"}# 	c #263133",
"|# 	c #56524F",
"1# 	c #6B625E",
"2# 	c #3A3436",
"3# 	c #655E5A",
"4# 	c #6E625C",
"5# 	c #7D7067",
"6# 	c #8D7F76",
"7# 	c #383031",
"8# 	c #846F63",
"9# 	c #826D61",
"0# 	c #7D695E",
"a# 	c #79665D",
"b# 	c #5B4F48",
"c# 	c #343231",
"d# 	c #1F2626",
"e# 	c #203033",
"f# 	c #393D3D",
"g# 	c #675F5A",
"h# 	c #817E7D",
"i# 	c #878380",
"j# 	c #655D59",
"k# 	c #7F726A",
"l# 	c #594F4C",
"m# 	c #5A5150",
"n# 	c #836E62",
"o# 	c #877165",
"p# 	c #857064",
"q# 	c #514742",
"r# 	c #242929",
"s# 	c #1E2829",
"t# 	c #1F2D30",
"u# 	c #1F2F33",
"v# 	c #1F2F32",
"w# 	c #1F2E34",
"x# 	c #213034",
"y# 	c #213033",
"z# 	c #213035",
"A# 	c #202F35",
"B# 	c #2B3336",
"C# 	c #716763",
"D# 	c #5E5A5A",
"E# 	c #8D8A88",
"F# 	c #6A625E",
"G# 	c #766962",
"H# 	c #7B6F68",
"I# 	c #544B4A",
"J# 	c #7E6A5F",
"K# 	c #473F3B",
"L# 	c #202626",
"M# 	c #1F2525",
"N# 	c #1F2A2D",
"O# 	c #1F2E31",
"P# 	c #203034",
"Q# 	c #203035",
"R# 	c #252F34",
"S# 	c #595451",
"T# 	c #6C635E",
"U# 	c #3F393B",
"V# 	c #6C645F",
"W# 	c #6D645F",
"X# 	c #796C65",
"Y# 	c #615755",
"Z# 	c #7D6B60",
"`# 	c #7C6A5F",
" $ 	c #7F6D62",
".$ 	c #705F56",
"+$ 	c #7C695E",
"@$ 	c #63554D",
"#$ 	c #343331",
"$$ 	c #1F3034",
"%$ 	c #213134",
"&$ 	c #203135",
"*$ 	c #222F34",
"=$ 	c #212F32",
"-$ 	c #3C3F40",
";$ 	c #878482",
">$ 	c #6C635F",
",$ 	c #746760",
"'$ 	c #4C4341",
")$ 	c #423A3A",
"!$ 	c #7E6C61",
"~$ 	c #836D62",
"{$ 	c #4C443F",
"]$ 	c #25292A",
"^$ 	c #212726",
"/$ 	c #202528",
"($ 	c #202C2F",
"_$ 	c #213135",
":$ 	c #203134",
"<$ 	c #212F35",
"[$ 	c #2B3338",
"}$ 	c #625B57",
"|$ 	c #656160",
"1$ 	c #69625D",
"2$ 	c #867870",
"3$ 	c #675C57",
"4$ 	c #3D3536",
"5$ 	c #6E5D54",
"6$ 	c #423C39",
"7$ 	c #202828",
"8$ 	c #202629",
"9$ 	c #20292B",
"0$ 	c #202A2D",
"a$ 	c #202C2E",
"b$ 	c #202B2E",
"c$ 	c #202A2C",
"d$ 	c #20282A",
"e$ 	c #202829",
"f$ 	c #232F33",
"g$ 	c #5A5552",
"h$ 	c #6D635E",
"i$ 	c #4C4645",
"j$ 	c #6B635E",
"k$ 	c #81746D",
"l$ 	c #6A5A50",
"m$ 	c #6D5C54",
"n$ 	c #30302F",
"o$ 	c #22282A",
"p$ 	c #212A2B",
"q$ 	c #414343",
"r$ 	c #544E4C",
"s$ 	c #8C7E75",
"t$ 	c #8A7C74",
"u$ 	c #7F6E63",
"v$ 	c #705E55",
"w$ 	c #6D5C53",
"x$ 	c #272B2C",
"y$ 	c #232729",
"z$ 	c #212A2C",
"A$ 	c #223135",
"B$ 	c #223235",
"C$ 	c #223236",
"D$ 	c #233236",
"E$ 	c #233336",
"F$ 	c #233337",
"G$ 	c #223034",
"H$ 	c #223134",
"I$ 	c #222F33",
"J$ 	c #2C3537",
"K$ 	c #605956",
"L$ 	c #5B5452",
"M$ 	c #73665F",
"N$ 	c #675B56",
"O$ 	c #6C5C52",
"P$ 	c #63544D",
"Q$ 	c #343330",
"R$ 	c #242A29",
"S$ 	c #212929",
"T$ 	c #212B2D",
"U$ 	c #212E31",
"V$ 	c #243336",
"W$ 	c #243337",
"X$ 	c #243437",
"Y$ 	c #253437",
"Z$ 	c #253438",
"`$ 	c #263438",
" % 	c #263538",
".% 	c #263639",
"+% 	c #263539",
"@% 	c #273539",
"#% 	c #27353A",
"$% 	c #27363A",
"%% 	c #28363A",
"&% 	c #28373A",
"*% 	c #253538",
"=% 	c #223035",
"-% 	c #82756B",
";% 	c #8E8076",
">% 	c #413838",
",% 	c #6B5B51",
"'% 	c #67584E",
")% 	c #4F453F",
"!% 	c #2C2F2D",
"~% 	c #212C2E",
"{% 	c #253337",
"]% 	c #273639",
"^% 	c #27373A",
"/% 	c #283739",
"(% 	c #28373B",
"_% 	c #29383B",
":% 	c #29383C",
"<% 	c #2A393C",
"[% 	c #2A3A3D",
"}% 	c #2B3A3D",
"|% 	c #2B3A3E",
"1% 	c #2C3A3D",
"2% 	c #2C3A3E",
"3% 	c #2C3B3D",
"4% 	c #2C3B3E",
"5% 	c #454545",
"6% 	c #7B6E65",
"7% 	c #84766C",
"8% 	c #746157",
"9% 	c #66574D",
"0% 	c #3B3834",
"a% 	c #262A2A",
"b% 	c #243438",
"c% 	c #29373B",
"d% 	c #2A383C",
"e% 	c #2A393D",
"f% 	c #2B393D",
"g% 	c #2B3B3E",
"h% 	c #2C3B3F",
"i% 	c #2C3C3F",
"j% 	c #2D3C3F",
"k% 	c #2D3C40",
"l% 	c #2D3D40",
"m% 	c #2E3D40",
"n% 	c #2E3D41",
"o% 	c #2E3E41",
"p% 	c #2F3E41",
"q% 	c #2F3F41",
"r% 	c #303F41",
"s% 	c #303F42",
"t% 	c #2F3F42",
"u% 	c #304043",
"v% 	c #303F43",
"w% 	c #2D3538",
"x% 	c #5D5754",
"y% 	c #393334",
"z% 	c #7E7168",
"A% 	c #3A3232",
"B% 	c #69594F",
"C% 	c #5E5148",
"D% 	c #2E2F2E",
"E% 	c #2B393C",
"F% 	c #304144",
"G% 	c #314144",
"H% 	c #324245",
"I% 	c #334345",
"J% 	c #334346",
"K% 	c #344446",
"L% 	c #344447",
"M% 	c #344548",
"N% 	c #354548",
"O% 	c #354649",
"P% 	c #354549",
"Q% 	c #354448",
"R% 	c #344448",
"S% 	c #324145",
"T% 	c #585351",
"U% 	c #625B59",
"V% 	c #7E7672",
"W% 	c #807369",
"X% 	c #473D3B",
"Y% 	c #66574E",
"Z% 	c #4C433D",
"`% 	c #272C2B",
" & 	c #212D2F",
".& 	c #2E3E40",
"+& 	c #314044",
"@& 	c #324144",
"#& 	c #324345",
"$& 	c #354648",
"%& 	c #354749",
"&& 	c #36474A",
"*& 	c #37484B",
"=& 	c #38484B",
"-& 	c #37494C",
";& 	c #38494C",
">& 	c #384A4C",
",& 	c #394A4C",
"'& 	c #394A4D",
")& 	c #394B4E",
"!& 	c #3A4C4E",
"~& 	c #3A4C4F",
"{& 	c #3B4D4F",
"]& 	c #3B4D50",
"^& 	c #3C4E50",
"/& 	c #3C4F51",
"(& 	c #3D4F51",
"_& 	c #3D4F52",
":& 	c #3C4E51",
"<& 	c #3C4D50",
"[& 	c #3B4C50",
"}& 	c #3B4C4F",
"|& 	c #3A4B4E",
"1& 	c #384B4D",
"2& 	c #37474A",
"3& 	c #364749",
"4& 	c #344547",
"5& 	c #334446",
"6& 	c #494847",
"7& 	c #857B76",
"8& 	c #7E7671",
"9& 	c #807873",
"0& 	c #6E6763",
"a& 	c #83756B",
"b& 	c #7A675D",
"c& 	c #756359",
"d& 	c #63554C",
"e& 	c #363431",
"f& 	c #232828",
"g& 	c #21282A",
"h& 	c #324244",
"i& 	c #324346",
"j& 	c #334447",
"k& 	c #3A4B4D",
"l& 	c #3B4E50",
"m& 	c #3E5053",
"n& 	c #3E5153",
"o& 	c #3E5154",
"p& 	c #3F5255",
"q& 	c #405255",
"r& 	c #405355",
"s& 	c #405356",
"t& 	c #415456",
"u& 	c #415457",
"v& 	c #425557",
"w& 	c #425558",
"x& 	c #425658",
"y& 	c #435659",
"z& 	c #435759",
"A& 	c #43575A",
"B& 	c #44585A",
"C& 	c #44585B",
"D& 	c #45595B",
"E& 	c #46595C",
"F& 	c #465A5C",
"G& 	c #465B5D",
"H& 	c #475B5D",
"I& 	c #475B5E",
"J& 	c #465A5D",
"K& 	c #45585B",
"L& 	c #44575A",
"M& 	c #425659",
"N& 	c #415557",
"O& 	c #3F5254",
"P& 	c #3F5153",
"Q& 	c #3D5052",
"R& 	c #37494B",
"S& 	c #324246",
"T& 	c #314043",
"U& 	c #30373A",
"V& 	c #5B5653",
"W& 	c #7B716D",
"X& 	c #887E79",
"Y& 	c #474141",
"Z& 	c #6B6460",
"`& 	c #5B4F47",
" * 	c #2A2B2C",
".* 	c #21292B",
"+* 	c #2F3E42",
"@* 	c #3A4B4F",
"#* 	c #3E5052",
"$* 	c #3F5154",
"%* 	c #405254",
"&* 	c #435658",
"** 	c #45585A",
"=* 	c #485C5F",
"-* 	c #495D5F",
";* 	c #495E60",
">* 	c #4A5E60",
",* 	c #4A5F61",
"'* 	c #4B6062",
")* 	c #4B6063",
"!* 	c #4C6163",
"~* 	c #4C6264",
"{* 	c #4D6365",
"]* 	c #4E6466",
"^* 	c #4E6567",
"/* 	c #4F6567",
"(* 	c #4F6668",
"_* 	c #506769",
":* 	c #516769",
"<* 	c #51676A",
"[* 	c #51686A",
"}* 	c #52686A",
"|* 	c #52696B",
"1* 	c #526A6B",
"2* 	c #536A6C",
"3* 	c #536A6D",
"4* 	c #536B6D",
"5* 	c #506669",
"6* 	c #506668",
"7* 	c #4F6467",
"8* 	c #4E6365",
"9* 	c #4B5F62",
"0* 	c #485D60",
"a* 	c #485C5E",
"b* 	c #475C5E",
"c* 	c #455A5C",
"d* 	c #44595B",
"e* 	c #39494C",
"f* 	c #37484A",
"g* 	c #314143",
"h* 	c #233035",
"i* 	c #243034",
"j* 	c #253135",
"k* 	c #56514F",
"l* 	c #817772",
"m* 	c #6E6561",
"n* 	c #7A726D",
"o* 	c #5C4F49",
"p* 	c #64564C",
"q* 	c #463F3A",
"r* 	c #21292A",
"s* 	c #2F4043",
"t* 	c #45595C",
"u* 	c #475C5D",
"v* 	c #485D5F",
"w* 	c #4A5F60",
"x* 	c #4B5F61",
"y* 	c #4A6062",
"z* 	c #4D6264",
"A* 	c #4E6364",
"B* 	c #52696A",
"C* 	c #536B6C",
"D* 	c #546B6D",
"E* 	c #546C6E",
"F* 	c #556C6E",
"G* 	c #566D6F",
"H* 	c #566E6F",
"I* 	c #576E70",
"J* 	c #576F70",
"K* 	c #576F71",
"L* 	c #587073",
"M* 	c #597173",
"N* 	c #5A7274",
"O* 	c #5B7475",
"P* 	c #5C7576",
"Q* 	c #5C7577",
"R* 	c #5D7678",
"S* 	c #5E7779",
"T* 	c #5F787A",
"U* 	c #5F797A",
"V* 	c #607A7B",
"W* 	c #617A7C",
"X* 	c #617B7D",
"Y* 	c #627C7E",
"Z* 	c #627D7E",
"`* 	c #637E7F",
" = 	c #647F80",
".= 	c #647F81",
"+= 	c #658082",
"@= 	c #668183",
"#= 	c #668284",
"$= 	c #678385",
"%= 	c #688385",
"&= 	c #688486",
"*= 	c #698587",
"== 	c #698687",
"-= 	c #698688",
";= 	c #6A8688",
">= 	c #6B8789",
",= 	c #6B8889",
"'= 	c #6B888A",
")= 	c #6C888A",
"!= 	c #6C898B",
"~= 	c #6C8A8B",
"{= 	c #6B8788",
"]= 	c #678284",
"^= 	c #668283",
"/= 	c #647E80",
"(= 	c #637D7F",
"_= 	c #637D7E",
":= 	c #60797B",
"<= 	c #5F797B",
"[= 	c #5E7879",
"}= 	c #5B7476",
"|= 	c #5A7375",
"1= 	c #597273",
"2= 	c #587072",
"3= 	c #566E70",
"4= 	c #556D6E",
"5= 	c #53696B",
"6= 	c #4F6667",
"7= 	c #4D6364",
"8= 	c #4C6164",
"9= 	c #495D60",
"0= 	c #485D5E",
"a= 	c #3D5153",
"b= 	c #26363A",
"c= 	c #223136",
"d= 	c #233135",
"e= 	c #243234",
"f= 	c #4B4A49",
"g= 	c #68605B",
"h= 	c #776F6A",
"i= 	c #69625E",
"j= 	c #60514B",
"k= 	c #6C5B52",
"l= 	c #60534A",
"m= 	c #31312E",
"n= 	c #243338",
"o= 	c #759495",
"p= 	c #7FA0A1",
"q= 	c #7D9E9F",
"r= 	c #7E9E9F",
"s= 	c #7D9E9E",
"t= 	c #7E9F9F",
"u= 	c #7E9FA0",
"v= 	c #7E9FA1",
"w= 	c #80A0A1",
"x= 	c #80A1A1",
"y= 	c #80A1A2",
"z= 	c #80A1A3",
"A= 	c #81A2A3",
"B= 	c #81A3A3",
"C= 	c #82A3A4",
"D= 	c #83A4A5",
"E= 	c #83A5A6",
"F= 	c #84A5A6",
"G= 	c #84A6A7",
"H= 	c #84A7A7",
"I= 	c #85A7A8",
"J= 	c #85A8A8",
"K= 	c #86A8A9",
"L= 	c #87A9AA",
"M= 	c #87AAAB",
"N= 	c #88ABAB",
"O= 	c #88ABAC",
"P= 	c #89ACAC",
"Q= 	c #89ACAD",
"R= 	c #8AACAE",
"S= 	c #8BADAE",
"T= 	c #8BAEAF",
"U= 	c #8BAFB0",
"V= 	c #8CAFB0",
"W= 	c #8CB0B1",
"X= 	c #8CB0B2",
"Y= 	c #8DB1B2",
"Z= 	c #8DB2B2",
"`= 	c #8EB2B3",
" - 	c #8FB3B4",
".- 	c #8FB3B5",
"+- 	c #8FB4B5",
"@- 	c #90B5B6",
"#- 	c #91B5B7",
"$- 	c #91B6B8",
"%- 	c #92B7B9",
"&- 	c #93B8B9",
"*- 	c #93B9BA",
"=- 	c #93BABB",
"-- 	c #94BBBB",
";- 	c #94BBBC",
">- 	c #95BBBC",
",- 	c #95BCBD",
"'- 	c #96BCBD",
")- 	c #96BDBE",
"!- 	c #97BDBE",
"~- 	c #97BEBF",
"{- 	c #98BEBF",
"]- 	c #98BEC0",
"^- 	c #97BEC0",
"/- 	c #94BABB",
"(- 	c #92B8B9",
"_- 	c #92B7B8",
":- 	c #91B7B8",
"<- 	c #91B6B7",
"[- 	c #90B6B7",
"}- 	c #90B4B5",
"|- 	c #8EB3B3",
"1- 	c #8EB2B2",
"2- 	c #8DB0B1",
"3- 	c #8CB0B0",
"4- 	c #8AADAE",
"5- 	c #8AADAD",
"6- 	c #89ABAC",
"7- 	c #86A8AA",
"8- 	c #85A8A9",
"9- 	c #82A3A5",
"0- 	c #81A3A4",
"a- 	c #81A1A2",
"b- 	c #7E9EA0",
"c- 	c #769697",
"d- 	c #394B4D",
"e- 	c #243235",
"f- 	c #243135",
"g- 	c #33393C",
"h- 	c #595452",
"i- 	c #867C77",
"j- 	c #433D3D",
"k- 	c #7D6F67",
"l- 	c #86786E",
"m- 	c #64554E",
"n- 	c #68584F",
"o- 	c #584C45",
"p- 	c #272A2A",
"q- 	c #212A2D",
"r- 	c #9CC3C3",
"s- 	c #A9D4D4",
"t- 	c #A7D1D1",
"u- 	c #A6D0D0",
"v- 	c #A6CFCF",
"w- 	c #A5CFCF",
"x- 	c #A5CECE",
"y- 	c #A4CDCE",
"z- 	c #A4CDCD",
"A- 	c #A3CCCD",
"B- 	c #A3CDCD",
"C- 	c #A3CCCC",
"D- 	c #A4CCCC",
"E- 	c #A4CECE",
"F- 	c #A6CFD0",
"G- 	c #A7D0D0",
"H- 	c #A7D0D1",
"I- 	c #A8D1D2",
"J- 	c #A8D2D2",
"K- 	c #A9D3D3",
"L- 	c #AAD3D4",
"M- 	c #AAD4D4",
"N- 	c #AAD4D5",
"O- 	c #ABD5D5",
"P- 	c #ABD5D6",
"Q- 	c #ACD6D6",
"R- 	c #ACD6D7",
"S- 	c #ADD7D8",
"T- 	c #ADD8D9",
"U- 	c #AED9D9",
"V- 	c #AEDADA",
"W- 	c #AFDADB",
"X- 	c #AFDBDB",
"Y- 	c #B0DBDC",
"Z- 	c #B0DCDD",
"`- 	c #B1DDDE",
" ; 	c #B2DEDF",
".; 	c #B2DFE0",
"+; 	c #B3E0E1",
"@; 	c #B3E1E1",
"#; 	c #B4E1E2",
"$; 	c #B4E2E3",
"%; 	c #B5E3E3",
"&; 	c #B5E3E4",
"*; 	c #B6E4E5",
"=; 	c #B7E5E5",
"-; 	c #B7E5E6",
";; 	c #B8E6E6",
">; 	c #B8E7E7",
",; 	c #B8E7E8",
"'; 	c #B8E8E8",
"); 	c #B7E6E6",
"!; 	c #B3E0E0",
"~; 	c #B2DFDF",
"{; 	c #B1DEDE",
"]; 	c #B0DCDC",
"^; 	c #AEDADB",
"/; 	c #AED9DA",
"(; 	c #ADD8D8",
"_; 	c #ACD7D8",
":; 	c #ABD7D7",
"<; 	c #ABD6D6",
"[; 	c #ABD4D5",
"}; 	c #A9D2D3",
"|; 	c #A8D2D3",
"1; 	c #A4CCCD",
"2; 	c #A5CECF",
"3; 	c #A7D1D2",
"4; 	c #A8D3D3",
"5; 	c #9EC6C6",
"6; 	c #2A383B",
"7; 	c #213235",
"8; 	c #253336",
"9; 	c #263235",
"0; 	c #283336",
"a; 	c #53504E",
"b; 	c #69615E",
"c; 	c #58514F",
"d; 	c #7F7168",
"e; 	c #6E5C54",
"f; 	c #675850",
"g; 	c #443E3A",
"h; 	c #9FC6C6",
"i; 	c #ACD7D7",
"j; 	c #A9D3D4",
"k; 	c #A9D2D2",
"l; 	c #A8D1D1",
"m; 	c #AFDADA",
"n; 	c #B5E2E3",
"o; 	c #B6E4E4",
"p; 	c #B8E6E7",
"q; 	c #B9E7E7",
"r; 	c #B9E8E9",
"s; 	c #BAE9EA",
"t; 	c #BAEAEA",
"u; 	c #BBECEC",
"v; 	c #BDEDED",
"w; 	c #BDEEEE",
"x; 	c #BFEFF0",
"y; 	c #C0F0F0",
"z; 	c #C0F2F2",
"A; 	c #C1F3F3",
"B; 	c #C2F4F4",
"C; 	c #C3F5F5",
"D; 	c #C4F6F6",
"E; 	c #C4F7F7",
"F; 	c #C4F8F8",
"G; 	c #C0F1F1",
"H; 	c #BFF0F0",
"I; 	c #BFEFEF",
"J; 	c #BCECED",
"K; 	c #BBEBEC",
"L; 	c #BAEAEB",
"M; 	c #B9E9E9",
"N; 	c #B9E8E8",
"O; 	c #B7E4E5",
"P; 	c #B6E3E4",
"Q; 	c #B4E2E2",
"R; 	c #B3DFE0",
"S; 	c #AFDBDC",
"T; 	c #AAD5D5",
"U; 	c #ABD6D7",
"V; 	c #A1CACA",
"W; 	c #233234",
"X; 	c #243334",
"Y; 	c #263336",
"Z; 	c #273236",
"`; 	c #4B4948",
" > 	c #69605C",
".> 	c #6D6461",
"+> 	c #615B57",
"@> 	c #82746A",
"#> 	c #87796F",
"$> 	c #91837A",
"%> 	c #62544C",
"&> 	c #2D2E2E",
"*> 	c #9FC6C7",
"=> 	c #AED8D9",
"-> 	c #B4E1E1",
";> 	c #B5E4E4",
">> 	c #B6E5E5",
",> 	c #BBEBEB",
"'> 	c #BCECEC",
")> 	c #BEEFEF",
"!> 	c #C1F2F2",
"~> 	c #C0F1F2",
"{> 	c #BFF1F1",
"]> 	c #BEEEEE",
"^> 	c #BBEAEB",
"/> 	c #BAE9E9",
"(> 	c #B2DEDE",
"_> 	c #ADD9D9",
":> 	c #28383B",
"<> 	c #253236",
"[> 	c #343B3C",
"}> 	c #575350",
"|> 	c #665E5C",
"1> 	c #423C3C",
"2> 	c #897B71",
"3> 	c #92837A",
"4> 	c #9E8E84",
"5> 	c #887A72",
"6> 	c #574C46",
"7> 	c #A1C8C9",
"8> 	c #A9D3D2",
"9> 	c #ADD7D7",
"0> 	c #B1DDDD",
"a> 	c #B4E0E0",
"b> 	c #B6E3E3",
"c> 	c #B7E5E4",
"d> 	c #B6E3E5",
"e> 	c #B1DCDD",
"f> 	c #A8D2D1",
"g> 	c #A9D2D1",
"h> 	c #243136",
"i> 	c #283337",
"j> 	c #504D4B",
"k> 	c #5C5453",
"l> 	c #81736A",
"m> 	c #9E8D83",
"n> 	c #9F8E84",
"o> 	c #65564E",
"p> 	c #6A8687",
"q> 	c #6A8787",
"r> 	c #6A8788",
"s> 	c #6C8889",
"t> 	c #6C8989",
"u> 	c #6C898A",
"v> 	c #6D898B",
"w> 	c #6D8A8B",
"x> 	c #6E8A8B",
"y> 	c #6E8B8C",
"z> 	c #6F8C8D",
"A> 	c #6F8D8D",
"B> 	c #708D8E",
"C> 	c #708E8F",
"D> 	c #718E8F",
"E> 	c #718F8F",
"F> 	c #718F90",
"G> 	c #728F90",
"H> 	c #729091",
"I> 	c #729092",
"J> 	c #739192",
"K> 	c #749293",
"L> 	c #749394",
"M> 	c #769595",
"N> 	c #769596",
"O> 	c #779698",
"P> 	c #789798",
"Q> 	c #789899",
"R> 	c #799899",
"S> 	c #7A999A",
"T> 	c #7A9A9B",
"U> 	c #7B9A9C",
"V> 	c #7B9B9C",
"W> 	c #7B9C9D",
"X> 	c #7C9C9E",
"Y> 	c #7D9D9F",
"Z> 	c #7F9FA1",
"`> 	c #80A0A2",
" , 	c #84A5A7",
"., 	c #84A6A8",
"+, 	c #85A7A9",
"@, 	c #86A9AB",
"#, 	c #87A9AB",
"$, 	c #86A9AA",
"%, 	c #82A4A4",
"&, 	c #81A1A3",
"*, 	c #7FA0A2",
"=, 	c #7D9D9E",
"-, 	c #7A9B9B",
";, 	c #79999A",
">, 	c #789898",
",, 	c #779697",
"', 	c #739293",
"), 	c #729192",
"!, 	c #728F91",
"~, 	c #708D8F",
"{, 	c #6F8D8E",
"], 	c #6D898A",
"^, 	c #6B8888",
"/, 	c #6B8688",
"(, 	c #6A8587",
"_, 	c #233137",
":, 	c #484848",
"<, 	c #69615C",
"[, 	c #7A706C",
"}, 	c #877D78",
"|, 	c #93847B",
"1, 	c #7F716A",
"2, 	c #655850",
"3, 	c #223336",
"4, 	c #314245",
"5, 	c #334448",
"6, 	c #344648",
"7, 	c #36484A",
"8, 	c #3D5053",
"9, 	c #415356",
"0, 	c #425457",
"a, 	c #445759",
"b, 	c #4B6164",
"c, 	c #4F6568",
"d, 	c #556D6F",
"e, 	c #5A7374",
"f, 	c #5B7375",
"g, 	c #5E787A",
"h, 	c #5F787B",
"i, 	c #607A7C",
"j, 	c #607A7D",
"k, 	c #5F797C",
"l, 	c #5D7679",
"m, 	c #597274",
"n, 	c #587173",
"o, 	c #577072",
"p, 	c #556C6F",
"q, 	c #52696C",
"r, 	c #51686B",
"s, 	c #50686A",
"t, 	c #4D6466",
"u, 	c #4B6163",
"v, 	c #4A5F62",
"w, 	c #495F61",
"x, 	c #384A4D",
"y, 	c #35474A",
"z, 	c #304044",
"A, 	c #2F3F43",
"B, 	c #2C3C40",
"C, 	c #2A3B3E",
"D, 	c #28393C",
"E, 	c #353C3D",
"F, 	c #6B625D",
"G, 	c #98887F",
"H, 	c #6D605B",
"I, 	c #7B685D",
"J, 	c #716158",
"K, 	c #6D5F57",
"L, 	c #262B2B",
"M, 	c #38494B",
"N, 	c #405456",
"O, 	c #4A5E61",
"P, 	c #4D6265",
"Q, 	c #4D6366",
"R, 	c #495E61",
"S, 	c #465B5E",
"T, 	c #36484B",
"U, 	c #29393C",
"V, 	c #243236",
"W, 	c #263337",
"X, 	c #293638",
"Y, 	c #4C4B49",
"Z, 	c #605754",
"`, 	c #69615D",
" ' 	c #706660",
".' 	c #736862",
"+' 	c #756963",
"@' 	c #746862",
"#' 	c #504644",
"$' 	c #7D6A5F",
"%' 	c #7E6C62",
"&' 	c #827066",
"*' 	c #4E4742",
"=' 	c #304042",
"-' 	c #36464A",
";' 	c #394C4E",
">' 	c #3E4F52",
",' 	c #233237",
"'' 	c #464746",
")' 	c #7C6C65",
"!' 	c #8D776C",
"~' 	c #6E645F",
"{' 	c #726761",
"]' 	c #756A63",
"^' 	c #766A63",
"/' 	c #746962",
"(' 	c #716661",
"_' 	c #83756C",
":' 	c #9C8C82",
"<' 	c #4A403F",
"[' 	c #3E3534",
"}' 	c #79665B",
"|' 	c #746259",
"1' 	c #8F7B6F",
"2' 	c #968175",
"3' 	c #796960",
"4' 	c #2C2E2D",
"5' 	c #253439",
"6' 	c #334245",
"7' 	c #364649",
"8' 	c #314145",
"9' 	c #383E3F",
"0' 	c #5B5553",
"a' 	c #7C6F68",
"b' 	c #8F786D",
"c' 	c #7F6B62",
"d' 	c #584B48",
"e' 	c #453C3B",
"f' 	c #3B3536",
"g' 	c #887A70",
"h' 	c #9D8C82",
"i' 	c #463C3A",
"j' 	c #7A675C",
"k' 	c #76655B",
"l' 	c #8A766B",
"m' 	c #8D7A6E",
"n' 	c #5D524B",
"o' 	c #212C2F",
"p' 	c #213236",
"q' 	c #314244",
"r' 	c #334246",
"s' 	c #344346",
"t' 	c #334347",
"u' 	c #494948",
"v' 	c #746963",
"w' 	c #B5A191",
"x' 	c #74625B",
"y' 	c #716761",
"z' 	c #85776D",
"A' 	c #94847B",
"B' 	c #7B685E",
"C' 	c #837065",
"D' 	c #947F73",
"E' 	c #685951",
"F' 	c #373432",
"G' 	c #223033",
"H' 	c #233034",
"I' 	c #233134",
"J' 	c #243134",
"K' 	c #253235",
"L' 	c #253335",
"M' 	c #263436",
"N' 	c #263437",
"O' 	c #273538",
"P' 	c #283538",
"Q' 	c #283539",
"R' 	c #283639",
"S' 	c #293639",
"T' 	c #29363A",
"U' 	c #29373A",
"V' 	c #29383A",
"W' 	c #2A373B",
"X' 	c #2C3A3C",
"Y' 	c #2C3B3C",
"Z' 	c #2B3A3C",
"`' 	c #2A393B",
" ) 	c #283638",
".) 	c #273537",
"+) 	c #233133",
"@) 	c #444645",
"#) 	c #928379",
"$) 	c #BAA595",
"%) 	c #5D504C",
"&) 	c #918580",
"*) 	c #807269",
"=) 	c #82746D",
"-) 	c #77655B",
";) 	c #867267",
">) 	c #574B45",
",) 	c #212B2E",
"') 	c #1A2729",
")) 	c #162124",
"!) 	c #162123",
"~) 	c #162122",
"{) 	c #162022",
"]) 	c #152022",
"^) 	c #172123",
"/) 	c #172224",
"() 	c #182224",
"_) 	c #1B2526",
":) 	c #1D2728",
"<) 	c #1D2729",
"[) 	c #1E2729",
"}) 	c #1E272A",
"|) 	c #1E282A",
"1) 	c #1F292B",
"2) 	c #202B2D",
"3) 	c #222B2D",
"4) 	c #202A2B",
"5) 	c #1E292B",
"6) 	c #1C2627",
"7) 	c #1A2425",
"8) 	c #172223",
"9) 	c #3C3F41",
"0) 	c #B19E8F",
"a) 	c #78655E",
"b) 	c #6C6361",
"c) 	c #978B86",
"d) 	c #786C65",
"e) 	c #776B63",
"f) 	c #8A7C72",
"g) 	c #726560",
"h) 	c #5A4C47",
"i) 	c #695950",
"j) 	c #48403C",
"k) 	c #141E1E",
"l) 	c #131C1D",
"m) 	c #11191A",
"n) 	c #111819",
"o) 	c #101819",
"p) 	c #101718",
"q) 	c #12191A",
"r) 	c #11181A",
"s) 	c #131A1B",
"t) 	c #131B1C",
"u) 	c #141B1C",
"v) 	c #141B1D",
"w) 	c #151C1D",
"x) 	c #161D1E",
"y) 	c #171E1F",
"z) 	c #161E1F",
"A) 	c #181F20",
"B) 	c #141C1D",
"C) 	c #121B1C",
"D) 	c #131E1D",
"E) 	c #172425",
"F) 	c #2D373A",
"G) 	c #4A4A49",
"H) 	c #4D4546",
"I) 	c #8B807B",
"J) 	c #7E7169",
"K) 	c #7A6D66",
"L) 	c #615552",
"M) 	c #5B4D48",
"N) 	c #594D46",
"O) 	c #121B1B",
"P) 	c #121A1A",
"Q) 	c #131D1D",
"R) 	c #253237",
"S) 	c #283437",
"T) 	c #434545",
"U) 	c #786D67",
"V) 	c #938782",
"W) 	c #7D7169",
"X) 	c #8A7B72",
"Y) 	c #675750",
"Z) 	c #514741",
"`) 	c #151F1F",
" ! 	c #141E1D",
".! 	c #121C1C",
"+! 	c #152020",
"@! 	c #1B282A",
"#! 	c #3B3F41",
"$! 	c #82756D",
"%! 	c #B9A494",
"&! 	c #8A746A",
"*! 	c #877C79",
"=! 	c #756962",
"-! 	c #786C64",
";! 	c #8B7C72",
">! 	c #3D3835",
",! 	c #151F20",
"'! 	c #B49F8F",
")! 	c #8C766B",
"!! 	c #826C63",
"~! 	c #806B62",
"{! 	c #6D6361",
"]! 	c #786E69",
"^! 	c #806D62",
"/! 	c #524842",
"(! 	c #162224",
"_! 	c #121A1B",
":! 	c #152021",
"<! 	c #1A282A",
"[! 	c #233235",
"}! 	c #3F4243",
"|! 	c #B39E8F",
"1! 	c #8E776C",
"2! 	c #816C63",
"3! 	c #534B4B",
"4! 	c #817671",
"5! 	c #8F7F75",
"6! 	c #7C695F",
"7! 	c #8A766C",
"8! 	c #89756B",
"9! 	c #7F6C61",
"0! 	c #4C433E",
"a! 	c #172325",
"b! 	c #141D1E",
"c! 	c #121C1D",
"d! 	c #373D3E",
"e! 	c #A89284",
"f! 	c #877167",
"g! 	c #403A3B",
"h! 	c #887D78",
"i! 	c #82746B",
"j! 	c #97877D",
"k! 	c #4D4241",
"l! 	c #483E3D",
"m! 	c #493E3D",
"n! 	c #7A675E",
"o! 	c #5E5049",
"p! 	c #383533",
"q! 	c #172324",
"r! 	c #162223",
"s! 	c #2C3739",
"t! 	c #4F4D4B",
"u! 	c #A08A7D",
"v! 	c #554947",
"w! 	c #4F4342",
"x! 	c #192527",
"y! 	c #253338",
"z! 	c #3D4142",
"A! 	c #947E72",
"B! 	c #857A76",
"C! 	c #958984",
"D! 	c #85776E",
"E! 	c #6F605A",
"F! 	c #77665F",
"G! 	c #7E6B60",
"H! 	c #6F5E54",
"I! 	c #453E3A",
"J! 	c #131D1C",
"K! 	c #1F2C2F",
"L! 	c #182425",
"M! 	c #233136",
"N! 	c #353C3E",
"O! 	c #675F5B",
"P! 	c #867167",
"Q! 	c #716764",
"R! 	c #81736B",
"S! 	c #80726A",
"T! 	c #83756D",
"U! 	c #75665F",
"V! 	c #5F514D",
"W! 	c #877369",
"X! 	c #5D4F48",
"Y! 	c #212B2C",
"Z! 	c #2A3D42",
"`! 	c #283A3F",
" ~ 	c #27373C",
".~ 	c #141F1F",
"+~ 	c #182426",
"@~ 	c #2E383A",
"#~ 	c #5D5753",
"$~ 	c #746A63",
"%~ 	c #756A64",
"&~ 	c #736963",
"*~ 	c #726762",
"=~ 	c #A28C80",
"-~ 	c #836E64",
";~ 	c #6F6562",
">~ 	c #7C6F67",
",~ 	c #7E7068",
"'~ 	c #76665F",
")~ 	c #493F3E",
"!~ 	c #7B6961",
"~~ 	c #836F65",
"{~ 	c #49413C",
"]~ 	c #192526",
"^~ 	c #2D4247",
"/~ 	c #2F444A",
"(~ 	c #25363A",
"_~ 	c #233338",
":~ 	c #162021",
"<~ 	c #283438",
"[~ 	c #8F796F",
"}~ 	c #826D64",
"|~ 	c #6A605D",
"1~ 	c #574B49",
"2~ 	c #4C4140",
"3~ 	c #3B3332",
"4~ 	c #3C3533",
"5~ 	c #3F3A36",
"6~ 	c #162222",
"7~ 	c #172222",
"8~ 	c #2F4349",
"9~ 	c #344A51",
"0~ 	c #27383E",
"a~ 	c #343C3D",
"b~ 	c #7F7169",
"c~ 	c #6F6660",
"d~ 	c #7B6F67",
"e~ 	c #95847B",
"f~ 	c #413938",
"g~ 	c #3A3332",
"h~ 	c #806E65",
"i~ 	c #5D5048",
"j~ 	c #1F2427",
"k~ 	c #1F2326",
"l~ 	c #1E2424",
"m~ 	c #2A3D41",
"n~ 	c #364E55",
"o~ 	c #293A40",
"p~ 	c #1A2627",
"q~ 	c #1B292B",
"r~ 	c #2B3538",
"s~ 	c #605A55",
"t~ 	c #776B65",
"u~ 	c #937D71",
"v~ 	c #7C6860",
"w~ 	c #736861",
"x~ 	c #82746C",
"y~ 	c #3B3433",
"z~ 	c #493F3D",
"A~ 	c #867369",
"B~ 	c #27292A",
"C~ 	c #1D2225",
"D~ 	c #1E2222",
"E~ 	c #202729",
"F~ 	c #162020",
"G~ 	c #243539",
"H~ 	c #354D53",
"I~ 	c #151E1E",
"J~ 	c #434444",
"K~ 	c #726862",
"L~ 	c #9D8375",
"M~ 	c #6C5B56",
"N~ 	c #7A706B",
"O~ 	c #796D65",
"P~ 	c #97867D",
"Q~ 	c #4B403F",
"R~ 	c #76655D",
"S~ 	c #7F6C63",
"T~ 	c #584A44",
"U~ 	c #836F66",
"V~ 	c #3E3836",
"W~ 	c #212526",
"X~ 	c #1F2226",
"Y~ 	c #1C2222",
"Z~ 	c #1F2729",
"`~ 	c #20292C",
" { 	c #202D2F",
".{ 	c #354C52",
"+{ 	c #293A3F",
"@{ 	c #141E1F",
"#{ 	c #203136",
"${ 	c #333B3C",
"%{ 	c #6F655F",
"&{ 	c #796D67",
"*{ 	c #9E8476",
"={ 	c #6A5A55",
"-{ 	c #3E3738",
";{ 	c #857A75",
">{ 	c #4C423F",
",{ 	c #50423D",
"'{ 	c #51433E",
"){ 	c #7B6960",
"!{ 	c #867268",
"~{ 	c #60524A",
"{{ 	c #373331",
"]{ 	c #222626",
"^{ 	c #212324",
"/{ 	c #1D2023",
"({ 	c #1C2020",
"_{ 	c #1D2527",
":{ 	c #182324",
"<{ 	c #203032",
"[{ 	c #364D54",
"}{ 	c #2B3E44",
"|{ 	c #182326",
"1{ 	c #2A3739",
"2{ 	c #635C57",
"3{ 	c #786C66",
"4{ 	c #8E7B70",
"5{ 	c #A28778",
"6{ 	c #846F65",
"7{ 	c #635551",
"8{ 	c #9B8B81",
"9{ 	c #594A44",
"0{ 	c #705E57",
"a{ 	c #715F55",
"b{ 	c #514640",
"c{ 	c #302D2C",
"d{ 	c #212425",
"e{ 	c #1C2529",
"f{ 	c #1D292C",
"g{ 	c #182527",
"h{ 	c #32484D",
"i{ 	c #2F4348",
"j{ 	c #222F32",
"k{ 	c #232F31",
"l{ 	c #232F30",
"m{ 	c #222F31",
"n{ 	c #202F32",
"o{ 	c #202F31",
"p{ 	c #212F31",
"q{ 	c #242F30",
"r{ 	c #252F30",
"s{ 	c #262F30",
"t{ 	c #252F31",
"u{ 	c #1D2A2C",
"v{ 	c #1E2E31",
"w{ 	c #887268",
"x{ 	c #363032",
"y{ 	c #454041",
"z{ 	c #97877E",
"A{ 	c #72635D",
"B{ 	c #473D3C",
"C{ 	c #645651",
"D{ 	c #6F5E56",
"E{ 	c #63534C",
"F{ 	c #826F65",
"G{ 	c #6D5D53",
"H{ 	c #433B38",
"I{ 	c #242426",
"J{ 	c #1B1E20",
"K{ 	c #191D1F",
"L{ 	c #1A2124",
"M{ 	c #1C292B",
"N{ 	c #2D4146",
"O{ 	c #272F30",
"P{ 	c #242F31",
"Q{ 	c #282F30",
"R{ 	c #232F32",
"S{ 	c #213133",
"T{ 	c #2D3739",
"U{ 	c #70655F",
"V{ 	c #766A62",
"W{ 	c #9D8476",
"X{ 	c #8B756A",
"Y{ 	c #605350",
"Z{ 	c #3A3334",
"`{ 	c #423D3E",
" ] 	c #494344",
".] 	c #96867C",
"+] 	c #786963",
"@] 	c #423938",
"#] 	c #473E3B",
"$] 	c #574943",
"%] 	c #584B44",
"&] 	c #2E2C2B",
"*] 	c #1A1F23",
"=] 	c #181F21",
"-] 	c #172021",
";] 	c #182023",
">] 	c #192125",
",] 	c #374F56",
"'] 	c #262F31",
")] 	c #242F32",
"!] 	c #5A534E",
"~] 	c #72665F",
"{] 	c #937B6F",
"]] 	c #3F3738",
"^] 	c #4B4545",
"/] 	c #8E7F76",
"(] 	c #8A7B73",
"_] 	c #857268",
":] 	c #62524C",
"<] 	c #695851",
"[] 	c #7C685E",
"}] 	c #816E62",
"|] 	c #2C2C2B",
"1] 	c #172022",
"2] 	c #182123",
"3] 	c #172124",
"4] 	c #172225",
"5] 	c #27383D",
"6] 	c #395259",
"7] 	c #27393E",
"8] 	c #1B2729",
"9] 	c #213032",
"0] 	c #1F3033",
"a] 	c #2E3132",
"b] 	c #A58B7C",
"c] 	c #947C70",
"d] 	c #3B3537",
"e] 	c #554E4D",
"f] 	c #685E5B",
"g] 	c #928682",
"h] 	c #7A6E66",
"i] 	c #8C7D74",
"j] 	c #6B5C55",
"k] 	c #52433E",
"l] 	c #5D4D47",
"m] 	c #88746A",
"n] 	c #78635A",
"o] 	c #998376",
"p] 	c #9A8477",
"q] 	c #857165",
"r] 	c #192122",
"s] 	c #151F22",
"t] 	c #162023",
"u] 	c #172326",
"v] 	c #1C2B2D",
"w] 	c #162121",
"x] 	c #283B3F",
"y] 	c #385057",
"z] 	c #253032",
"A] 	c #223032",
"B] 	c #1F2D2F",
"C] 	c #1F2C33",
"D] 	c #1C2428",
"E] 	c #74685F",
"F] 	c #BAA08E",
"G] 	c #967E71",
"H] 	c #3E383A",
"I] 	c #595150",
"J] 	c #494444",
"K] 	c #605857",
"L] 	c #85776F",
"M] 	c #95847C",
"N] 	c #544540",
"O] 	c #564742",
"P] 	c #7E6960",
"Q] 	c #846F64",
"R] 	c #867266",
"S] 	c #182427",
"T] 	c #131C1B",
"U] 	c #25373A",
"V] 	c #344B51",
"W] 	c #2D4147",
"X] 	c #273030",
"Y] 	c #293031",
"Z] 	c #2B3132",
"`] 	c #2B3233",
" ^ 	c #2A3233",
".^ 	c #293233",
"+^ 	c #293234",
"@^ 	c #283234",
"#^ 	c #273234",
"$^ 	c #263234",
"%^ 	c #263236",
"&^ 	c #273233",
"*^ 	c #283233",
"=^ 	c #2A3132",
"-^ 	c #233032",
";^ 	c #182428",
">^ 	c #8D7B70",
",^ 	c #C2A794",
"'^ 	c #9A8173",
")^ 	c #83746C",
"!^ 	c #3D3534",
"~^ 	c #79645B",
"{^ 	c #877367",
"]^ 	c #192426",
"^^ 	c #2B3E42",
"/^ 	c #2E4247",
"(^ 	c #292F30",
"_^ 	c #272D2E",
":^ 	c #23292A",
"<^ 	c #1E2728",
"[^ 	c #1D272A",
"}^ 	c #1C272A",
"|^ 	c #232A2B",
"1^ 	c #272E2F",
"2^ 	c #293030",
"3^ 	c #243032",
"4^ 	c #152023",
"5^ 	c #151F21",
"6^ 	c #A08A7C",
"7^ 	c #C3A895",
"8^ 	c #7A665F",
"9^ 	c #433D3F",
"0^ 	c #4B4645",
"a^ 	c #685F5B",
"b^ 	c #776B64",
"c^ 	c #7D7068",
"d^ 	c #908179",
"e^ 	c #847066",
"f^ 	c #7B665D",
"g^ 	c #877269",
"h^ 	c #826F64",
"i^ 	c #141D1D",
"j^ 	c #293C40",
"k^ 	c #2C3F45",
"l^ 	c #243439",
"m^ 	c #272F31",
"n^ 	c #2A3031",
"o^ 	c #282F2F",
"p^ 	c #222929",
"q^ 	c #182021",
"r^ 	c #13191A",
"s^ 	c #12191B",
"t^ 	c #13191B",
"u^ 	c #14191A",
"v^ 	c #1A2222",
"w^ 	c #243033",
"x^ 	c #A58E7E",
"y^ 	c #A18677",
"z^ 	c #78655D",
"A^ 	c #4E4847",
"B^ 	c #5D5552",
"C^ 	c #7E726A",
"D^ 	c #665B58",
"E^ 	c #655A57",
"F^ 	c #514745",
"G^ 	c #423A38",
"H^ 	c #847167",
"I^ 	c #8B776D",
"J^ 	c #182323",
"K^ 	c #30454B",
"L^ 	c #253033",
"M^ 	c #283030",
"N^ 	c #242C2B",
"O^ 	c #1B2424",
"P^ 	c #101617",
"Q^ 	c #0F1617",
"R^ 	c #0F1718",
"S^ 	c #0F1719",
"T^ 	c #10181A",
"U^ 	c #111A1B",
"V^ 	c #1C2525",
"W^ 	c #242C2C",
"X^ 	c #283031",
"Y^ 	c #182022",
"Z^ 	c #90796E",
"`^ 	c #4A4444",
" / 	c #4F4947",
"./ 	c #534C4A",
"+/ 	c #7D7670",
"@/ 	c #79716B",
"#/ 	c #6F6661",
"$/ 	c #70645F",
"%/ 	c #4E4543",
"&/ 	c #413937",
"*/ 	c #6A5B53",
"=/ 	c #716259",
"-/ 	c #95847A",
";/ 	c #8D7A70",
">/ 	c #7A685F",
",/ 	c #293B3F",
"'/ 	c #32474D",
")/ 	c #2A3C42",
"!/ 	c #1D2525",
"~/ 	c #15201F",
"{/ 	c #131C1C",
"]/ 	c #111818",
"^/ 	c #242C2D",
"// 	c #182122",
"(/ 	c #957D70",
"_/ 	c #635C59",
":/ 	c #87807A",
"</ 	c #8B847E",
"[/ 	c #8A837D",
"}/ 	c #716863",
"|/ 	c #6C615D",
"1/ 	c #5E5552",
"2/ 	c #5F5553",
"3/ 	c #625855",
"4/ 	c #453D3B",
"5/ 	c #564843",
"6/ 	c #5F504A",
"7/ 	c #86746A",
"8/ 	c #63554E",
"9/ 	c #32484E",
"0/ 	c #2C3F44",
"a/ 	c #263033",
"b/ 	c #282F31",
"c/ 	c #292F31",
"d/ 	c #262C2E",
"e/ 	c #1E2628",
"f/ 	c #172020",
"g/ 	c #131B1B",
"h/ 	c #101919",
"i/ 	c #111919",
"j/ 	c #BEA390",
"k/ 	c #9B8174",
"l/ 	c #494343",
"m/ 	c #6F6864",
"n/ 	c #827A74",
"o/ 	c #736A65",
"p/ 	c #766A64",
"q/ 	c #6D625D",
"r/ 	c #514B4A",
"s/ 	c #4E4848",
"t/ 	c #504949",
"u/ 	c #5E5452",
"v/ 	c #3F3837",
"w/ 	c #665952",
"x/ 	c #32494F",
"y/ 	c #2B3F44",
"z/ 	c #263032",
"A/ 	c #22292A",
"B/ 	c #182223",
"C/ 	c #131E1E",
"D/ 	c #111A1A",
"E/ 	c #192121",
"F/ 	c #272E30",
"G/ 	c #273031",
"H/ 	c #253133",
"I/ 	c #202E30",
"J/ 	c #B59A89",
"K/ 	c #79655E",
"L/ 	c #4C4745",
"M/ 	c #534D4A",
"N/ 	c #67605D",
"O/ 	c #88807A",
"P/ 	c #544D4C",
"Q/ 	c #5D5352",
"R/ 	c #685A52",
"S/ 	c #928076",
"T/ 	c #544943",
"U/ 	c #1E2C2E",
"V/ 	c #2D4046",
"W/ 	c #253134",
"X/ 	c #242B2D",
"Y/ 	c #1C2526",
"Z/ 	c #182121",
"`/ 	c #1B2324",
" ( 	c #1C2324",
".( 	c #1C2325",
"+( 	c #1C2424",
"@( 	c #1C2425",
"#( 	c #161F1F",
"$( 	c #1A2324",
"%( 	c #222A2C",
"&( 	c #AC9181",
"*( 	c #917A6E",
"=( 	c #826D65",
"-( 	c #595351",
";( 	c #665C58",
">( 	c #4B4444",
",( 	c #403938",
"'( 	c #76665D",
")( 	c #938278",
"!( 	c #534843",
"~( 	c #5F5049",
"{( 	c #4E413D",
"]( 	c #161F21",
"^( 	c #1A2728",
"/( 	c #2C3E43",
"(( 	c #253539",
"_( 	c #262D2F",
":( 	c #262D2E",
"<( 	c #262E2F",
"[( 	c #252D2E",
"}( 	c #262E2E",
"|( 	c #252E2E",
"1( 	c #161F20",
"2( 	c #1E2627",
"3( 	c #A4897A",
"4( 	c #5F524F",
"5( 	c #373133",
"6( 	c #464142",
"7( 	c #554F4D",
"8( 	c #322C2E",
"9( 	c #4D4644",
"0( 	c #6A605B",
"a( 	c #484242",
"b( 	c #453F3F",
"c( 	c #403A39",
"d( 	c #3D3635",
"e( 	c #544742",
"f( 	c #6E5F56",
"g( 	c #918076",
"h( 	c #918077",
"i( 	c #4D423E",
"j( 	c #4E433E",
"k( 	c #493D39",
"l( 	c #493D3A",
"m( 	c #3B312F",
"n( 	c #372D2C",
"o( 	c #302727",
"p( 	c #283A3E",
"q( 	c #26373C",
"r( 	c #172122",
"s( 	c #131D1E",
"t( 	c #172121",
"u( 	c #273032",
"v( 	c #273132",
"w( 	c #253234",
"x( 	c #232B2C",
"y( 	c #1A2323",
"z( 	c #263132",
"A( 	c #1E2B2D",
"B( 	c #182325",
"C( 	c #141F20",
"D( 	c #9E8878",
"E( 	c #3D3839",
"F( 	c #484343",
"G( 	c #534D4B",
"H( 	c #6C6562",
"I( 	c #726B68",
"J( 	c #312B2D",
"K( 	c #443D3C",
"L( 	c #625956",
"M( 	c #6B615B",
"N( 	c #5E5450",
"O( 	c #4C4441",
"P( 	c #403837",
"Q( 	c #504540",
"R( 	c #64564F",
"S( 	c #3D3634",
"T( 	c #3C3432",
"U( 	c #28393D",
"V( 	c #273033",
"W( 	c #282E2F",
"X( 	c #282F32",
"Y( 	c #263134",
"Z( 	c #272F2F",
"`( 	c #182222",
" _ 	c #273131",
"._ 	c #263233",
"+_ 	c #968072",
"@_ 	c #5D504D",
"#_ 	c #494443",
"$_ 	c #716A67",
"%_ 	c #4F4949",
"&_ 	c #383133",
"*_ 	c #514947",
"=_ 	c #48403E",
"-_ 	c #63564F",
";_ 	c #88786F",
">_ 	c #85766E",
",_ 	c #514744",
"'_ 	c #383130",
")_ 	c #223234",
"!_ 	c #344A50",
"~_ 	c #262D2D",
"{_ 	c #272F32",
"]_ 	c #253136",
"^_ 	c #1E2727",
"/_ 	c #141F1E",
"(_ 	c #222A2B",
"__ 	c #293132",
":_ 	c #243237",
"<_ 	c #957E70",
"[_ 	c #5B4F4C",
"}_ 	c #595353",
"|_ 	c #615A59",
"1_ 	c #3D3738",
"2_ 	c #3E3838",
"3_ 	c #4B4342",
"4_ 	c #5A524F",
"5_ 	c #5E5652",
"6_ 	c #47403F",
"7_ 	c #473E3C",
"8_ 	c #312828",
"9_ 	c #433835",
"0_ 	c #332A2A",
"a_ 	c #372E2E",
"b_ 	c #393030",
"c_ 	c #3B3231",
"d_ 	c #3D3433",
"e_ 	c #2A3B40",
"f_ 	c #1A2423",
"g_ 	c #222B2B",
"h_ 	c #263131",
"i_ 	c #282E30",
"j_ 	c #242D2D",
"k_ 	c #1C2626",
"l_ 	c #16201F",
"m_ 	c #252C2D",
"n_ 	c #B59C8A",
"o_ 	c #AC9180",
"p_ 	c #594C49",
"q_ 	c #635D5B",
"r_ 	c #6A6461",
"s_ 	c #4D4848",
"t_ 	c #443F3F",
"u_ 	c #352F30",
"v_ 	c #443C3A",
"w_ 	c #5D534F",
"x_ 	c #72635E",
"y_ 	c #74655F",
"z_ 	c #776962",
"A_ 	c #7B6D66",
"B_ 	c #796B65",
"C_ 	c #80726B",
"D_ 	c #3F3836",
"E_ 	c #4A413D",
"F_ 	c #5A4E49",
"G_ 	c #72625A",
"H_ 	c #8D796D",
"I_ 	c #6F5F58",
"J_ 	c #233437",
"K_ 	c #3B555D",
"L_ 	c #202929",
"M_ 	c #283032",
"N_ 	c #282F2E",
"O_ 	c #B79D8B",
"P_ 	c #D7B9A3",
"Q_ 	c #A98D7E",
"R_ 	c #A18778",
"S_ 	c #4B413F",
"T_ 	c #635C5B",
"U_ 	c #68625F",
"V_ 	c #504B4B",
"W_ 	c #5F5653",
"X_ 	c #534A47",
"Y_ 	c #6D605C",
"Z_ 	c #857770",
"`_ 	c #8A7B74",
" : 	c #7B6E68",
".: 	c #4E4441",
"+: 	c #625650",
"@: 	c #71635B",
"#: 	c #87756A",
"$: 	c #544844",
"%: 	c #334A50",
"&: 	c #30444A",
"*: 	c #273134",
"=: 	c #212A2A",
"-: 	c #1E2626",
";: 	c #263031",
">: 	c #1F2829",
",: 	c #D8BAA4",
"': 	c #D1B49F",
"): 	c #A58A7B",
"!: 	c #433E3F",
"~: 	c #746A64",
"{: 	c #534B48",
"]: 	c #584E49",
"^: 	c #675A53",
"/: 	c #75675E",
"(: 	c #796A61",
"_: 	c #7A6A61",
":: 	c #8B786C",
"<: 	c #75665E",
"[: 	c #26353A",
"}: 	c #273133",
"|: 	c #273235",
"1: 	c #1D2627",
"2: 	c #1A2424",
"3: 	c #2A3131",
"4: 	c #142020",
"5: 	c #C6A996",
"6: 	c #867067",
"7: 	c #3A3536",
"8: 	c #5E5654",
"9: 	c #685E5A",
"0: 	c #494242",
"a: 	c #5E5555",
"b: 	c #675F5D",
"c: 	c #433C3D",
"d: 	c #595050",
"e: 	c #6F6563",
"f: 	c #6C615F",
"g: 	c #655A58",
"h: 	c #877872",
"i: 	c #7E716A",
"j: 	c #756863",
"k: 	c #6F645E",
"l: 	c #524A47",
"m: 	c #473F3D",
"n: 	c #423B39",
"o: 	c #3E3736",
"p: 	c #4F4643",
"q: 	c #695F5A",
"r: 	c #887C75",
"s: 	c #988B83",
"t: 	c #9E9188",
"u: 	c #998C83",
"v: 	c #7B6C63",
"w: 	c #827166",
"x: 	c #89776B",
"y: 	c #857368",
"z: 	c #827167",
"A: 	c #837268",
"B: 	c #564945",
"C: 	c #2C4045",
"D: 	c #25353A",
"E: 	c #273135",
"F: 	c #263335",
"G: 	c #263338",
"H: 	c #283133",
"I: 	c #242C2E",
"J: 	c #1C2527",
"K: 	c #1C2524",
"L: 	c #151F1E",
"M: 	c #B09686",
"N: 	c #75635B",
"O: 	c #443F40",
"P: 	c #5E5653",
"Q: 	c #3E3737",
"R: 	c #8A7F7B",
"S: 	c #908581",
"T: 	c #877C78",
"U: 	c #5B524E",
"V: 	c #6B5F58",
"W: 	c #7E6F66",
"X: 	c #9A8C83",
"Y: 	c #453B39",
"Z: 	c #78665D",
"`: 	c #253639",
" < 	c #2D4246",
".< 	c #293B40",
"+< 	c #283033",
"@< 	c #192425",
"#< 	c #9D8477",
"$< 	c #3C3637",
"%< 	c #3C393A",
"&< 	c #3A3637",
"*< 	c #413B3C",
"=< 	c #8E837F",
"-< 	c #847975",
";< 	c #796F6B",
">< 	c #746A67",
",< 	c #665D59",
"'< 	c #5C524E",
")< 	c #75675F",
"!< 	c #93857C",
"~< 	c #685A53",
"{< 	c #4A3F3C",
"]< 	c #7C6A60",
"^< 	c #31474D",
"/< 	c #252C2E",
"(< 	c #B39A89",
"_< 	c #D2B5A0",
":< 	c #413B3D",
"<< 	c #706761",
"[< 	c #5C534F",
"}< 	c #6B5E58",
"|< 	c #998B82",
"1< 	c #7A6B62",
"2< 	c #70635B",
"3< 	c #695C56",
"4< 	c #76675F",
"5< 	c #74655D",
"6< 	c #60524C",
"7< 	c #4E413F",
"8< 	c #4B3E3C",
"9< 	c #6A5A53",
"0< 	c #182526",
"a< 	c #121B1A",
"b< 	c #2E4348",
"c< 	c #2F4449",
"d< 	c #242B2B",
"e< 	c #273336",
"f< 	c #252E30",
"g< 	c #232B2B",
"h< 	c #25353B",
"i< 	c #2D2A2C",
"j< 	c #49403F",
"k< 	c #625550",
"l< 	c #8E796D",
"m< 	c #8A7469",
"n< 	c #5F5853",
"o< 	c #665D5B",
"p< 	c #625752",
"q< 	c #71635C",
"r< 	c #6A5D57",
"s< 	c #70625B",
"t< 	c #5F514B",
"u< 	c #544643",
"v< 	c #493C3B",
"w< 	c #1F2F31",
"x< 	c #25373B",
"y< 	c #192323",
"z< 	c #222A2A",
"A< 	c #25363B",
"B< 	c #283132",
"C< 	c #293131",
"D< 	c #232D2E",
"E< 	c #1B2626",
"F< 	c #152122",
"G< 	c #3E3839",
"H< 	c #443E3F",
"I< 	c #464040",
"J< 	c #524B4A",
"K< 	c #615955",
"L< 	c #59514E",
"M< 	c #3C3636",
"N< 	c #322D2E",
"O< 	c #8A827E",
"P< 	c #655D58",
"Q< 	c #615855",
"R< 	c #6C5E58",
"S< 	c #2F454A",
"T< 	c #26363B",
"U< 	c #26373B",
"V< 	c #273436",
"W< 	c #192424",
"X< 	c #273335",
"Y< 	c #433D3E",
"Z< 	c #3F393A",
"`< 	c #383334",
" [ 	c #312C2E",
".[ 	c #302B2D",
"+[ 	c #332F31",
"@[ 	c #655954",
"#[ 	c #817066",
"$[ 	c #9A8678",
"%[ 	c #A18B7C",
"&[ 	c #978375",
"*[ 	c #8B796E",
"=[ 	c #7C6C62",
"-[ 	c #564844",
";[ 	c #192729",
">[ 	c #2B3E43",
",[ 	c #2D4045",
"'[ 	c #1F2828",
")[ 	c #273438",
"![ 	c #262E30",
"~[ 	c #1F282A",
"{[ 	c #192222",
"][ 	c #283335",
"^[ 	c #192627",
"/[ 	c #373334",
"([ 	c #413A3B",
"_[ 	c #3B3435",
":[ 	c #383234",
"<[ 	c #332E30",
"[[ 	c #383536",
"}[ 	c #464243",
"|[ 	c #605651",
"1[ 	c #72645C",
"2[ 	c #6D6059",
"3[ 	c #6D5F58",
"4[ 	c #807065",
"5[ 	c #8A776A",
"6[ 	c #8C796B",
"7[ 	c #958172",
"8[ 	c #A89181",
"9[ 	c #62534D",
"0[ 	c #79675E",
"a[ 	c #2A3C41",
"b[ 	c #26363C",
"c[ 	c #1D2626",
"d[ 	c #252D2D",
"e[ 	c #263439",
"f[ 	c #252D2F",
"g[ 	c #283235",
"h[ 	c #27363B",
"i[ 	c #625957",
"j[ 	c #746966",
"k[ 	c #716664",
"l[ 	c #706562",
"m[ 	c #6A605E",
"n[ 	c #655C5A",
"o[ 	c #564D4C",
"p[ 	c #484142",
"q[ 	c #322D2F",
"r[ 	c #3A3738",
"s[ 	c #635B56",
"t[ 	c #73655D",
"u[ 	c #9D8878",
"v[ 	c #705F57",
"w[ 	c #2C3E44",
"x[ 	c #273437",
"y[ 	c #283134",
"z[ 	c #242C2F",
"A[ 	c #283135",
"B[ 	c #27343A",
"C[ 	c #7F7772",
"D[ 	c #978D86",
"E[ 	c #887F7A",
"F[ 	c #817874",
"G[ 	c #665E59",
"H[ 	c #675B55",
"I[ 	c #6B5E57",
"J[ 	c #74665E",
"K[ 	c #7E6E64",
"L[ 	c #89776A",
"M[ 	c #867568",
"N[ 	c #8F7C6E",
"O[ 	c #5B4E4A",
"P[ 	c #61544F",
"Q[ 	c #1D2C2E",
"R[ 	c #33484E",
"S[ 	c #26353B",
"T[ 	c #182424",
"U[ 	c #131F1F",
"V[ 	c #273439",
"W[ 	c #716966",
"X[ 	c #908781",
"Y[ 	c #918881",
"Z[ 	c #776860",
"`[ 	c #786960",
" } 	c #857367",
".} 	c #A68F7F",
"+} 	c #4A3D3B",
"@} 	c #171F20",
"#} 	c #26373D",
"$} 	c #273337",
"%} 	c #1D282A",
"&} 	c #151E1F",
"*} 	c #625C5B",
"=} 	c #746C6A",
"-} 	c #766E6C",
";} 	c #8C837D",
">} 	c #8A807B",
",} 	c #343032",
"'} 	c #6F625A",
")} 	c #8E7B6C",
"!} 	c #947F72",
"~} 	c #3F3535",
"{} 	c #60534E",
"]} 	c #334B51",
"^} 	c #242B2C",
"/} 	c #1D2426",
"(} 	c #252B2D",
"_} 	c #242D30",
":} 	c #5D5856",
"<} 	c #7F7672",
"[} 	c #847B77",
"}} 	c #827975",
"|} 	c #7C7370",
"1} 	c #353133",
"2} 	c #685F5A",
"3} 	c #5F5550",
"4} 	c #685B55",
"5} 	c #6E6059",
"6} 	c #8B796B",
"7} 	c #9F897A",
"8} 	c #6E5D56",
"9} 	c #3B3233",
"0} 	c #473B3A",
"a} 	c #27373D",
"b} 	c #26373A",
"c} 	c #151E1D",
"d} 	c #1B2323",
"e} 	c #232B2D",
"f} 	c #222D2F",
"g} 	c #27373B",
"h} 	c #5B5756",
"i} 	c #6F6866",
"j} 	c #706868",
"k} 	c #443F41",
"l} 	c #7D6D64",
"m} 	c #A28C7C",
"n} 	c #9A8275",
"o} 	c #433838",
"p} 	c #20292A",
"q} 	c #283131",
"r} 	c #26383C",
"s} 	c #6C6664",
"t} 	c #706967",
"u} 	c #706968",
"v} 	c #595354",
"w} 	c #393537",
"x} 	c #605753",
"y} 	c #74665F",
"z} 	c #86756A",
"A} 	c #8D7B6F",
"B} 	c #90786D",
"C} 	c #3C3334",
"D} 	c #453939",
"E} 	c #1E2C2D",
"F} 	c #27383C",
"G} 	c #283436",
"H} 	c #736B69",
"I} 	c #645E5F",
"J} 	c #6C625D",
"K} 	c #98897E",
"L} 	c #97887D",
"M} 	c #83746A",
"N} 	c #807066",
"O} 	c #88766B",
"P} 	c #8C7A6E",
"Q} 	c #998577",
"R} 	c #886F67",
"S} 	c #584845",
"T} 	c #433837",
"U} 	c #222E30",
"V} 	c #8D8582",
"W} 	c #867D7A",
"X} 	c #857C79",
"Y} 	c #8A817E",
"Z} 	c #8E8683",
"`} 	c #867F7C",
" | 	c #615854",
".| 	c #7C706A",
"+| 	c #A09085",
"@| 	c #96857A",
"#| 	c #A48E7F",
"$| 	c #856C64",
"%| 	c #2B3D42",
"&| 	c #1F2827",
"*| 	c #172120",
"=| 	c #28383C",
"-| 	c #6D6765",
";| 	c #78706D",
">| 	c #837A76",
",| 	c #918986",
"'| 	c #807773",
")| 	c #6A625D",
"!| 	c #5D5451",
"~| 	c #948377",
"{| 	c #938073",
"]| 	c #A48C7D",
"^| 	c #403636",
"/| 	c #1C282A",
"(| 	c #182221",
"_| 	c #151E20",
":| 	c #27383B",
"<| 	c #1E2A2D",
"[| 	c #726B69",
"}| 	c #766D6B",
"|| 	c #7F7673",
"1| 	c #877F7B",
"2| 	c #9F887A",
"3| 	c #3F3536",
"4| 	c #27393D",
"5| 	c #736C6A",
"6| 	c #7B736F",
"7| 	c #5E5551",
"8| 	c #938175",
"9| 	c #26383B",
"0| 	c #1A2526",
"a| 	c #1E2D2F",
"b| 	c #8B827F",
"c| 	c #9F8F84",
"d| 	c #9F8F83",
"e| 	c #907D71",
"f| 	c #243538",
"g| 	c #1F2C2E",
"h| 	c #1B2525",
"i| 	c #292F2F",
"j| 	c #544F4D",
"k| 	c #6B6563",
"l| 	c #6D6560",
"m| 	c #5D5450",
"n| 	c #99897F",
"o| 	c #918074",
"p| 	c #5F524D",
"q| 	c #1F2E2F",
"r| 	c #1E2726",
"s| 	c #645C59",
"t| 	c #655D5A",
"u| 	c #89817E",
"v| 	c #82736A",
"w| 	c #A18A7C",
"x| 	c #574B48",
"y| 	c #1A282B",
"z| 	c #68615F",
"A| 	c #6E6866",
"B| 	c #726A68",
"C| 	c #776F6D",
"D| 	c #7B7370",
"E| 	c #3B3839",
"F| 	c #645C57",
"G| 	c #6E635E",
"H| 	c #807168",
"I| 	c #223237",
"J| 	c #172323",
"K| 	c #263537",
"L| 	c #242D2E",
"M| 	c #514C4A",
"N| 	c #6E6765",
"O| 	c #5F595A",
"P| 	c #655C58",
"Q| 	c #9A8679",
"R| 	c #846D64",
"S| 	c #4D4240",
"T| 	c #4F4C4A",
"U| 	c #5E5956",
"V| 	c #615B58",
"W| 	c #605A5B",
"X| 	c #5F5858",
"Y| 	c #998578",
"Z| 	c #8B776B",
"`| 	c #625B58",
" 1 	c #585252",
".1 	c #5C5657",
"+1 	c #675E5A",
"@1 	c #695F5B",
"#1 	c #433939",
"$1 	c #1F2E30",
"%1 	c #162120",
"&1 	c #1E2828",
"*1 	c #283334",
"=1 	c #263638",
"-1 	c #696260",
";1 	c #6D6664",
">1 	c #6A605C",
",1 	c #8D7B71",
"'1 	c #403737",
")1 	c #1D2C2D",
"!1 	c #273334",
"~1 	c #5F5956",
"{1 	c #534C4C",
"]1 	c #363234",
"^1 	c #87776D",
"/1 	c #80716B",
"(1 	c #1D2B2C",
"_1 	c #273435",
":1 	c #635B58",
"<1 	c #665F5C",
"[1 	c #67605E",
"}1 	c #696360",
"|1 	c #7A726F",
"11 	c #605854",
"21 	c #6B615C",
"31 	c #7E7069",
"41 	c #2A3F41",
"51 	c #2E4345",
"61 	c #2E4446",
"71 	c #2E4346",
"81 	c #2D4245",
"91 	c #2A3E41",
"01 	c #243133",
"a1 	c #716660",
"b1 	c #8B7A70",
"c1 	c #554A45",
"d1 	c #2B3E41",
"e1 	c #385152",
"f1 	c #415F5F",
"g1 	c #446363",
"h1 	c #446263",
"i1 	c #456364",
"j1 	c #446464",
"k1 	c #364F50",
"l1 	c #4D4A48",
"m1 	c #A69080",
"n1 	c #8C7C73",
"o1 	c #1C292A",
"p1 	c #2D4244",
"q1 	c #3F5C5C",
"r1 	c #4C6F6D",
"s1 	c #507573",
"t1 	c #507473",
"u1 	c #517574",
"v1 	c #3D5A5A",
"w1 	c #2B3F42",
"x1 	c #293032",
"y1 	c #4C4947",
"z1 	c #5B5654",
"A1 	c #5C5755",
"B1 	c #5D5855",
"C1 	c #756D6B",
"D1 	c #635A57",
"E1 	c #968478",
"F1 	c #8D7D74",
"G1 	c #4C413F",
"H1 	c #1F2727",
"I1 	c #223133",
"J1 	c #3F5D5C",
"K1 	c #4C706D",
"L1 	c #4F7572",
"M1 	c #507572",
"N1 	c #507472",
"O1 	c #4E7170",
"P1 	c #496868",
"Q1 	c #455D5F",
"R1 	c #2F4044",
"S1 	c #233538",
"T1 	c #212E30",
"U1 	c #1D292B",
"V1 	c #4B4847",
"W1 	c #5F5A57",
"X1 	c #645D5A",
"Y1 	c #5E5757",
"Z1 	c #988478",
"`1 	c #4E6566",
" 2 	c #6D8A8C",
".2 	c #4B6F6D",
"+2 	c #4F7371",
"@2 	c #4F7270",
"#2 	c #4E7270",
"$2 	c #537675",
"%2 	c #658787",
"&2 	c #7A9A9A",
"*2 	c #6F8A8C",
"=2 	c #485E60",
"-2 	c #5C5754",
";2 	c #756C6A",
">2 	c #383436",
",2 	c #605959",
"'2 	c #453B3B",
")2 	c #1C2A2F",
"!2 	c #3F5C5D",
"~2 	c #4C6F6E",
"{2 	c #4F7472",
"]2 	c #517573",
"^2 	c #517572",
"/2 	c #5A7E7C",
"(2 	c #7A9F9E",
"_2 	c #9CC1C1",
":2 	c #8EAFB0",
"<2 	c #597072",
"[2 	c #212D2E",
"}2 	c #1E2A2C",
"|2 	c #293739",
"12 	c #698486",
"22 	c #81A2A4",
"32 	c #635B5A",
"42 	c #6A615C",
"52 	c #5F5652",
"62 	c #504543",
"72 	c #3D3434",
"82 	c #1B2829",
"92 	c #405D5D",
"02 	c #4D706F",
"a2 	c #527675",
"b2 	c #5B7F7D",
"c2 	c #638685",
"d2 	c #658987",
"e2 	c #658887",
"f2 	c #658886",
"g2 	c #648885",
"h2 	c #698D8A",
"i2 	c #7CA09F",
"j2 	c #90B4B3",
"k2 	c #809FA0",
"l2 	c #213136",
"m2 	c #202F30",
"n2 	c #273638",
"o2 	c #222D2E",
"p2 	c #1F2B2C",
"q2 	c #2E3D3E",
"r2 	c #97BEBE",
"s2 	c #638080",
"t2 	c #615A57",
"u2 	c #363233",
"v2 	c #726661",
"w2 	c #405D5E",
"x2 	c #4D7171",
"y2 	c #517775",
"z2 	c #517674",
"A2 	c #577C7B",
"B2 	c #6F9392",
"C2 	c #82A6A5",
"D2 	c #89ADAC",
"E2 	c #89ACAB",
"F2 	c #88ACAB",
"G2 	c #8AAEAD",
"H2 	c #92B6B5",
"I2 	c #98BCBC",
"J2 	c #82A1A2",
"K2 	c #222C2D",
"L2 	c #202C2D",
"M2 	c #2F3D3F",
"N2 	c #99C0C0",
"O2 	c #423F3F",
"P2 	c #141F1D",
"Q2 	c #405F5F",
"R2 	c #4D7372",
"S2 	c #527876",
"T2 	c #5B807F",
"U2 	c #7DA1A0",
"V2 	c #98BBBB",
"W2 	c #A1C4C4",
"X2 	c #A0C3C3",
"Y2 	c #9FC3C2",
"Z2 	c #9FC2C2",
"`2 	c #9FC2C1",
" 3 	c #9CBFBF",
".3 	c #81A0A2",
"+3 	c #50676A",
"@3 	c #233436",
"#3 	c #8AACAD",
"$3 	c #658182",
"%3 	c #5A5553",
"&3 	c #6A6361",
"*3 	c #625955",
"=3 	c #416060",
"-3 	c #4E7473",
";3 	c #527978",
">3 	c #527877",
",3 	c #507675",
"'3 	c #5B8280",
")3 	c #7DA2A1",
"!3 	c #95B8B8",
"~3 	c #92B3B4",
"{3 	c #83A2A3",
"]3 	c #7B9A9B",
"^3 	c #7C9B9C",
"/3 	c #7C9B9B",
"(3 	c #7D9C9D",
"_3 	c #7C9A9B",
":3 	c #698385",
"<3 	c #44595C",
"[3 	c #2F3E3F",
"}3 	c #68605E",
"|3 	c #86776F",
"13 	c #554A47",
"23 	c #759395",
"33 	c #2F4447",
"43 	c #426162",
"53 	c #4F7675",
"63 	c #537B79",
"73 	c #527A79",
"83 	c #507877",
"93 	c #81A6A5",
"03 	c #7E9B9C",
"a3 	c #394B4F",
"b3 	c #344549",
"c3 	c #2B3B41",
"d3 	c #27363C",
"e3 	c #222B2C",
"f3 	c #ACD7D6",
"g3 	c #668182",
"h3 	c #595350",
"i3 	c #6A5D58",
"j3 	c #283537",
"k3 	c #192525",
"l3 	c #25343A",
"m3 	c #2F4347",
"n3 	c #436162",
"o3 	c #507776",
"p3 	c #547C7B",
"q3 	c #537B7A",
"r3 	c #517978",
"s3 	c #5B8381",
"t3 	c #82A8A6",
"u3 	c #95B9B8",
"v3 	c #7B9798",
"w3 	c #213036",
"x3 	c #233239",
"y3 	c #233238",
"z3 	c #243339",
"A3 	c #28383D",
"B3 	c #2F3E40",
"C3 	c #89ADAD",
"D3 	c #645B57",
"E3 	c #69605B",
"F3 	c #453B3A",
"G3 	c #283637",
"H3 	c #1F2B2D",
"I3 	c #233033",
"J3 	c #252E2F",
"K3 	c #557E7C",
"L3 	c #547D7B",
"M3 	c #5C8483",
"N3 	c #82A8A7",
"O3 	c #95B8B9",
"P3 	c #7B9899",
"Q3 	c #99BFC0",
"R3 	c #668082",
"S3 	c #6D6564",
"T3 	c #7D6F68",
"U3 	c #2F4448",
"V3 	c #436464",
"W3 	c #567F7E",
"X3 	c #557E7D",
"Y3 	c #537C7A",
"Z3 	c #5D8584",
"`3 	c #82A8A8",
" 4 	c #1B2727",
".4 	c #1C282B",
"+4 	c #222C2E",
"@4 	c #98BFC0",
"#4 	c #655E5D",
"$4 	c #5F5754",
"%4 	c #80716A",
"&4 	c #2A3030",
"*4 	c #202A2E",
"=4 	c #436565",
"-4 	c #527B7A",
";4 	c #568180",
">4 	c #557F7E",
",4 	c #537D7C",
"'4 	c #5D8685",
")4 	c #82A9A8",
"!4 	c #95B9B9",
"~4 	c #2D3D42",
"{4 	c #304145",
"]4 	c #314146",
"^4 	c #304146",
"/4 	c #304045",
"(4 	c #2C3D42",
"_4 	c #232C2E",
":4 	c #303E40",
"<4 	c #564F4F",
"[4 	c #373435",
"}4 	c #8F7F76",
"|4 	c #81726B",
"14 	c #514642",
"24 	c #769495",
"34 	c #2D3B3F",
"44 	c #182628",
"54 	c #2F4548",
"64 	c #446666",
"74 	c #537C7B",
"84 	c #578281",
"94 	c #537E7D",
"04 	c #5E8786",
"a4 	c #28373D",
"b4 	c #314247",
"c4 	c #576D70",
"d4 	c #809E9F",
"e4 	c #7F9E9E",
"f4 	c #809E9E",
"g4 	c #799697",
"h4 	c #34464A",
"i4 	c #28373C",
"j4 	c #1A292C",
"k4 	c #97887E",
"l4 	c #95867C",
"m4 	c #887970",
"n4 	c #564B46",
"o4 	c #1C2829",
"p4 	c #446667",
"q4 	c #547E7D",
"r4 	c #588382",
"s4 	c #54807E",
"t4 	c #5F8887",
"u4 	c #83AAA9",
"v4 	c #36484C",
"w4 	c #6A8486",
"x4 	c #99BBBB",
"y4 	c #9DC1C1",
"z4 	c #98BDBC",
"A4 	c #97BBBA",
"B4 	c #96BBBA",
"C4 	c #97BBBB",
"D4 	c #8FB2B2",
"E4 	c #698586",
"F4 	c #3E5255",
"G4 	c #2A3C40",
"H4 	c #283338",
"I4 	c #1F2A2C",
"J4 	c #98BFBF",
"K4 	c #575250",
"L4 	c #797270",
"M4 	c #504B49",
"N4 	c #98897F",
"O4 	c #5D514B",
"P4 	c #749292",
"Q4 	c #1F2B2E",
"R4 	c #304548",
"S4 	c #456768",
"T4 	c #557F7F",
"U4 	c #598584",
"V4 	c #588483",
"W4 	c #558180",
"X4 	c #5F8A89",
"Y4 	c #83ABAA",
"Z4 	c #91B3B3",
"`4 	c #779998",
" 5 	c #6F9190",
".5 	c #6B8D8B",
"+5 	c #597978",
"@5 	c #486666",
"#5 	c #3A5455",
"$5 	c #2D4145",
"%5 	c #28383E",
"&5 	c #232E30",
"*5 	c #7E7776",
"=5 	c #6F645F",
"-5 	c #796E69",
";5 	c #635751",
">5 	c #1D292A",
",5 	c #19272A",
"'5 	c #304649",
")5 	c #466869",
"!5 	c #558080",
"~5 	c #598685",
"{5 	c #588584",
"]5 	c #568281",
"^5 	c #608A8A",
"/5 	c #90B1B2",
"(5 	c #7C9F9E",
"_5 	c #587B79",
":5 	c #476B69",
"<5 	c #466A68",
"[5 	c #476C69",
"}5 	c #4C726E",
"|5 	c #527875",
"15 	c #476766",
"25 	c #33484B",
"35 	c #232E31",
"45 	c #66605E",
"55 	c #847D7C",
"65 	c #706560",
"75 	c #7A6F6A",
"85 	c #7F7570",
"95 	c #867B74",
"05 	c #4F4543",
"a5 	c #6A5E59",
"b5 	c #739292",
"c5 	c #30474A",
"d5 	c #46696A",
"e5 	c #558181",
"f5 	c #5A8887",
"g5 	c #588686",
"h5 	c #568483",
"i5 	c #608C8A",
"j5 	c #90B2B2",
"k5 	c #7FA2A2",
"l5 	c #5F8281",
"m5 	c #446262",
"n5 	c #314649",
"o5 	c #67615F",
"p5 	c #888180",
"q5 	c #595455",
"r5 	c #635A56",
"s5 	c #7C726D",
"t5 	c #92847B",
"u5 	c #8D8078",
"v5 	c #7F7670",
"w5 	c #90837B",
"x5 	c #4C4243",
"y5 	c #423839",
"z5 	c #30484A",
"A5 	c #466A6B",
"B5 	c #568382",
"C5 	c #5A8988",
"D5 	c #598887",
"E5 	c #578584",
"F5 	c #618D8C",
"G5 	c #84ACAB",
"H5 	c #35484A",
"I5 	c #5E8281",
"J5 	c #314749",
"K5 	c #27393C",
"L5 	c #888281",
"M5 	c #686262",
"N5 	c #6D6460",
"O5 	c #796F6A",
"P5 	c #726965",
"Q5 	c #96887E",
"R5 	c #857B74",
"S5 	c #9A8F88",
"T5 	c #C1B5AC",
"U5 	c #3D3435",
"V5 	c #736863",
"W5 	c #3F5355",
"X5 	c #466B6C",
"Y5 	c #568484",
"Z5 	c #5B8A89",
"`5 	c #618D8D",
" 6 	c #7B9799",
".6 	c #232D2F",
"+6 	c #7C7675",
"@6 	c #756A66",
"#6 	c #776D69",
"$6 	c #80746D",
"%6 	c #90837A",
"&6 	c #817771",
"*6 	c #827972",
"=6 	c #8B8079",
"-6 	c #BAAEA5",
";6 	c #C3B7AE",
">6 	c #483E3F",
",6 	c #283435",
"'6 	c #31484B",
")6 	c #486C6D",
"!6 	c #588685",
"~6 	c #5C8B8A",
"{6 	c #598888",
"]6 	c #628F8E",
"^6 	c #85ADAC",
"/6 	c #7FA3A2",
"(6 	c #5E8381",
"_6 	c #507674",
":6 	c #446362",
"<6 	c #32474A",
"[6 	c #232E2F",
"}6 	c #243031",
"|6 	c #706763",
"16 	c #7A716C",
"26 	c #958981",
"36 	c #A4988F",
"46 	c #2A373A",
"56 	c #476C6E",
"66 	c #588787",
"76 	c #5D8D8C",
"86 	c #5C8C8B",
"96 	c #598A89",
"06 	c #62908F",
"a6 	c #96B9B9",
"b6 	c #80A3A3",
"c6 	c #608584",
"d6 	c #527776",
"e6 	c #517876",
"f6 	c #527977",
"g6 	c #456565",
"h6 	c #32494A",
"i6 	c #89ABAD",
"j6 	c #4A4745",
"k6 	c #857E7D",
"l6 	c #7E7775",
"m6 	c #7B726D",
"n6 	c #7C726E",
"o6 	c #8A8079",
"p6 	c #978B83",
"q6 	c #998C84",
"r6 	c #96877E",
"s6 	c #3F3637",
"t6 	c #2A383A",
"u6 	c #31474C",
"v6 	c #496D6F",
"w6 	c #5D8E8E",
"x6 	c #5C8D8D",
"y6 	c #5A8B8B",
"z6 	c #639191",
"A6 	c #85AEAD",
"B6 	c #95BAB9",
"C6 	c #7B9898",
"D6 	c #80A5A4",
"E6 	c #618786",
"F6 	c #537A78",
"G6 	c #527A78",
"H6 	c #537A79",
"I6 	c #466766",
"J6 	c #32494B",
"K6 	c #283536",
"L6 	c #313F41",
"M6 	c #1C2729",
"N6 	c #494644",
"O6 	c #605955",
"P6 	c #BEB1A9",
"Q6 	c #9D938C",
"R6 	c #605655",
"S6 	c #42393A",
"T6 	c #6B605C",
"U6 	c #31484C",
"V6 	c #496E70",
"W6 	c #5A8989",
"X6 	c #5E8F8F",
"Y6 	c #5B8C8C",
"Z6 	c #649292",
"`6 	c #85AEAE",
" 7 	c #95BABA",
".7 	c #90B3B2",
"+7 	c #80A6A5",
"@7 	c #628888",
"#7 	c #547D7C",
"$7 	c #466868",
"%7 	c #324A4C",
"&7 	c #98BEBE",
"*7 	c #4A4443",
"=7 	c #857B75",
"-7 	c #8D827B",
";7 	c #92867E",
">7 	c #B8ACA3",
",7 	c #453B3C",
"'7 	c #5E5451",
")7 	c #ACD8D8",
"!7 	c #31494C",
"~7 	c #496F70",
"{7 	c #5A8A8A",
"]7 	c #5F9191",
"^7 	c #5E9090",
"/7 	c #5B8D8D",
"(7 	c #649393",
"_7 	c #81A6A6",
":7 	c #638A8A",
"<7 	c #557F7D",
"[7 	c #56807F",
"}7 	c #486A6A",
"|7 	c #334A4D",
"17 	c #253132",
"27 	c #314042",
"37 	c #A6CECF",
"47 	c #1A2427",
"57 	c #423D3D",
"67 	c #514A48",
"77 	c #968A82",
"87 	c #514746",
"97 	c #222E2F",
"07 	c #5F9392",
"a7 	c #5E9191",
"b7 	c #5C8E8F",
"c7 	c #659494",
"d7 	c #86AFAF",
"e7 	c #96BABA",
"f7 	c #82A7A6",
"g7 	c #648C8B",
"h7 	c #578180",
"i7 	c #578382",
"j7 	c #578282",
"k7 	c #496B6C",
"l7 	c #334B4E",
"m7 	c #1C2426",
"n7 	c #413B3B",
"o7 	c #4E4746",
"p7 	c #5B5350",
"q7 	c #7B716C",
"r7 	c #7D746E",
"s7 	c #897E77",
"t7 	c #B5A9A0",
"u7 	c #3E3536",
"v7 	c #2B393B",
"w7 	c #2B4044",
"x7 	c #365254",
"y7 	c #3E6062",
"z7 	c #406264",
"A7 	c #406265",
"B7 	c #416365",
"C7 	c #416465",
"D7 	c #426466",
"E7 	c #426566",
"F7 	c #426567",
"G7 	c #436668",
"H7 	c #436768",
"I7 	c #426667",
"J7 	c #416466",
"K7 	c #466B6D",
"L7 	c #548081",
"M7 	c #609493",
"N7 	c #5F9292",
"O7 	c #5D8F8F",
"P7 	c #669595",
"Q7 	c #86B0B0",
"R7 	c #91B3B2",
"S7 	c #658E8D",
"T7 	c #578483",
"U7 	c #588484",
"V7 	c #578381",
"W7 	c #496D6D",
"X7 	c #344B4E",
"Y7 	c #413C3C",
"Z7 	c #574F4D",
"`7 	c #756C67",
" 8 	c #90847D",
".8 	c #B1A69D",
"+8 	c #493F40",
"@8 	c #373031",
"#8 	c #466A6C",
"$8 	c #558384",
"%8 	c #588788",
"&8 	c #588889",
"*8 	c #59898A",
"=8 	c #598A8A",
"-8 	c #5A8B8C",
";8 	c #5B8D8E",
">8 	c #5B8E8E",
",8 	c #5C8F8F",
"'8 	c #5A8C8D",
")8 	c #5A8B8D",
"!8 	c #5B8C8D",
"~8 	c #5E9192",
"{8 	c #609494",
"]8 	c #5F9393",
"^8 	c #5D9191",
"/8 	c #669696",
"(8 	c #65908F",
"_8 	c #598786",
":8 	c #598787",
"<8 	c #598686",
"[8 	c #588585",
"}8 	c #4B6F6F",
"|8 	c #344D4E",
"18 	c #314142",
"28 	c #AAD4D3",
"38 	c #706866",
"48 	c #514B48",
"58 	c #5D5551",
"68 	c #504948",
"78 	c #564E4C",
"88 	c #776E69",
"98 	c #928781",
"08 	c #B9AEA5",
"a8 	c #4A4041",
"b8 	c #2B3B3D",
"c8 	c #344B4F",
"d8 	c #4C7274",
"e8 	c #5E8F90",
"f8 	c #619595",
"g8 	c #619697",
"h8 	c #629798",
"i8 	c #629898",
"j8 	c #639999",
"k8 	c #639A9A",
"l8 	c #649B9B",
"m8 	c #649B9C",
"n8 	c #649C9C",
"o8 	c #649C9D",
"p8 	c #659C9D",
"q8 	c #639B9B",
"r8 	c #639A9B",
"s8 	c #629999",
"t8 	c #619696",
"u8 	c #609596",
"v8 	c #609495",
"w8 	c #5E9292",
"x8 	c #679797",
"y8 	c #86B1B0",
"z8 	c #83A9A9",
"A8 	c #669291",
"B8 	c #5B8989",
"C8 	c #5A8A89",
"D8 	c #5A8888",
"E8 	c #5A8786",
"F8 	c #4B7171",
"G8 	c #354D4F",
"H8 	c #1C2B2E",
"I8 	c #A9D4D3",
"J8 	c #2B383C",
"K8 	c #605958",
"L8 	c #4B4544",
"M8 	c #5C5552",
"N8 	c #5D5653",
"O8 	c #625A55",
"P8 	c #57504D",
"Q8 	c #4C4544",
"R8 	c #605855",
"S8 	c #7B736E",
"T8 	c #4B4142",
"U8 	c #759496",
"V8 	c #5E9091",
"W8 	c #619797",
"X8 	c #629899",
"Y8 	c #63999A",
"Z8 	c #639B9C",
"`8 	c #649D9D",
" 9 	c #649D9E",
".9 	c #659D9E",
"+9 	c #659E9E",
"@9 	c #659E9F",
"#9 	c #639C9C",
"$9 	c #62999A",
"%9 	c #619798",
"&9 	c #5E9393",
"*9 	c #679898",
"=9 	c #86B1B1",
"-9 	c #679493",
";9 	c #5B8B8A",
">9 	c #5B8B8B",
",9 	c #5B8C8B",
"'9 	c #5C8C8C",
")9 	c #4C7273",
"!9 	c #354E50",
"~9 	c #253233",
"{9 	c #324143",
"]9 	c #2E3C40",
"^9 	c #191F21",
"/9 	c #615C59",
"(9 	c #453F40",
"_9 	c #3B3636",
":9 	c #5A5350",
"<9 	c #4C4644",
"[9 	c #726964",
"}9 	c #746D68",
"|9 	c #3B3334",
"19 	c #739092",
"29 	c #2B3A3B",
"39 	c #263334",
"49 	c #344C4F",
"59 	c #4C7374",
"69 	c #639C9D",
"79 	c #649E9F",
"89 	c #649F9F",
"99 	c #649FA0",
"09 	c #659FA0",
"a9 	c #65A0A0",
"b9 	c #65A0A1",
"c9 	c #649E9E",
"d9 	c #629A9B",
"e9 	c #619899",
"f9 	c #609798",
"g9 	c #609697",
"h9 	c #5E9495",
"i9 	c #669999",
"j9 	c #84ABAB",
"k9 	c #689595",
"l9 	c #5D8E8D",
"m9 	c #5D8F8E",
"n9 	c #5C8E8D",
"o9 	c #5C8D8C",
"p9 	c #4C7475",
"q9 	c #344E51",
"r9 	c #978D85",
"s9 	c #524C4A",
"t9 	c #59524E",
"u9 	c #4B4443",
"v9 	c #58514E",
"w9 	c #706966",
"x9 	c #A49B95",
"y9 	c #827974",
"z9 	c #739191",
"A9 	c #4C7375",
"B9 	c #669D9E",
"C9 	c #679FA0",
"D9 	c #68A0A1",
"E9 	c #68A1A2",
"F9 	c #68A2A2",
"G9 	c #68A2A3",
"H9 	c #69A2A3",
"I9 	c #69A3A4",
"J9 	c #68A0A0",
"K9 	c #679F9F",
"L9 	c #679E9E",
"M9 	c #669E9E",
"N9 	c #659B9C",
"O9 	c #659A9A",
"P9 	c #639798",
"Q9 	c #6B9B9C",
"R9 	c #88B2B2",
"S9 	c #84ACAC",
"T9 	c #699797",
"U9 	c #5E9190",
"V9 	c #5E9291",
"W9 	c #4D7576",
"X9 	c #354F52",
"Y9 	c #97BDBD",
"Z9 	c #668282",
"`9 	c #736C68",
" 0 	c #9C9189",
".0 	c #5F5854",
"+0 	c #4D4746",
"@0 	c #59524F",
"#0 	c #6F6865",
"$0 	c #7D746F",
"%0 	c #887F79",
"&0 	c #3A3335",
"*0 	c #769496",
"=0 	c #2C393C",
"-0 	c #172426",
";0 	c #344D4F",
">0 	c #5F9293",
",0 	c #629A9A",
"'0 	c #689D9E",
")0 	c #74A5A6",
"!0 	c #7BAAAB",
"~0 	c #7CABAC",
"{0 	c #7CACAC",
"]0 	c #7CACAD",
"^0 	c #7DACAD",
"/0 	c #7DADAD",
"(0 	c #7CABAB",
"_0 	c #7BAAAA",
":0 	c #7AAAAA",
"<0 	c #7AA8A8",
"[0 	c #7AA7A7",
"}0 	c #7AA6A6",
"|0 	c #79A5A5",
"10 	c #7DA7A7",
"20 	c #90B8B8",
"30 	c #7A9797",
"40 	c #84ADAD",
"50 	c #6A9999",
"60 	c #5F9494",
"70 	c #4F7778",
"80 	c #988D85",
"90 	c #5C5451",
"00 	c #6E6865",
"a0 	c #A3CBCB",
"b0 	c #4D7476",
"c0 	c #609394",
"d0 	c #619A9A",
"e0 	c #6DA2A2",
"f0 	c #86B0B1",
"g0 	c #93B9B9",
"h0 	c #96BCBC",
"i0 	c #98BDBD",
"j0 	c #97BCBC",
"k0 	c #9FC4C4",
"l0 	c #9DC1C0",
"m0 	c #7B9999",
"n0 	c #6B9B9B",
"o0 	c #609393",
"p0 	c #609595",
"q0 	c #4F797A",
"r0 	c #355053",
"s0 	c #625B5A",
"t0 	c #68605C",
"u0 	c #6F6966",
"v0 	c #766F6A",
"w0 	c #948B85",
"x0 	c #4D4344",
"y0 	c #629B9B",
"z0 	c #6FA4A4",
"A0 	c #89B3B3",
"B0 	c #9CC0C0",
"C0 	c #A0C4C4",
"D0 	c #A2C6C6",
"E0 	c #A2C6C7",
"F0 	c #A1C6C5",
"G0 	c #A8CDCC",
"H0 	c #A4C8C8",
"I0 	c #465C5E",
"J0 	c #85ADAD",
"K0 	c #6C9B9B",
"L0 	c #629595",
"M0 	c #507A7B",
"N0 	c #365053",
"O0 	c #324243",
"P0 	c #605A58",
"Q0 	c #786F6C",
"R0 	c #847873",
"S0 	c #756E6A",
"T0 	c #534949",
"U0 	c #4B4243",
"V0 	c #A2CBCB",
"W0 	c #344D50",
"X0 	c #4D7677",
"Y0 	c #629C9C",
"Z0 	c #6FA3A4",
"`0 	c #8DB7B6",
" a 	c #91B4B3",
".a 	c #759293",
"+a 	c #577071",
"@a 	c #42575A",
"#a 	c #2F4146",
"$a 	c #35484B",
"%a 	c #90B3B3",
"&a 	c #6D9D9D",
"*a 	c #639797",
"=a 	c #507B7D",
"-a 	c #365154",
";a 	c #28393E",
">a 	c #A5CDCD",
",a 	c #2E3839",
"'a 	c #2F3738",
")a 	c #303839",
"!a 	c #303A3B",
"~a 	c #313A3C",
"{a 	c #323B3C",
"]a 	c #323C3D",
"^a 	c #333D3E",
"/a 	c #343D3E",
"(a 	c #353E3F",
"_a 	c #363F3F",
":a 	c #363F40",
"<a 	c #373F40",
"[a 	c #384040",
"}a 	c #374041",
"|a 	c #384041",
"1a 	c #333C3D",
"2a 	c #79716E",
"3a 	c #79706D",
"4a 	c #817672",
"5a 	c #877B75",
"6a 	c #716B67",
"7a 	c #938A84",
"8a 	c #2D3B3D",
"9a 	c #344D51",
"0a 	c #4E7678",
"aa 	c #659D9D",
"ba 	c #639D9E",
"ca 	c #70A4A5",
"da 	c #8FB8B8",
"ea 	c #8FB2B1",
"fa 	c #678283",
"ga 	c #384B4F",
"ha 	c #2B3C41",
"ia 	c #85AFAF",
"ja 	c #6D9F9F",
"ka 	c #659F9F",
"la 	c #517D7E",
"ma 	c #365255",
"na 	c #88AAAB",
"oa 	c #5F6F70",
"pa 	c #788888",
"qa 	c #7B8B8B",
"ra 	c #7B8B8C",
"sa 	c #7B8C8C",
"ta 	c #7C8C8C",
"ua 	c #7C8D8D",
"va 	c #7D8D8D",
"wa 	c #7D8E8E",
"xa 	c #7E8E8E",
"ya 	c #7E8F8F",
"za 	c #7F8F8F",
"Aa 	c #7F908F",
"Ba 	c #7F9090",
"Ca 	c #809191",
"Da 	c #758586",
"Ea 	c #4F5D5F",
"Fa 	c #66605D",
"Ga 	c #968C85",
"Ha 	c #847B75",
"Ia 	c #A39A94",
"Ja 	c #867D77",
"Ka 	c #5F5554",
"La 	c #293336",
"Ma 	c #4E7679",
"Na 	c #639E9F",
"Oa 	c #70A5A6",
"Pa 	c #8FB9B8",
"Qa 	c #8FB1B1",
"Ra 	c #35484C",
"Sa 	c #6DA1A1",
"Ta 	c #669FA0",
"Ua 	c #66A0A1",
"Va 	c #67A1A1",
"Wa 	c #67A1A2",
"Xa 	c #67A0A1",
"Ya 	c #66A0A0",
"Za 	c #669F9F",
"`a 	c #527F80",
" b 	c #365256",
".b 	c #334243",
"+b 	c #3A494C",
"@b 	c #718283",
"#b 	c #829494",
"$b 	c #869798",
"%b 	c #879898",
"&b 	c #879999",
"*b 	c #87999A",
"=b 	c #889999",
"-b 	c #869897",
";b 	c #869898",
">b 	c #869797",
",b 	c #859797",
"'b 	c #859796",
")b 	c #849595",
"!b 	c #7D8E8F",
"~b 	c #617172",
"{b 	c #6D6663",
"]b 	c #938982",
"^b 	c #978B84",
"/b 	c #5B5451",
"(b 	c #68605A",
"_b 	c #887D76",
":b 	c #675F5C",
"<b 	c #837A74",
"[b 	c #625856",
"}b 	c #433B3C",
"|b 	c #2D3B3E",
"1b 	c #4E7779",
"2b 	c #70A6A6",
"3b 	c #6EA1A3",
"4b 	c #659C9E",
"5b 	c #67A2A3",
"6b 	c #68A3A3",
"7b 	c #68A3A4",
"8b 	c #527F82",
"9b 	c #375356",
"0b 	c #344345",
"ab 	c #5B6C6D",
"bb 	c #6B7C7D",
"cb 	c #687778",
"db 	c #697778",
"eb 	c #697878",
"fb 	c #697879",
"gb 	c #687878",
"hb 	c #677677",
"ib 	c #6C7C7D",
"jb 	c #647576",
"kb 	c #2E3B3E",
"lb 	c #8B827C",
"mb 	c #9B9088",
"nb 	c #887C76",
"ob 	c #7D736D",
"pb 	c #8C817A",
"qb 	c #706A67",
"rb 	c #8E857F",
"sb 	c #B0A69F",
"tb 	c #675E5B",
"ub 	c #41393B",
"vb 	c #383233",
"wb 	c #669E9F",
"xb 	c #71A6A6",
"yb 	c #8FB9BA",
"zb 	c #8FB1B2",
"Ab 	c #87B1B2",
"Bb 	c #69A5A5",
"Cb 	c #69A5A6",
"Db 	c #68A4A5",
"Eb 	c #538183",
"Fb 	c #375357",
"Gb 	c #334244",
"Hb 	c #475659",
"Ib 	c #6E8081",
"Jb 	c #647374",
"Kb 	c #5D6B6C",
"Lb 	c #5C6A6B",
"Mb 	c #5D6A6B",
"Nb 	c #5D6A6C",
"Ob 	c #637273",
"Pb 	c #657576",
"Qb 	c #4A595A",
"Rb 	c #655F5C",
"Sb 	c #857C77",
"Tb 	c #484241",
"Ub 	c #5E5753",
"Vb 	c #706762",
"Wb 	c #92867F",
"Xb 	c #8C807A",
"Yb 	c #BCB2AB",
"Zb 	c #807772",
"`b 	c #675D5A",
" c 	c #739091",
".c 	c #2D3C3E",
"+c 	c #71A6A7",
"@c 	c #87B2B2",
"#c 	c #70A5A5",
"$c 	c #6AA7A7",
"%c 	c #6AA7A8",
"&c 	c #69A6A7",
"*c 	c #69A4A5",
"=c 	c #548284",
"-c 	c #385457",
";c 	c #97BCBD",
">c 	c #678183",
",c 	c #38474A",
"'c 	c #6E7F80",
")c 	c #5F6E6E",
"!c 	c #5F6D6E",
"~c 	c #606E6F",
"{c 	c #606E70",
"]c 	c #5F6E6F",
"^c 	c #5F6D6F",
"/c 	c #677778",
"(c 	c #607172",
"_c 	c #7F7773",
":c 	c #91857E",
"<c 	c #6D655F",
"[c 	c #7A706A",
"}c 	c #857B77",
"|c 	c #362F31",
"1c 	c #ABD6D5",
"2c 	c #2E3C3E",
"3c 	c #649FA1",
"4c 	c #71A6A8",
"5c 	c #67A2A2",
"6c 	c #6BA9A9",
"7c 	c #6BA9AA",
"8c 	c #6BA8A9",
"9c 	c #6AA6A7",
"0c 	c #558385",
"ac 	c #385458",
"bc 	c #445456",
"cc 	c #6B7D7D",
"dc 	c #657475",
"ec 	c #5C6B6B",
"fc 	c #4A5656",
"gc 	c #434D4E",
"hc 	c #424C4D",
"ic 	c #424D4D",
"jc 	c #434E4E",
"kc 	c #434E4F",
"lc 	c #444F4F",
"mc 	c #4B5758",
"nc 	c #576566",
"oc 	c #667677",
"pc 	c #68797A",
"qc 	c #354143",
"rc 	c #534E4C",
"sc 	c #776C67",
"tc 	c #857A74",
"uc 	c #483F40",
"vc 	c #A2CACB",
"wc 	c #293537",
"xc 	c #64A0A1",
"yc 	c #71A7A8",
"zc 	c #8FBABA",
"Ac 	c #88B3B3",
"Bc 	c #71A7A7",
"Cc 	c #6CAAAC",
"Dc 	c #6DABAC",
"Ec 	c #6CABAC",
"Fc 	c #6BAAAB",
"Gc 	c #558486",
"Hc 	c #385558",
"Ic 	c #334344",
"Jc 	c #536365",
"Kc 	c #6D7E7F",
"Lc 	c #596767",
"Mc 	c #2B3232",
"Nc 	c #060606",
"Oc 	c #000000",
"Pc 	c #010000",
"Qc 	c #010101",
"Rc 	c #020202",
"Sc 	c #030303",
"Tc 	c #040504",
"Uc 	c #060706",
"Vc 	c #070807",
"Wc 	c #070908",
"Xc 	c #080909",
"Yc 	c #080A09",
"Zc 	c #080A0A",
"`c 	c #090C0A",
" d 	c #0B0C0B",
".d 	c #0B0D0D",
"+d 	c #0C0F0F",
"@d 	c #242A2A",
"#d 	c #495555",
"$d 	c #697A7B",
"%d 	c #59696A",
"&d 	c #1E292C",
"*d 	c #847B76",
"=d 	c #988E86",
"-d 	c #7B6F6A",
";d 	c #3D3637",
">d 	c #443D3D",
",d 	c #779596",
"'d 	c #2E3D3F",
")d 	c #72A7A7",
"!d 	c #6AA7A9",
"~d 	c #6DACAD",
"{d 	c #6DADAF",
"]d 	c #6DAEAF",
"^d 	c #6BA9AB",
"/d 	c #69A7A8",
"(d 	c #68A5A6",
"_d 	c #67A3A4",
":d 	c #395558",
"<d 	c #344344",
"[d 	c #445455",
"}d 	c #657677",
"|d 	c #525E5F",
"1d 	c #010201",
"2d 	c #030302",
"3d 	c #040303",
"4d 	c #040403",
"5d 	c #050503",
"6d 	c #050504",
"7d 	c #050403",
"8d 	c #3C4546",
"9d 	c #68787A",
"0d 	c #6C7D7E",
"ad 	c #2C383A",
"bd 	c #5F5A58",
"cd 	c #625C5A",
"dd 	c #77706C",
"ed 	c #877E79",
"fd 	c #453F3E",
"gd 	c #796D68",
"hd 	c #8E827B",
"id 	c #7C726C",
"jd 	c #4F4646",
"kd 	c #445859",
"ld 	c #2E3C3F",
"md 	c #222E31",
"nd 	c #233439",
"od 	c #324448",
"pd 	c #69A4A4",
"qd 	c #69A5A7",
"rd 	c #6BA8AA",
"sd 	c #6BABAC",
"td 	c #6DADAE",
"ud 	c #6EAFB0",
"vd 	c #6EB0B1",
"wd 	c #6EB0B2",
"xd 	c #6CACAD",
"yd 	c #548385",
"zd 	c #546466",
"Ad 	c #6F8181",
"Bd 	c #606F70",
"Cd 	c #5C696A",
"Dd 	c #131818",
"Ed 	c #010100",
"Fd 	c #080806",
"Gd 	c #0A0A08",
"Hd 	c #0C0B09",
"Id 	c #0C0C09",
"Jd 	c #0D0C0A",
"Kd 	c #0C0C0A",
"Ld 	c #0B0A09",
"Md 	c #090907",
"Nd 	c #070705",
"Od 	c #050404",
"Pd 	c #020101",
"Qd 	c #313939",
"Rd 	c #556162",
"Sd 	c #637374",
"Td 	c #697A7C",
"Ud 	c #414F51",
"Vd 	c #615C5A",
"Wd 	c #625D5B",
"Xd 	c #766B65",
"Yd 	c #8B7F79",
"Zd 	c #554D4C",
"`d 	c #2F3C3F",
" e 	c #293538",
".e 	c #2B3B40",
"+e 	c #29393E",
"@e 	c #6DACAF",
"#e 	c #6EAEB0",
"$e 	c #6FB0B2",
"%e 	c #6CACAE",
"&e 	c #2B3D41",
"*e 	c #455457",
"=e 	c #67787A",
"-e 	c #5E6C6D",
";e 	c #5A6768",
">e 	c #2F3637",
",e 	c #0C0E0E",
"'e 	c #070605",
")e 	c #0D0D0B",
"!e 	c #0F0F0C",
"~e 	c #11100D",
"{e 	c #12110E",
"]e 	c #13110E",
"^e 	c #14120F",
"/e 	c #14130F",
"(e 	c #13120F",
"_e 	c #11100E",
":e 	c #0F0E0C",
"<e 	c #0E0D0B",
"[e 	c #0B0A08",
"}e 	c #080705",
"|e 	c #475253",
"1e 	c #647475",
"2e 	c #59686A",
"3e 	c #5F5753",
"4e 	c #8F847D",
"5e 	c #776D67",
"6e 	c #665E5B",
"7e 	c #779597",
"8e 	c #8FB9B9",
"9e 	c #2E4045",
"0e 	c #3F5357",
"ae 	c #53696C",
"be 	c #5B7275",
"ce 	c #597073",
"de 	c #586F72",
"ee 	c #586F71",
"fe 	c #7A9799",
"ge 	c #94B7B7",
"he 	c #6DADB0",
"ie 	c #6EAFB2",
"je 	c #6DAFB1",
"ke 	c #6CABAD",
"le 	c #68A4A6",
"me 	c #619193",
"ne 	c #5A7A7C",
"oe 	c #586E71",
"pe 	c #5B7274",
"qe 	c #304247",
"re 	c #344445",
"se 	c #698485",
"te 	c #566668",
"ue 	c #728485",
"ve 	c #5E6C6C",
"we 	c #546161",
"xe 	c #212625",
"ye 	c #0E0E0D",
"ze 	c #151411",
"Ae 	c #171512",
"Be 	c #1A1814",
"Ce 	c #1C1B16",
"De 	c #1D1B16",
"Ee 	c #1E1C17",
"Fe 	c #1F1D18",
"Ge 	c #1D1B17",
"He 	c #1B1A15",
"Ie 	c #171612",
"Je 	c #151311",
"Ke 	c #12110F",
"Le 	c #100F0D",
"Me 	c #0E0E0B",
"Ne 	c #0E1110",
"Oe 	c #3D4747",
"Pe 	c #627172",
"Qe 	c #69797A",
"Re 	c #7C7470",
"Se 	c #78706C",
"Te 	c #534E4D",
"Ue 	c #494341",
"Ve 	c #857973",
"We 	c #7B736D",
"Xe 	c #7B726C",
"Ye 	c #769597",
"Ze 	c #2A3638",
"`e 	c #2C3F43",
" f 	c #475D60",
".f 	c #718D8F",
"+f 	c #8AAAAB",
"@f 	c #8CACAC",
"#f 	c #8AAAAA",
"$f 	c #89A9AA",
"%f 	c #89A9A9",
"&f 	c #8BAAAB",
"*f 	c #93B3B4",
"=f 	c #72A7A6",
"-f 	c #6AA9AA",
";f 	c #6CAEB0",
">f 	c #6CAEAF",
",f 	c #6BAAAC",
"'f 	c #6AA8A9",
")f 	c #71A2A3",
"!f 	c #81A6A7",
"~f 	c #8AA8A9",
"{f 	c #8AA8AA",
"]f 	c #89A8A9",
"^f 	c #8BABAB",
"/f 	c #8AA9AA",
"(f 	c #728D8F",
"_f 	c #2D3E43",
":f 	c #6F8A8B",
"<f 	c #5B6869",
"[f 	c #475151",
"}f 	c #1A1D1B",
"|f 	c #201E19",
"1f 	c #1F1D19",
"2f 	c #27251F",
"3f 	c #2D2B23",
"4f 	c #2D2A22",
"5f 	c #2B2921",
"6f 	c #2D2A23",
"7f 	c #2C2A22",
"8f 	c #292721",
"9f 	c #27241F",
"0f 	c #23221C",
"af 	c #1B1916",
"bf 	c #171613",
"cf 	c #131210",
"df 	c #100F0C",
"ef 	c #050302",
"ff 	c #313D3F",
"gf 	c #6A6462",
"hf 	c #80746E",
"if 	c #887D77",
"jf 	c #746C68",
"kf 	c #2F3D40",
"lf 	c #639E9E",
"mf 	c #556E71",
"nf 	c #88ADAC",
"of 	c #87ACAB",
"pf 	c #85ABAA",
"qf 	c #86ABAB",
"rf 	c #87ACAC",
"sf 	c #87ADAD",
"tf 	c #87AEAE",
"uf 	c #88AEAE",
"vf 	c #88AFAF",
"wf 	c #88B0B0",
"xf 	c #89B0B1",
"yf 	c #89B1B1",
"zf 	c #8AB1B2",
"Af 	c #7DABAC",
"Bf 	c #6EA3A4",
"Cf 	c #69A8A9",
"Df 	c #6AAAAB",
"Ef 	c #6AABAC",
"Ff 	c #6BACAD",
"Gf 	c #82AEAF",
"Hf 	c #8AB2B2",
"If 	c #8AB2B1",
"Jf 	c #88B0AF",
"Kf 	c #88AFAE",
"Lf 	c #87AEAD",
"Mf 	c #8AB0AE",
"Nf 	c #80A4A3",
"Of 	c #628182",
"Pf 	c #445F62",
"Qf 	c #374F52",
"Rf 	c #32484B",
"Sf 	c #293637",
"Tf 	c #95BBBB",
"Uf 	c #728D8E",
"Vf 	c #677576",
"Wf 	c #566262",
"Xf 	c #2F3533",
"Yf 	c #161613",
"Zf 	c #181713",
"`f 	c #24221C",
" g 	c #322F25",
".g 	c #423D2C",
"+g 	c #47422F",
"@g 	c #4E4836",
"#g 	c #554F3C",
"$g 	c #57513D",
"%g 	c #57523D",
"&g 	c #5A553F",
"*g 	c #59533D",
"=g 	c #554F3A",
"-g 	c #514C37",
";g 	c #4D4733",
">g 	c #48422F",
",g 	c #443E2B",
"'g 	c #413B28",
")g 	c #3F3925",
"!g 	c #2F2B1D",
"~g 	c #1A1813",
"{g 	c #090705",
"]g 	c #2C3232",
"^g 	c #515D5E",
"/g 	c #546061",
"(g 	c #494745",
"_g 	c #756E6B",
":g 	c #574E4C",
"<g 	c #7E736D",
"[g 	c #8C8079",
"}g 	c #7E7571",
"|g 	c #8D847F",
"1g 	c #8F8681",
"2g 	c #89807C",
"3g 	c #5D5655",
"4g 	c #363133",
"5g 	c #3F3C3D",
"6g 	c #619596",
"7g 	c #629D9E",
"8g 	c #6FA4A5",
"9g 	c #33464A",
"0g 	c #4A6265",
"ag 	c #608181",
"bg 	c #678E8C",
"cg 	c #668E8D",
"dg 	c #668F8E",
"eg 	c #679090",
"fg 	c #689292",
"gg 	c #699494",
"hg 	c #6A9696",
"ig 	c #6B9797",
"jg 	c #6C9999",
"kg 	c #6D9A9A",
"lg 	c #6D9C9C",
"mg 	c #6E9E9E",
"ng 	c #6E9F9F",
"og 	c #6FA1A1",
"pg 	c #6CA1A1",
"qg 	c #68A6A7",
"rg 	c #69A7A9",
"sg 	c #69A8AA",
"tg 	c #66A1A2",
"ug 	c #6EA1A2",
"vg 	c #70A1A1",
"wg 	c #6F9F9F",
"xg 	c #6E9D9D",
"yg 	c #6D9B9B",
"zg 	c #6B9999",
"Ag 	c #6A9797",
"Bg 	c #6A9596",
"Cg 	c #699493",
"Dg 	c #628B8A",
"Eg 	c #557B7B",
"Fg 	c #4D7272",
"Gg 	c #395355",
"Hg 	c #95BCBC",
"Ig 	c #6C8687",
"Jg 	c #505A59",
"Kg 	c #1E201E",
"Lg 	c #2F2C24",
"Mg 	c #59533B",
"Ng 	c #8F8457",
"Og 	c #A19462",
"Pg 	c #A49866",
"Qg 	c #A99C6C",
"Rg 	c #AFA270",
"Sg 	c #B5AA75",
"Tg 	c #BAAF78",
"Ug 	c #BAB078",
"Vg 	c #B9AD76",
"Wg 	c #B5A871",
"Xg 	c #B1A36D",
"Yg 	c #AC9E68",
"Zg 	c #A79964",
"`g 	c #A39660",
" h 	c #A1935D",
".h 	c #A0915B",
"+h 	c #776D44",
"@h 	c #353221",
"#h 	c #0F0D0A",
"$h 	c #202424",
"%h 	c #535F5F",
"&h 	c #2F393A",
"*h 	c #645F5D",
"=h 	c #504B4A",
"-h 	c #7F756E",
";h 	c #80766F",
">h 	c #837972",
",h 	c #8A7F78",
"'h 	c #79706C",
")h 	c #8E8580",
"!h 	c #7F7671",
"~h 	c #726B66",
"{h 	c #373335",
"]h 	c #393638",
"^h 	c #2A3738",
"/h 	c #4D7577",
"(h 	c #629C9D",
"_h 	c #8EB8B8",
":h 	c #2E4145",
"<h 	c #405A5C",
"[h 	c #517675",
"}h 	c #57817F",
"|h 	c #568280",
"1h 	c #5B8A8A",
"2h 	c #5C8B8C",
"3h 	c #609292",
"4h 	c #619494",
"5h 	c #629797",
"6h 	c #68A6A8",
"7h 	c #69A6A8",
"8h 	c #67A4A5",
"9h 	c #66A2A3",
"0h 	c #649A9A",
"ah 	c #639898",
"bh 	c #629696",
"ch 	c #578080",
"dh 	c #446565",
"eh 	c #96BBBC",
"fh 	c #6B8586",
"gh 	c #4F5B5B",
"hh 	c #464E4C",
"ih 	c #171816",
"jh 	c #181612",
"kh 	c #201F19",
"lh 	c #353127",
"mh 	c #706748",
"nh 	c #BBAC70",
"oh 	c #D2C17E",
"ph 	c #D4C381",
"qh 	c #D8C887",
"rh 	c #E0CF8D",
"sh 	c #ECDB95",
"th 	c #F6E59B",
"uh 	c #F3E298",
"vh 	c #EDDB92",
"wh 	c #E8D68D",
"xh 	c #E3D287",
"yh 	c #E0CD83",
"zh 	c #DECB7F",
"Ah 	c #DCCA7D",
"Bh 	c #DDC97B",
"Ch 	c #A5975C",
"Dh 	c #47412B",
"Eh 	c #0F0E0F",
"Fh 	c #110F0D",
"Gh 	c #181A19",
"Hh 	c #4E4948",
"Ih 	c #746964",
"Jh 	c #7B716B",
"Kh 	c #887F7B",
"Lh 	c #8B817C",
"Mh 	c #383537",
"Nh 	c #729191",
"Oh 	c #283B40",
"Ph 	c #344C51",
"Qh 	c #4D7477",
"Rh 	c #609395",
"Sh 	c #629A9C",
"Th 	c #6FA2A4",
"Uh 	c #425D60",
"Vh 	c #537979",
"Wh 	c #5C8E8E",
"Xh 	c #67A3A3",
"Yh 	c #67A4A4",
"Zh 	c #65A1A1",
"`h 	c #5F9192",
" i 	c #466768",
".i 	c #354D50",
"+i 	c #354446",
"@i 	c #6B8587",
"#i 	c #5E6D6D",
"$i 	c #596768",
"%i 	c #414948",
"&i 	c #161614",
"*i 	c #221F1A",
"=i 	c #716948",
"-i 	c #BDAD71",
";i 	c #D2C07D",
">i 	c #D5C381",
",i 	c #D9C986",
"'i 	c #DFCE8B",
")i 	c #EAD891",
"!i 	c #F4E297",
"~i 	c #F5E298",
"{i 	c #F2E095",
"]i 	c #EEDB90",
"^i 	c #E9D78C",
"/i 	c #E6D488",
"(i 	c #E4D184",
"_i 	c #E2CF80",
":i 	c #E1CE7E",
"<i 	c #E1CE7D",
"[i 	c #A89A5E",
"}i 	c #48422A",
"|i 	c #0E0D0E",
"1i 	c #151716",
"2i 	c #3A4344",
"3i 	c #5D6B6B",
"4i 	c #524F4E",
"5i 	c #6B6562",
"6i 	c #504947",
"7i 	c #746B67",
"8i 	c #8F8580",
"9i 	c #877E77",
"0i 	c #5F5757",
"ai 	c #2C3C3E",
"bi 	c #A1CACB",
"ci 	c #2B3739",
"di 	c #24353A",
"ei 	c #233438",
"fi 	c #4B7274",
"gi 	c #61999B",
"hi 	c #6EA2A2",
"ii 	c #8EB8B7",
"ji 	c #28393F",
"ki 	c #32464B",
"li 	c #456365",
"mi 	c #598583",
"ni 	c #5C8D8E",
"oi 	c #5F9394",
"pi 	c #66A2A2",
"qi 	c #588887",
"ri 	c #486C6C",
"si 	c #354E51",
"ti 	c #222F30",
"ui 	c #354546",
"vi 	c #87AAAA",
"wi 	c #3F4847",
"xi 	c #141513",
"yi 	c #151310",
"zi 	c #1F1E19",
"Ai 	c #312E25",
"Bi 	c #635D40",
"Ci 	c #A09362",
"Di 	c #B1A36C",
"Ei 	c #B5A76F",
"Fi 	c #BAAC73",
"Gi 	c #BDAF76",
"Hi 	c #C2B579",
"Ii 	c #C7BC7C",
"Ji 	c #C6BB7B",
"Ki 	c #C4B878",
"Li 	c #C1B575",
"Mi 	c #BEB272",
"Ni 	c #BCB06F",
"Oi 	c #BBAE6D",
"Pi 	c #B9AD6A",
"Qi 	c #B9AC69",
"Ri 	c #89804F",
"Si 	c #3A3724",
"Ti 	c #0F0E0D",
"Ui 	c #141514",
"Vi 	c #534F4E",
"Wi 	c #7C7471",
"Xi 	c #353031",
"Yi 	c #6F6662",
"Zi 	c #7E756F",
"`i 	c #827A76",
" j 	c #2D4144",
".j 	c #2D4044",
"+j 	c #2C4044",
"@j 	c #2C4144",
"#j 	c #2E4245",
"$j 	c #2E4246",
"%j 	c #2E4447",
"&j 	c #2E4448",
"*j 	c #2F4549",
"=j 	c #30484B",
"-j 	c #3A5759",
";j 	c #61989A",
">j 	c #6DA1A2",
",j 	c #8DB8B7",
"'j 	c #8EB1B1",
")j 	c #35494C",
"!j 	c #293A3E",
"~j 	c #33494C",
"{j 	c #456464",
"]j 	c #5D9090",
"^j 	c #5F9495",
"/j 	c #619898",
"(j 	c #5D8F90",
"_j 	c #4C7170",
":j 	c #395456",
"<j 	c #354547",
"[j 	c #6B8687",
"}j 	c #3D4646",
"|j 	c #111211",
"1j 	c #2A2821",
"2j 	c #403D2E",
"3j 	c #5C553C",
"4j 	c #665E41",
"5j 	c #696244",
"6j 	c #6D6547",
"7j 	c #6E6648",
"8j 	c #6D6646",
"9j 	c #6C6846",
"0j 	c #6C6745",
"aj 	c #6C6845",
"bj 	c #6B6744",
"cj 	c #696542",
"dj 	c #67623F",
"ej 	c #645F3C",
"fj 	c #625C39",
"gj 	c #605A37",
"hj 	c #474329",
"ij 	c #1F1E15",
"jj 	c #0E0D0C",
"kj 	c #0A0907",
"lj 	c #111312",
"mj 	c #3B4344",
"nj 	c #6E6764",
"oj 	c #585352",
"pj 	c #6E6661",
"qj 	c #786F6B",
"rj 	c #3A5456",
"sj 	c #415E5F",
"tj 	c #415D5D",
"uj 	c #405C5D",
"vj 	c #405E5E",
"wj 	c #426161",
"xj 	c #436363",
"yj 	c #446465",
"zj 	c #456566",
"Aj 	c #456667",
"Bj 	c #476A6B",
"Cj 	c #486B6C",
"Dj 	c #486D6D",
"Ej 	c #486D6E",
"Fj 	c #496E6F",
"Gj 	c #496F71",
"Hj 	c #4A7072",
"Ij 	c #4A7173",
"Jj 	c #4F7979",
"Kj 	c #588888",
"Lj 	c #609899",
"Mj 	c #6DA0A1",
"Nj 	c #8DB7B7",
"Oj 	c #34494C",
"Pj 	c #466666",
"Qj 	c #5A8785",
"Rj 	c #609696",
"Sj 	c #4C7172",
"Tj 	c #3B5658",
"Uj 	c #586667",
"Vj 	c #3C4545",
"Wj 	c #0B0E0D",
"Xj 	c #25231D",
"Yj 	c #2C2922",
"Zj 	c #2A2823",
"`j 	c #2B2924",
" k 	c #2E2C26",
".k 	c #302E28",
"+k 	c #25221F",
"@k 	c #1B1919",
"#k 	c #1D1C1A",
"$k 	c #23251E",
"%k 	c #272A20",
"&k 	c #292D21",
"*k 	c #282C20",
"=k 	c #24271D",
"-k 	c #1D2019",
";k 	c #141713",
">k 	c #04070C",
",k 	c #050509",
"'k 	c #090807",
")k 	c #030202",
"!k 	c #0E1111",
"~k 	c #776F68",
"{k 	c #736B66",
"]k 	c #9B928E",
"^k 	c #A2CACA",
"/k 	c #313F42",
"(k 	c #2B3839",
"_k 	c #456363",
":k 	c #4F716F",
"<k 	c #4E706E",
"[k 	c #4D6F6D",
"}k 	c #4D706E",
"|k 	c #4E716F",
"1k 	c #4E7271",
"2k 	c #507574",
"3k 	c #537A7A",
"4k 	c #547D7D",
"5k 	c #55807F",
"6k 	c #568181",
"7k 	c #578383",
"8k 	c #5A8A8B",
"9k 	c #5B8B8C",
"0k 	c #5F9797",
"ak 	c #6D9FA0",
"bk 	c #2A3B3F",
"ck 	c #364D50",
"dk 	c #496A6B",
"ek 	c #598785",
"fk 	c #3A5657",
"gk 	c #2C4043",
"hk 	c #364647",
"ik 	c #080B0B",
"jk 	c #211F1A",
"kk 	c #2B2821",
"lk 	c #2E2B24",
"mk 	c #2F2D25",
"nk 	c #312E26",
"ok 	c #23211B",
"pk 	c #22231A",
"qk 	c #292B1E",
"rk 	c #2D3121",
"sk 	c #2F3422",
"tk 	c #303422",
"uk 	c #2D3120",
"vk 	c #282C1D",
"wk 	c #222519",
"xk 	c #1B1C14",
"yk 	c #10100C",
"zk 	c #060605",
"Ak 	c #0E1010",
"Bk 	c #706862",
"Ck 	c #534C49",
"Dk 	c #8B817D",
"Ek 	c #A99F9A",
"Fk 	c #2B383A",
"Gk 	c #293B3E",
"Hk 	c #33494B",
"Ik 	c #527774",
"Jk 	c #517673",
"Kk 	c #527775",
"Lk 	c #537977",
"Mk 	c #547B7A",
"Nk 	c #557D7B",
"Ok 	c #567E7D",
"Pk 	c #5B8988",
"Qk 	c #5B8B89",
"Rk 	c #5E908F",
"Sk 	c #619796",
"Tk 	c #5F9696",
"Uk 	c #385053",
"Vk 	c #496C6C",
"Wk 	c #5F9493",
"Xk 	c #629897",
"Yk 	c #5A898A",
"Zk 	c #5A8788",
"`k 	c #507978",
" l 	c #3D5B5C",
".l 	c #233031",
"+l 	c #6C8686",
"@l 	c #505B5C",
"#l 	c #2B2822",
"$l 	c #252320",
"%l 	c #23211F",
"&l 	c #24211E",
"*l 	c #1A1B14",
"=l 	c #212318",
"-l 	c #262A1C",
";l 	c #2C3220",
">l 	c #303622",
",l 	c #313823",
"'l 	c #2E3420",
")l 	c #282D1C",
"!l 	c #212518",
"~l 	c #1A1D14",
"{l 	c #0F110B",
"]l 	c #030402",
"^l 	c #423F3E",
"/l 	c #4A4442",
"(l 	c #4D4745",
"_l 	c #797069",
":l 	c #817773",
"<l 	c #4F4A49",
"[l 	c #B4AAA4",
"}l 	c #476665",
"|l 	c #507372",
"1l 	c #4F7573",
"2l 	c #517977",
"3l 	c #5B8E8D",
"4l 	c #5F9595",
"5l 	c #5D9494",
"6l 	c #6C9D9E",
"7l 	c #8DB6B6",
"8l 	c #374F51",
"9l 	c #486A6B",
"0l 	c #5C8F8E",
"al 	c #517A79",
"bl 	c #3F5E5F",
"cl 	c #293A3D",
"dl 	c #312D1B",
"el 	c #A09459",
"fl 	c #706741",
"gl 	c #343125",
"hl 	c #201F1D",
"il 	c #716842",
"jl 	c #867D4F",
"kl 	c #5D5838",
"ll 	c #141412",
"ml 	c #181912",
"nl 	c #171912",
"ol 	c #181A13",
"pl 	c #222619",
"ql 	c #292F1E",
"rl 	c #2B321F",
"sl 	c #272D1C",
"tl 	c #1E2116",
"ul 	c #13140F",
"vl 	c #040007",
"wl 	c #070507",
"xl 	c #060704",
"yl 	c #292728",
"zl 	c #2F2A2B",
"Al 	c #373233",
"Bl 	c #464140",
"Cl 	c #524D4B",
"Dl 	c #393436",
"El 	c #474343",
"Fl 	c #625A57",
"Gl 	c #5C5553",
"Hl 	c #928985",
"Il 	c #789698",
"Jl 	c #476565",
"Kl 	c #4E7371",
"Ll 	c #4E7472",
"Ml 	c #4F7674",
"Nl 	c #507775",
"Ol 	c #507977",
"Pl 	c #527C7A",
"Ql 	c #547F7D",
"Rl 	c #5A8A88",
"Sl 	c #5A8B8A",
"Tl 	c #5C9090",
"Ul 	c #5D9292",
"Vl 	c #5C9192",
"Wl 	c #6B9C9C",
"Xl 	c #8EB1B2",
"Yl 	c #364C4F",
"Zl 	c #486969",
"`l 	c #5B8887",
" m 	c #5B8D8C",
".m 	c #517B7A",
"+m 	c #405F60",
"@m 	c #29393D",
"#m 	c #364648",
"$m 	c #453F25",
"%m 	c #DFCE7C",
"&m 	c #998D58",
"*m 	c #3E3A2B",
"=m 	c #131418",
"-m 	c #A2945D",
";m 	c #C1B370",
">m 	c #857E4F",
",m 	c #01030B",
"'m 	c #1E2215",
")m 	c #3F4B2A",
"!m 	c #607340",
"~m 	c #637842",
"{m 	c #677D45",
"]m 	c #697F46",
"^m 	c #667C45",
"/m 	c #627742",
"(m 	c #5F733F",
"_m 	c #5F7440",
":m 	c #3F4D2A",
"<m 	c #020003",
"[m 	c #312C2C",
"}m 	c #484240",
"|m 	c #363132",
"1m 	c #413C3D",
"2m 	c #3D3739",
"3m 	c #403A3A",
"4m 	c #6F6761",
"5m 	c #453E3E",
"6m 	c #4E4745",
"7m 	c #4F4846",
"8m 	c #2C393A",
"9m 	c #243132",
"0m 	c #567A78",
"am 	c #5D8180",
"bm 	c #5F8483",
"cm 	c #5E8483",
"dm 	c #5F8583",
"em 	c #5F8685",
"fm 	c #608786",
"gm 	c #618887",
"hm 	c #628988",
"im 	c #628A89",
"jm 	c #638B8A",
"km 	c #638C8B",
"lm 	c #638D8D",
"mm 	c #648E8E",
"nm 	c #658F8F",
"om 	c #669190",
"pm 	c #679392",
"qm 	c #679594",
"rm 	c #679695",
"sm 	c #689797",
"tm 	c #699898",
"um 	c #699999",
"vm 	c #689999",
"wm 	c #73A1A1",
"xm 	c #8FB7B7",
"ym 	c #5A8886",
"zm 	c #588786",
"Am 	c #5D908F",
"Bm 	c #5A8787",
"Cm 	c #527D7C",
"Dm 	c #416263",
"Em 	c #090B0B",
"Fm 	c #443D25",
"Gm 	c #DBC879",
"Hm 	c #988B58",
"Im 	c #413C2D",
"Jm 	c #17181B",
"Km 	c #A3955E",
"Lm 	c #C2B471",
"Mm 	c #877F50",
"Nm 	c #02030C",
"Om 	c #2A311D",
"Pm 	c #667B45",
"Qm 	c #9CBC6A",
"Rm 	c #9FBF6A",
"Sm 	c #A2C46D",
"Tm 	c #A5C86F",
"Um 	c #9EBE6B",
"Vm 	c #9BBB68",
"Wm 	c #9FBF6C",
"Xm 	c #6A8148",
"Ym 	c #3E3938",
"Zm 	c #423C3B",
"`m 	c #5F5958",
" n 	c #78706E",
".n 	c #615956",
"+n 	c #5C5452",
"@n 	c #423B3C",
"#n 	c #474040",
"$n 	c #2C393B",
"%n 	c #507471",
"&n 	c #537775",
"*n 	c #688B8A",
"=n 	c #7DA0A0",
"-n 	c #84A8A8",
";n 	c #85AAA9",
">n 	c #86ABAA",
",n 	c #87ABAB",
"'n 	c #86ACAB",
")n 	c #86ACAC",
"!n 	c #87ADAC",
"~n 	c #88AEAD",
"{n 	c #89AFAF",
"]n 	c #89B0AF",
"^n 	c #89B1B0",
"/n 	c #89B2B1",
"(n 	c #89B2B2",
"_n 	c #8DB5B5",
":n 	c #9BC1C2",
"<n 	c #92B5B6",
"[n 	c #36494D",
"}n 	c #2B3D40",
"|n 	c #385052",
"1n 	c #4B6D6E",
"2n 	c #5C8B8B",
"3n 	c #5D8D8D",
"4n 	c #31484A",
"5n 	c #283A3D",
"6n 	c #364748",
"7n 	c #443E25",
"8n 	c #9A8D5A",
"9n 	c #454031",
"0n 	c #1C1C1E",
"an 	c #A4975F",
"bn 	c #C4B673",
"cn 	c #898152",
"dn 	c #05070E",
"en 	c #2D351F",
"fn 	c #6F864B",
"gn 	c #A9CC72",
"hn 	c #ABCF73",
"in 	c #B0D476",
"jn 	c #B4D979",
"kn 	c #AFD476",
"ln 	c #AACE73",
"mn 	c #A8CA72",
"nn 	c #AED175",
"on 	c #758D4E",
"pn 	c #393434",
"qn 	c #433E3C",
"rn 	c #4E4947",
"sn 	c #A09C9B",
"tn 	c #807977",
"un 	c #464041",
"vn 	c #564F4C",
"wn 	c #58504E",
"xn 	c #4D4645",
"yn 	c #494342",
"zn 	c #433D3C",
"An 	c #4A4342",
"Bn 	c #524B49",
"Cn 	c #799798",
"Dn 	c #759897",
"En 	c #94B6B7",
"Fn 	c #9FC3C3",
"Gn 	c #A1C6C6",
"Hn 	c #A3C7C7",
"In 	c #A2C7C7",
"Jn 	c #A3C7C6",
"Kn 	c #A8CDCD",
"Ln 	c #9ABDBD",
"Mn 	c #374A4E",
"Nn 	c #2C3D41",
"On 	c #395154",
"Pn 	c #4C6E6F",
"Qn 	c #588684",
"Rn 	c #456769",
"Sn 	c #374748",
"Tn 	c #060504",
"Un 	c #443E26",
"Vn 	c #DBC87A",
"Wn 	c #9C8F5C",
"Xn 	c #484433",
"Yn 	c #21201F",
"Zn 	c #A59761",
"`n 	c #C5B775",
" o 	c #8A8354",
".o 	c #080A0F",
"+o 	c #2B321E",
"@o 	c #677D46",
"#o 	c #9FBF6B",
"$o 	c #A1C26D",
"%o 	c #A6C870",
"&o 	c #A9CD72",
"*o 	c #A5C76F",
"=o 	c #A0C16C",
"-o 	c #9DBD6A",
";o 	c #A2C36D",
">o 	c #6C8349",
",o 	c #393636",
"'o 	c #969291",
")o 	c #827A77",
"!o 	c #807874",
"~o 	c #5F5857",
"{o 	c #342F31",
"]o 	c #4F4847",
"^o 	c #779999",
"/o 	c #95B7B8",
"(o 	c #98BABB",
"_o 	c #89AAAA",
":o 	c #82A2A2",
"<o 	c #81A0A1",
"[o 	c #81A0A0",
"}o 	c #84A4A4",
"|o 	c #7A9898",
"1o 	c #587071",
"2o 	c #395153",
"3o 	c #466969",
"4o 	c #453E26",
"5o 	c #DCC97B",
"6o 	c #9F925F",
"7o 	c #4C4836",
"8o 	c #252422",
"9o 	c #A69863",
"0o 	c #C6B977",
"ao 	c #8B8455",
"bo 	c #0B0D10",
"co 	c #1F2416",
"do 	c #3A4527",
"eo 	c #596A3C",
"fo 	c #627542",
"go 	c #687D47",
"ho 	c #6C8149",
"io 	c #677B46",
"jo 	c #5D703F",
"ko 	c #556639",
"lo 	c #526338",
"mo 	c #364124",
"no 	c #3E3A39",
"oo 	c #726D6B",
"po 	c #7D7572",
"qo 	c #776F6C",
"ro 	c #6E6664",
"so 	c #40393A",
"to 	c #403939",
"uo 	c #41393A",
"vo 	c #567978",
"wo 	c #769998",
"xo 	c #91B4B4",
"yo 	c #607B7C",
"zo 	c #43585A",
"Ao 	c #445A5B",
"Bo 	c #455B5D",
"Co 	c #415759",
"Do 	c #3A5254",
"Eo 	c #4D7071",
"Fo 	c #456767",
"Go 	c #273536",
"Ho 	c #374749",
"Io 	c #6C8688",
"Jo 	c #505C5C",
"Ko 	c #090C0B",
"Lo 	c #453F27",
"Mo 	c #DCC97C",
"No 	c #A29562",
"Oo 	c #514B39",
"Po 	c #282725",
"Qo 	c #A79A65",
"Ro 	c #C8BB7A",
"So 	c #8D8657",
"To 	c #0B0E11",
"Uo 	c #1B1E14",
"Vo 	c #262C1A",
"Wo 	c #343D24",
"Xo 	c #3E492B",
"Yo 	c #45512F",
"Zo 	c #465430",
"`o 	c #424E2D",
" p 	c #394328",
".p 	c #222817",
"+p 	c #161A0F",
"@p 	c #060804",
"#p 	c #3F3B3A",
"$p 	c #989392",
"%p 	c #817975",
"&p 	c #7F7774",
"*p 	c #625A58",
"=p 	c #68605D",
"-p 	c #554C4A",
";p 	c #534A48",
">p 	c #5B514F",
",p 	c #504746",
"'p 	c #3F3838",
")p 	c #799799",
"!p 	c #2D3A3B",
"~p 	c #779A99",
"{p 	c #90B4B4",
"]p 	c #83A3A3",
"^p 	c #4F6769",
"/p 	c #2A3C3F",
"(p 	c #2C3F42",
"_p 	c #3B5456",
":p 	c #4F7271",
"<p 	c #578280",
"[p 	c #517979",
"}p 	c #436465",
"|p 	c #324A4D",
"1p 	c #2C3A3B",
"2p 	c #384849",
"3p 	c #090C0C",
"4p 	c #080706",
"5p 	c #453F28",
"6p 	c #DCCA7E",
"7p 	c #A59865",
"8p 	c #2B2A27",
"9p 	c #A99C67",
"0p 	c #CABD7C",
"ap 	c #8E8859",
"bp 	c #0E1012",
"cp 	c #1D2016",
"dp 	c #262D1B",
"ep 	c #313922",
"fp 	c #3A4528",
"gp 	c #404B2C",
"hp 	c #404C2D",
"ip 	c #3C462A",
"jp 	c #343C24",
"kp 	c #2A311E",
"lp 	c #1C2114",
"mp 	c #0F110A",
"np 	c #494240",
"op 	c #564C49",
"pp 	c #9B9796",
"qp 	c #736A68",
"rp 	c #6D6463",
"sp 	c #6C6362",
"tp 	c #6B6261",
"up 	c #978E87",
"vp 	c #908680",
"wp 	c #756B65",
"xp 	c #6C615C",
"yp 	c #4C4443",
"zp 	c #3A3435",
"Ap 	c #443C3C",
"Bp 	c #413839",
"Cp 	c #4D4341",
"Dp 	c #2D3A3C",
"Ep 	c #3E5859",
"Fp 	c #4F7372",
"Gp 	c #55807E",
"Hp 	c #56807E",
"Ip 	c #56817F",
"Jp 	c #446566",
"Kp 	c #1F292C",
"Lp 	c #6C8788",
"Mp 	c #464028",
"Np 	c #DDCB7E",
"Op 	c #A89C68",
"Pp 	c #585340",
"Qp 	c #2E2C28",
"Rp 	c #AB9E69",
"Sp 	c #CBBF7F",
"Tp 	c #908A5B",
"Up 	c #111314",
"Vp 	c #1E2217",
"Wp 	c #272D1B",
"Xp 	c #323A23",
"Yp 	c #3C4629",
"Zp 	c #414D2D",
"`p 	c #3B4629",
" q 	c #202416",
".q 	c #0F1209",
"+q 	c #574D4A",
"@q 	c #4C4543",
"#q 	c #807B7A",
"$q 	c #97918F",
"%q 	c #79726D",
"&q 	c #756D6A",
"*q 	c #776F6B",
"=q 	c #8F8882",
"-q 	c #968F89",
";q 	c #807670",
">q 	c #6E645E",
",q 	c #574D4B",
"'q 	c #564C4A",
")q 	c #534947",
"!q 	c #514846",
"~q 	c #473F3F",
"{q 	c #413A3A",
"]q 	c #4F4542",
"^q 	c #73635B",
"/q 	c #817167",
"(q 	c #786A63",
"_q 	c #977F73",
":q 	c #998174",
"<q 	c #83A3A4",
"[q 	c #2B3C40",
"}q 	c #2E4043",
"|q 	c #3D5759",
"1q 	c #4D7170",
"2q 	c #547E7C",
"3q 	c #486A69",
"4q 	c #354F50",
"5q 	c #38484A",
"6q 	c #090806",
"7q 	c #474029",
"8q 	c #AD9F6C",
"9q 	c #5E5843",
"0q 	c #312E2A",
"aq 	c #ACA06C",
"bq 	c #CDC282",
"cq 	c #918D5E",
"dq 	c #191A17",
"eq 	c #232818",
"fq 	c #323B23",
"gq 	c #404C2C",
"hq 	c #475431",
"iq 	c #465330",
"jq 	c #353D25",
"kq 	c #282E1D",
"lq 	c #1B1F13",
"mq 	c #0C0E08",
"nq 	c #554B48",
"oq 	c #8F8986",
"pq 	c #7A736E",
"qq 	c #756D69",
"rq 	c #605954",
"sq 	c #68615B",
"tq 	c #68615C",
"uq 	c #77706B",
"vq 	c #8D847E",
"wq 	c #8E857E",
"xq 	c #7E746E",
"yq 	c #786E68",
"zq 	c #5D524F",
"Aq 	c #9B8677",
"Bq 	c #A08979",
"Cq 	c #89776C",
"Dq 	c #847369",
"Eq 	c #927C70",
"Fq 	c #8F7A6F",
"Gq 	c #799999",
"Hq 	c #2D3B3C",
"Iq 	c #50676B",
"Jq 	c #2D4043",
"Kq 	c #3F5B5B",
"Lq 	c #4A6D6C",
"Mq 	c #385354",
"Nq 	c #474129",
"Oq 	c #DECC80",
"Pq 	c #B1A36F",
"Qq 	c #625C46",
"Rq 	c #33302C",
"Sq 	c #AFA26E",
"Tq 	c #CFC484",
"Uq 	c #938F60",
"Vq 	c #1D1F1A",
"Wq 	c #202418",
"Xq 	c #252B19",
"Yq 	c #353E24",
"Zq 	c #44512E",
"`q 	c #4E5D35",
" r 	c #4D5C35",
".r 	c #414D2C",
"+r 	c #333C23",
"@r 	c #1E2316",
"#r 	c #11140C",
"$r 	c #9E9A99",
"%r 	c #857E7A",
"&r 	c #6F6863",
"*r 	c #645B56",
"=r 	c #6D645E",
"-r 	c #6A5F5B",
";r 	c #635955",
">r 	c #5D5350",
",r 	c #5C524F",
"'r 	c #5F5551",
")r 	c #635855",
"!r 	c #5F5552",
"~r 	c #7D7069",
"{r 	c #9E8778",
"]r 	c #968173",
"^r 	c #6E635C",
"/r 	c #6A605A",
"(r 	c #6D625C",
"_r 	c #436060",
":r 	c #527878",
"<r 	c #496B6A",
"[r 	c #395455",
"}r 	c #39494A",
"|r 	c #6D8788",
"1r 	c #0A0806",
"2r 	c #DFCC81",
"3r 	c #B4A773",
"4r 	c #655F48",
"5r 	c #34312D",
"6r 	c #B1A470",
"7r 	c #D1C687",
"8r 	c #939062",
"9r 	c #1E1F1A",
"0r 	c #2F3621",
"ar 	c #637742",
"br 	c #95B564",
"cr 	c #9AB967",
"dr 	c #9FC16A",
"er 	c #9DBE6A",
"fr 	c #97B766",
"gr 	c #93B163",
"hr 	c #92AF62",
"ir 	c #97B665",
"jr 	c #647A42",
"kr 	c #7D7876",
"lr 	c #8B8684",
"mr 	c #736C67",
"nr 	c #766E6A",
"or 	c #79716D",
"pr 	c #625B56",
"qr 	c #8A817B",
"rr 	c #8C837C",
"sr 	c #766C66",
"tr 	c #7A6E68",
"ur 	c #70655E",
"vr 	c #6B605A",
"wr 	c #70645E",
"xr 	c #2E3B3D",
"yr 	c #314648",
"zr 	c #4D6F6E",
"Ar 	c #496969",
"Br 	c #395253",
"Cr 	c #0A0807",
"Dr 	c #47412A",
"Er 	c #B7AA76",
"Fr 	c #68624B",
"Gr 	c #35322D",
"Hr 	c #B3A672",
"Ir 	c #D3C889",
"Jr 	c #949164",
"Kr 	c #748B4E",
"Lr 	c #AED275",
"Mr 	c #B2D677",
"Nr 	c #B6DD7A",
"Or 	c #B4DA79",
"Pr 	c #AFD376",
"Qr 	c #ACCF74",
"Rr 	c #ABCD73",
"Sr 	c #B1D678",
"Tr 	c #77904F",
"Ur 	c #827D7B",
"Vr 	c #847F7C",
"Wr 	c #746E69",
"Xr 	c #615A55",
"Yr 	c #5E5550",
"Zr 	c #5F5651",
"`r 	c #5F5752",
" s 	c #605853",
".s 	c #5D5550",
"+s 	c #625954",
"@s 	c #918781",
"#s 	c #867C76",
"$s 	c #2E3C3D",
"%s 	c #2F4245",
"&s 	c #3F5A5B",
"*s 	c #517774",
"=s 	c #4A6C6A",
"-s 	c #DFCD82",
";s 	c #B9AB78",
">s 	c #6A634C",
",s 	c #36332E",
"'s 	c #B4A673",
")s 	c #D4C98A",
"!s 	c #959264",
"~s 	c #1E1E1A",
"{s 	c #333C24",
"]s 	c #B1D576",
"^s 	c #B2D878",
"/s 	c #AED376",
"(s 	c #ABCE73",
"_s 	c #B2D678",
":s 	c #514946",
"<s 	c #4D4643",
"[s 	c #605B59",
"}s 	c #847F7D",
"|s 	c #756F6A",
"1s 	c #706964",
"2s 	c #5E5651",
"3s 	c #5C5550",
"4s 	c #5E5752",
"5s 	c #635A55",
"6s 	c #655C57",
"7s 	c #7C736D",
"8s 	c #928983",
"9s 	c #A49A96",
"0s 	c #A79D99",
"as 	c #A69C98",
"bs 	c #968C88",
"cs 	c #786D68",
"ds 	c #766B66",
"es 	c #7B6F69",
"fs 	c #476566",
"gs 	c #314548",
"hs 	c #435F5F",
"is 	c #4F7170",
"js 	c #4A6B6A",
"ks 	c #3B5657",
"ls 	c #394A4B",
"ms 	c #6D8789",
"ns 	c #B9AB77",
"os 	c #36342E",
"ps 	c #1D1D19",
"qs 	c #5A6D3C",
"rs 	c #88A45B",
"ss 	c #8BA85D",
"ts 	c #8DAB5E",
"us 	c #8CA95E",
"vs 	c #88A65C",
"ws 	c #87A35A",
"xs 	c #86A159",
"ys 	c #8AA75C",
"zs 	c #5B6F3C",
"As 	c #5A504D",
"Bs 	c #78716F",
"Cs 	c #79736F",
"Ds 	c #6A635F",
"Es 	c #847A76",
"Fs 	c #A39995",
"Gs 	c #A39894",
"Hs 	c #8F8480",
"Is 	c #8B807C",
"Js 	c #897E7A",
"Ks 	c #7C706B",
"Ls 	c #6E635D",
"Ms 	c #496A69",
"Ns 	c #3B5556",
"Os 	c #39494B",
"Ps 	c #6D8889",
"Qs 	c #B8AB76",
"Rs 	c #69634B",
"Ss 	c #35332E",
"Ts 	c #D4C889",
"Us 	c #949064",
"Vs 	c #1A1B18",
"Ws 	c #1A1E12",
"Xs 	c #29311D",
"Ys 	c #2E3720",
"Zs 	c #2C351F",
"`s 	c #242A19",
" t 	c #1B1E13",
".t 	c #0F0F0D",
"+t 	c #030008",
"@t 	c #010003",
"#t 	c #7A7470",
"$t 	c #706965",
"%t 	c #6D6662",
"&t 	c #5D5651",
"*t 	c #786F69",
"=t 	c #988F8A",
"-t 	c #A09692",
";t 	c #887D79",
">t 	c #6C615B",
",t 	c #4A6C6B",
"'t 	c #3C5758",
")t 	c #1B2728",
"!t 	c #293738",
"~t 	c #B7A975",
"{t 	c #67614A",
"]t 	c #B3A671",
"^t 	c #D3C788",
"/t 	c #949062",
"(t 	c #161615",
"_t 	c #1A1D13",
":t 	c #191E12",
"<t 	c #202516",
"[t 	c #262D1A",
"}t 	c #28301C",
"|t 	c #232918",
"1t 	c #1D2214",
"2t 	c #161A10",
"3t 	c #10120B",
"4t 	c #050604",
"5t 	c #736C69",
"6t 	c #797370",
"7t 	c #6C6662",
"8t 	c #5A524E",
"9t 	c #685F59",
"0t 	c #665D57",
"at 	c #695F59",
"bt 	c #4C6263",
"ct 	c #3B5758",
"dt 	c #2E4347",
"et 	c #3A4A4C",
"ft 	c #DECC81",
"gt 	c #B2A672",
"ht 	c #635E48",
"it 	c #33312C",
"jt 	c #D1C686",
"kt 	c #928F61",
"lt 	c #121113",
"mt 	c #13150F",
"nt 	c #15180F",
"ot 	c #252B1A",
"pt 	c #282F1C",
"qt 	c #1B2013",
"rt 	c #13160E",
"st 	c #080905",
"tt 	c #877D75",
"ut 	c #968981",
"vt 	c #A0938A",
"wt 	c #998D85",
"xt 	c #665F5A",
"yt 	c #5C544F",
"zt 	c #59514D",
"At 	c #58504D",
"Bt 	c #5A514E",
"Ct 	c #615954",
"Dt 	c #3C4F52",
"Et 	c #2F3C3E",
"Ft 	c #6D8989",
"Gt 	c #DECB80",
"Ht 	c #AEA16E",
"It 	c #5F5944",
"Jt 	c #312F2B",
"Kt 	c #AEA16D",
"Lt 	c #CEC383",
"Mt 	c #918E5F",
"Nt 	c #0E0C11",
"Ot 	c #12140C",
"Pt 	c #212517",
"Qt 	c #2E3520",
"Rt 	c #2D3520",
"St 	c #282F1D",
"Tt 	c #10130B",
"Ut 	c #9A8D85",
"Vt 	c #645D58",
"Wt 	c #675D58",
"Xt 	c #749192",
"Yt 	c #2F3D3E",
"Zt 	c #3A4B4C",
"`t 	c #96BDBD",
" u 	c #DDCB7F",
".u 	c #AA9E6B",
"+u 	c #5B5642",
"@u 	c #302D29",
"#u 	c #AC9F6A",
"$u 	c #CCC180",
"%u 	c #908B5D",
"&u 	c #0C0C11",
"*u 	c #1C2014",
"=u 	c #282E1C",
"-u 	c #2C3420",
";u 	c #2C331F",
">u 	c #242B1A",
",u 	c #070905",
"'u 	c #544F4C",
")u 	c #665C57",
"!u 	c #3B4B4C",
"~u 	c #6E8989",
"{u 	c #515C5C",
"]u 	c #463F28",
"^u 	c #DDCA7E",
"/u 	c #A79A67",
"(u 	c #58523E",
"_u 	c #2E2B28",
":u 	c #AA9D69",
"<u 	c #CBBE7E",
"[u 	c #8F895B",
"}u 	c #0E0D12",
"|u 	c #161710",
"1u 	c #171A10",
"2u 	c #272E1B",
"3u 	c #272F1B",
"4u 	c #232A18",
"5u 	c #1D2314",
"6u 	c #181B10",
"7u 	c #514C48",
"8u 	c #67605B",
"9u 	c #374649",
"0u 	c #19272B",
"au 	c #2A3839",
"bu 	c #3B4C4D",
"cu 	c #DCC97D",
"du 	c #A39663",
"eu 	c #524D3B",
"fu 	c #2A2825",
"gu 	c #A89B66",
"hu 	c #C9BB7B",
"iu 	c #8E8759",
"ju 	c #101213",
"ku 	c #1E2314",
"lu 	c #303A21",
"mu 	c #364024",
"nu 	c #354024",
"ou 	c #303921",
"pu 	c #29311C",
"qu 	c #1E2414",
"ru 	c #11140B",
"su 	c #5D544F",
"tu 	c #665D58",
"uu 	c #303E3F",
"vu 	c #515C5D",
"wu 	c #453E27",
"xu 	c #A09361",
"yu 	c #4E4A38",
"zu 	c #272523",
"Au 	c #C7BA79",
"Bu 	c #8C8557",
"Cu 	c #111313",
"Du 	c #232819",
"Eu 	c #404D2B",
"Fu 	c #5F7341",
"Gu 	c #657B45",
"Hu 	c #6B8148",
"Iu 	c #607341",
"Ju 	c #5B6D3E",
"Ku 	c #5A6B3D",
"Lu 	c #3A4627",
"Mu 	c #374849",
"Nu 	c #19282B",
"Ou 	c #A2CBCC",
"Pu 	c #6E898A",
"Qu 	c #9E915F",
"Ru 	c #4B4635",
"Su 	c #232221",
"Tu 	c #A59862",
"Uu 	c #C6B877",
"Vu 	c #2E3620",
"Wu 	c #6A7F47",
"Xu 	c #A3C56E",
"Yu 	c #A7C970",
"Zu 	c #A3C46D",
"`u 	c #A2C46E",
" v 	c #6D8349",
".v 	c #685E59",
"+v 	c #A3CACA",
"@v 	c #303F40",
"#v 	c #2B393A",
"$v 	c #3B4C4E",
"%v 	c #596868",
"&v 	c #414C4C",
"*v 	c #131717",
"=v 	c #9B8E5B",
"-v 	c #474232",
";v 	c #1F1E1E",
">v 	c #A49760",
",v 	c #C4B775",
"'v 	c #898253",
")v 	c #303821",
"!v 	c #70874C",
"~v 	c #AACD72",
"{v 	c #ADD174",
"]v 	c #B2D777",
"^v 	c #B3D878",
"/v 	c #A9CB72",
"(v 	c #A7C971",
"_v 	c #ADD076",
":v 	c #212C2D",
"<v 	c #283232",
"[v 	c #3C4D4E",
"}v 	c #515D5D",
"|v 	c #998C59",
"1v 	c #433E2E",
"2v 	c #1A1A1C",
"3v 	c #A4965F",
"4v 	c #C3B572",
"5v 	c #888051",
"6v 	c #0B0F10",
"7v 	c #2E351F",
"8v 	c #697E47",
"9v 	c #A8CA71",
"0v 	c #A8CA70",
"av 	c #9BBA69",
"bv 	c #A0BF6C",
"cv 	c #6B8047",
"dv 	c #0D1010",
"ev 	c #313E40",
"fv 	c #3C4D4F",
"gv 	c #6E898B",
"hv 	c #4E5A5A",
"iv 	c #394242",
"jv 	c #121514",
"kv 	c #DECD7C",
"lv 	c #9A8E59",
"mv 	c #403C2C",
"nv 	c #151519",
"ov 	c #A5985E",
"pv 	c #C4B672",
"qv 	c #080C0E",
"rv 	c #222718",
"sv 	c #44512D",
"tv 	c #667B44",
"uv 	c #70874B",
"vv 	c #6B8147",
"wv 	c #657B44",
"xv 	c #627642",
"yv 	c #647842",
"zv 	c #414F2A",
"Av 	c #121515",
"Bv 	c #3C4646",
"Cv 	c #675E58",
"Dv 	c #7C9B9D",
"Ev 	c #262F2F",
"Fv 	c #476767",
"Gv 	c #527674",
"Hv 	c #4C706E",
"Iv 	c #547876",
"Jv 	c #A3CBCC",
"Kv 	c #332F1E",
"Lv 	c #A3985B",
"Mv 	c #736A44",
"Nv 	c #363226",
"Ov 	c #1B1A1A",
"Pv 	c #84794C",
"Qv 	c #9D915C",
"Rv 	c #6C6641",
"Sv 	c #0D100F",
"Tv 	c #181A11",
"Uv 	c #161910",
"Vv 	c #191D13",
"Wv 	c #252C1B",
"Xv 	c #2D361F",
"Yv 	c #2D3620",
"Zv 	c #252C1A",
"`v 	c #10100D",
" w 	c #020006",
".w 	c #020004",
"+w 	c #454F50",
"@w 	c #7C9C9D",
"#w 	c #314041",
"$w 	c #476868",
"%w 	c #4F7471",
"&w 	c #4A6F6C",
"*w 	c #84A2A4",
"=w 	c #29383D",
"-w 	c #313F40",
";w 	c #3D4D4F",
">w 	c #4B5655",
",w 	c #27231C",
"'w 	c #2C2A21",
")w 	c #28261F",
"!w 	c #23211C",
"~w 	c #433E2C",
"{w 	c #4F4932",
"]w 	c #393425",
"^w 	c #13130F",
"/w 	c #15170F",
"(w 	c #191D11",
"_w 	c #2C341E",
":w 	c #212617",
"<w 	c #080A06",
"[w 	c #272E2E",
"}w 	c #364548",
"|w 	c #749393",
"1w 	c #4C6E6D",
"2w 	c #547775",
"3w 	c #5C807D",
"4w 	c #7EA1A0",
"5w 	c #92B5B5",
"6w 	c #84A2A3",
"7w 	c #3D4E4F",
"8w 	c #A2CCCB",
"9w 	c #4A5555",
"0w 	c #576464",
"aw 	c #626F6F",
"bw 	c #3B4444",
"cw 	c #1A1914",
"dw 	c #23221B",
"ew 	c #23201B",
"fw 	c #21201B",
"gw 	c #1C1A16",
"hw 	c #12110D",
"iw 	c #0D0F09",
"jw 	c #14170E",
"kw 	c #202616",
"lw 	c #232A19",
"mw 	c #1C2013",
"nw 	c #16190F",
"ow 	c #0C0E09",
"pw 	c #070808",
"qw 	c #343C3C",
"rw 	c #566464",
"sw 	c #2E393A",
"tw 	c #3E5759",
"uw 	c #617E7F",
"vw 	c #80A2A1",
"ww 	c #8BAEAE",
"xw 	c #83A2A2",
"yw 	c #1A282C",
"zw 	c #3D4E50",
"Aw 	c #A2CCCC",
"Bw 	c #404A4B",
"Cw 	c #4D5757",
"Dw 	c #4B5656",
"Ew 	c #242726",
"Fw 	c #191914",
"Gw 	c #201E18",
"Hw 	c #1B1915",
"Iw 	c #14180F",
"Jw 	c #191D1D",
"Kw 	c #434D4D",
"Lw 	c #525D5E",
"Mw 	c #2E393B",
"Nw 	c #324042",
"Ow 	c #33454A",
"Pw 	c #647D80",
"Qw 	c #8EAEAF",
"Rw 	c #99BCBC",
"Sw 	c #97B9BA",
"Tw 	c #7A9999",
"Uw 	c #29373C",
"Vw 	c #324041",
"Ww 	c #3E4F50",
"Xw 	c #3F4B4C",
"Yw 	c #485151",
"Zw 	c #556262",
"`w 	c #5B6868",
" x 	c #333938",
".x 	c #1B1B18",
"+x 	c #181613",
"@x 	c #0D0B09",
"#x 	c #020201",
"$x 	c #0A0C07",
"%x 	c #12150C",
"&x 	c #14180E",
"*x 	c #13150C",
"=x 	c #0C0D07",
"-x 	c #5B696A",
";x 	c #37474B",
">x 	c #7D9C9E",
",x 	c #4D6567",
"'x 	c #708C8E",
")x 	c #405559",
"!x 	c #293133",
"~x 	c #3E4F51",
"{x 	c #6D8A8A",
"]x 	c #3E4D4F",
"^x 	c #4D5858",
"/x 	c #5C6A6A",
"(x 	c #6A7877",
"_x 	c #404948",
":x 	c #202220",
"<x 	c #1E1D19",
"[x 	c #1E1D1A",
"}x 	c #1D1D1A",
"|x 	c #1B1B17",
"1x 	c #070909",
"2x 	c #0A0C0B",
"3x 	c #0C0F0C",
"4x 	c #060808",
"5x 	c #3E4747",
"6x 	c #576465",
"7x 	c #424B4B",
"8x 	c #182225",
"9x 	c #516869",
"0x 	c #324142",
"ax 	c #2F4246",
"bx 	c #35494D",
"cx 	c #374B4F",
"dx 	c #374B4E",
"ex 	c #33474B",
"fx 	c #293335",
"gx 	c #3E5051",
"hx 	c #3E4C4E",
"ix 	c #576364",
"jx 	c #616F70",
"kx 	c #708080",
"lx 	c #4D5857",
"mx 	c #343937",
"nx 	c #313431",
"ox 	c #303330",
"px 	c #2F322F",
"qx 	c #313430",
"rx 	c #2E322F",
"sx 	c #282C2B",
"tx 	c #4E5959",
"ux 	c #657373",
"vx 	c #4B5555",
"wx 	c #2E3F41",
"xx 	c #3B4B4D",
"yx 	c #334142",
"zx 	c #282E2E",
"Ax 	c #283B3E",
"Bx 	c #223337",
"Cx 	c #28383A",
"Dx 	c #1A292B",
"Ex 	c #4F5959",
"Fx 	c #5F6C6D",
"Gx 	c #667475",
"Hx 	c #616E6D",
"Ix 	c #4D5654",
"Jx 	c #4A514E",
"Kx 	c #49504D",
"Lx 	c #474F4C",
"Mx 	c #48504D",
"Nx 	c #444E4C",
"Ox 	c #424C4C",
"Px 	c #485353",
"Qx 	c #5A6868",
"Rx 	c #566363",
"Sx 	c #414949",
"Tx 	c #30393A",
"Ux 	c #71655F",
"Vx 	c #28393B",
"Wx 	c #292E2F",
"Xx 	c #3D4A4B",
"Yx 	c #586566",
"Zx 	c #778786",
"`x 	c #64706E",
" y 	c #606A67",
".y 	c #5F6A67",
"+y 	c #5E6A67",
"@y 	c #5E6A69",
"#y 	c #5E6B6B",
"$y 	c #5F6B6B",
"%y 	c #5D6A6A",
"&y 	c #6D7D7C",
"*y 	c #4F5A5A",
"=y 	c #3F4748",
"-y 	c #685E58",
";y 	c #665C56",
">y 	c #655B56",
",y 	c #6C625C",
"'y 	c #38484C",
")y 	c #759394",
"!y 	c #334143",
"~y 	c #3F5051",
"{y 	c #6E8A8C",
"]y 	c #3A4D4F",
"^y 	c #3A484A",
"/y 	c #434C4C",
"(y 	c #4B5455",
"_y 	c #738283",
":y 	c #788584",
"<y 	c #788582",
"[y 	c #778583",
"}y 	c #768684",
"|y 	c #768381",
"1y 	c #74807E",
"2y 	c #748180",
"3y 	c #748383",
"4y 	c #738383",
"5y 	c #738282",
"6y 	c #718181",
"7y 	c #707F80",
"8y 	c #6F7E7E",
"9y 	c #6D7D7E",
"0y 	c #6D7B7C",
"ay 	c #6C7A7B",
"by 	c #6A7A7A",
"cy 	c #687677",
"dy 	c #677676",
"ey 	c #637272",
"fy 	c #454E4F",
"gy 	c #675D57",
"hy 	c #645A55",
"iy 	c #736761",
"jy 	c #3F5152",
"ky 	c #99BEBE",
"ly 	c #3E4849",
"my 	c #464E4E",
"ny 	c #657272",
"oy 	c #657271",
"py 	c #657372",
"qy 	c #657374",
"ry 	c #65706F",
"sy 	c #647170",
"ty 	c #647373",
"uy 	c #637172",
"vy 	c #627171",
"wy 	c #627071",
"xy 	c #617071",
"yy 	c #545F60",
"zy 	c #5B534F",
"Ay 	c #7B7069",
"By 	c #2E3B3C",
"Cy 	c #99BEBF",
"Dy 	c #6F8B8C",
"Ey 	c #384546",
"Fy 	c #444C4C",
"Gy 	c #5F6C6C",
"Hy 	c #5F6D6D",
"Iy 	c #5E6D6E",
"Jy 	c #4C5656",
"Ky 	c #344244",
"Ly 	c #6F8B8D",
"My 	c #454D4D",
"Ny 	c #4B5556",
"Oy 	c #4A5454",
"Py 	c #424A4A",
"Qy 	c #2E3739",
"Ry 	c #766B64",
"Sy 	c #28363B",
"Ty 	c #3F5253",
"Uy 	c #41494A",
"Vy 	c #3A4242",
"Wy 	c #394040",
"Xy 	c #394141",
"Yy 	c #394140",
"Zy 	c #3D4544",
"`y 	c #3A4243",
" z 	c #222C2F",
".z 	c #6A5F5A",
"+z 	c #776C65",
"@z 	c #7EA0A1",
"#z 	c #3C4E4F",
"$z 	c #2F3C3D",
"%z 	c #405253",
"&z 	c #99BFBF",
"*z 	c #374143",
"=z 	c #313A3B",
"-z 	c #31393A",
";z 	c #303939",
">z 	c #2F3839",
",z 	c #323A3B",
"'z 	c #2E3738",
")z 	c #635954",
"!z 	c #615752",
"~z 	c #546C6D",
"{z 	c #354345",
"]z 	c #282D2E",
"^z 	c #2A3639",
"/z 	c #675E59",
"(z 	c #5C534E",
"_z 	c #605752",
":z 	c #625853",
"<z 	c #6D635D",
"[z 	c #3D4F50",
"}z 	c #354445",
"|z 	c #415354",
"1z 	c #6F8C8E",
"2z 	c #5B534E",
"3z 	c #59514C",
"4z 	c #58504C",
"5z 	c #574F4B",
"6z 	c #59504C",
"7z 	c #574D49",
"8z 	c #7A6F68",
"9z 	c #A6D0CF",
"0z 	c #272D30",
"az 	c #3D5051",
"bz 	c #584F4B",
"cz 	c #5B524D",
"dz 	c #2B3131",
"ez 	c #2B3031",
"fz 	c #2B3030",
"gz 	c #2B3435",
"hz 	c #2B3537",
"iz 	c #2B3639",
"jz 	c #2B3C3F",
"kz 	c #2C3D3F",
"lz 	c #2C3839",
"mz 	c #2C3738",
"nz 	c #2C3638",
"oz 	c #2C3637",
"pz 	c #2C3636",
"qz 	c #2C3737",
"rz 	c #2C3536",
"sz 	c #2C3535",
"tz 	c #2C3435",
"uz 	c #2C3434",
"vz 	c #2C3433",
"wz 	c #2C3333",
"xz 	c #2C3332",
"yz 	c #2C3233",
"zz 	c #242E2F",
"Az 	c #415355",
"Bz 	c #5A514D",
"Cz 	c #5C524D",
"Dz 	c #584E4A",
"Ez 	c #59504B",
"Fz 	c #776C66",
"Gz 	c #475A5D",
"Hz 	c #303835",
"Iz 	c #474A40",
"Jz 	c #535446",
"Kz 	c #565647",
"Lz 	c #565547",
"Mz 	c #555647",
"Nz 	c #545547",
"Oz 	c #535447",
"Pz 	c #545447",
"Qz 	c #555547",
"Rz 	c #575648",
"Sz 	c #575748",
"Tz 	c #565648",
"Uz 	c #555548",
"Vz 	c #545546",
"Wz 	c #545446",
"Xz 	c #545648",
"Yz 	c #545749",
"Zz 	c #54574A",
"`z 	c #54584B",
" A 	c #55594D",
".A 	c #555A4E",
"+A 	c #555B4F",
"@A 	c #575E51",
"#A 	c #596053",
"$A 	c #5A6153",
"%A 	c #5B6154",
"&A 	c #5C6254",
"*A 	c #5A6053",
"=A 	c #5A6154",
"-A 	c #5B6254",
";A 	c #5B6255",
">A 	c #5B6155",
",A 	c #5A6054",
"'A 	c #5A5F53",
")A 	c #5A6052",
"!A 	c #5A5F52",
"~A 	c #5A5F51",
"{A 	c #5B5F51",
"]A 	c #5A5E50",
"^A 	c #595D4F",
"/A 	c #5C5F51",
"(A 	c #5C5F50",
"_A 	c #5C6050",
":A 	c #5C6051",
"<A 	c #5C5F4F",
"[A 	c #5B5F4E",
"}A 	c #5A5E4E",
"|A 	c #5A5D4D",
"1A 	c #5A5C4D",
"2A 	c #5A5B4D",
"3A 	c #5A5C4C",
"4A 	c #5A5B4C",
"5A 	c #5A5B4B",
"6A 	c #5B5B4A",
"7A 	c #5B5C4B",
"8A 	c #5C5C4B",
"9A 	c #5C5B4B",
"0A 	c #5B5B4B",
"aA 	c #3E433C",
"bA 	c #232F2F",
"cA 	c #425455",
"dA 	c #5A524D",
"eA 	c #80A2A2",
"fA 	c #364546",
"gA 	c #162529",
"hA 	c #4B4F44",
"iA 	c #7A785D",
"jA 	c #968F6C",
"kA 	c #9B936F",
"lA 	c #9A926E",
"mA 	c #99926E",
"nA 	c #99936E",
"oA 	c #99936F",
"pA 	c #9B9570",
"qA 	c #9D9670",
"rA 	c #9E9671",
"sA 	c #9E9771",
"tA 	c #9D9671",
"uA 	c #9C9570",
"vA 	c #9B956F",
"wA 	c #9B946F",
"xA 	c #9A936E",
"yA 	c #99916E",
"zA 	c #9A9370",
"AA 	c #9A9470",
"BA 	c #9B946E",
"CA 	c #9B936E",
"DA 	c #9A936D",
"EA 	c #9A926D",
"FA 	c #9B9571",
"GA 	c #9D9873",
"HA 	c #9E9A75",
"IA 	c #9F9A76",
"JA 	c #A09A76",
"KA 	c #9D9975",
"LA 	c #9D9875",
"MA 	c #9F9A75",
"NA 	c #A09B77",
"OA 	c #A09B76",
"PA 	c #9E9A76",
"QA 	c #9D9976",
"RA 	c #A09C77",
"SA 	c #A09C76",
"TA 	c #9F9B76",
"UA 	c #A19D77",
"VA 	c #A19C77",
"WA 	c #9E9976",
"XA 	c #9D9A76",
"YA 	c #9D9B76",
"ZA 	c #9D9A77",
"`A 	c #9E9B76",
" B 	c #9F9C77",
".B 	c #A09D77",
"+B 	c #9F9C76",
"@B 	c #A19C76",
"#B 	c #A09C75",
"$B 	c #9F9B75",
"%B 	c #A09B75",
"&B 	c #9F9A74",
"*B 	c #9F9974",
"=B 	c #A09A73",
"-B 	c #A09A74",
";B 	c #9F9973",
">B 	c #9E9872",
",B 	c #9D9772",
"'B 	c #9D9672",
")B 	c #9C9671",
"!B 	c #908A69",
"~B 	c #676752",
"{B 	c #2E3835",
"]B 	c #162429",
"^B 	c #1E2A2B",
"/B 	c #99C0C1",
"(B 	c #304143",
"_B 	c #1F2F34",
":B 	c #1E2E32",
"<B 	c #1D2D31",
"[B 	c #182528",
"}B 	c #162225",
"|B 	c #5A514C",
"1B 	c #5F544F",
"2B 	c #4B403D",
"3B 	c #473C39",
"4B 	c #483D3A",
"5B 	c #897E78",
"6B 	c #364547",
"7B 	c #152428",
"8B 	c #1C2B2C",
"9B 	c #5C5E4B",
"0B 	c #98926C",
"aB 	c #B9AE7E",
"bB 	c #BDB180",
"cB 	c #BAAE7E",
"dB 	c #BAAE7D",
"eB 	c #BAAF7E",
"fB 	c #BCB180",
"gB 	c #C0B382",
"hB 	c #C6B986",
"iB 	c #CDC08A",
"jB 	c #D4C68F",
"kB 	c #D9CB93",
"lB 	c #DCCD94",
"mB 	c #DACC92",
"nB 	c #D3C58D",
"oB 	c #CCBF89",
"pB 	c #CABE88",
"qB 	c #CBBF88",
"rB 	c #C8BC86",
"sB 	c #BEB27F",
"tB 	c #B6AA7A",
"uB 	c #B3A878",
"vB 	c #B4A878",
"wB 	c #B4A978",
"xB 	c #B8AC7B",
"yB 	c #C2B682",
"zB 	c #CBBF89",
"AB 	c #CABD87",
"BB 	c #C8BB86",
"CB 	c #C5B984",
"DB 	c #C3B783",
"EB 	c #C3B683",
"FB 	c #C2B583",
"GB 	c #C1B482",
"HB 	c #C0B381",
"IB 	c #BFB280",
"JB 	c #B7AB7B",
"KB 	c #AEA475",
"LB 	c #ABA173",
"MB 	c #ABA174",
"NB 	c #AEA476",
"OB 	c #B8AC7C",
"PB 	c #C8BA86",
"QB 	c #C7BB85",
"RB 	c #C8BB85",
"SB 	c #C9BB86",
"TB 	c #C1B582",
"UB 	c #B7AB7C",
"VB 	c #B0A577",
"WB 	c #AFA476",
"XB 	c #AFA576",
"YB 	c #B0A677",
"ZB 	c #C7BB86",
"`B 	c #C4B783",
" C 	c #BDB17F",
".C 	c #B9AC7C",
"+C 	c #C3B784",
"@C 	c #D0C38B",
"#C 	c #CCBF88",
"$C 	c #C4B784",
"%C 	c #B1A677",
"&C 	c #ADA274",
"*C 	c #ACA174",
"=C 	c #ACA074",
"-C 	c #ABA074",
";C 	c #ABA073",
">C 	c #ABA175",
",C 	c #B1A578",
"'C 	c #BCB07E",
")C 	c #C5B883",
"!C 	c #C6BA84",
"~C 	c #C6B984",
"{C 	c #C5BA84",
"]C 	c #C4B984",
"^C 	c #C5B884",
"/C 	c #C2B782",
"(C 	c #C1B682",
"_C 	c #C0B582",
":C 	c #C0B482",
"<C 	c #BFB382",
"[C 	c #BEB382",
"}C 	c #C1B583",
"|C 	c #BFB482",
"1C 	c #B0A678",
"2C 	c #AAA175",
"3C 	c #ADA376",
"4C 	c #B1A577",
"5C 	c #A3986F",
"6C 	c #747157",
"7C 	c #323B36",
"8C 	c #152429",
"9C 	c #425456",
"0C 	c #9AC1C0",
"aC 	c #3F4F52",
"bC 	c #3D4C4F",
"cC 	c #3A484C",
"dC 	c #384548",
"eC 	c #364346",
"fC 	c #354346",
"gC 	c #354245",
"hC 	c #344245",
"iC 	c #344144",
"jC 	c #334144",
"kC 	c #324043",
"lC 	c #323F42",
"mC 	c #313E41",
"nC 	c #313D40",
"oC 	c #303D3F",
"pC 	c #303C3E",
"qC 	c #2F3B3D",
"rC 	c #2E3A3C",
"sC 	c #2D393B",
"tC 	c #594F4B",
"uC 	c #504541",
"vC 	c #8B807A",
"wC 	c #3C4D51",
"xC 	c #3F5052",
"yC 	c #172629",
"zC 	c #43483B",
"AC 	c #67654B",
"BC 	c #777051",
"CC 	c #726C4D",
"DC 	c #696348",
"EC 	c #635D44",
"FC 	c #5E5841",
"GC 	c #5D5740",
"HC 	c #5E5840",
"IC 	c #605A42",
"JC 	c #666047",
"KC 	c #736C50",
"LC 	c #847C5A",
"MC 	c #958B65",
"NC 	c #A49970",
"OC 	c #B3A87A",
"PC 	c #BEB381",
"QC 	c #BEB280",
"RC 	c #AEA374",
"SC 	c #9D9368",
"TC 	c #978E64",
"UC 	c #948C62",
"VC 	c #827B57",
"WC 	c #645E43",
"XC 	c #4D4834",
"YC 	c #474230",
"ZC 	c #474330",
"`C 	c #615B41",
" D 	c #7F7854",
".D 	c #958C63",
"+D 	c #999066",
"@D 	c #968C62",
"#D 	c #91885F",
"$D 	c #89815C",
"%D 	c #827A58",
"&D 	c #7E7657",
"*D 	c #7D7557",
"=D 	c #7D7556",
"-D 	c #7C7456",
";D 	c #726B4F",
">D 	c #5A543E",
",D 	c #44402E",
"'D 	c #3E3A29",
")D 	c #3E3A2A",
"!D 	c #3E3B2A",
"~D 	c #3F3B2A",
"{D 	c #403C2B",
"]D 	c #4D4934",
"^D 	c #6D6749",
"/D 	c #8A825C",
"(D 	c #978D64",
"_D 	c #978D63",
":D 	c #978E63",
"<D 	c #988F64",
"[D 	c #8F865E",
"}D 	c #777050",
"|D 	c #474331",
"1D 	c #45402F",
"2D 	c #46412F",
"3D 	c #6B6548",
"4D 	c #88815B",
"5D 	c #988F65",
"6D 	c #968D63",
"7D 	c #8C855D",
"8D 	c #787250",
"9D 	c #655F44",
"0D 	c #655F45",
"aD 	c #857D5B",
"bD 	c #AFA577",
"cD 	c #BEB481",
"dD 	c #AAA072",
"eD 	c #999065",
"fD 	c #827A57",
"gD 	c #615B42",
"hD 	c #494532",
"iD 	c #423E2C",
"jD 	c #413C2B",
"kD 	c #403B2A",
"lD 	c #3F3A2A",
"mD 	c #3F3A29",
"nD 	c #403B2B",
"oD 	c #443F2D",
"pD 	c #57523B",
"qD 	c #77714F",
"rD 	c #8F885F",
"sD 	c #948D62",
"tD 	c #938B61",
"uD 	c #918A60",
"vD 	c #908960",
"wD 	c #908860",
"xD 	c #8F8860",
"yD 	c #8F875F",
"zD 	c #8E865E",
"AD 	c #8D855E",
"BD 	c #8B845D",
"CD 	c #8B835D",
"DD 	c #8A825D",
"ED 	c #89805D",
"FD 	c #877F5B",
"GD 	c #827A5A",
"HD 	c #81795A",
"ID 	c #807959",
"JD 	c #807858",
"KD 	c #7F7757",
"LD 	c #7F7857",
"MD 	c #7D7657",
"ND 	c #5D5841",
"OD 	c #3D3929",
"PD 	c #3B3729",
"QD 	c #2D2F28",
"RD 	c #1D2929",
"SD 	c #9AC1C1",
"TD 	c #4C5E60",
"UD 	c #677879",
"VD 	c #728284",
"WD 	c #718182",
"XD 	c #728182",
"YD 	c #738284",
"ZD 	c #7A8A8C",
"`D 	c #7A8B8D",
" E 	c #7A8A8B",
".E 	c #798A8B",
"+E 	c #78898B",
"@E 	c #78888A",
"#E 	c #788789",
"$E 	c #778788",
"%E 	c #768788",
"&E 	c #758687",
"*E 	c #748485",
"=E 	c #738384",
"-E 	c #718183",
";E 	c #708082",
">E 	c #6F7F81",
",E 	c #6F7E80",
"'E 	c #6E7E7F",
")E 	c #6C7A7C",
"!E 	c #6B7A7B",
"~E 	c #6B7A7A",
"{E 	c #657274",
"]E 	c #534844",
"^E 	c #7E736E",
"/E 	c #172529",
"(E 	c #474C3D",
"_E 	c #757253",
":E 	c #938B62",
"<E 	c #867F5A",
"[E 	c #726C4E",
"}E 	c #5F5941",
"|E 	c #5F5A42",
"1E 	c #615C44",
"2E 	c #635E45",
"3E 	c #666046",
"4E 	c #696247",
"5E 	c #6A6448",
"6E 	c #6D664A",
"7E 	c #777151",
"8E 	c #89825C",
"9E 	c #958E64",
"0E 	c #968F63",
"aE 	c #948C61",
"bE 	c #8F875E",
"cE 	c #797250",
"dE 	c #524D37",
"eE 	c #333024",
"fE 	c #2B2820",
"gE 	c #2E2B22",
"hE 	c #2D2B22",
"iE 	c #373428",
"jE 	c #56513A",
"kE 	c #7B7552",
"lE 	c #958D63",
"mE 	c #928A61",
"nE 	c #867E5A",
"oE 	c #7C7556",
"pE 	c #787154",
"qE 	c #766F53",
"rE 	c #6B654B",
"sE 	c #504B38",
"tE 	c #302D23",
"uE 	c #22211A",
"vE 	c #22201A",
"wE 	c #24221B",
"xE 	c #25231C",
"yE 	c #28261E",
"zE 	c #2C2820",
"AE 	c #2F2B22",
"BE 	c #696347",
"CE 	c #867F59",
"DE 	c #928B61",
"EE 	c #938C61",
"FE 	c #88825A",
"GE 	c #6B6648",
"HE 	c #44412F",
"IE 	c #2C2A20",
"JE 	c #2C2920",
"KE 	c #2E2C22",
"LE 	c #403C2D",
"ME 	c #665E44",
"NE 	c #88805A",
"OE 	c #928A60",
"PE 	c #88815A",
"QE 	c #716B4C",
"RE 	c #59543E",
"SE 	c #615B44",
"TE 	c #8F8662",
"UE 	c #B8AC7D",
"VE 	c #AEA375",
"WE 	c #928A62",
"XE 	c #7E7653",
"YE 	c #59543C",
"ZE 	c #383528",
"`E 	c #2E2C23",
" F 	c #2F2C23",
".F 	c #2E2A21",
"+F 	c #2B281F",
"@F 	c #2D2A21",
"#F 	c #2D2B21",
"$F 	c #2F2B23",
"%F 	c #2F2D23",
"&F 	c #2F2C21",
"*F 	c #4F4B36",
"=F 	c #736D4D",
"-F 	c #8C855C",
";F 	c #938C62",
">F 	c #918960",
",F 	c #8E865F",
"'F 	c #887F5B",
")F 	c #867E5B",
"!F 	c #817958",
"~F 	c #706A4E",
"{F 	c #514D39",
"]F 	c #302E24",
"^F 	c #211F19",
"/F 	c #222019",
"(F 	c #22211C",
"_F 	c #202422",
":F 	c #1D2829",
"<F 	c #425556",
"[F 	c #9AC0C1",
"}F 	c #4A5B5C",
"|F 	c #637071",
"1F 	c #647172",
"2F 	c #6A7879",
"3F 	c #6A7779",
"4F 	c #6A7979",
"5F 	c #6B7979",
"6F 	c #6A797A",
"7F 	c #6B797A",
"8F 	c #6B797B",
"9F 	c #6D7B7B",
"0F 	c #677374",
"aF 	c #726861",
"bF 	c #7D746C",
"cF 	c #938B83",
"dF 	c #A19A90",
"eF 	c #A0998F",
"fF 	c #887F77",
"gF 	c #7F766F",
"hF 	c #A5CDCE",
"iF 	c #374648",
"jF 	c #474D3E",
"kF 	c #757354",
"lF 	c #908861",
"mF 	c #958D64",
"nF 	c #948B63",
"oF 	c #938A62",
"pF 	c #928962",
"qF 	c #918961",
"rF 	c #918962",
"sF 	c #928A63",
"tF 	c #958C62",
"uF 	c #787151",
"vF 	c #54503A",
"wF 	c #363427",
"xF 	c #2F2C22",
"yF 	c #302D24",
"zF 	c #312E24",
"AF 	c #3B372A",
"BF 	c #7A7352",
"CF 	c #968E64",
"DF 	c #88805C",
"EF 	c #7F7758",
"FF 	c #7B7356",
"GF 	c #7A7256",
"HF 	c #7A7255",
"IF 	c #766E53",
"JF 	c #686149",
"KF 	c #4D4836",
"LF 	c #312E23",
"MF 	c #24231C",
"NF 	c #26231C",
"OF 	c #26241D",
"PF 	c #27251E",
"QF 	c #29271F",
"RF 	c #2F2D24",
"SF 	c #332F25",
"TF 	c #4B4634",
"UF 	c #716B4D",
"VF 	c #948C63",
"WF 	c #87805A",
"XF 	c #474431",
"YF 	c #343126",
"ZF 	c #433F2F",
"`F 	c #877E5A",
" G 	c #958C64",
".G 	c #88815C",
"+G 	c #716B4E",
"@G 	c #5E5842",
"#G 	c #6F684D",
"$G 	c #998F69",
"%G 	c #A69C70",
"&G 	c #807856",
"*G 	c #57523C",
"=G 	c #3A3629",
"-G 	c #393528",
";G 	c #797251",
">G 	c #948B62",
",G 	c #817A57",
"'G 	c #5F5A41",
")G 	c #3C382A",
"!G 	c #2A271F",
"~G 	c #25241D",
"{G 	c #222623",
"]G 	c #435557",
"^G 	c #49595A",
"/G 	c #5A6667",
"(G 	c #5C686A",
"_G 	c #616E6F",
":G 	c #626F70",
"<G 	c #667474",
"[G 	c #6E7A7B",
"}G 	c #564E4A",
"|G 	c #746B65",
"1G 	c #584F4A",
"2G 	c #6C625B",
"3G 	c #B3ADA3",
"4G 	c #C9C4B9",
"5G 	c #AFA89F",
"6G 	c #A6D1D1",
"7G 	c #587172",
"8G 	c #474C3E",
"9G 	c #747254",
"0G 	c #8F8761",
"aG 	c #968D64",
"bG 	c #968E63",
"cG 	c #6F684A",
"dG 	c #4D4835",
"eG 	c #343226",
"fG 	c #615C42",
"gG 	c #837B57",
"hG 	c #938B63",
"iG 	c #89815D",
"jG 	c #645D47",
"kG 	c #2A2720",
"lG 	c #312D24",
"mG 	c #332F24",
"nG 	c #4E4835",
"oG 	c #756E4E",
"pG 	c #413F2E",
"qG 	c #302E23",
"rG 	c #353226",
"sG 	c #4A4633",
"tG 	c #6F684B",
"uG 	c #8C845D",
"vG 	c #7E7755",
"wG 	c #7B7354",
"xG 	c #8D845F",
"yG 	c #7A7252",
"zG 	c #504B37",
"AG 	c #363327",
"BG 	c #393629",
"CG 	c #5C573E",
"DG 	c #928960",
"EG 	c #7C7654",
"FG 	c #5C583F",
"GG 	c #302C23",
"HG 	c #2B2920",
"IG 	c #26241C",
"JG 	c #435657",
"KG 	c #49595B",
"LG 	c #596666",
"MG 	c #5A6869",
"NG 	c #535F60",
"OG 	c #3C4445",
"PG 	c #323A3A",
"QG 	c #303838",
"RG 	c #2F3737",
"SG 	c #3D4748",
"TG 	c #536061",
"UG 	c #647273",
"VG 	c #6F7C7C",
"WG 	c #4F4945",
"XG 	c #6A615B",
"YG 	c #69605A",
"ZG 	c #776E67",
"`G 	c #9C958C",
" H 	c #ADA69D",
".H 	c #9B918A",
"+H 	c #918780",
"@H 	c #877C75",
"#H 	c #847973",
"$H 	c #80756F",
"%H 	c #7C716A",
"&H 	c #6A6548",
"*H 	c #3F3B2D",
"=H 	c #625D44",
"-H 	c #847D59",
";H 	c #867D5C",
">H 	c #7C7458",
",H 	c #655E47",
"'H 	c #29261E",
")H 	c #2C2921",
"!H 	c #322E24",
"~H 	c #322F24",
"{H 	c #4A4533",
"]H 	c #746D4E",
"^H 	c #958D62",
"/H 	c #928B62",
"(H 	c #5C563F",
"_H 	c #3B382A",
":H 	c #494433",
"<H 	c #706A4C",
"[H 	c #8C845F",
"}H 	c #2E2B23",
"|H 	c #353327",
"1H 	c #58543D",
"2H 	c #7D7654",
"3H 	c #8E875F",
"4H 	c #767050",
"5H 	c #534E39",
"6H 	c #27251D",
"7H 	c #729090",
"8H 	c #4F5B5C",
"9H 	c #6F655E",
"0H 	c #AAD3D3",
"aH 	c #A6CECE",
"bH 	c #82A4A5",
"cH 	c #384749",
"dH 	c #918A61",
"eH 	c #827C57",
"fH 	c #656044",
"gH 	c #323025",
"hH 	c #43402F",
"iH 	c #676246",
"jH 	c #8E8660",
"kH 	c #837B5A",
"lH 	c #736B51",
"mH 	c #423F2F",
"nH 	c #25241C",
"oH 	c #28251E",
"pH 	c #2F2D22",
"qH 	c #363428",
"rH 	c #534D38",
"sH 	c #787050",
"tH 	c #7E7855",
"uH 	c #5C573F",
"vH 	c #3A382A",
"wH 	c #484331",
"xH 	c #6C6648",
"yH 	c #8C845E",
"zH 	c #877F5A",
"AH 	c #464230",
"BH 	c #3C382B",
"CH 	c #5E5940",
"DH 	c #8B835C",
"EH 	c #514C38",
"FH 	c #2A281E",
"GH 	c #25231B",
"HH 	c #445658",
"IH 	c #9BC2C2",
"JH 	c #495A5B",
"KH 	c #596766",
"LH 	c #5D6C6C",
"MH 	c #2C3131",
"NH 	c #090A0A",
"OH 	c #726963",
"PH 	c #5B514C",
"QH 	c #6E645D",
"RH 	c #766C65",
"SH 	c #7E7854",
"TH 	c #5D593F",
"UH 	c #3D3A2B",
"VH 	c #323026",
"WH 	c #474432",
"XH 	c #89825B",
"YH 	c #8F8760",
"ZH 	c #797252",
"`H 	c #59533E",
" I 	c #3A352A",
".I 	c #27261E",
"+I 	c #26251D",
"@I 	c #29271E",
"#I 	c #2B281E",
"$I 	c #2C291F",
"%I 	c #2D2B20",
"&I 	c #2E2B21",
"*I 	c #7D7553",
"=I 	c #918860",
"-I 	c #756F4F",
";I 	c #56513B",
">I 	c #3A372A",
",I 	c #383529",
"'I 	c #524D38",
")I 	c #8D845E",
"!I 	c #605A41",
"~I 	c #403D2D",
"{I 	c #423E2E",
"]I 	c #837C58",
"^I 	c #857D58",
"/I 	c #6A6347",
"(I 	c #333025",
"_I 	c #2E2C21",
":I 	c #445758",
"<I 	c #8BAFAF",
"[I 	c #5A6666",
"}I 	c #786D66",
"|I 	c #5A553D",
"1I 	c #383428",
"2I 	c #434030",
"3I 	c #6C6649",
"4I 	c #605B40",
"5I 	c #807956",
"6I 	c #8E855E",
"7I 	c #726B4D",
"8I 	c #4B4735",
"9I 	c #312F25",
"0I 	c #292820",
"aI 	c #353227",
"bI 	c #514D38",
"cI 	c #787251",
"dI 	c #978F64",
"eI 	c #58523D",
"fI 	c #454130",
"gI 	c #6C6548",
"hI 	c #887F5A",
"iI 	c #666045",
"jI 	c #413D2D",
"kI 	c #28251D",
"lI 	c #222622",
"mI 	c #4A5A5C",
"nI 	c #5A6767",
"oI 	c #6E655F",
"pI 	c #736962",
"qI 	c #84A6A6",
"rI 	c #7B7452",
"sI 	c #59553D",
"tI 	c #333126",
"uI 	c #8A835C",
"vI 	c #817A56",
"wI 	c #5F5940",
"xI 	c #70694B",
"yI 	c #494534",
"zI 	c #55513B",
"AI 	c #55503A",
"BI 	c #333026",
"CI 	c #89815B",
"DI 	c #847D58",
"EI 	c #25241E",
"FI 	c #212522",
"GI 	c #9BC2C3",
"HI 	c #625953",
"II 	c #415455",
"JI 	c #504C37",
"KI 	c #333125",
"LI 	c #4D4935",
"MI 	c #8D865E",
"NI 	c #7A7452",
"OI 	c #3D392C",
"PI 	c #605B42",
"QI 	c #867E59",
"RI 	c #908961",
"SI 	c #857E59",
"TI 	c #676146",
"UI 	c #413D2E",
"VI 	c #393628",
"WI 	c #5B563E",
"XI 	c #7E7754",
"YI 	c #978F65",
"ZI 	c #373327",
"`I 	c #6A6447",
" J 	c #3E392C",
".J 	c #282720",
"+J 	c #38494A",
"@J 	c #9CC2C3",
"#J 	c #85A7A7",
"$J 	c #484C3E",
"%J 	c #757254",
"&J 	c #6F694B",
"*J 	c #4A4634",
"=J 	c #4C4834",
"-J 	c #736D4E",
";J 	c #4C4835",
">J 	c #676245",
",J 	c #847D57",
"'J 	c #766F4F",
")J 	c #7B7454",
"!J 	c #8A825E",
"~J 	c #625C42",
"{J 	c #29261F",
"]J 	c #363326",
"^J 	c #5B563D",
"/J 	c #807A56",
"(J 	c #464231",
"_J 	c #353126",
":J 	c #706B4C",
"<J 	c #7C7653",
"[J 	c #2C2B23",
"}J 	c #242925",
"|J 	c #455859",
"1J 	c #8BB0B0",
"2J 	c #5B6969",
"3J 	c #504A46",
"4J 	c #615853",
"5J 	c #756B64",
"6J 	c #8B845C",
"7J 	c #90885F",
"8J 	c #989064",
"9J 	c #4E4A36",
"0J 	c #656144",
"aJ 	c #878059",
"bJ 	c #70694D",
"cJ 	c #938A65",
"dJ 	c #A89E72",
"eJ 	c #9E9569",
"fJ 	c #807955",
"gJ 	c #3A3729",
"hJ 	c #807855",
"iJ 	c #696447",
"jJ 	c #433F30",
"kJ 	c #302E25",
"lJ 	c #716C4B",
"mJ 	c #8E865D",
"nJ 	c #57533B",
"oJ 	c #37362A",
"pJ 	c #31352D",
"qJ 	c #222D2D",
"rJ 	c #45595A",
"sJ 	c #4A5B5D",
"tJ 	c #524B48",
"uJ 	c #5F5650",
"vJ 	c #6B615A",
"wJ 	c #5C7678",
"xJ 	c #312F24",
"yJ 	c #363227",
"zJ 	c #76704F",
"AJ 	c #736C4D",
"BJ 	c #645F43",
"CJ 	c #847D56",
"DJ 	c #938B60",
"EJ 	c #817B57",
"FJ 	c #686348",
"GJ 	c #7A7455",
"HJ 	c #9A9168",
"IJ 	c #9D9569",
"JJ 	c #58533C",
"KJ 	c #27241D",
"LJ 	c #343024",
"MJ 	c #837C57",
"NJ 	c #686347",
"OJ 	c #444130",
"PJ 	c #484432",
"QJ 	c #6D6849",
"RJ 	c #75704F",
"SJ 	c #45412F",
"TJ 	c #57543E",
"UJ 	c #4F503F",
"VJ 	c #2D3733",
"WJ 	c #17262B",
"XJ 	c #4A5C5D",
"YJ 	c #0A0C0C",
"ZJ 	c #796F68",
"`J 	c #5D7778",
" K 	c #4C6365",
".K 	c #425657",
"+K 	c #454030",
"@K 	c #4B4633",
"#K 	c #716B4B",
"$K 	c #918A5F",
"%K 	c #464131",
"&K 	c #312D23",
"*K 	c #696446",
"=K 	c #635F45",
"-K 	c #7D7655",
";K 	c #9C9369",
">K 	c #9D9468",
",K 	c #7F7956",
"'K 	c #302D22",
")K 	c #534F37",
"!K 	c #857D59",
"~K 	c #6E684A",
"{K 	c #787150",
"]K 	c #686145",
"^K 	c #7B7654",
"/K 	c #65654C",
"(K 	c #2E3834",
"_K 	c #9CC3C4",
":K 	c #6D635C",
"<K 	c #789697",
"[K 	c #86A7A9",
"}K 	c #968E62",
"|K 	c #625C43",
"1K 	c #4E4936",
"2K 	c #433F2E",
"3K 	c #686346",
"4K 	c #716C4C",
"5K 	c #6D674B",
"6K 	c #9E966A",
"7K 	c #9B9267",
"8K 	c #545039",
"9K 	c #7D7753",
"0K 	c #3D392B",
"aK 	c #8C855E",
"bK 	c #403B2C",
"cK 	c #635C42",
"dK 	c #888059",
"eK 	c #66664C",
"fK 	c #2C3633",
"gK 	c #3A4A4B",
"hK 	c #465A5B",
"iK 	c #749294",
"jK 	c #4B5C5E",
"kK 	c #2D3333",
"lK 	c #101313",
"mK 	c #040404",
"nK 	c #2D3434",
"oK 	c #786E67",
"pK 	c #789797",
"qK 	c #59543D",
"rK 	c #393529",
"sK 	c #59533C",
"tK 	c #7C7553",
"uK 	c #958E63",
"vK 	c #635C43",
"wK 	c #6B6649",
"xK 	c #7D7656",
"yK 	c #9D946B",
"zK 	c #A2996C",
"AK 	c #989065",
"BK 	c #716A4C",
"CK 	c #383527",
"DK 	c #615C41",
"EK 	c #58533D",
"FK 	c #756D4E",
"GK 	c #767151",
"HK 	c #958C65",
"IK 	c #A69D6F",
"JK 	c #666146",
"KK 	c #454131",
"LK 	c #474332",
"MK 	c #8B855E",
"NK 	c #63644B",
"OK 	c #2C3733",
"PK 	c #323F41",
"QK 	c #9DC4C4",
"RK 	c #4B5D5E",
"SK 	c #3C4444",
"TK 	c #343A3A",
"UK 	c #323838",
"VK 	c #313636",
"WK 	c #58504B",
"XK 	c #86A9A9",
"YK 	c #334242",
"ZK 	c #5B573E",
"`K 	c #7F7954",
" L 	c #5B563F",
".L 	c #615B43",
"+L 	c #88805E",
"@L 	c #AAA074",
"#L 	c #A49B6E",
"$L 	c #28271F",
"%L 	c #25221C",
"&L 	c #867E58",
"*L 	c #7A7251",
"=L 	c #7D7754",
"-L 	c #5F5B42",
";L 	c #656046",
">L 	c #918864",
",L 	c #A59B6F",
"'L 	c #9F966A",
")L 	c #979065",
"!L 	c #6F694A",
"~L 	c #8B845E",
"{L 	c #64634B",
"]L 	c #475A5B",
"^L 	c #4C5C5E",
"/L 	c #626E6F",
"(L 	c #697576",
"_L 	c #697677",
":L 	c #697676",
"<L 	c #687575",
"[L 	c #494D3F",
"}L 	c #787555",
"|L 	c #7A7351",
"1L 	c #55503B",
"2L 	c #5E583F",
"3L 	c #5D5840",
"4L 	c #726B4B",
"5L 	c #635E46",
"6L 	c #908764",
"7L 	c #978F63",
"8L 	c #89825A",
"9L 	c #2A2820",
"0L 	c #27261D",
"aL 	c #5D583E",
"bL 	c #837D57",
"cL 	c #90885E",
"dL 	c #353125",
"eL 	c #564F3A",
"fL 	c #8C865D",
"gL 	c #7A7652",
"hL 	c #635F44",
"iL 	c #615C43",
"jL 	c #8B835F",
"kL 	c #A0976A",
"lL 	c #9B9266",
"mL 	c #635E43",
"nL 	c #4D4734",
"oL 	c #746D4D",
"pL 	c #475B5B",
"qL 	c #4C5D5E",
"rL 	c #3D4E51",
"sL 	c #162528",
"tL 	c #1F2C2D",
"uL 	c #68664C",
"vL 	c #989063",
"wL 	c #56523B",
"xL 	c #3C392A",
"yL 	c #58523B",
"zL 	c #8C845C",
"AL 	c #8E875E",
"BL 	c #857F59",
"CL 	c #706A4A",
"DL 	c #615D42",
"EL 	c #57533C",
"FL 	c #9C926A",
"GL 	c #ACA274",
"HL 	c #9E9568",
"IL 	c #655F43",
"JL 	c #2A271E",
"KL 	c #23211A",
"LL 	c #90895F",
"ML 	c #8A835E",
"NL 	c #8A835D",
"OL 	c #958C61",
"PL 	c #968D62",
"QL 	c #3E3B2B",
"RL 	c #7F7855",
"SL 	c #979064",
"TL 	c #817B56",
"UL 	c #7B7653",
"VL 	c #6D684A",
"WL 	c #676347",
"XL 	c #5E5B41",
"YL 	c #56523C",
"ZL 	c #504C39",
"`L 	c #857E5B",
" M 	c #7D7653",
".M 	c #3E3B2C",
"+M 	c #324141",
"@M 	c #475B5C",
"#M 	c #4C5D5F",
"$M 	c #596667",
"%M 	c #625A54",
"&M 	c #3D4E52",
"*M 	c #18272A",
"=M 	c #353B33",
"-M 	c #444435",
";M 	c #3E3B2D",
">M 	c #6E674A",
",M 	c #8C835D",
"'M 	c #9B9367",
")M 	c #797351",
"!M 	c #746E4E",
"~M 	c #756F4E",
"{M 	c #9A9166",
"]M 	c #9B9166",
"^M 	c #9A9065",
"/M 	c #847C58",
"(M 	c #6C6749",
"_M 	c #5A553E",
":M 	c #534F3A",
"<M 	c #9A9068",
"[M 	c #A59A6E",
"}M 	c #A39A6D",
"|M 	c #9D9467",
"1M 	c #9B9165",
"2M 	c #9C9367",
"3M 	c #5D573F",
"4M 	c #3D392A",
"5M 	c #4A4532",
"6M 	c #8B835E",
"7M 	c #877F5C",
"8M 	c #867E5C",
"9M 	c #847D5B",
"0M 	c #837C5A",
"aM 	c #827C5A",
"bM 	c #827B5A",
"cM 	c #827B59",
"dM 	c #827A59",
"eM 	c #645F44",
"fM 	c #403B2D",
"gM 	c #6B6448",
"hM 	c #8A825B",
"iM 	c #999165",
"jM 	c #7C7554",
"kM 	c #6B6749",
"lM 	c #676346",
"mM 	c #635E44",
"nM 	c #5E5941",
"oM 	c #59553E",
"pM 	c #55513C",
"qM 	c #534F3B",
"rM 	c #54503B",
"sM 	c #544F3B",
"tM 	c #524E3A",
"uM 	c #706B4D",
"vM 	c #6A6549",
"wM 	c #4E4A35",
"xM 	c #978E65",
"yM 	c #9E9468",
"zM 	c #67664D",
"AM 	c #2E3734",
"BM 	c #8DB1B1",
"CM 	c #9DC4C5",
"DM 	c #475C5F",
"EM 	c #525D5D",
"FM 	c #596565",
"GM 	c #5F6B6C",
"HM 	c #5E6C6E",
"IM 	c #635B55",
"JM 	c #665E58",
"KM 	c #455759",
"LM 	c #18272B",
"MM 	c #2A322D",
"NM 	c #3A3B30",
"OM 	c #444031",
"PM 	c #444030",
"QM 	c #454231",
"RM 	c #6C664A",
"SM 	c #7C7453",
"TM 	c #7F7755",
"UM 	c #7A7451",
"VM 	c #56513C",
"WM 	c #797151",
"XM 	c #7E7554",
"YM 	c #7E7553",
"ZM 	c #7D7453",
"`M 	c #71694B",
" N 	c #58523C",
".N 	c #464132",
"+N 	c #443F30",
"@N 	c #4B4734",
"#N 	c #7B7352",
"$N 	c #56513D",
"%N 	c #54503C",
"&N 	c #655F46",
"*N 	c #7A7353",
"=N 	c #857D5A",
"-N 	c #837A58",
";N 	c #7E7654",
">N 	c #3F3C2D",
",N 	c #766F51",
"'N 	c #716B4F",
")N 	c #6E684D",
"!N 	c #6D664D",
"~N 	c #6C654C",
"{N 	c #6D664C",
"]N 	c #6F694D",
"^N 	c #736D4F",
"/N 	c #444131",
"(N 	c #6A6348",
"_N 	c #77704F",
":N 	c #6F6A4C",
"<N 	c #5C5740",
"[N 	c #464332",
"}N 	c #756F50",
"|N 	c #555542",
"1N 	c #293231",
"2N 	c #17262A",
"3N 	c #485B5D",
"4N 	c #9DC5C5",
"5N 	c #5C6969",
"6N 	c #546060",
"7N 	c #545F5F",
"8N 	c #637070",
"9N 	c #6E7C7D",
"0N 	c #7B8A8A",
"aN 	c #707E7E",
"bN 	c #566161",
"cN 	c #617070",
"dN 	c #6F7D7E",
"eN 	c #606E6E",
"fN 	c #655D57",
"gN 	c #645C56",
"hN 	c #799898",
"iN 	c #617B7C",
"jN 	c #506768",
"kN 	c #2F3630",
"lN 	c #464636",
"mN 	c #56503B",
"nN 	c #57513B",
"oN 	c #57513C",
"pN 	c #554F3B",
"qN 	c #5A543D",
"rN 	c #56503C",
"sN 	c #534E3A",
"tN 	c #534D39",
"uN 	c #59523D",
"vN 	c #59523C",
"wN 	c #3E4135",
"xN 	c #232E2E",
"yN 	c #485C5D",
"zN 	c #9EC5C6",
"AN 	c #4D5E5F",
"BN 	c #556263",
"CN 	c #505B5B",
"DN 	c #586465",
"EN 	c #627273",
"FN 	c #5D6869",
"GN 	c #758585",
"HN 	c #778787",
"IN 	c #6F7E7D",
"JN 	c #505A5B",
"KN 	c #5E696A",
"LN 	c #6F7F7F",
"MN 	c #687676",
"NN 	c #544D49",
"ON 	c #617C7D",
"PN 	c #2E3530",
"QN 	c #444537",
"RN 	c #514E3B",
"SN 	c #544E3B",
"TN 	c #534E3B",
"UN 	c #524E3B",
"VN 	c #534F3C",
"WN 	c #54503D",
"XN 	c #53503C",
"YN 	c #524F3C",
"ZN 	c #544F3C",
"`N 	c #54513D",
" O 	c #4E4C3B",
".O 	c #3B3F35",
"+O 	c #18262B",
"@O 	c #4D5E60",
"#O 	c #556061",
"$O 	c #565B5C",
"%O 	c #5E4F50",
"&O 	c #6A4747",
"*O 	c #6C4243",
"=O 	c #674546",
"-O 	c #5E4E4F",
";O 	c #646C6C",
">O 	c #728282",
",O 	c #718080",
"'O 	c #4E5758",
")O 	c #585C5C",
"!O 	c #614D4E",
"~O 	c #684445",
"{O 	c #684243",
"]O 	c #624748",
"^O 	c #605E5F",
"/O 	c #6B7878",
"(O 	c #707F7F",
"_O 	c #667575",
":O 	c #3D3838",
"<O 	c #554D49",
"[O 	c #4B4442",
"}O 	c #3E3939",
"|O 	c #3F3A39",
"1O 	c #4E4744",
"2O 	c #88ABAD",
"3O 	c #373E39",
"4O 	c #41453D",
"5O 	c #44463D",
"6O 	c #44473D",
"7O 	c #44473E",
"8O 	c #44463E",
"9O 	c #44463C",
"0O 	c #44473C",
"aO 	c #44463B",
"bO 	c #44463A",
"cO 	c #43463A",
"dO 	c #43453A",
"eO 	c #44453A",
"fO 	c #44473B",
"gO 	c #434639",
"hO 	c #444639",
"iO 	c #45473A",
"jO 	c #3F4438",
"kO 	c #313A34",
"lO 	c #202D2E",
"mO 	c #3C4C4E",
"nO 	c #495C5E",
"oO 	c #4D5F60",
"pO 	c #565E5F",
"qO 	c #614242",
"rO 	c #7B3031",
"sO 	c #912E2F",
"tO 	c #A83839",
"uO 	c #A8393A",
"vO 	c #893232",
"wO 	c #623C3D",
"xO 	c #5C6061",
"yO 	c #708081",
"zO 	c #748484",
"AO 	c #575E5F",
"BO 	c #663C3C",
"CO 	c #802C2D",
"DO 	c #932F30",
"EO 	c #A73939",
"FO 	c #9C3536",
"GO 	c #753738",
"HO 	c #534B47",
"IO 	c #4F4844",
"JO 	c #524B47",
"KO 	c #46595B",
"LO 	c #2B3C3E",
"MO 	c #2B3C3D",
"NO 	c #2B383B",
"OO 	c #2B3738",
"PO 	c #2B3638",
"QO 	c #2A3637",
"RO 	c #2A3737",
"SO 	c #2B3B3F",
"TO 	c #2A3636",
"UO 	c #2A3535",
"VO 	c #2A3434",
"WO 	c #2A3334",
"XO 	c #2A3232",
"YO 	c #2B3333",
"ZO 	c #293232",
"`O 	c #4E5F60",
" P 	c #536060",
".P 	c #5C6868",
"+P 	c #564E4E",
"@P 	c #7A3637",
"#P 	c #953535",
"$P 	c #B13C3C",
"%P 	c #D64F4F",
"&P 	c #DE5353",
"*P 	c #B64141",
"=P 	c #822B2C",
"-P 	c #603E3F",
";P 	c #697777",
">P 	c #5D696A",
",P 	c #574A4A",
"'P 	c #823031",
")P 	c #9B3132",
"!P 	c #B93F40",
"~P 	c #D95050",
"{P 	c #CF4C4C",
"]P 	c #9F3738",
"^P 	c #643D3D",
"/P 	c #453F3D",
"(P 	c #47413E",
"_P 	c #544C48",
":P 	c #504945",
"<P 	c #4B4441",
"[P 	c #4A4340",
"}P 	c #554D4B",
"|P 	c #89ACAE",
"1P 	c #627D7F",
"2P 	c #3C4C4D",
"3P 	c #9EC6C7",
"4P 	c #586565",
"5P 	c #5B6465",
"6P 	c #604041",
"7P 	c #863838",
"8P 	c #A83A3A",
"9P 	c #CA4444",
"0P 	c #E15252",
"aP 	c #E95858",
"bP 	c #C94848",
"cP 	c #983132",
"dP 	c #703232",
"eP 	c #666969",
"fP 	c #7A8A8A",
"gP 	c #5B6566",
"hP 	c #633B3B",
"iP 	c #913131",
"jP 	c #B03838",
"kP 	c #D04848",
"lP 	c #E45454",
"mP 	c #E05252",
"nP 	c #B73F3F",
"oP 	c #752E2E",
"pP 	c #595757",
"qP 	c #6C7B7C",
"rP 	c #6C7B7B",
"sP 	c #657273",
"tP 	c #504946",
"uP 	c #46403E",
"vP 	c #4C4542",
"wP 	c #4F4A4E",
"xP 	c #4D484C",
"yP 	c #484346",
"zP 	c #89ADAE",
"AP 	c #29393B",
"BP 	c #28302F",
"CP 	c #3D4D4E",
"DP 	c #576061",
"EP 	c #673D3D",
"FP 	c #8E3939",
"GP 	c #B23D3D",
"HP 	c #CA4141",
"IP 	c #D94B4B",
"JP 	c #DC4E4E",
"KP 	c #C14141",
"LP 	c #9C3232",
"MP 	c #752D2E",
"NP 	c #646060",
"OP 	c #788887",
"PP 	c #586666",
"QP 	c #4E595A",
"RP 	c #555E5F",
"SP 	c #6E3636",
"TP 	c #9D3333",
"UP 	c #BE3C3C",
"VP 	c #CF4343",
"WP 	c #DB4C4C",
"XP 	c #D54949",
"YP 	c #B53B3B",
"ZP 	c #832E2E",
"`P 	c #5E4A4A",
" Q 	c #657575",
".Q 	c #667373",
"+Q 	c #3C3737",
"@Q 	c #A9D4D5",
"#Q 	c #8AAEAE",
"$Q 	c #475A5C",
"%Q 	c #253031",
"&Q 	c #344243",
"*Q 	c #495E5F",
"=Q 	c #4A6063",
"-Q 	c #663D3E",
";Q 	c #8D3839",
">Q 	c #AF3C3D",
",Q 	c #C63F3F",
"'Q 	c #CB4040",
")Q 	c #C93F3F",
"!Q 	c #B73A3A",
"~Q 	c #9A3132",
"{Q 	c #732D2E",
"]Q 	c #646262",
"^Q 	c #6D3637",
"/Q 	c #9C3333",
"(Q 	c #BD3C3C",
"_Q 	c #CA3F3F",
":Q 	c #CC4040",
"<Q 	c #C63E3E",
"[Q 	c #AF3738",
"}Q 	c #832E2F",
"|Q 	c #5E4B4B",
"1Q 	c #393435",
"2Q 	c #342F30",
"3Q 	c #8AAEAF",
"4Q 	c #293436",
"5Q 	c #4A5E5F",
"6Q 	c #4D6061",
"7Q 	c #5D4242",
"8Q 	c #833637",
"9Q 	c #A13839",
"0Q 	c #BA3C3C",
"aQ 	c #C23C3C",
"bQ 	c #BB3B3B",
"cQ 	c #A83636",
"dQ 	c #8F2E2E",
"eQ 	c #6C3334",
"fQ 	c #666C6C",
"gQ 	c #7A8B8C",
"hQ 	c #5B6565",
"iQ 	c #613C3D",
"jQ 	c #903132",
"kQ 	c #AF3737",
"lQ 	c #C03C3C",
"mQ 	c #C53D3D",
"nQ 	c #A23334",
"oQ 	c #763031",
"pQ 	c #595758",
"qQ 	c #6B7B7C",
"rQ 	c #49423F",
"sQ 	c #443E3C",
"tQ 	c #3D3737",
"uQ 	c #546A6C",
"vQ 	c #9FC7C8",
"wQ 	c #4E6062",
"xQ 	c #535253",
"yQ 	c #703738",
"zQ 	c #893233",
"AQ 	c #9E3334",
"BQ 	c #A43435",
"CQ 	c #9E3333",
"DQ 	c #8F2E2F",
"EQ 	c #742D2E",
"FQ 	c #574647",
"GQ 	c #7C8D8C",
"HQ 	c #544D4E",
"IQ 	c #7C3233",
"JQ 	c #963031",
"KQ 	c #A43535",
"LQ 	c #A03333",
"MQ 	c #882F30",
"NQ 	c #614142",
"OQ 	c #423C3A",
"PQ 	c #3C3738",
"QQ 	c #AAD5D6",
"RQ 	c #648082",
"SQ 	c #293C3F",
"TQ 	c #2A3A3C",
"UQ 	c #293539",
"VQ 	c #9FC7C9",
"WQ 	c #78989A",
"XQ 	c #4E6061",
"YQ 	c #566463",
"ZQ 	c #576263",
"`Q 	c #514546",
" R 	c #703132",
".R 	c #832C2D",
"+R 	c #882C2D",
"@R 	c #842C2C",
"#R 	c #702E2E",
"$R 	c #564444",
"%R 	c #606C6D",
"&R 	c #738484",
"*R 	c #6D7C7D",
"=R 	c #584041",
"-R 	c #7B2E2E",
";R 	c #892D2E",
">R 	c #8C2E2E",
",R 	c #842D2D",
"'R 	c #683B3B",
")R 	c #535858",
"!R 	c #564F4D",
"~R 	c #514A49",
"{R 	c #383231",
"]R 	c #514B4B",
"^R 	c #5E5756",
"/R 	c #645C5C",
"(R 	c #655D5D",
"_R 	c #625A5A",
":R 	c #585051",
"<R 	c #405154",
"[R 	c #282E2D",
"}R 	c #4A6060",
"|R 	c #8FB3B3",
"1R 	c #79989A",
"2R 	c #5B6A6B",
"3R 	c #545E60",
"4R 	c #545152",
"5R 	c #5A4546",
"6R 	c #5D4141",
"7R 	c #5B4646",
"8R 	c #565353",
"9R 	c #768787",
"0R 	c #584F50",
"aR 	c #5D4343",
"bR 	c #5E4141",
"cR 	c #5B494A",
"dR 	c #5B5F5F",
"eR 	c #6C7A7A",
"fR 	c #717F80",
"gR 	c #3B3534",
"hR 	c #615C5B",
"iR 	c #65605E",
"jR 	c #6F6A67",
"kR 	c #7C7572",
"lR 	c #89817D",
"mR 	c #8B837F",
"nR 	c #8CAFB1",
"oR 	c #658183",
"pR 	c #546B6E",
"qR 	c #293334",
"rR 	c #293536",
"sR 	c #4B6061",
"tR 	c #A0C8C9",
"uR 	c #4E6162",
"vR 	c #556060",
"wR 	c #5E6A6B",
"xR 	c #768686",
"yR 	c #5E6B6C",
"zR 	c #596566",
"AR 	c #4E5859",
"BR 	c #5B6768",
"CR 	c #5C6668",
"DR 	c #5A6465",
"ER 	c #585150",
"FR 	c #4E4846",
"GR 	c #46413F",
"HR 	c #3F3A3B",
"IR 	c #625E5C",
"JR 	c #676360",
"KR 	c #78726F",
"LR 	c #293437",
"MR 	c #4F6162",
"NR 	c #576565",
"OR 	c #586364",
"PR 	c #627070",
"QR 	c #576363",
"RR 	c #6A7878",
"SR 	c #6E6867",
"TR 	c #6A6463",
"UR 	c #625E5E",
"VR 	c #645F60",
"WR 	c #5F5B5B",
"XR 	c #5D5959",
"YR 	c #615D5E",
"ZR 	c #605C5D",
"`R 	c #4A4545",
" S 	c #302A2C",
".S 	c #2E282A",
"+S 	c #373131",
"@S 	c #3F3939",
"#S 	c #8DB0B2",
"$S 	c #A0C9C9",
"%S 	c #4F6163",
"&S 	c #566263",
"*S 	c #606D6F",
"=S 	c #544C49",
"-S 	c #5E5857",
";S 	c #474140",
">S 	c #3F3938",
",S 	c #383232",
"'S 	c #342E2F",
")S 	c #474240",
"!S 	c #787475",
"~S 	c #797677",
"{S 	c #737071",
"]S 	c #666263",
"^S 	c #5B5657",
"/S 	c #5A5657",
"(S 	c #595556",
"_S 	c #352F2F",
":S 	c #3C3635",
"<S 	c #918277",
"[S 	c #84766D",
"}S 	c #82756C",
"|S 	c #574E4B",
"1S 	c #3E3837",
"2S 	c #453E3C",
"3S 	c #4B4341",
"4S 	c #685F5D",
"5S 	c #867B78",
"6S 	c #9B8F8C",
"7S 	c #A09491",
"8S 	c #887E7C",
"9S 	c #554E4E",
"0S 	c #405256",
"aS 	c #4B6162",
"bS 	c #90B3B4",
"cS 	c #A1C9CA",
"dS 	c #546162",
"eS 	c #525F60",
"fS 	c #566364",
"gS 	c #443F3D",
"hS 	c #413A39",
"iS 	c #4D4849",
"jS 	c #565253",
"kS 	c #332D2F",
"lS 	c #706764",
"mS 	c #7D7370",
"nS 	c #9E928F",
"oS 	c #998D8B",
"pS 	c #605B5A",
"qS 	c #7B9B9B",
"rS 	c #8EB1B3",
"sS 	c #4C6162",
"tS 	c #90B3B5",
"uS 	c #506263",
"vS 	c #677575",
"wS 	c #647272",
"xS 	c #282528",
"yS 	c #777475",
"zS 	c #625E5F",
"AS 	c #373234",
"BS 	c #6C6360",
"CS 	c #6B625C",
"DS 	c #8D7E74",
"ES 	c #69605D",
"FS 	c #9A8E8B",
"GS 	c #6D6464",
"HS 	c #3C3537",
"IS 	c #857D7A",
"JS 	c #678486",
"KS 	c #4A5D5F",
"LS 	c #252F32",
"MS 	c #232C2D",
"NS 	c #535E5E",
"OS 	c #5F6869",
"PS 	c #687272",
"QS 	c #6C7979",
"RS 	c #535D5E",
"SS 	c #566162",
"TS 	c #606B6C",
"US 	c #656F70",
"VS 	c #657171",
"WS 	c #312B2C",
"XS 	c #776E6A",
"YS 	c #877A71",
"ZS 	c #8C7E74",
"`S 	c #47403E",
" T 	c #7D7371",
".T 	c #3F3839",
"+T 	c #817A76",
"@T 	c #ACD8D9",
"#T 	c #8EB3B4",
"$T 	c #293B41",
"%T 	c #293C41",
"&T 	c #A2C9CA",
"*T 	c #506264",
"=T 	c #535E5F",
"-T 	c #566061",
";T 	c #585253",
">T 	c #624444",
",T 	c #653C3D",
"'T 	c #634141",
")T 	c #5A4E4E",
"!T 	c #646F6F",
"~T 	c #4C5657",
"{T 	c #586263",
"]T 	c #5C5555",
"^T 	c #624848",
"/T 	c #644343",
"(T 	c #614849",
"_T 	c #5C5B5C",
":T 	c #758484",
"<T 	c #65554E",
"[T 	c #6D5A53",
"}T 	c #423736",
"|T 	c #312A2C",
"1T 	c #30292B",
"2T 	c #3D3231",
"3T 	c #433734",
"4T 	c #413634",
"5T 	c #6B625F",
"6T 	c #6A635E",
"7T 	c #6B645F",
"8T 	c #6D6660",
"9T 	c #85796F",
"0T 	c #8C7E73",
"aT 	c #4D4542",
"bT 	c #635A58",
"cT 	c #A19692",
"dT 	c #796F6E",
"eT 	c #5B5655",
"fT 	c #6A6563",
"gT 	c #76706D",
"hT 	c #688587",
"iT 	c #29393F",
"jT 	c #506364",
"kT 	c #5B696B",
"lT 	c #6D3333",
"mT 	c #862C2D",
"nT 	c #973333",
"oT 	c #9A3435",
"pT 	c #7F2F30",
"qT 	c #5B4545",
"rT 	c #677373",
"sT 	c #758584",
"tT 	c #5A6466",
"uT 	c #594748",
"vT 	c #752E2F",
"wT 	c #872C2C",
"xT 	c #943132",
"yT 	c #903031",
"zT 	c #723838",
"AT 	c #768585",
"BT 	c #725E56",
"CT 	c #876F64",
"DT 	c #5F4C47",
"ET 	c #5C4A45",
"FT 	c #594843",
"GT 	c #52433F",
"HT 	c #483B39",
"IT 	c #403535",
"JT 	c #3A3131",
"KT 	c #342C2D",
"LT 	c #423634",
"MT 	c #463936",
"NT 	c #4F403B",
"OT 	c #52423D",
"PT 	c #55443F",
"QT 	c #5D4943",
"RT 	c #51413D",
"ST 	c #403534",
"TT 	c #2F292B",
"UT 	c #6C6560",
"VT 	c #766D66",
"WT 	c #82766E",
"XT 	c #8F8075",
"YT 	c #8D8178",
"ZT 	c #AFA49C",
"`T 	c #ADA29A",
" U 	c #A0968E",
".U 	c #827873",
"+U 	c #A99E96",
"@U 	c #4A4344",
"#U 	c #4D4748",
"$U 	c #6C6765",
"%U 	c #6D6866",
"&U 	c #4D6263",
"*U 	c #AFDCDC",
"=U 	c #7B9B9D",
"-U 	c #555B5C",
";U 	c #693A3B",
">U 	c #843333",
",U 	c #A23535",
"'U 	c #D34E4F",
")U 	c #AF3E3E",
"!U 	c #782D2E",
"~U 	c #5B4D4E",
"{U 	c #555455",
"]U 	c #773435",
"^U 	c #922F30",
"/U 	c #AA3939",
"(U 	c #C54747",
"_U 	c #C64848",
":U 	c #9F3838",
"<U 	c #683A3A",
"[U 	c #626969",
"}U 	c #6C5850",
"|U 	c #634F48",
"1U 	c #765C52",
"2U 	c #6B544C",
"3U 	c #564540",
"4U 	c #3C3232",
"5U 	c #393233",
"6U 	c #706864",
"7U 	c #8C7F76",
"8U 	c #423B3D",
"9U 	c #756F6C",
"0U 	c #90B4B6",
"aU 	c #364747",
"bU 	c #303F3F",
"cU 	c #405152",
"dU 	c #516365",
"eU 	c #7C3737",
"fU 	c #983838",
"gU 	c #BE3E3E",
"hU 	c #EA5959",
"iU 	c #C84848",
"jU 	c #963030",
"kU 	c #6C3A3B",
"lU 	c #5E6969",
"mU 	c #5C4141",
"nU 	c #8B3131",
"oU 	c #AB3637",
"pU 	c #CB4546",
"qU 	c #E15353",
"rU 	c #C14545",
"sU 	c #7F2A2B",
"tU 	c #624C4C",
"uU 	c #667777",
"vU 	c #7A635A",
"wU 	c #5E4B46",
"xU 	c #745B51",
"yU 	c #795F55",
"zU 	c #7E655B",
"AU 	c #725950",
"BU 	c #5A4842",
"CU 	c #372F2F",
"DU 	c #7C746E",
"EU 	c #7E766F",
"FU 	c #857C75",
"GU 	c #8D837C",
"HU 	c #958A82",
"IU 	c #988C84",
"JU 	c #ACA199",
"KU 	c #7F7875",
"LU 	c #7C9C9C",
"MU 	c #6A8789",
"NU 	c #293C42",
"OU 	c #405153",
"PU 	c #B0DDDD",
"QU 	c #5F6A6B",
"RU 	c #5A4848",
"SU 	c #823839",
"TU 	c #A13B3B",
"UU 	c #C43F3F",
"VU 	c #E05150",
"WU 	c #C34242",
"XU 	c #9B2F30",
"YU 	c #723637",
"ZU 	c #646C6B",
"`U 	c #758686",
" V 	c #4E5858",
".V 	c #5C6666",
"+V 	c #633A3B",
"@V 	c #963232",
"#V 	c #B93A3A",
"$V 	c #CE4343",
"%V 	c #E05151",
"&V 	c #E25352",
"*V 	c #BE4142",
"=V 	c #8D2C2D",
"-V 	c #6B4041",
";V 	c #604E48",
">V 	c #6F574F",
",V 	c #7B6258",
"'V 	c #846B61",
")V 	c #8A7266",
"!V 	c #8E7669",
"~V 	c #7D6258",
"{V 	c #7B6156",
"]V 	c #6C554D",
"^V 	c #3B3535",
"/V 	c #6F6A68",
"(V 	c #A49F9C",
"_V 	c #7E7876",
":V 	c #91B5B6",
"<V 	c #293D41",
"[V 	c #7C9D9E",
"}V 	c #5C6869",
"|V 	c #823838",
"1V 	c #A13A3B",
"2V 	c #C43E3E",
"3V 	c #CD4141",
"4V 	c #CC4141",
"5V 	c #9A3030",
"6V 	c #723536",
"7V 	c #646B6C",
"8V 	c #65393A",
"9V 	c #973232",
"0V 	c #CE4141",
"aV 	c #CB4141",
"bV 	c #B43939",
"cV 	c #902D2E",
"dV 	c #6C3F40",
"eV 	c #788788",
"fV 	c #80685E",
"gV 	c #715A53",
"hV 	c #6F5952",
"iV 	c #735E55",
"jV 	c #80695E",
"kV 	c #AA9384",
"lV 	c #AD9686",
"mV 	c #9B8073",
"nV 	c #917569",
"oV 	c #907468",
"pV 	c #7F6459",
"qV 	c #655C59",
"rV 	c #565150",
"sV 	c #7C7875",
"tV 	c #A5A09D",
"uV 	c #9E9996",
"vV 	c #AEDBDB",
"wV 	c #91B6B6",
"xV 	c #242E31",
"yV 	c #90B6B6",
"zV 	c #A2CBCD",
"AV 	c #526366",
"BV 	c #564D4E",
"CV 	c #7D3738",
"DV 	c #BC3C3C",
"EV 	c #C83E3E",
"FV 	c #C13C3C",
"GV 	c #AD3737",
"HV 	c #922D2E",
"IV 	c #6D3A3B",
"JV 	c #5E6869",
"KV 	c #5E3E3E",
"LV 	c #B13839",
"MV 	c #C43D3E",
"NV 	c #C23D3D",
"OV 	c #AA3637",
"PV 	c #654646",
"QV 	c #647474",
"RV 	c #64534E",
"SV 	c #826B61",
"TV 	c #846C62",
"UV 	c #786158",
"VV 	c #725B54",
"WV 	c #735C55",
"XV 	c #7A625A",
"YV 	c #836B61",
"ZV 	c #A89182",
"`V 	c #AF9888",
" W 	c #987F72",
".W 	c #8E7368",
"+W 	c #8F7367",
"@W 	c #81665B",
"#W 	c #5D4C47",
"$W 	c #665D5A",
"%W 	c #766D6A",
"&W 	c #6D6661",
"*W 	c #6F6762",
"=W 	c #706863",
"-W 	c #978B85",
";W 	c #4C4747",
">W 	c #787371",
",W 	c #75706E",
"'W 	c #242E30",
")W 	c #2A3B41",
"!W 	c #B1DEDF",
"~W 	c #526466",
"{W 	c #545859",
"]W 	c #6D393A",
"^W 	c #883435",
"/W 	c #A53636",
"(W 	c #B13838",
"_W 	c #7B2D2E",
":W 	c #5A4849",
"<W 	c #5D6C6D",
"[W 	c #4D5758",
"}W 	c #823132",
"|W 	c #9D3233",
"1W 	c #AE3738",
"2W 	c #B53939",
"3W 	c #AE3737",
"4W 	c #993031",
"5W 	c #743031",
"6W 	c #5D5B5C",
"7W 	c #6D7D7D",
"8W 	c #504442",
"9W 	c #5F4F4C",
"0W 	c #665550",
"aW 	c #7A655C",
"bW 	c #8F776B",
"cW 	c #AC9586",
"dW 	c #927F74",
"eW 	c #786862",
"fW 	c #796862",
"gW 	c #342D2E",
"hW 	c #8C837F",
"iW 	c #6E6762",
"jW 	c #948982",
"kW 	c #4A4445",
"lW 	c #6E6A68",
"mW 	c #92B6B8",
"nW 	c #597374",
"oW 	c #2A3B42",
"pW 	c #415253",
"qW 	c #4F6466",
"rW 	c #B4E0E1",
"sW 	c #554A4B",
"tW 	c #683536",
"uW 	c #862E2F",
"vW 	c #8C2D2E",
"wW 	c #762F30",
"xW 	c #5A4344",
"yW 	c #636E6F",
"zW 	c #525C5D",
"AW 	c #565F60",
"BW 	c #603F40",
"CW 	c #7F2F2F",
"DW 	c #902E2F",
"EW 	c #952F30",
"FW 	c #773132",
"GW 	c #5B4B4C",
"HW 	c #667374",
"IW 	c #584947",
"JW 	c #594A48",
"KW 	c #5A4B49",
"LW 	c #695752",
"MW 	c #6A5852",
"NW 	c #685751",
"OW 	c #6B5A54",
"PW 	c #655651",
"QW 	c #62544F",
"RW 	c #5C4F4C",
"SW 	c #71625C",
"TW 	c #7D6A63",
"UW 	c #896D62",
"VW 	c #7B645B",
"WW 	c #5C5351",
"XW 	c #6D6561",
"YW 	c #726A65",
"ZW 	c #716964",
"`W 	c #7D726E",
" X 	c #97928F",
".X 	c #AFDBDD",
"+X 	c #25383B",
"@X 	c #24373A",
"#X 	c #24383A",
"$X 	c #24383B",
"%X 	c #25383C",
"&X 	c #25393C",
"*X 	c #26393C",
"=X 	c #273A3E",
"-X 	c #273B3F",
";X 	c #273A3F",
">X 	c #273A40",
",X 	c #283A40",
"'X 	c #27393F",
")X 	c #223338",
"!X 	c #415254",
"~X 	c #5E6E6F",
"{X 	c #545455",
"]X 	c #594444",
"^X 	c #5D3A3B",
"/X 	c #5B4041",
"(X 	c #565051",
"_X 	c #626E6E",
":X 	c #584A4A",
"<X 	c #5E3838",
"[X 	c #613132",
"}X 	c #5C393A",
"|X 	c #564E4F",
"1X 	c #697575",
"2X 	c #483D3C",
"3X 	c #554745",
"4X 	c #574947",
"5X 	c #5B4E4B",
"6X 	c #877066",
"7X 	c #554643",
"8X 	c #948B87",
"9X 	c #766D69",
"0X 	c #726B65",
"aX 	c #77706A",
"bX 	c #807771",
"cX 	c #9F948D",
"dX 	c #A0958E",
"eX 	c #7F746F",
"fX 	c #40393B",
"gX 	c #696563",
"hX 	c #878280",
"iX 	c #837E7C",
"jX 	c #92B8B8",
"kX 	c #233639",
"lX 	c #223638",
"mX 	c #223639",
"nX 	c #233739",
"oX 	c #223739",
"pX 	c #A3CDCE",
"qX 	c #555F60",
"rX 	c #4F5A5B",
"sX 	c #596465",
"tX 	c #575F5F",
"uX 	c #687777",
"vX 	c #594B49",
"wX 	c #8B7065",
"xX 	c #8E8581",
"yX 	c #756C68",
"zX 	c #746C67",
"AX 	c #7F7771",
"BX 	c #A39991",
"CX 	c #918680",
"DX 	c #514949",
"EX 	c #797472",
"FX 	c #7B7674",
"GX 	c #6D8B8C",
"HX 	c #5A7476",
"IX 	c #1B2B2E",
"JX 	c #213437",
"KX 	c #213638",
"LX 	c #233839",
"MX 	c #213335",
"NX 	c #242D2F",
"OX 	c #233537",
"PX 	c #223436",
"QX 	c #223437",
"RX 	c #213436",
"SX 	c #213336",
"TX 	c #1F3133",
"UX 	c #1D2D2E",
"VX 	c #4F6566",
"WX 	c #556161",
"XX 	c #586464",
"YX 	c #677475",
"ZX 	c #637171",
"`X 	c #574A47",
" Y 	c #7B6A63",
".Y 	c #63514C",
"+Y 	c #8F857E",
"@Y 	c #847974",
"#Y 	c #3D3638",
"$Y 	c #746F6D",
"%Y 	c #1E2F32",
"&Y 	c #203336",
"*Y 	c #213537",
"=Y 	c #223537",
"-Y 	c #223738",
";Y 	c #223637",
">Y 	c #1F3334",
",Y 	c #1D2E31",
"'Y 	c #1F3132",
")Y 	c #92B7B7",
"!Y 	c #526566",
"~Y 	c #564946",
"{Y 	c #9B9189",
"]Y 	c #94B9BA",
"^Y 	c #6E8B8D",
"/Y 	c #293435",
"(Y 	c #1B2A2C",
"_Y 	c #1E2F30",
":Y 	c #203234",
"<Y 	c #203335",
"[Y 	c #203436",
"}Y 	c #1E3133",
"|Y 	c #1C2C2E",
"1Y 	c #1C2D30",
"2Y 	c #1F3234",
"3Y 	c #233638",
"4Y 	c #1E2F31",
"5Y 	c #374647",
"6Y 	c #506567",
"7Y 	c #A4CECF",
"8Y 	c #607070",
"9Y 	c #677474",
"0Y 	c #6F605B",
"aY 	c #73635E",
"bY 	c #746B66",
"cY 	c #857C76",
"dY 	c #958A85",
"eY 	c #867B76",
"fY 	c #7D726D",
"gY 	c #64605E",
"hY 	c #706B69",
"iY 	c #94B9BB",
"jY 	c #6E8B8E",
"kY 	c #5B7577",
"lY 	c #233539",
"mY 	c #263B3E",
"nY 	c #283E41",
"oY 	c #293F41",
"pY 	c #293E41",
"qY 	c #293E42",
"rY 	c #293F42",
"sY 	c #293F43",
"tY 	c #273C40",
"uY 	c #24393C",
"vY 	c #1D2E30",
"wY 	c #1E3032",
"xY 	c #223538",
"yY 	c #203435",
"zY 	c #506667",
"AY 	c #526A6C",
"BY 	c #5C6B6C",
"CY 	c #646C6D",
"DY 	c #697071",
"EY 	c #6A7676",
"FY 	c #657474",
"GY 	c #6C7B7A",
"HY 	c #655854",
"IY 	c #5E514F",
"JY 	c #877E7A",
"KY 	c #7A736D",
"LY 	c #9A8F8A",
"MY 	c #9B908B",
"NY 	c #8E847F",
"OY 	c #6B6765",
"PY 	c #6E6967",
"QY 	c #6B6664",
"RY 	c #394849",
"SY 	c #314040",
"TY 	c #385259",
"UY 	c #405E67",
"VY 	c #426069",
"WY 	c #426068",
"XY 	c #426067",
"YY 	c #416067",
"ZY 	c #415F67",
"`Y 	c #426169",
" Z 	c #3B565E",
".Z 	c #2E454A",
"+Z 	c #23373A",
"@Z 	c #203235",
"#Z 	c #1F3235",
"$Z 	c #1F3233",
"%Z 	c #526567",
"&Z 	c #5A6969",
"*Z 	c #535D5D",
"=Z 	c #5B4F50",
"-Z 	c #643D3E",
";Z 	c #614747",
">Z 	c #595657",
",Z 	c #4D5656",
"'Z 	c #5A5959",
")Z 	c #5D5353",
"!Z 	c #585A5B",
"~Z 	c #6A7777",
"{Z 	c #635653",
"]Z 	c #756660",
"^Z 	c #5C4F4D",
"/Z 	c #79706B",
"(Z 	c #7A726C",
"_Z 	c #938883",
":Z 	c #51494A",
"<Z 	c #95BABB",
"[Z 	c #304448",
"}Z 	c #486972",
"|Z 	c #547985",
"1Z 	c #557B88",
"2Z 	c #557B87",
"3Z 	c #557B86",
"4Z 	c #557A86",
"5Z 	c #557985",
"6Z 	c #557984",
"7Z 	c #547984",
"8Z 	c #567A87",
"9Z 	c #4C6C76",
"0Z 	c #385158",
"aZ 	c #19282A",
"bZ 	c #2D4347",
"cZ 	c #354F55",
"dZ 	c #385359",
"eZ 	c #375258",
"fZ 	c #375257",
"gZ 	c #375157",
"hZ 	c #375057",
"iZ 	c #375058",
"jZ 	c #365058",
"kZ 	c #365057",
"lZ 	c #365056",
"mZ 	c #364F56",
"nZ 	c #354D54",
"oZ 	c #516768",
"pZ 	c #B5E1E2",
"qZ 	c #526667",
"rZ 	c #5F6F6F",
"sZ 	c #545E5E",
"tZ 	c #534141",
"uZ 	c #772D2E",
"vZ 	c #8C2E2F",
"wZ 	c #963334",
"xZ 	c #733232",
"yZ 	c #574F4F",
"zZ 	c #4F595A",
"AZ 	c #5A6364",
"BZ 	c #594546",
"CZ 	c #723030",
"DZ 	c #842C2D",
"EZ 	c #882E2E",
"FZ 	c #723232",
"GZ 	c #594D4E",
"HZ 	c #6F7C7D",
"IZ 	c #6E605B",
"JZ 	c #534646",
"KZ 	c #938A86",
"LZ 	c #766F69",
"MZ 	c #79726C",
"NZ 	c #736E6C",
"OZ 	c #415C63",
"PZ 	c #496771",
"QZ 	c #4A6973",
"RZ 	c #4A6872",
"SZ 	c #4A6873",
"TZ 	c #496871",
"UZ 	c #496770",
"VZ 	c #4B6A74",
"WZ 	c #4C6B76",
"XZ 	c #4C6B77",
"YZ 	c #4D6D78",
"ZZ 	c #46636D",
"`Z 	c #364E54",
" ` 	c #25373C",
".` 	c #3C575F",
"+` 	c #4E6F79",
"@` 	c #537681",
"#` 	c #52757F",
"$` 	c #51747E",
"%` 	c #51737E",
"&` 	c #51737F",
"*` 	c #51747F",
"=` 	c #4E6F7A",
"-` 	c #425E67",
";` 	c #30454A",
">` 	c #A5CFD0",
",` 	c #4E5958",
"'` 	c #723334",
")` 	c #913031",
"!` 	c #B33D3E",
"~` 	c #C84949",
"{` 	c #A03637",
"]` 	c #6E3637",
"^` 	c #666A6A",
"/` 	c #574C4C",
"(` 	c #7D3232",
"_` 	c #933031",
":` 	c #AB3A3B",
"<` 	c #B94142",
"[` 	c #A73A3A",
"}` 	c #585254",
"|` 	c #5E514E",
"1` 	c #665955",
"2` 	c #8A817C",
"3` 	c #5B5351",
"4` 	c #2A3335",
"5` 	c #2E393C",
"6` 	c #2F3C40",
"7` 	c #303C40",
"8` 	c #303D40",
"9` 	c #303E41",
"0` 	c #33464C",
"a` 	c #344950",
"b` 	c #334A51",
"c` 	c #354B51",
"d` 	c #33484F",
"e` 	c #26383D",
"f` 	c #3E5961",
"g` 	c #51727D",
"h` 	c #567A86",
"i` 	c #557884",
"j` 	c #557885",
"k` 	c #52747F",
"l` 	c #45626B",
"m` 	c #2C3E42",
"n` 	c #B5E2E2",
"o` 	c #536667",
"p` 	c #4C5757",
"q` 	c #596363",
"r` 	c #5D3F3F",
"s` 	c #7F3434",
"t` 	c #A63737",
"u` 	c #D04949",
"v` 	c #E55656",
"w` 	c #E35555",
"x` 	c #BB4242",
"y` 	c #7D2B2C",
"z` 	c #68595A",
"A` 	c #575F60",
"B` 	c #683839",
"C` 	c #923132",
"D` 	c #AC3637",
"E` 	c #D74E4E",
"F` 	c #E75757",
"G` 	c #D24D4D",
"H` 	c #643F40",
"I` 	c #4E4242",
"J` 	c #484140",
"K` 	c #837A75",
"L` 	c #746D67",
"M` 	c #4E6465",
"N` 	c #262C2D",
"O` 	c #262C2C",
"P` 	c #262C2B",
"Q` 	c #2A3A3E",
"R` 	c #2C3D43",
"S` 	c #273A3D",
"T` 	c #182629",
"U` 	c #44606A",
"V` 	c #436069",
"W` 	c #425F68",
"X` 	c #436068",
"Y` 	c #415D65",
"Z` 	c #566060",
"`` 	c #673C3C",
"  .	c #893535",
". .	c #B33B3B",
"+ .	c #D14646",
"@ .	c #DC5050",
"# .	c #BA3F40",
"$ .	c #8B2C2C",
"% .	c #6B4D4E",
"& .	c #6C7D7D",
"* .	c #778686",
"= .	c #4F5253",
"- .	c #7A3233",
"; .	c #A23434",
"> .	c #BF3B3C",
", .	c #E85757",
"' .	c #AC3939",
") .	c #713434",
"! .	c #5D5957",
"~ .	c #7A7573",
"{ .	c #708E90",
"] .	c #2D3F44",
"^ .	c #304349",
"/ .	c #31464B",
"( .	c #2E4248",
"_ .	c #A6CFD1",
": .	c #673B3C",
"< .	c #8B3536",
"[ .	c #CF4242",
"} .	c #C94040",
"| .	c #B23939",
"1 .	c #8E2C2D",
"2 .	c #6C4B4C",
"3 .	c #798888",
"4 .	c #4B4C4C",
"5 .	c #813131",
"6 .	c #A83535",
"7 .	c #C43D3D",
"8 .	c #D34646",
"9 .	c #C74141",
"0 .	c #A93535",
"a .	c #763131",
"b .	c #5B6061",
"c .	c #718081",
"d .	c #564846",
"e .	c #6C5E5A",
"f .	c #918884",
"g .	c #585453",
"h .	c #7C7775",
"i .	c #97BCBE",
"j .	c #718E90",
"k .	c #232C2C",
"l .	c #2A3437",
"m .	c #2B383D",
"n .	c #2A393E",
"o .	c #536768",
"p .	c #603D3E",
"q .	c #833434",
"r .	c #AB3838",
"s .	c #C33D3D",
"t .	c #BE3B3B",
"u .	c #A73535",
"v .	c #852D2D",
"w .	c #685455",
"x .	c #4C5051",
"y .	c #793232",
"z .	c #A13334",
"A .	c #BF3C3C",
"B .	c #CB403F",
"C .	c #A23333",
"D .	c #713233",
"E .	c #645754",
"F .	c #70615C",
"G .	c #322B2D",
"H .	c #867D78",
"I .	c #7D756F",
"J .	c #B4E3E3",
"K .	c #718F91",
"L .	c #2A363A",
"M .	c #2A3D40",
"N .	c #2A3A3F",
"O .	c #1D2D2F",
"P .	c #526869",
"Q .	c #544647",
"R .	c #773334",
"S .	c #983333",
"T .	c #B23839",
"U .	c #A93636",
"V .	c #763333",
"W .	c #666565",
"X .	c #663738",
"Y .	c #B83A3A",
"Z .	c #AC3737",
"` .	c #8E3030",
" ..	c #633D3E",
"...	c #615451",
"+..	c #6D5E5A",
"@..	c #362F30",
"#..	c #719091",
"$..	c #2A3B3D",
"%..	c #2A3538",
"&..	c #BAE8E9",
"*..	c #546768",
"=..	c #535A5B",
"-..	c #594142",
";..	c #773031",
">..	c #8E2E2F",
",..	c #932E2F",
"'..	c #882D2E",
")..	c #703333",
"!..	c #5C4E4E",
"~..	c #534C4D",
"{..	c #743333",
"]..	c #9A3131",
"^..	c #8F2F2F",
"/..	c #6F3636",
"(..	c #565555",
"_..	c #625552",
":..	c #776761",
"<..	c #8B827E",
"[..	c #786F6A",
"}..	c #716A64",
"|..	c #78716B",
"1..	c #7E7570",
"2..	c #7F9FA0",
"3..	c #2C4046",
"4..	c #546769",
"5..	c #607071",
"6..	c #535C5C",
"7..	c #574E4F",
"8..	c #5E3D3E",
"9..	c #603939",
"0..	c #5D4646",
"a..	c #5F3435",
"b..	c #6A2E2F",
"c..	c #6A2F2F",
"d..	c #5F3736",
"e..	c #544F4F",
"f..	c #665855",
"g..	c #6B5D58",
"h..	c #867D79",
"i..	c #756E68",
"j..	c #716C6A",
"k..	c #B8E5E5",
"l..	c #BBEAEA",
"m..	c #2A3438",
"n..	c #435556",
"o..	c #6C7C7C",
"p..	c #5E6B6D",
"q..	c #556363",
"r..	c #50595A",
"s..	c #4F5051",
"t..	c #505050",
"u..	c #778687",
"v..	c #736C66",
"w..	c #2A3537",
"x..	c #2C3C41",
"y..	c #6D7C7C",
"z..	c #5B6767",
"A..	c #606D6D",
"B..	c #584A48",
"C..	c #7C736E",
"D..	c #797573",
"E..	c #B6E5E6",
"F..	c #98C0C0",
"G..	c #729193",
"H..	c #2A3435",
"I..	c #53686A",
"J..	c #606F6F",
"K..	c #707C7C",
"L..	c #877D77",
"M..	c #443C3E",
"N..	c #777371",
"O..	c #739193",
"P..	c #B9E7E8",
"Q..	c #667171",
"R..	c #605351",
"S..	c #4D4544",
"T..	c #A99A91",
"U..	c #625654",
"V..	c #99C1C1",
"W..	c #53696A",
"X..	c #556364",
"Y..	c #4C5859",
"Z..	c #475252",
"`..	c #444E4E",
" +.	c #414A4B",
".+.	c #404949",
"++.	c #404849",
"@+.	c #3F4849",
"#+.	c #3F4848",
"$+.	c #414A4A",
"%+.	c #454D4E",
"&+.	c #463E3E",
"*+.	c #716A66",
"=+.	c #756E69",
"-+.	c #827973",
";+.	c #BBA9A0",
">+.	c #9AC1C2",
",+.	c #739294",
"'+.	c #2B3A3F",
")+.	c #94B9B9",
"!+.	c #A8D3D4",
"~+.	c #82A4A6",
"{+.	c #576E71",
"]+.	c #4E6264",
"^+.	c #475555",
"/+.	c #3E4949",
"(+.	c #384142",
"_+.	c #303737",
":+.	c #2E3435",
"<+.	c #252B2C",
"[+.	c #252B2B",
"}+.	c #252A2B",
"|+.	c #24292A",
"1+.	c #5C4E4C",
"2+.	c #423B3B",
"3+.	c #48403F",
"4+.	c #716A65",
"5+.	c #817872",
"6+.	c #847C75",
"7+.	c #877F78",
"8+.	c #888079",
"9+.	c #796661",
"0+.	c #BDEDEE",
"a+.	c #293438",
"b+.	c #2A3539",
"c+.	c #2A383D",
"d+.	c #4D6162",
"e+.	c #425051",
"f+.	c #384344",
"g+.	c #323C3C",
"h+.	c #2D3536",
"i+.	c #554845",
"j+.	c #594C4A",
"k+.	c #403839",
"l+.	c #7A6661",
"m+.	c #9AC2C3",
"n+.	c #749395",
"o+.	c #2B3C42",
"p+.	c #2C4145",
"q+.	c #536A6B",
"r+.	c #425152",
"s+.	c #191D1E",
"t+.	c #181E1E",
"u+.	c #5A4B48",
"v+.	c #504240",
"w+.	c #473B39",
"x+.	c #4D413F",
"y+.	c #504846",
"z+.	c #726B67",
"A+.	c #837B74",
"B+.	c #8D847D",
"C+.	c #443B3C",
"D+.	c #7F7A78",
"E+.	c #BEEEEF",
"F+.	c #4D6163",
"G+.	c #425253",
"H+.	c #5C4D4A",
"I+.	c #483C3A",
"J+.	c #524643",
"K+.	c #5A514F",
"L+.	c #8F867F",
"M+.	c #4C4142",
"N+.	c #BEEFF0",
"O+.	c #B9E9EA",
"P+.	c #9BC3C4",
"Q+.	c #617A7D",
"R+.	c #425254",
"S+.	c #2E3536",
"T+.	c #544845",
"U+.	c #5E4E4B",
"V+.	c #493D3B",
"W+.	c #4C3F3D",
"X+.	c #544745",
"Y+.	c #827C7A",
"Z+.	c #888380",
"`+.	c #736D6B",
" @.	c #293134",
".@.	c #2B3D43",
"+@.	c #384343",
"@@.	c #2E3637",
"#@.	c #5A4C49",
"$@.	c #675652",
"%@.	c #524543",
"&@.	c #5A534F",
"*@.	c #504A47",
"=@.	c #5A5351",
"-@.	c #5E5755",
";@.	c #9E928A",
">@.	c #676361",
",@.	c #645E5B",
"'@.	c #938C89",
")@.	c #99918E",
"!@.	c #76716F",
"~@.	c #B2E0E0",
"{@.	c #9BC4C5",
"]@.	c #445657",
"^@.	c #BCEBEB",
"/@.	c #A9D4D6",
"(@.	c #83A5A7",
"_@.	c #384444",
":@.	c #6B5955",
"<@.	c #6A5854",
"[@.	c #60504D",
"}@.	c #5B4C49",
"|@.	c #534543",
"1@.	c #5A4D4B",
"2@.	c #423A3B",
"3@.	c #524C49",
"4@.	c #4F4946",
"5@.	c #453E3D",
"6@.	c #554E4C",
"7@.	c #9F928A",
"8@.	c #67615E",
"9@.	c #384545",
"0@.	c #61504D",
"a@.	c #5D4D4B",
"b@.	c #564845",
"c@.	c #4A3E3C",
"d@.	c #4C403D",
"e@.	c #857D76",
"f@.	c #AE9F96",
"g@.	c #19282C",
"h@.	c #546B6C",
"i@.	c #95B9BA",
"j@.	c #384547",
"k@.	c #323D3E",
"l@.	c #70635F",
"m@.	c #63524F",
"n@.	c #5E4E4C",
"o@.	c #564745",
"p@.	c #514442",
"q@.	c #514341",
"r@.	c #4B4343",
"s@.	c #58524E",
"t@.	c #736F6D",
"u@.	c #9CC4C6",
"v@.	c #759597",
"w@.	c #617C7E",
"x@.	c #BDECEC",
"y@.	c #958783",
"z@.	c #8B7975",
"A@.	c #594B48",
"B@.	c #574846",
"C@.	c #645553",
"D@.	c #564D4B",
"E@.	c #807976",
"F@.	c #655E5C",
"G@.	c #40383A",
"H@.	c #7C7774",
"I@.	c #C2F3F3",
"J@.	c #9CC5C6",
"K@.	c #516668",
"L@.	c #B1A09B",
"M@.	c #9F8E89",
"N@.	c #6F5D59",
"O@.	c #685753",
"P@.	c #645350",
"Q@.	c #6A5954",
"R@.	c #76635D",
"S@.	c #5D5452",
"T@.	c #766D68",
"U@.	c #817A77",
"V@.	c #7A7370",
"W@.	c #6B6461",
"X@.	c #89817A",
"Y@.	c #736E6D",
"Z@.	c #746562",
"`@.	c #AD9C97",
" #.	c #AF9E99",
".#.	c #867570",
"+#.	c #665551",
"@#.	c #685652",
"##.	c #695854",
"$#.	c #715E59",
"%#.	c #7B6860",
"&#.	c #726D6C",
"*#.	c #7C7674",
"=#.	c #BCEDED",
"-#.	c #C2F5F5",
";#.	c #9CC5C7",
">#.	c #769598",
",#.	c #C1F4F4",
"'#.	c #5E4F4E",
")#.	c #705D5B",
"!#.	c #8E7B78",
"~#.	c #A5948F",
"{#.	c #7D6B67",
"]#.	c #685955",
"^#.	c #6C6561",
"/#.	c #7D7673",
"(#.	c #463F3E",
"_#.	c #7E7670",
":#.	c #978C84",
"<#.	c #786561",
"[#.	c #65615F",
"}#.	c #AAD5D7",
"|#.	c #6E5C59",
"1#.	c #74615F",
"2#.	c #93817D",
"3#.	c #9B8A85",
"4#.	c #887771",
"5#.	c #786661",
"6#.	c #7F6A63",
"7#.	c #AD9182",
"8#.	c #BB9D8B",
"9#.	c #AE9282",
"0#.	c #6D5D58",
"a#.	c #66605C",
"b#.	c #6E6864",
"c#.	c #7E7774",
"d#.	c #77706D",
"e#.	c #6A6360",
"f#.	c #666260",
"g#.	c #746F6C",
"h#.	c #C3F6F6",
"i#.	c #2A3536",
"j#.	c #AAD6D7",
"k#.	c #675552",
"l#.	c #685653",
"m#.	c #6E5B59",
"n#.	c #897774",
"o#.	c #D2C4B7",
"p#.	c #CFC0B3",
"q#.	c #AE988C",
"r#.	c #A1887C",
"s#.	c #A0877B",
"t#.	c #B69988",
"u#.	c #71605A",
"v#.	c #736A66",
"w#.	c #76706C",
"x#.	c #6E5F5B",
"y#.	c #6A6564",
"z#.	c #746F6E",
"A#.	c #938D8A",
"B#.	c #9CC6C7",
"C#.	c #695754",
"D#.	c #8F7D78",
"E#.	c #BCADA3",
"F#.	c #A99286",
"G#.	c #A58B7E",
"H#.	c #B99B89",
"I#.	c #8C756B",
"J#.	c #59504E",
"K#.	c #6B6561",
"L#.	c #6D6763",
"M#.	c #B5A49B",
"N#.	c #5E5352",
"O#.	c #85807E",
"P#.	c #ACA5A1",
"Q#.	c #B1AAA5",
"R#.	c #9DC6C7",
"S#.	c #769698",
"T#.	c #766361",
"U#.	c #907E78",
"V#.	c #A28A7E",
"W#.	c #A1887B",
"X#.	c #B89A89",
"Y#.	c #A78879",
"Z#.	c #534B49",
"`#.	c #59514F",
" $.	c #68625E",
".$.	c #6F6B69",
"+$.	c #8F8A86",
"@$.	c #BEEDEE",
"#$.	c #C5F8F8",
"$$.	c #ABD5D7",
"%$.	c #62514E",
"&$.	c #6D5A58",
"*$.	c #8A736C",
"=$.	c #A08072",
"-$.	c #79665F",
";$.	c #6A6460",
">$.	c #78706A",
",$.	c #B4A29A",
"'$.	c #716C6B",
")$.	c #8F8987",
"!$.	c #9DC7C7",
"~$.	c #B0DDDE",
"{$.	c #C4F6F7",
"]$.	c #B09281",
"^$.	c #494141",
"/$.	c #67615D",
"($.	c #A2938C",
"_$.	c #5A5655",
":$.	c #96908C",
"<$.	c #9EC7C7",
"[$.	c #5E4F4C",
"}$.	c #665451",
"|$.	c #A88879",
"1$.	c #4A4242",
"2$.	c #9A8D86",
"3$.	c #574946",
"4$.	c #A48476",
"5$.	c #574F4C",
"6$.	c #69635F",
"7$.	c #C6F9F9",
"8$.	c #526769",
"9$.	c #5D4E4B",
"0$.	c #6F5C5A",
"a$.	c #836D67",
"b$.	c #A48576",
"c$.	c #6B5C57",
"d$.	c #676262",
"e$.	c #584A47",
"f$.	c #AE8F7F",
"g$.	c #574C4A",
"h$.	c #6F6A69",
"i$.	c #725F5A",
"j$.	c #3C3536",
"k$.	c #A3887A",
"l$.	c #AF9383",
"m$.	c #6D5E59",
"n$.	c #504645",
"o$.	c #BDEEEF",
"p$.	c #C4F5F5",
"q$.	c #84A7A8",
"r$.	c #7C6760",
"s$.	c #998075",
"t$.	c #7F6C65",
"u$.	c #483F3E",
"v$.	c #9B8276",
"w$.	c #89756E",
"x$.	c #756864",
"y$.	c #675A56",
"z$.	c #453C3C",
"A$.	c #544C4A",
"B$.	c #9A8175",
"C$.	c #83716B",
"D$.	c #766965",
"E$.	c #787372",
"F$.	c #777271",
"G$.	c #5D4D4A",
"H$.	c #61514E",
"I$.	c #77635D",
"J$.	c #A0867A",
"K$.	c #7B6C67",
"L$.	c #695C59",
"M$.	c #BCEDEE",
"N$.	c #2C3F46",
"O$.	c #577073",
"P$.	c #594A47",
"Q$.	c #897269",
"R$.	c #6F625E",
"S$.	c #847A74",
"T$.	c #797473",
"U$.	c #807A79",
"V$.	c #7D6861",
"W$.	c #B99B8A",
"X$.	c #7E6E69",
"Y$.	c #736662",
"Z$.	c #5A4E4C",
"`$.	c #4D4646",
" %.	c #7E7877",
".%.	c #7F7978",
"+%.	c #706B6A",
"@%.	c #705E58",
"#%.	c #A48A7C",
"$%.	c #86736C",
"%%.	c #7C7776",
"&%.	c #6C5A55",
"*%.	c #927C72",
"=%.	c #847B72",
"-%.	c #827970",
";%.	c #AA9A92",
">%.	c #76706F",
",%.	c #797372",
"'%.	c #75706F",
")%.	c #7FA1A2",
"!%.	c #2A3E42",
"~%.	c #293A3B",
"{%.	c #283434",
"]%.	c #AAD4D6",
"^%.	c #8C756C",
"/%.	c #7C6D68",
"(%.	c #514747",
"_%.	c #736A64",
":%.	c #7B7675",
"<%.	c #759596",
"[%.	c #2A3E43",
"}%.	c #384949",
"|%.	c #BFF0F1",
"1%.	c #BCEBEC",
"2%.	c #76625C",
"3%.	c #957D73",
"4%.	c #776A65",
"5%.	c #584E4D",
"6%.	c #7D756C",
"7%.	c #7A7474",
"8%.	c #827C7B",
"9%.	c #8C8684",
"0%.	c #8F786E",
"a%.	c #8B776F",
"b%.	c #443C3D",
"c%.	c #80776E",
"d%.	c #AA9B93",
"e%.	c #87817F",
"f%.	c #8B8583",
"g%.	c #817B7A",
"h%.	c #9BC4C4",
"i%.	c #61514D",
"j%.	c #72615A",
"k%.	c #89756D",
"l%.	c #7C736B",
"m%.	c #8A8482",
"n%.	c #86807F",
"o%.	c #B9EAEA",
"p%.	c #293235",
"q%.	c #685953",
"r%.	c #977F74",
"s%.	c #544D4A",
"t%.	c #726962",
"u%.	c #6E6863",
"v%.	c #607B7D",
"w%.	c #82A5A5",
"x%.	c #7A6A64",
"y%.	c #6D615D",
"z%.	c #4D4648",
"A%.	c #847E7C",
"B%.	c #1F2A2E",
"C%.	c #716963",
"D%.	c #8D827D",
"E%.	c #4A4243",
"F%.	c #888280",
"G%.	c #BDEFEF",
"H%.	c #534948",
"I%.	c #433C3C",
"J%.	c #7B726B",
"K%.	c #726C66",
"L%.	c #968B85",
"M%.	c #9B8F8A",
"N%.	c #544C4C",
"O%.	c #5C5556",
"P%.	c #7F7A79",
"Q%.	c #665752",
"R%.	c #6B5D57",
"S%.	c #80776F",
"T%.	c #635D5D",
"U%.	c #2A3D43",
"V%.	c #53686B",
"W%.	c #63544F",
"X%.	c #71635E",
"Y%.	c #857F7D",
"Z%.	c #756F6F",
"`%.	c #898382",
" &.	c #4C6063",
".&.	c #5D5250",
"+&.	c #756F69",
"@&.	c #807872",
"#&.	c #767070",
"$&.	c #4B6064",
"%&.	c #3C3335",
"&&.	c #7FA0A0",
"*&.	c #A7D2D2",
"=&.	c #584946",
"-&.	c #746764",
";&.	c #2D2629",
">&.	c #5E5A5B",
",&.	c #888381",
"'&.	c #B8E5E6",
")&.	c #566C6F",
"!&.	c #675852",
"~&.	c #6C5E59",
"{&.	c #6C605D",
"]&.	c #2E272A",
"^&.	c #4F4745",
"/&.	c #7A7574",
"(&.	c #767170",
"_&.	c #293033",
":&.	c #60504C",
"<&.	c #675752",
"[&.	c #665751",
"}&.	c #746763",
"|&.	c #675B59",
"1&.	c #968B86",
"2&.	c #615858",
"3&.	c #575455",
"4&.	c #6A6665",
"5&.	c #817C7B",
"6&.	c #675853",
"7&.	c #574C4B",
"8&.	c #7B716E",
"9&.	c #97BDBF",
"0&.	c #2A373C",
"a&.	c #A6D0D1",
"b&.	c #6B6260",
"c&.	c #3C3839",
"d&.	c #4F4645",
"e&.	c #3B3436",
"f&.	c #463F3F",
"g&.	c #645E5A",
"h&.	c #635D5A",
"i&.	c #2B373B",
"j&.	c #2C3A3F",
"k&.	c #2D3D41",
"l&.	c #2E4044",
"m&.	c #24363A",
"n&.	c #1E2E30",
"o&.	c #2D3F43",
"p&.	c #5E5754",
"q&.	c #463D3C",
"r&.	c #483F3C",
"s&.	c #443E3D",
"t&.	c #2A3032",
"u&.	c #695A54",
"v&.	c #716561",
"w&.	c #383132",
"x&.	c #373030",
"y&.	c #5F544E",
"z&.	c #60544E",
"A&.	c #61554F",
"B&.	c #4C4442",
"C&.	c #433C3B",
"D&.	c #514845",
"E&.	c #554E4B",
"F&.	c #4D6465",
"G&.	c #22292B",
"H&.	c #1D2727",
"I&.	c #1A2525",
"J&.	c #72645F",
"K&.	c #3C3838",
"L&.	c #3B3738",
"M&.	c #A89485",
"N&.	c #A18E80",
"O&.	c #988679",
"P&.	c #7D6F66",
"Q&.	c #766961",
"R&.	c #86776C",
"S&.	c #B9AA9B",
"T&.	c #645450",
"U&.	c #615654",
"V&.	c #362F2F",
"W&.	c #A38F81",
"X&.	c #A28E7F",
"Y&.	c #A08C7D",
"Z&.	c #A69283",
"`&.	c #A5978A",
" *.	c #AA9C8E",
".*.	c #272427",
"+*.	c #31292C",
"@*.	c #403637",
"#*.	c #3C3333",
"$*.	c #362E30",
"%*.	c #3C3434",
"&*.	c #413837",
"**.	c #534643",
"=*.	c #9E8B7C",
"-*.	c #897669",
";*.	c #837063",
">*.	c #816E61",
",*.	c #806D5F",
"'*.	c #867264",
")*.	c #887465",
"!*.	c #7F6D61",
"~*.	c #232C2F",
"{*.	c #31292B",
"]*.	c #4E423F",
"^*.	c #4F433F",
"/*.	c #504340",
"(*.	c #4B3E3E",
"_*.	c #4A3E3D",
":*.	c #4D403F",
"<*.	c #4E4141",
"[*.	c #4E4241",
"}*.	c #64544D",
"|*.	c #695850",
"1*.	c #705D55",
"2*.	c #64544F",
"3*.	c #4F4443",
"4*.	c #554844",
"5*.	c #504441",
"6*.	c #4B403E",
"7*.	c #473C3B",
"8*.	c #544743",
"9*.	c #6E5E55",
"0*.	c #67574F",
"a*.	c #6A5C56",
"b*.	c #6F8B8E",
"c*.	c #B4DFE0",
"d*.	c #453A38",
"e*.	c #6D5B52",
"f*.	c #746155",
"g*.	c #826D62",
"h*.	c #856F63",
"i*.	c #8B7467",
"j*.	c #877065",
"k*.	c #806A60",
"l*.	c #77675D",
"m*.	c #685952",
"n*.	c #695B54",
"o*.	c #695B55",
"p*.	c #6A5D56",
"q*.	c #152121",
"r*.	c #172427",
"s*.	c #91B7B7",
"t*.	c #332B2D",
"u*.	c #463A38",
"v*.	c #6A5950",
"w*.	c #6B5951",
"x*.	c #705D53",
"y*.	c #776357",
"z*.	c #7F695E",
"A*.	c #A38777",
"B*.	c #9D8273",
"C*.	c #60514C",
"D*.	c #2B3F43",
"E*.	c #121C1B",
"F*.	c #182120",
"G*.	c #162221",
"H*.	c #2E2729",
"I*.	c #322B2C",
"J*.	c #383030",
"K*.	c #584C48",
"L*.	c #564A47",
"M*.	c #433A3A",
"N*.	c #352D2F",
"O*.	c #463B3B",
"P*.	c #4D4140",
"Q*.	c #725F54",
"R*.	c #756156",
"S*.	c #715E54",
"T*.	c #766257",
"U*.	c #806A5F",
"V*.	c #9D8373",
"W*.	c #92796C",
"X*.	c #826C61",
"Y*.	c #1C2A2A",
"Z*.	c #1D2B2B",
"`*.	c #A4CCCE",
" =.	c #52686B",
".=.	c #2D292A",
"+=.	c #74655E",
"@=.	c #645752",
"#=.	c #5B504D",
"$=.	c #403838",
"%=.	c #413737",
"&=.	c #554744",
"*=.	c #7A665A",
"==.	c #7B665A",
"-=.	c #90776A",
";=.	c #AA8F7E",
">=.	c #AF9683",
",=.	c #AB917F",
"'=.	c #A48878",
")=.	c #9B8072",
"!=.	c #7A665D",
"~=.	c #61504B",
"{=.	c #6F5B53",
"]=.	c #755F56",
"^=.	c #7A6359",
"/=.	c #6C5951",
"(=.	c #66554E",
"_=.	c #5E4F49",
":=.	c #78655C",
"<=.	c #A88D7D",
"[=.	c #AE9281",
"}=.	c #A58B7B",
"|=.	c #6B5B52",
"1=.	c #66564F",
"2=.	c #63534D",
"3=.	c #7C9D9D",
"4=.	c #253638",
"5=.	c #302B2C",
"6=.	c #786962",
"7=.	c #94837A",
"8=.	c #695B57",
"9=.	c #6B5B53",
"0=.	c #816D61",
"a=.	c #877467",
"b=.	c #8E786B",
"c=.	c #8F796B",
"d=.	c #8F796C",
"e=.	c #967F71",
"f=.	c #9F8878",
"g=.	c #AC9582",
"h=.	c #B19986",
"i=.	c #B49C88",
"j=.	c #B29A86",
"k=.	c #A68B7A",
"l=.	c #A28677",
"m=.	c #947B6D",
"n=.	c #62534F",
"o=.	c #816A5F",
"p=.	c #826A5F",
"q=.	c #8E7569",
"r=.	c #A68A7B",
"s=.	c #8D766A",
"t=.	c #66564E",
"u=.	c #293434",
"v=.	c #3F5354",
"w=.	c #827269",
"x=.	c #938279",
"y=.	c #928178",
"z=.	c #514544",
"A=.	c #615450",
"B=.	c #9D8C7F",
"C=.	c #B59D89",
"D=.	c #B9A08B",
"E=.	c #AE9380",
"F=.	c #AD917F",
"G=.	c #AA8E7D",
"H=.	c #AC907E",
"I=.	c #A48979",
"J=.	c #A28878",
"K=.	c #988072",
"L=.	c #26393D",
"M=.	c #A3CBCD",
"N=.	c #766760",
"O=.	c #83736A",
"P=.	c #86766D",
"Q=.	c #73645F",
"R=.	c #928175",
"S=.	c #958478",
"T=.	c #A18B7B",
"U=.	c #A48D7C",
"V=.	c #A78F7D",
"W=.	c #B29985",
"X=.	c #C7AB94",
"Y=.	c #C9AD95",
"Z=.	c #CDAD93",
"`=.	c #CAAA91",
" -.	c #C9A990",
".-.	c #C4A58E",
"+-.	c #B69884",
"@-.	c #8A7366",
"#-.	c #705C53",
"$-.	c #282D2F",
"%-.	c #807068",
"&-.	c #907F77",
"*-.	c #725F57",
"=-.	c #736058",
"--.	c #76635A",
";-.	c #847164",
">-.	c #877466",
",-.	c #8A7668",
"'-.	c #8D796B",
")-.	c #947F6F",
"!-.	c #9E8877",
"~-.	c #BBA08B",
"{-.	c #C5A58D",
"]-.	c #B89A84",
"^-.	c #92796A",
"/-.	c #776257",
"(-.	c #715D53",
"_-.	c #6F5B52",
":-.	c #3D3636",
"<-.	c #796A62",
"[-.	c #87776E",
"}-.	c #5B4D49",
"|-.	c #6B5A53",
"1-.	c #6D5C55",
"2-.	c #846C60",
"3-.	c #9C8272",
"4-.	c #AD927F",
"5-.	c #B79C87",
"6-.	c #C4A992",
"7-.	c #A78A77",
"8-.	c #95796A",
"9-.	c #8C7063",
"0-.	c #8A6F62",
"a-.	c #876D60",
"b-.	c #6E5A51",
"c-.	c #475D5F",
"d-.	c #85756C",
"e-.	c #84756D",
"f-.	c #64554F",
"g-.	c #6C5B54",
"h-.	c #715E57",
"i-.	c #81695E",
"j-.	c #7B6459",
"k-.	c #725E54",
"l-.	c #342F2F",
"m-.	c #7A6A63",
"n-.	c #928179",
"o-.	c #534644",
"p-.	c #7F685D",
"q-.	c #7E675B",
"r-.	c #766156",
"s-.	c #6D5A51",
"t-.	c #4B5F60",
"u-.	c #403736",
"v-.	c #84746B",
"w-.	c #8B7A71",
"x-.	c #4F4341",
"y-.	c #6F5D56",
"z-.	c #7D665C",
"A-.	c #6D5D56",
"B-.	c #594B47",
"C-.	c #695852",
"D-.	c #6E5C55",
"E-.	c #7B655B",
"F-.	c #7D665A",
"G-.	c #715C53",
"H-.	c #817169",
"I-.	c #897970",
"J-.	c #7B6A62",
"K-.	c #77635A",
"L-.	c #60504A",
"M-.	c #5E4E48",
"N-.	c #5C4D46",
"O-.	c #5E4F48",
"P-.	c #61514B",
"Q-.	c #8EB2B4",
"R-.	c #688487",
"S-.	c #4E6467",
"T-.	c #8C7B73",
"U-.	c #77625A",
"V-.	c #5D4E47",
"W-.	c #5B4C45",
"X-.	c #7A9A9C",
"Y-.	c #7D6E65",
"Z-.	c #907F76",
"`-.	c #827068",
" ;.	c #6F5D55",
".;.	c #735E54",
"+;.	c #233335",
"@;.	c #3F4F51",
"#;.	c #A1C9C9",
"$;.	c #86766C",
"%;.	c #8D7C73",
"&;.	c #746159",
"*;.	c #715F57",
"=;.	c #726058",
"-;.	c #766259",
";;.	c #6E5B52",
">;.	c #678384",
",;.	c #8FB4B4",
"';.	c #796A63",
");.	c #938379",
"!;.	c #A7978C",
"~;.	c #AB9B90",
"{;.	c #8B7970",
"];.	c #806D64",
"^;.	c #7C6960",
"/;.	c #705E56",
"(;.	c #735F55",
"_;.	c #363131",
":;.	c #584D4A",
"<;.	c #837168",
"[;.	c #7D6A61",
"};.	c #7B685F",
"|;.	c #736159",
"1;.	c #3E4E50",
"2;.	c #7A989A",
"3;.	c #99877D",
"4;.	c #86746B",
"5;.	c #75645C",
"6;.	c #725D54",
"7;.	c #5F4F49",
"8;.	c #ACD5D6",
"9;.	c #293D42",
"0;.	c #9FC8C8",
"a;.	c #7E6C63",
"b;.	c #77665D",
"c;.	c #6C5A51",
"d;.	c #242E2E",
"e;.	c #74635B",
"f;.	c #68574F",
"g;.	c #8BAEB0",
"h;.	c #648081",
"i;.	c #A0C7C8",
"j;.	c #655650",
"k;.	c #6D5B54",
"l;.	c #746158",
"m;.	c #78645A",
"n;.	c #7B665B",
"o;.	c #4A5F5F",
"p;.	c #789799",
"q;.	c #706059",
"r;.	c #78665E",
"s;.	c #746058",
"t;.	c #6E5A52",
"u;.	c #3E5254",
"v;.	c #443A38",
"w;.	c #6C5A53",
"x;.	c #756259",
"y;.	c #AAD5D4",
"z;.	c #637E80",
"A;.	c #745F55",
"B;.	c #A7D1D0",
"C;.	c #2B3F45",
"D;.	c #2B4045",
"E;.	c #495D5E",
"F;.	c #4A4140",
"G;.	c #77665E",
"H;.	c #76645C",
"I;.	c #2B393E",
"J;.	c #4D4343",
"K;.	c #7A675F",
"L;.	c #292E30",
"M;.	c #485D5D",
"N;.	c #4C4344",
"O;.	c #7A655B",
"P;.	c #2C3B40",
"Q;.	c #2A2F30",
"R;.	c #2A3234",
"S;.	c #9EC5C5",
"T;.	c #74625A",
"U;.	c #79645A",
"V;.	c #283C40",
"W;.	c #263030",
"X;.	c #3D3535",
"Y;.	c #7A665B",
"Z;.	c #705B52",
"`;.	c #23363A",
" >.	c #222E2E",
".>.	c #253436",
"+>.	c #8CB1B1",
"@>.	c #77655D",
"#>.	c #1B2B2D",
"$>.	c #203437",
"%>.	c #203537",
"&>.	c #233637",
"*>.	c #243436",
"=>.	c #1A292D",
"->.	c #1C2C30",
";>.	c #1E3033",
">>.	c #1F3134",
",>.	c #213234",
"'>.	c #223335",
")>.	c #213334",
"!>.	c #1C2C2F",
"~>.	c #3C4E52",
"{>.	c #213538",
"]>.	c #759494",
"^>.	c #756055",
"/>.	c #213637",
"(>.	c #1D2F31",
"_>.	c #554A48",
":>.	c #87A9A9",
"<>.	c #3A4B4B",
"[>.	c #203536",
"}>.	c #213536",
"|>.	c #756056",
"1>.	c #2E4146",
"2>.	c #30484E",
"3>.	c #31494F",
"4>.	c #31484F",
"5>.	c #314950",
"6>.	c #2D454B",
"7>.	c #263A3D",
"8>.	c #2A4044",
"9>.	c #2A4145",
"0>.	c #2A4144",
"a>.	c #483D3B",
"b>.	c #334042",
"c>.	c #405961",
"d>.	c #496973",
"e>.	c #4A6B76",
"f>.	c #4A6A75",
"g>.	c #4A6975",
"h>.	c #4A6974",
"i>.	c #4B6A75",
"j>.	c #4A6B75",
"k>.	c #425F69",
"l>.	c #31484E",
"m>.	c #213337",
"n>.	c #324A4F",
"o>.	c #3F5B62",
"p>.	c #415E66",
"q>.	c #415E67",
"r>.	c #3F5B64",
"s>.	c #385058",
"t>.	c #46595A",
"u>.	c #A5CFCE",
"v>.	c #48656E",
"w>.	c #537783",
"x>.	c #567985",
"y>.	c #567984",
"z>.	c #567884",
"A>.	c #577A86",
"B>.	c #4B6B76",
"C>.	c #364E56",
"D>.	c #172628",
"E>.	c #3D585F",
"F>.	c #4F707A",
"G>.	c #547882",
"H>.	c #527581",
"I>.	c #527681",
"J>.	c #50717C",
"K>.	c #435F6A",
"L>.	c #31454C",
"M>.	c #7D6A60",
"N>.	c #779797",
"O>.	c #2F3B3E",
"P>.	c #3F575E",
"Q>.	c #48656F",
"R>.	c #4A6871",
"S>.	c #4A6972",
"T>.	c #4B6973",
"U>.	c #4B6A73",
"V>.	c #4B6B74",
"W>.	c #3B565D",
"X>.	c #4C6D77",
"Y>.	c #52747E",
"Z>.	c #51737D",
"`>.	c #50737D",
" ,.	c #50737C",
".,.	c #4D6E79",
"+,.	c #30454C",
"@,.	c #7E6B61",
"#,.	c #79675F",
"$,.	c #85A6A8",
"%,.	c #5C7677",
"&,.	c #4B6264",
"*,.	c #415556",
"=,.	c #2A3133",
"-,.	c #2E383C",
";,.	c #313D41",
">,.	c #313F43",
",,.	c #324447",
"',.	c #32454A",
"),.	c #33494F",
"!,.	c #262D30",
"~,.	c #3A5359",
"{,.	c #3D575E",
"],.	c #3C565D",
"^,.	c #3B565C",
"/,.	c #3A545B",
"(,.	c #354C53",
"_,.	c #2E4147",
":,.	c #85A6A7",
"<,.	c #2B373A",
"[,.	c #6A5850",
"},.	c #39484A",
"|,.	c #78675E",
"1,.	c #75655E",
"2,.	c #2B3D3F",
"3,.	c #6C5C55",
"4,.	c #2C4042",
"5,.	c #75645A",
"6,.	c #384748",
"7,.	c #887669",
"8,.	c #8A786B",
"9,.	c #6C5C54",
"0,.	c #9AC2C2",
"a,.	c #6E5D55",
"b,.	c #806E63",
"c,.	c #7C6B60",
"d,.	c #252E31",
"e,.	c #2A3336",
"f,.	c #2B3A40",
"g,.	c #726158",
"h,.	c #3B4E51",
"i,.	c #7D6B61",
"j,.	c #685850",
"k,.	c #62534C",
"l,.	c #64554D",
"m,.	c #3E5152",
"n,.	c #9AC0C0",
"o,.	c #72655C",
"p,.	c #6E6057",
"q,.	c #6A5952",
"r,.	c #72645B",
"s,.	c #A8D3D2",
"t,.	c #262E31",
"u,.	c #6D5E55",
"v,.	c #65554D",
"w,.	c #827165",
"x,.	c #867468",
"y,.	c #364446",
"z,.	c #202B2C",
"A,.	c #66574F",
"B,.	c #60514A",
"C,.	c #5B4D47",
"D,.	c #556E6F",
"E,.	c #2B363A",
"F,.	c #8BADAD",
"G,.	c #6F8C8F",
"H,.	c #63544C",
"I,.	c #70635A",
"J,.	c #65544E",
"K,.	c #2A3235",
"L,.	c #706259",
"M,.	c #7F6E62",
"N,.	c #A4CBCC",
"O,.	c #71645B",
"P,.	c #71635A",
"Q,.	c #7A695E",
"R,.	c #5D4E48",
"S,.	c #847266",
"T,.	c #5D504A",
"U,.	c #483F3D",
"V,.	c #48403D",
"W,.	c #675B54",
"X,.	c #716057",
"Y,.	c #847366",
"Z,.	c #78675D",
"`,.	c #2C292A",
" '.	c #6A5A51",
".'.	c #5B4E48",
"+'.	c #5C4E48",
"@'.	c #65564F",
"#'.	c #6E8A8D",
"$'.	c #282628",
"%'.	c #6B5C53",
"&'.	c #61524B",
"*'.	c #292628",
"='.	c #49413E",
"-'.	c #6C5D54",
";'.	c #5C4D48",
">'.	c #3B4D4E",
",'.	c #5A4D47",
"''.	c #5E514B",
")'.	c #706158",
"!'.	c #564943",
"~'.	c #504440",
"{'.	c #443A37",
"]'.	c #483D39",
"^'.	c #4B403B",
"/'.	c #453C38",
"('.	c #463C38",
"_'.	c #473D3A",
":'.	c #685950",
"<'.	c #4E423E",
"['.	c #433937",
"}'.	c #312A2B",
"|'.	c #71615A",
"1'.	c #584B46",
"2'.	c #352E2F",
"3'.	c #584B45",
"4'.	c #403735",
"5'.	c #332C2D",
"6'.	c #645650",
"7'.	c #6D5D57",
"8'.	c #60524B",
"9'.	c #393232",
"0'.	c #3B3434",
"a'.	c #584C47",
"b'.	c #3A3231",
"c'.	c #433B3A",
"d'.	c #4D4442",
"e'.	c #584F4C",
"f'.	c #463E3C",
"g'.	c #594E4B",
"h'.	c #A3CACB",
"i'.	c #2C3E41",
"j'.	c #332C2E",
"k'.	c #49403D",
"l'.	c #4C433F",
"m'.	c #4A413E",
"n'.	c #3E3636",
"o'.	c #4E433F",
"p'.	c #443C3B",
"q'.	c #796E67",
"r'.	c #746861",
"s'.	c #759393",
"t'.	c #3A4A4D",
"u'.	c #232A2C",
"v'.	c #6C8A8A",
"w'.	c #363030",
"x'.	c #342D2F",
"y'.	c #84776F",
"z'.	c #6C605A",
"A'.	c #332D2E",
"B'.	c #373132",
"C'.	c #80756D",
"D'.	c #8B7D74",
"E'.	c #877971",
"F'.	c #80736B",
"G'.	c #3F3636",
"H'.	c #161C1E",
"I'.	c #151D1F",
"J'.	c #473F3E",
"K'.	c #978A7F",
"L'.	c #988B80",
"M'.	c #8C8077",
"N'.	c #887B72",
"O'.	c #867A71",
"P'.	c #80736C",
"Q'.	c #84766F",
"R'.	c #161B1C",
"S'.	c #7C7169",
"T'.	c #71665F",
"U'.	c #695E58",
"V'.	c #151B1C",
"W'.	c #363031",
"X'.	c #726760",
"Y'.	c #756862",
"Z'.	c #171A1B",
"`'.	c #151E21",
" ).	c #161B1B",
".).	c #4E4946",
"+).	c #4A4240",
"@).	c #161919",
"#).	c #161C1C",
"$).	c #58524F",
"%).	c #7E726D",
"&).	c #897F78",
"*).	c #151C1E",
"=).	c #161F22",
"-).	c #171D1C",
";).	c #6B645E",
">).	c #867B75",
",).	c #151919",
"').	c #81776F",
")).	c #877D76",
"!).	c #6F6965",
"~).	c #15191A",
"{).	c #161E21",
"]).	c #A2948C",
"^).	c #968982",
"/).	c #161D1F",
"().	c #171C1C",
"_).	c #67605A",
":).	c #9F918A",
"<).	c #9B8D86",
"[).	c #80746F",
"}).	c #7D716C",
"|).	c #776D68",
"1).	c #7B706B",
"2).	c #79716C",
"3).	c #4B423E",
"4).	c #352D2E",
"5).	c #372F30",
"6).	c #242F2F",
"7).	c #5E5854",
"8).	c #A1938B",
"9).	c #8E817B",
"0).	c #3E3535",
"a).	c #393131",
"b).	c #443937",
"c).	c #161A1B",
"d).	c #9B8E86",
"e).	c #8F827C",
"f).	c #7C716C",
"g).	c #897D77",
"h).	c #93857F",
"i).	c #9C8F87",
"j).	c #978A83",
"k).	c #7F736E",
"l).	c #3A3132",
"m).	c #181B1A",
"n).	c #16191A",
"o).	c #161E20",
"p).	c #2D3F45",
"q).	c #6B8787",
"r).	c #58534F",
"s).	c #9E9189",
"t).	c #8C7F79",
"u).	c #A0928A",
"v).	c #332B2C",
"w).	c #161A1A",
"x).	c #857873",
"y).	c #9C8E87",
"z).	c #988B84",
"A).	c #64534C",
"B).	c #161C1D",
"C).	c #172023",
"D).	c #91847E",
"E).	c #433938",
"F).	c #736055",
"G).	c #564A46",
"H).	c #171F21",
"I).	c #8F837C",
"J).	c #675C56",
"K).	c #171A1A",
"L).	c #171E20",
"M).	c #938780",
"N).	c #3B3333",
"O).	c #171D1E",
"P).	c #9E9089",
"Q).	c #685D57",
"R).	c #4F4441",
"S).	c #171C1D",
"T).	c #6A8586",
"U).	c #344649",
"V).	c #171B1B",
"W).	c #171D1D",
"X).	c #171B1C",
"Y).	c #1A2626",
"Z).	c #6F635D",
"`).	c #483E3C",
" !.	c #574B47",
".!.	c #17191A",
"+!.	c #181E1F",
"@!.	c #243335",
"#!.	c #645954",
"$!.	c #514542",
"%!.	c #181D1D",
"&!.	c #6D625B",
"*!.	c #81756C",
"=!.	c #786C63",
"-!.	c #6D615B",
";!.	c #554945",
">!.	c #655852",
",!.	c #181C1C",
"'!.	c #85786E",
")!.	c #877A70",
"!!.	c #776A64",
"~!.	c #594D48",
"{!.	c #635651",
"]!.	c #71655E",
"^!.	c #2B363B",
"/!.	c #2C383D",
"(!.	c #688485",
"_!.	c #86796F",
":!.	c #544A48",
"<!.	c #192225",
"[!.	c #2C4146",
"}!.	c #688384",
"|!.	c #534E4B",
"1!.	c #554D4A",
"2!.	c #4A4241",
"3!.	c #342D2D",
"4!.	c #181C1D",
"5!.	c #80736A",
"6!.	c #524947",
"7!.	c #3E3635",
"8!.	c #191C1D",
"9!.	c #293236",
"0!.	c #7E7269",
"a!.	c #6B6059",
"b!.	c #698384",
"c!.	c #554C49",
"d!.	c #1F292A",
"e!.	c #1D2A2B",
"f!.	c #1F2A2A",
"g!.	c #1F2928",
"h!.	c #202A2A",
"i!.	c #688283",
"j!.	c #303C3F",
"k!.	c #554846",
"l!.	c #303B3D",
"m!.	c #635953",
"n!.	c #675A57",
"o!.	c #8B766F",
"p!.	c #76615B",
"q!.	c #212B2B",
"r!.	c #688282",
"s!.	c #584E4C",
"t!.	c #8B7973",
"u!.	c #8E7A72",
"v!.	c #856D65",
"w!.	c #836B64",
"x!.	c #151819",
"y!.	c #2C393D",
"z!.	c #769696",
"A!.	c #182627",
"B!.	c #688182",
"C!.	c #151A1C",
"D!.	c #645A56",
"E!.	c #776863",
"F!.	c #938079",
"G!.	c #8C7770",
"H!.	c #645751",
"I!.	c #544A47",
"J!.	c #293135",
"K!.	c #625653",
"L!.	c #8E7C75",
"M!.	c #927F78",
"N!.	c #88726A",
"O!.	c #7D6661",
"P!.	c #5F534E",
"Q!.	c #4F4644",
"R!.	c #182729",
"S!.	c #2A363B",
"T!.	c #131E1F",
"U!.	c #678182",
"V!.	c #2F3636",
"W!.	c #303B3C",
"X!.	c #151A1B",
"Y!.	c #81706B",
"Z!.	c #876F67",
"`!.	c #655354",
" ~.	c #3E3435",
".~.	c #594E4A",
"+~.	c #152222",
"@~.	c #678181",
"#~.	c #2E3636",
"$~.	c #524A48",
"%~.	c #5B514D",
"&~.	c #615652",
"*~.	c #8A7872",
"=~.	c #524946",
"-~.	c #141819",
";~.	c #1B2828",
">~.	c #1B2929",
",~.	c #1B292A",
"'~.	c #1C2A2B",
")~.	c #162424",
"!~.	c #182728",
"~~.	c #19292B",
"{~.	c #2D383B",
"]~.	c #615754",
"^~.	c #4E4644",
"/~.	c #7F706A",
"(~.	c #2B373C",
"_~.	c #253537",
":~.	c #514B49",
"<~.	c #544B49",
"[~.	c #70625D",
"}~.	c #866E66",
"|~.	c #6A5756",
"1~.	c #151918",
"2~.	c #2E3A3D",
"3~.	c #678081",
"4~.	c #504B47",
"5~.	c #645854",
"6~.	c #877068",
"7~.	c #181A1A",
"8~.	c #605551",
"9~.	c #8D7B74",
"0~.	c #8B756E",
"a~.	c #3F3737",
"b~.	c #191B1A",
"c~.	c #2D3435",
"d~.	c #675D59",
"e~.	c #655A56",
"f~.	c #8F7B74",
"g~.	c #715D5A",
"h~.	c #352E2E",
"i~.	c #88776D",
"j~.	c #171919",
"k~.	c #6C5F5B",
"l~.	c #735E5B",
"m~.	c #4B4240",
"n~.	c #60534D",
"o~.	c #161818",
"p~.	c #2C3334",
"q~.	c #615A56",
"r~.	c #6E6662",
"s~.	c #685D59",
"t~.	c #625753",
"u~.	c #866F67",
"v~.	c #534741",
"w~.	c #6F5C52",
"x~.	c #2D383A",
"y~.	c #2D3E42",
"z~.	c #2E4046",
"A~.	c #668181",
"B~.	c #8A746D",
"C~.	c #78635E",
"D~.	c #493E3A",
"E~.	c #272D2F",
"F~.	c #668081",
"G~.	c #6F6763",
"H~.	c #79726E",
"I~.	c #776963",
"J~.	c #413735",
"K~.	c #242A2B",
"L~.	c #232A2A",
"M~.	c #202928",
"N~.	c #1D2828",
"O~.	c #1D2A2A",
"P~.	c #1E2B2C",
"Q~.	c #2B3334",
"R~.	c #918985",
"S~.	c #908884",
"T~.	c #695D58",
"U~.	c #726057",
"V~.	c #152123",
"W~.	c #131C1E",
"X~.	c #1B2423",
"Y~.	c #172221",
"Z~.	c #151D1E",
"`~.	c #151D1D",
" {.	c #141D1C",
".{.	c #2C3234",
"+{.	c #827B77",
"@{.	c #887169",
"#{.	c #111A19",
"${.	c #111B1B",
"%{.	c #121D1D",
"&{.	c #7D7571",
"*{.	c #86756F",
"={.	c #7E6E67",
"-{.	c #161819",
";{.	c #2C3436",
">{.	c #807975",
",{.	c #857D79",
"'{.	c #917E76",
"){.	c #8F8783",
"!{.	c #7A6962",
"~{.	c #222B2E",
"{{.	c #645955",
"]{.	c #8A746C",
"^{.	c #352D2D",
"/{.	c #32474B",
"({.	c #34494E",
"_{.	c #33494E",
":{.	c #344A4F",
"<{.	c #635854",
"[{.	c #8F7A73",
"}{.	c #635152",
"|{.	c #736158",
"1{.	c #30464A",
"2{.	c #31464A",
"3{.	c #32484C",
"4{.	c #33484D",
"5{.	c #304449",
"6{.	c #8E8682",
"7{.	c #625151",
"8{.	c #344C52",
"9{.	c #354C51",
"0{.	c #354D52",
"a{.	c #334A4E",
"b{.	c #304549",
"c{.	c #19292A",
"d{.	c #667F81",
"e{.	c #736560",
"f{.	c #5D4D4D",
"g{.	c #3F5A62",
"h{.	c #486770",
"i{.	c #496972",
"j{.	c #48666F",
"k{.	c #48676F",
"l{.	c #45636C",
"m{.	c #3A535A",
"n{.	c #668080",
"o{.	c #8E8783",
"p{.	c #685C58",
"q{.	c #89736B",
"r{.	c #594A4A",
"s{.	c #383134",
"t{.	c #3E383B",
"u{.	c #6F635F",
"v{.	c #46636C",
"w{.	c #50727D",
"x{.	c #50737E",
"y{.	c #4F717C",
"z{.	c #50727C",
"A{.	c #667F80",
"B{.	c #262F32",
"C{.	c #3A525B",
"D{.	c #3C555E",
"E{.	c #39515A",
"F{.	c #463B3A",
"G{.	c #3C3638",
"H{.	c #151718",
"I{.	c #78635D",
"J{.	c #413736",
"K{.	c #141718",
"L{.	c #98BDBE",
"M{.	c #57514E",
"N{.	c #3D373A",
"O{.	c #667F7F",
"P{.	c #1B1E1F",
"Q{.	c #756E6C",
"R{.	c #746D6A",
"S{.	c #84746E",
"T{.	c #8E7C76",
"U{.	c #746D6B",
"V{.	c #655955",
"W{.	c #7F706C",
"X{.	c #4E4647",
"Y{.	c #20282B",
"Z{.	c #695D59",
"`{.	c #3B3437",
" ].	c #667E7F",
".].	c #151A1A",
"+].	c #657F7F",
"@].	c #162024",
"#].	c #6E625E",
"$].	c #7E706C",
"%].	c #202525",
"&].	c #2C3C42",
"*].	c #657F80",
"=].	c #7A6C67",
"-].	c #212C30",
";].	c #657E7F",
">].	c #272C2D",
",].	c #726561",
"'].	c #232D30",
")].	c #282D2D",
"!].	c #182124",
"~].	c #5B5551",
"{].	c #937F76",
"]].	c #4E4546",
"^].	c #464042",
"/].	c #524C4D",
"(].	c #141818",
"_].	c #72635F",
":].	c #3F393C",
"<].	c #8E7B73",
"[].	c #1D2425",
"}].	c #494345",
"|].	c #242A2C",
"1].	c #29353A",
"2].	c #28353A",
"3].	c #667E80",
"4].	c #1E2527",
"5].	c #665957",
"6].	c #504A4B",
"7].	c #1F282B",
"8].	c #2C393E",
"9].	c #2A3134",
"0].	c #1E282B",
"a].	c #86746D",
"b].	c #474143",
"c].	c #1E272B",
"d].	c #433D40",
"e].	c #534A4A",
"f].	c #1D2629",
"g].	c #87776F",
"h].	c #645957",
"i].	c #4F494A",
"j].	c #1C2528",
"k].	c #2D3C3D",
"l].	c #657E80",
"m].	c #605450",
"n].	c #897870",
"o].	c #605858",
"p].	c #1B2428",
"q].	c #6B605E",
"r].	c #4A4446",
"s].	c #696363",
"t].	c #1A2327",
"u].	c #B0DBDB",
"v].	c #9ABFC0",
"w].	c #5C5454",
"x].	c #6C6665",
"y].	c #192226",
"z].	c #1C2D2F",
"A].	c #657E7E",
"B].	c #766C67",
"C].	c #1A2A2D",
"D].	c #1A2A2C",
"E].	c #293839",
"F].	c #746A65",
"G].	c #283738",
"H].	c #657D7E",
"I].	c #6F6764",
"J].	c #171F23",
"K].	c #23383A",
"L].	c #243739",
"M].	c #1D2021",
"N].	c #726A67",
"O].	c #151E22",
"P].	c #8CAEB0",
"Q].	c #AED8D8",
"R].	c #746E6A",
"S].	c #787270",
"T].	c #77716F",
"U].	c #B2DDDE",
"V].	c #2B383E",
"W].	c #90B0B1",
"X].	c #647D7E",
"Y].	c #1A1D1F",
"Z].	c #6A6565",
"`].	c #6E6868",
" ^.	c #6A6464",
".^.	c #585353",
"+^.	c #605A59",
"@^.	c #716B69",
"#^.	c #4E4645",
"$^.	c #131C20",
"%^.	c #749495",
"&^.	c #95B3B4",
"*^.	c #ABD4D4",
"=^.	c #637C7D",
"-^.	c #595555",
";^.	c #504B4C",
">^.	c #3D393B",
",^.	c #464143",
"'^.	c #555050",
")^.	c #676160",
"!^.	c #6E6766",
"~^.	c #4F4C4C",
"{^.	c #4E4C4C",
"]^.	c #10191D",
"^^.	c #BDEBEB",
"/^.	c #293337",
"(^.	c #9AB8B9",
"_^.	c #ACD5D5",
":^.	c #343133",
"<^.	c #2C2729",
"[^.	c #0C151B",
"}^.	c #86A7A7",
"|^.	c #C6F5F5",
"1^.	c #2A3439",
"2^.	c #9CBCBD",
"3^.	c #ADD9DA",
"4^.	c #9EC3C3",
"5^.	c #6C8384",
"6^.	c #181B1C",
"7^.	c #2D282A",
"8^.	c #2E292B",
"9^.	c #172024",
"0^.	c #9DC3C4",
"a^.	c #8BAFB1",
"b^.	c #324347",
"c^.	c #2A3A3B",
"d^.	c #A2C0C1",
"e^.	c #BAE3E4",
"f^.	c #B6E2E3",
"g^.	c #B3DFDF",
"h^.	c #A7CACA",
"i^.	c #748586",
"j^.	c #3C383A",
"k^.	c #3F3A3C",
"l^.	c #635D5E",
"m^.	c #4F494C",
"n^.	c #4D474A",
"o^.	c #4B4648",
"p^.	c #494346",
"q^.	c #635652",
"r^.	c #6C5C57",
"s^.	c #6E5D58",
"t^.	c #70605A",
"u^.	c #71615B",
"v^.	c #776660",
"w^.	c #7F6F68",
"x^.	c #8C7C74",
"y^.	c #9D8D83",
"z^.	c #98887E",
"A^.	c #324649",
"B^.	c #465D60",
"C^.	c #455A5D",
"D^.	c #142021",
"E^.	c #809798",
"F^.	c #95B7B7",
"G^.	c #92B6B7",
"H^.	c #86A2A3",
"I^.	c #9A9492",
"J^.	c #918C8B",
"K^.	c #5F5C60",
"L^.	c #5E5B5F",
"M^.	c #6F6B6D",
"N^.	c #938D8C",
"O^.	c #9D9795",
"P^.	c #928C8A",
"Q^.	c #867F7D",
"R^.	c #827A78",
"S^.	c #77706E",
"T^.	c #696261",
"U^.	c #837267",
"V^.	c #85746A",
"W^.	c #9A8A7F",
"X^.	c #847368",
"Y^.	c #112328",
"Z^.	c #14272C",
"`^.	c #353F42",
" /.	c #363E3F",
"./.	c #323A3C",
"+/.	c #333A3B",
"@/.	c #333B3D",
"#/.	c #344044",
"$/.	c #334348",
"%/.	c #2F3A3B",
"&/.	c #32393A",
"*/.	c #33393A",
"=/.	c #32393B",
"-/.	c #313839",
";/.	c #323839",
">/.	c #323738",
",/.	c #323B3D",
"'/.	c #323C3E",
")/.	c #323D3F",
"!/.	c #323D40",
"~/.	c #333D40",
"{/.	c #31393B",
"]/.	c #32383A",
"^/.	c #152729",
"//.	c #0A1E20",
"(/.	c #132123",
"_/.	c #293D40",
":/.	c #314246",
"</.	c #433F3F",
"[/.	c #706B6B",
"}/.	c #625F63",
"|/.	c #625F62",
"1/.	c #706C6F",
"2/.	c #898484",
"3/.	c #97918E",
"4/.	c #928C88",
"5/.	c #908986",
"6/.	c #908985",
"7/.	c #46403F",
"8/.	c #87766B",
"9/.	c #8B7A6F",
"0/.	c #8E7E73",
"a/.	c #8F7F74",
"b/.	c #485355",
"c/.	c #5B6264",
"d/.	c #6F7475",
"e/.	c #808485",
"f/.	c #878B8C",
"g/.	c #8D9192",
"h/.	c #8E9191",
"i/.	c #888B8B",
"j/.	c #878A8A",
"k/.	c #898B8C",
"l/.	c #898B8B",
"m/.	c #898C8D",
"n/.	c #898D8E",
"o/.	c #878C8D",
"p/.	c #868A8B",
"q/.	c #868A8A",
"r/.	c #858A8A",
"s/.	c #878A8B",
"t/.	c #888A8B",
"u/.	c #888A8A",
"v/.	c #88898A",
"w/.	c #878889",
"x/.	c #868888",
"y/.	c #868788",
"z/.	c #858788",
"A/.	c #858787",
"B/.	c #848687",
"C/.	c #848686",
"D/.	c #838586",
"E/.	c #838585",
"F/.	c #828485",
"G/.	c #828484",
"H/.	c #818384",
"I/.	c #808383",
"J/.	c #808282",
"K/.	c #7F8182",
"L/.	c #7F8181",
"M/.	c #7E8080",
"N/.	c #7D7F80",
"O/.	c #7D7F7F",
"P/.	c #7C7E7F",
"Q/.	c #7C7E7E",
"R/.	c #7C7D7E",
"S/.	c #7B7D7D",
"T/.	c #7A7C7C",
"U/.	c #797B7B",
"V/.	c #787A7A",
"W/.	c #77797A",
"X/.	c #777979",
"Y/.	c #767879",
"Z/.	c #767878",
"`/.	c #757778",
" (.	c #757777",
".(.	c #747677",
"+(.	c #737576",
"@(.	c #737575",
"#(.	c #727575",
"$(.	c #727475",
"%(.	c #727474",
"&(.	c #717374",
"*(.	c #717373",
"=(.	c #707273",
"-(.	c #707272",
";(.	c #6F7172",
">(.	c #6E7171",
",(.	c #6E7071",
"'(.	c #6D7070",
")(.	c #6D6F6F",
"!(.	c #6C6E6F",
"~(.	c #6C6E6E",
"{(.	c #6B6D6E",
"](.	c #6B6D6D",
"^(.	c #6A6C6D",
"/(.	c #6A6C6C",
"((.	c #696C6C",
"_(.	c #696B6C",
":(.	c #686B6B",
"<(.	c #686A6A",
"[(.	c #67696A",
"}(.	c #676969",
"|(.	c #656868",
"1(.	c #646767",
"2(.	c #646666",
"3(.	c #636566",
"4(.	c #636565",
"5(.	c #626565",
"6(.	c #626465",
"7(.	c #616464",
"8(.	c #616364",
"9(.	c #606263",
"0(.	c #606262",
"a(.	c #5F6262",
"b(.	c #5F6162",
"c(.	c #5F6161",
"d(.	c #5E6161",
"e(.	c #5E6061",
"f(.	c #626464",
"g(.	c #646667",
"h(.	c #656768",
"i(.	c #666868",
"j(.	c #666869",
"k(.	c #676A6A",
"l(.	c #686A6B",
"m(.	c #696B6B",
"n(.	c #6D6F70",
"o(.	c #6E7070",
"p(.	c #6F7171",
"q(.	c #747676",
"r(.	c #767979",
"s(.	c #777A7A",
"t(.	c #787A7B",
"u(.	c #797B7C",
"v(.	c #7B7D7E",
"w(.	c #7D7E7F",
"x(.	c #7E7F80",
"y(.	c #818383",
"z(.	c #858687",
"A(.	c #878989",
"B(.	c #868989",
"C(.	c #858889",
"D(.	c #848889",
"E(.	c #858989",
"F(.	c #87898A",
"G(.	c #848787",
"H(.	c #818485",
"I(.	c #6E7273",
"J(.	c #434A4B",
"K(.	c #102123",
"L(.	c #162324",
"M(.	c #837B75",
"N(.	c #433F40",
"O(.	c #958F8E",
"P(.	c #8D8887",
"Q(.	c #999392",
"R(.	c #999391",
"S(.	c #8B8481",
"T(.	c #87807B",
"U(.	c #867F7A",
"V(.	c #857E79",
"W(.	c #7E7773",
"X(.	c #7A7270",
"Y(.	c #7B6B61",
"Z(.	c #181D1E",
"`(.	c #1F2223",
" _.	c #212323",
"._.	c #232525",
"+_.	c #242626",
"@_.	c #262827",
"#_.	c #282A29",
"$_.	c #2B2C2A",
"%_.	c #2A2C2B",
"&_.	c #2C2D2B",
"*_.	c #2D2E2D",
"=_.	c #2F2F2E",
"-_.	c #2D2F2E",
";_.	c #2C2E2E",
">_.	c #2E2F2F",
",_.	c #323231",
"'_.	c #323331",
")_.	c #313231",
"!_.	c #303231",
"~_.	c #2A2E2E",
"{_.	c #364448",
"]_.	c #525E60",
"^_.	c #737C7E",
"/_.	c #929798",
"(_.	c #B3B5B5",
"__.	c #CBCBCB",
":_.	c #CDCDCD",
"<_.	c #CCCCCC",
"[_.	c #CACACA",
"}_.	c #C9C9C9",
"|_.	c #C8C8C8",
"1_.	c #C7C7C7",
"2_.	c #C6C6C6",
"3_.	c #C5C5C5",
"4_.	c #C4C4C4",
"5_.	c #C3C3C3",
"6_.	c #C2C2C2",
"7_.	c #C1C1C1",
"8_.	c #C0C0C0",
"9_.	c #BFBFBF",
"0_.	c #BDBDBD",
"a_.	c #BCBCBC",
"b_.	c #BBBBBB",
"c_.	c #B9B9B9",
"d_.	c #B8B8B8",
"e_.	c #B7B7B7",
"f_.	c #B6B6B6",
"g_.	c #B5B5B5",
"h_.	c #B4B4B4",
"i_.	c #B3B3B3",
"j_.	c #B1B1B1",
"k_.	c #B0B0B0",
"l_.	c #AFAFAF",
"m_.	c #AEAEAE",
"n_.	c #ADADAD",
"o_.	c #ACACAC",
"p_.	c #ABABAB",
"q_.	c #AAAAAA",
"r_.	c #A9A9A9",
"s_.	c #A8A8A8",
"t_.	c #A7A7A7",
"u_.	c #A6A6A6",
"v_.	c #A5A5A5",
"w_.	c #A4A4A4",
"x_.	c #A3A3A3",
"y_.	c #A1A1A1",
"z_.	c #A0A0A0",
"A_.	c #9F9F9F",
"B_.	c #9E9E9E",
"C_.	c #9D9D9D",
"D_.	c #9C9C9C",
"E_.	c #9B9B9B",
"F_.	c #9A9A9A",
"G_.	c #999999",
"H_.	c #989898",
"I_.	c #979797",
"J_.	c #969696",
"K_.	c #959595",
"L_.	c #949494",
"M_.	c #939393",
"N_.	c #929292",
"O_.	c #919191",
"P_.	c #909090",
"Q_.	c #8F8F8F",
"R_.	c #8E8E8E",
"S_.	c #8D8D8D",
"T_.	c #8C8C8C",
"U_.	c #8B8B8B",
"V_.	c #8A8A8A",
"W_.	c #898989",
"X_.	c #888888",
"Y_.	c #878787",
"Z_.	c #868686",
"`_.	c #858585",
" :.	c #848484",
".:.	c #838383",
"+:.	c #828282",
"@:.	c #A2A2A2",
"#:.	c #BABABA",
"$:.	c #BEBEBE",
"%:.	c #CECECE",
"&:.	c #BBBCBD",
"*:.	c #5A5F60",
"=:.	c #394044",
"-:.	c #988F87",
";:.	c #5C5654",
">:.	c #635E5E",
",:.	c #7E7875",
"':.	c #6C5E56",
"):.	c #78665C",
"!:.	c #393330",
"~:.	c #3A3431",
"{:.	c #3B3431",
"]:.	c #3B3532",
"^:.	c #3F3934",
"/:.	c #423B36",
"(:.	c #4B433D",
"_:.	c #4F4740",
"::.	c #544B43",
"<:.	c #554C44",
"[:.	c #574D46",
"}:.	c #594F47",
"|:.	c #504741",
"1:.	c #4B423D",
"2:.	c #4E453F",
"3:.	c #4F4640",
"4:.	c #514843",
"5:.	c #524944",
"6:.	c #625850",
"7:.	c #665C53",
"8:.	c #5F564E",
"9:.	c #4F4843",
"0:.	c #747474",
"a:.	c #767676",
"b:.	c #777777",
"c:.	c #757575",
"d:.	c #737373",
"e:.	c #727272",
"f:.	c #787878",
"g:.	c #797979",
"h:.	c #7A7A7A",
"i:.	c #7B7B7B",
"j:.	c #7C7C7C",
"k:.	c #7F7F7F",
"l:.	c #B2B2B2",
"m:.	c #C4C5C5",
"n:.	c #A2A4A7",
"o:.	c #636970",
"p:.	c #42403D",
"q:.	c #9B9593",
"r:.	c #827B79",
"s:.	c #4C4340",
"t:.	c #736057",
"u:.	c #988373",
"v:.	c #756358",
"w:.	c #77655A",
"x:.	c #1B1D1E",
"y:.	c #9A9088",
"z:.	c #8F8A88",
"A:.	c #86807E",
"B:.	c #817065",
"C:.	c #8C786A",
"D:.	c #776459",
"E:.	c #222D30",
"F:.	c #494445",
"G:.	c #9C9694",
".  .  .  .  .  .  .  .  +  @  @  @  #  $  $  %  &  *  *  *  =  -  ;  ;  ;  ;  ;  ;  ;  ;  ;  ;  ;  ;  ;  >  ,  ,  '  )  )  )  )  !  ~  ~  {  ]  ]  ]  ]  ]  ]  ]  ]  ]  ]  ]  ]  ]  ]  ]  ]  ]  ]  ]  ]  ]  ]  ]  ]  ]  ]  ]  ^  /  (  (  _  :  :  :  <  <  <  <  [  <  :  :  :  <  <  <  <  <  <  }  <  |  |  1  2  3  3  4  5  6  7  8  6  9  9  0  a  b  c  d  e  f  g  h  i  i  j  k  k  k  k  k  k  k  k  k  k  k  k  k  k  k  k  k  k  k  k  k  k  k  k  k  k  k  k  k  k  k  k  k  k  k  k  k  k  i  i  i  i  i  i  l  m  m  m  n  n  o  p  q  r  r  r  s  t  u  v  w  w  x  x  y  y  y  y  y  x  x  x  x  x  x  x  x  x  x  x  x  x  x  x  x  x  x  x  x  x  x  x  x  x  x  x  x  x  x  x  x  x  x  x  x  x  x  x  x  x  x  x  x  x  x  x  x  x  x  x  x  x  x  x  x  x  x  x  x  x  x  x  x  x  x  x  x  x  x  x  x  x  x  x  x  x  x  x  x  x  x  x  x  x  x  x  x  x  x  x  x  x  x  x  x  x  x  x  x  x  x  x  x  x  x  x  x  x  x  x  x  x  x  x  x  x  x  x  x  x  x  x  x  x  x  x  x  x  x  x  x  x  x  x  x  x  x  x  x  x  x  x  x  x  x  x  x  x  x  x  x  x  x  x  x  x  x  x  x  x  x  x  x  x  x  x  x  x  x  x  x  x  x  x  x  x  x  x  x  x  x  x  x  y  x  x  x  y  y  z  A  B  B  C  C  A  D  E  F  F  F  E  E  F  F  F  E  E  E  E  G  G  H  H  H  H  I  J  I  K  L  M  L  N  O  P  P  Q  R  S  P  P  T  U  V  W  W  X  V  V  Y  Z  `   .  .  .  .  .  .  .  .  .  .  .  .  .  .  .  .  .  .  . .. +. @. @. @. @. @. #. $. $. $. $. $. $. $. $. $. %. &. &. &. &. &. &. &. &. &. &. &. *. =. =. =. =. =. =. =. =. =. =. =. =. =. =. =. =. =. =. =. =. =. =. =. =. =. ",
".  .  .  .  .  .  .  -. @  @  @  @  ;. $  $  >. &  *  *  *  ,. '. ;  ;  ;  ;  ;  ;  ;  ;  ;  ;  ;  ;  ;  >  ,  ,  ). )  )  )  )  !  ~  ~  ~  ]  ]  ]  ]  ]  ]  ]  ]  ]  ]  ]  ]  ]  ]  ]  ]  ]  ]  ]  ]  ]  ]  ]  ]  ]  ]  ]  !. ~. (  (  _  :  :  :  <  <  <  <  }  {. <  :  :  <  <  <  <  {. ]. }  |  1  <  1  ]. 3  ^. /. (. 5  _. c  :. 7  <. [. b  8  0  }. e  |. 1. 2. 3. h  4. 4. 4. 4. 4. 4. 4. 4. 4. 4. 4. 4. 4. 4. 4. 4. 4. 4. 4. 4. 4. 4. 4. 4. 4. 4. 5. 5. 5. 5. 5. 4. 4. h  h  6. 7. 8. 9. t  t  u  0. v  x  x  y  x  x  x  x  x  x  x  x  x  x  a. a. b. b. b. b. b. b. b. b. b. b. b. b. b. b. b. b. b. b. b. b. b. b. b. b. b. b. b. b. b. b. b. b. b. b. b. b. b. b. b. b. b. b. b. b. b. b. b. b. b. b. b. b. b. b. b. b. b. b. b. b. b. b. b. b. b. b. b. b. b. b. b. b. b. b. b. b. b. b. b. b. b. b. b. b. b. b. b. b. b. b. b. b. b. b. b. b. b. b. b. b. b. b. b. b. b. b. b. b. b. b. b. b. b. b. b. b. b. b. b. b. b. b. b. b. b. b. b. b. b. b. b. b. b. b. b. b. b. b. b. b. b. b. b. b. b. b. b. b. b. b. b. b. b. b. b. b. b. b. b. b. b. b. b. b. b. b. b. b. b. b. b. b. b. b. b. b. b. b. b. b. b. b. b. b. b. b. b. b. b. b. b. b. b. b. b. b. b. b. A  A  A  A  C  C  C  F  F  D  c. E  c. E  E  E  G  G  E  E  E  c. E  E  E  I  I  I  d. d. G  e. f. f. f. g. g. h. g. i. j. i. X  k. P  l. l. m. X  X  Q  n. V  V  U  o. p. q. q.  .  .  .  .  .  .  .  .  .  .  .  .  .  .  .  .  .  . r. s. t. @. @. @. u. $. $. $. $. $. $. $. $. $. v. &. &. &. &. &. &. &. &. &. &. &. &. w. =. =. =. =. =. =. =. =. =. =. =. =. =. =. =. =. =. =. =. =. =. =. =. =. ",
".  .  .  .  .  .  .  x. @  @  @  @  y. $  $  >. &  *  *  *  z. A. ;  ;  ;  ;  ;  ;  ;  ;  ;  ;  ;  ;  ;  >  ,  ,  ,  B. )  )  )  !  ~  ~  ~  {  ]  ]  ]  ]  ]  ]  ]  ]  ]  ]  ]  ]  ]  ]  ]  ]  ]  ]  ]  ]  ]  ]  ]  ]  ]  ]  C. D. E. (  [  <  <  <  <  <  <  <  <  <  <  <  <  <  F. |  _  _  G. _  _  _  H. {. <  I. ^. J. (. K. L. c  c  9  9  9  0  e  d  d  M. |. N. 1. N. 2. 3. 3. 3. 3. 3. 3. 3. 3. 3. 3. 3. 3. 4. 4. 4. h  h  7. 7. O. P. 8. Q. R. R. S. T. U. V. V. W. X. X. Y. Y. Y. Y. Z. `. Z. Z. A  A  A  A  A  A  A  A  A  A  A  A  A  A  A  A  A  A  A  A  A  A  A  A  A  A  A  A  A  A  A  A  A  A  A  A  A  A  A  A  A  A  A  A  A  A  A  A  A  A  A  A  A  A  A  A  A  A  A  A  A  A  A  A  A  A  A  A  A  A  A  A  A  A  A  A  A  A  A  A  A  A  A  A  A  A  A  A  A  A  A  A  A  A  A  A  A  A  A  A  A  A  A  A  A  A  A  A  A  A  A  A  A  A  A  A  A  A  A  A  A  A  A  A  A  A  A  A  A  A  A  A  A  A  A  A  A  A  A  A  A  A  A  A  A  A  A  A  A  A  A  A  A  A  A  A  A  A  A  A  A  A  A  A  A  A  A  A  A  A  A  A  A  A  A  A  A  A  A  A  A  A  A  A  A  A  A  A  A  A  A  A  A  A  A  A  A  A  A  A  A  A  A  A  A  A  A  A  A  A  A  A  A  B  A   + D  .+ ++  + F  F  F  E  E  c. c. E  @+ E  I  #+ H  @+ K  @+ @+ $+ %+ @+ &+ &+ &+ *+ $+ =+ =+ T  P  Q  X  X  X  X  Q  Q  Q  S  k. -+ ;+ >+ -+ -+ -+ -+ -+ S  S  ,+ ,+ '+ )+ !+ ~+ {+  .  .  .  .  .  .  .  .  .  .  .  .  .  .  .  .  . ]+ ^+ ^+ s. t. @. @. $. $. $. $. $. $. $. $. /+ &. &. &. &. &. &. &. &. &. &. &. &. &. &. (+ =. =. =. =. =. =. =. =. =. =. =. =. =. =. =. =. =. =. =. =. =. =. =. ",
".  .  .  .  .  .  _+ @  @  @  @  @  $  $  $  >. :+ *  *  *  z. A. ;  ;  ;  ;  ;  ;  ;  ;  ;  ;  ;  ;  ;  <+ ,  ,  ,  ). )  )  )  )  ~  ~  ~  ~  ]  ]  ]  ]  ]  ]  ]  ]  ]  ]  ]  ]  ]  ]  ]  ]  ]  ]  ]  ]  ]  ]  ]  ]  ]  [+ }+ F. E. :  :  :  :  :  <  <  <  <  <  <  <  <  :  :  F. {. |  |  _  |  _  |+ |+ 1+ 2  ^. ^. (. (. 2+ 3+ 5  c  9  9  9  d  e  e  4+ 5+ |. 6+ N. 6+ N. N. 2. N. 6+ |. M. 7+ 7+ 8+ 9+ 0+ a+ b+ c+ d+ d+ e+ f+ f+ g+ f+ f+ f+ f+ ++ ++ ++ ++ .+ .+ D  D  D  D  D  D  D  D  D  D  D  D  D  D  D  D  D  D  D  D  D  D  D  D  D  D  D  D  D  D  D  D  D  D  D  D  D  D  D  D  D  D  D  D  D  D  D  D  D  D  D  D  D  D  D  D  D  D  D  D  D  D  D  D  D  D  D  D  D  D  D  D  D  D  D  D  D  D  D  D  D  D  D  D  D  D  D  D  D  D  D  D  D  D  D  D  D  D  D  D  D  D  D  D  D  D  D  D  D  D  D  D  D  D  D  D  D  D  D  D  D  D  D  D  D  D  D  D  D  D  D  D  D  D  D  D  D  D  D  D  D  D  D  D  D  D  D  D  D  D  D  D  D  D  D  D  D  D  D  D  D  D  D  D  D  D  D  D  D  D  D  D  D  D  D  D  D  D  D  D  D  D  D  D  D  D  D  D  D  D  D  D  D  D  D  D  D  D  D  D  D  D  D  D  D  D  D  D  D  D  D  D  D  D  D  D  D  D  D  D  D  D  D  D  D  D  D  c. c. c. E  H  H  @+ E  E  h+ K  I  K  @+ @+ i+ K  #+ K  K  K  $+ =+ =+ O  T  T  j+ T  P  P  P  i. X  l. l. l. X  k+ l+ k+ -+ -+ m+ n+ m. ;+ o+ ;+ p+ p+ ;+ q+ ;+ o+ r+ s+ t+ ~+ u+  .  .  .  .  .  .  .  .  .  .  .  . ]+ v+ ^+ ^+ v+ w+ x+ ^+ ^+ ^+ y+ z+ A+ $. $. $. $. $. $. $. B+ &. &. &. &. &. &. &. &. &. &. &. &. &. &. &. *. =. =. =. =. =. =. =. =. =. =. =. =. =. =. =. =. =. =. =. =. =. =. ",
".  .  .  .  .  C+ @  @  @  @  @  D+ $  $  $  >. E+ *  *  *  z. A. F+ ;  ;  ;  ;  ;  ;  ;  ;  ;  ;  ;  ;  ;  ,  ,  ,  ,  '  )  )  )  G+ ~  ~  ~  H+ ]  ]  ]  ]  ]  ]  ]  ]  ]  ]  ]  ]  ]  ]  ]  ]  ]  ]  ]  ]  ]  ]  ]  ]  I+ J+ <  G. :  K+ <  <  <  <  <  <  <  <  <  <  <  <  <  <  <  <  {. <  |  <  H. H. <  F. <  :  /. (. /. 3+ L. 7  9  L+ 9  0  d  e  e  4+ 5+ |. |. |. |. |. a+ d+ f+ f+ f+ ++ .+ .+ .+ D  D  c. E  E  E  E  E  E  E  E  E  E  E  E  E  E  E  E  E  E  E  E  E  E  E  E  E  E  E  E  E  E  E  E  E  E  E  E  c. c. c. c. c. c. c. c. c. c. c. c. c. c. c. c. c. c. c. c. c. c. c. c. c. c. c. c. c. c. c. c. c. c. c. c. c. c. c. c. c. c. c. c. c. c. c. c. c. c. c. c. c. c. c. c. c. c. c. c. c. c. c. c. c. c. c. c. c. c. c. c. c. c. c. c. c. c. c. c. c. c. c. c. c. c. c. c. c. c. c. c. c. c. c. c. c. c. c. c. c. c. c. c. c. c. c. c. c. c. c. c. c. c. c. c. c. c. c. c. c. c. c. c. c. c. c. c. c. c. c. c. c. c. c. c. c. c. c. c. c. c. c. c. c. c. c. c. c. c. c. c. c. c. c. c. c. c. c. c. c. c. c. c. c. c. c. c. c. c. c. c. c. c. c. c. c. c. c. c. c. c. c. c. c. c. c. c. c. c. c. c. c. c. c. c. c. c. c. c. c. c. c. c. c. c. c. E  c. E  @+ h+ @+ @+ @+ K  K  K  K  @+ $+ $+ *+ $+ *+ =+ T  T  T  T  M+ M+ N+ N+ l. m. l+ m. m. -+ m. m. m. l+ l+ -+ l+ l+ o+ o+ o+ l+ o+ o+ O+ P+ P+ P+ Q+ R+ R+ S+ T+ S+ U+ V+ ~+  .  .  .  .  .  .  .  .  .  .  .  . W+ ^+ ^+ ^+ ^+ ^+ ^+ ^+ ^+ ^+ ^+ ^+ ^+ X+ $. $. $. $. $. $. Y+ &. &. &. &. &. &. &. &. &. &. &. &. &. &. &. &. &. &. w. =. =. =. =. =. =. =. =. =. =. =. =. =. =. =. =. =. =. =. =. ",
".  .  .  .  Z+ @  @  @  @  @  @  y. $  $  $  >. E+ *  *  *  z. A. F+ ;  ;  ;  ;  ;  ;  ;  ;  ;  ;  ;  ;  ;  ,  ,  ,  ,  ,  `+ )  )   @ ~  ~  ~  ~  ]  ]  ]  ]  ]  ]  ]  ]  ]  ]  ]  ]  ]  ]  ]  ]  ]  ]  ]  ]  ]  ]  ]  ]  .@ +@ :  G. :  :  <  <  <  <  <  <  <  <  <  <  <  <  <  |  <  <  H. {. |+ H. <  H. <  <  G. G. <  /. J. 3+ L. 7  7  c  9  @@ @@ d  e  #@ |. |. |. |. 5+ $@ c. h+ h+ h+ h+ h+ h+ h+ h+ h+ h+ h+ h+ h+ h+ h+ h+ h+ h+ h+ h+ h+ h+ h+ h+ h+ h+ h+ h+ h+ h+ h+ h+ h+ h+ h+ h+ h+ h+ h+ h+ h+ h+ h+ h+ h+ h+ h+ h+ h+ h+ h+ h+ h+ h+ h+ h+ h+ h+ h+ h+ h+ h+ h+ h+ h+ h+ h+ h+ h+ h+ h+ h+ h+ h+ h+ h+ h+ h+ h+ h+ h+ h+ h+ h+ h+ h+ h+ h+ h+ h+ h+ h+ h+ h+ h+ h+ h+ h+ h+ h+ h+ h+ h+ h+ h+ h+ h+ h+ h+ h+ h+ h+ h+ h+ h+ h+ h+ h+ h+ h+ h+ h+ h+ h+ h+ h+ h+ h+ h+ h+ h+ h+ h+ h+ h+ h+ h+ h+ h+ h+ h+ h+ h+ h+ h+ h+ h+ h+ h+ h+ h+ h+ h+ h+ h+ h+ h+ h+ h+ h+ h+ h+ h+ h+ h+ h+ h+ h+ h+ h+ h+ h+ h+ h+ h+ h+ h+ h+ h+ h+ h+ h+ h+ h+ h+ h+ h+ h+ h+ h+ h+ h+ h+ h+ h+ h+ h+ h+ h+ h+ h+ h+ h+ h+ h+ h+ h+ h+ h+ h+ h+ h+ h+ h+ h+ h+ h+ h+ h+ h+ h+ h+ h+ h+ h+ h+ h+ h+ h+ h+ h+ h+ h+ h+ h+ h+ h+ h+ h+ h+ h+ h+ h+ h+ h+ h+ h+ h+ h+ h+ h+ h+ h+ h+ #+ @+ K  $+ $+ K  &+ $+ $+ $+ $+ $+ $+ =+ T  T  T  O  T  T  P  P  P  %@ m. m. n+ o+ o+ &@ *@ *@ l+ o+ o+ o+ o+ Q+ o+ =@ =@ -@ S+ &@ =@ -@ ;@ o+ o+ >@ T+ T+ T+ T+ Q+ Q+ l+ ,@ '@ ~+  .  .  .  .  .  .  .  .  .  . )@ v+ ^+ ^+ ^+ ^+ ^+ ^+ ^+ ^+ ^+ ^+ ^+ ^+ ^+ ^+ $. $. $. $. $. !@ ~@ &. &. &. &. &. &. &. &. &. &. &. &. &. &. &. &. &. &. &. w. =. =. =. =. =. =. =. =. =. =. =. =. =. =. =. =. =. =. =. ",
".  .  .  {@ @  @  @  @  @  @  #  $  $  $  $  ]@ E+ *  *  *  ^@ A. /@ ;  ;  ;  ;  ;  ;  ;  ;  ;  ;  ;  ;  ;  ,  ,  ,  ,  ,  (@ )  )  )  _@ ~  ~  ~  :@ ]  ]  ]  ]  ]  ]  ]  ]  ]  ]  ]  ]  ]  ]  ]  ]  ]  ]  ]  ]  ]  ]  <@ [@ |  <  :  :  :  <  <  <  <  <  <  <  <  <  <  <  <  <  <  <  <  G. H. H. H. H. }@ {. :  E. G. }  /. J. |@ 3+ 7  7  c  9  9  @@ @@ 1@ M. 2@ e  e  f  d  3@ @+ $+ $+ $+ $+ $+ $+ $+ $+ $+ $+ $+ $+ $+ $+ $+ $+ $+ $+ $+ $+ $+ $+ $+ $+ $+ $+ $+ $+ $+ $+ $+ $+ $+ $+ $+ $+ $+ $+ $+ $+ $+ $+ $+ $+ $+ $+ $+ $+ $+ $+ $+ $+ $+ $+ $+ $+ $+ $+ $+ $+ $+ $+ $+ $+ $+ $+ $+ $+ $+ $+ $+ $+ $+ $+ $+ $+ $+ $+ $+ $+ $+ $+ $+ $+ $+ $+ $+ $+ $+ $+ $+ $+ $+ $+ $+ $+ $+ $+ $+ $+ $+ $+ $+ $+ $+ $+ $+ $+ $+ $+ $+ $+ $+ $+ $+ $+ $+ $+ $+ $+ $+ $+ $+ $+ $+ $+ $+ $+ $+ $+ $+ $+ $+ $+ $+ $+ $+ $+ $+ $+ $+ $+ $+ $+ $+ $+ $+ $+ $+ $+ $+ $+ $+ $+ $+ $+ $+ $+ $+ $+ $+ $+ $+ $+ $+ $+ $+ $+ $+ $+ $+ $+ $+ $+ $+ $+ $+ $+ $+ $+ $+ $+ $+ $+ $+ $+ $+ $+ $+ $+ $+ $+ $+ $+ $+ $+ $+ $+ $+ $+ $+ $+ $+ $+ $+ $+ $+ $+ $+ $+ $+ $+ $+ $+ $+ $+ $+ $+ $+ $+ $+ $+ $+ $+ $+ $+ $+ $+ $+ $+ $+ $+ $+ $+ $+ $+ $+ $+ $+ $+ $+ $+ $+ $+ $+ $+ $+ $+ $+ $+ $+ $+ $+ $+ $+ =+ T  T  M+ T  T  T  T  T  T  P  T  T  4@ 4@ P  P  P  N+ N+ m. m. >+ o+ o+ o+ o+ &@ &@ &@ &@ =@ &@ &@ &@ &@ &@ Q+ S+ S+ S+ S+ S+ 5@ 6@ S+ S+ 7@ S+ 8@ >@ T+ =@ 9@ 9@ O+ 0@ a@ b@  .  .  .  .  .  .  .  .  . v+ ^+ ^+ ^+ ^+ ^+ ^+ ^+ ^+ ^+ ^+ ^+ ^+ ^+ ^+ ^+ ^+ c@ d@ e@ f@ g@ h@ i@ &. &. &. &. &. &. &. &. &. &. &. &. &. &. &. &. &. &. &. b@ =. =. =. =. =. =. =. =. =. =. =. =. =. =. =. =. =. =. =. ",
".  .  {@ @  @  @  @  @  @  @  j@ $  $  $  k@ l@ m@ *  *  *  n@ A. o@ ;  ;  ;  ;  ;  ;  ;  ;  ;  ;  ;  ;  ;  ,  ,  ,  ,  ,  (@ )  )  )  )  G+ ~  ~  ~  {  ]  ]  ]  ]  ]  ]  ]  ]  ]  ]  ]  ]  ]  ]  ]  ]  ]  ]  ]  ]  ]  p@ q@ r@ <  <  <  :  |+ <  <  <  <  <  <  <  <  <  :  :  <  <  <  <  :  H. :  H. :  {. {. K+ G. s@ 2  ^. t@ 3+ L. 7  7  7  c  9  9  @@ @@ 1@ u@ u@ v@ v@ @@ w@ *+ x@ *+ *+ *+ *+ *+ *+ *+ *+ *+ *+ *+ *+ *+ *+ *+ *+ *+ *+ *+ *+ *+ *+ *+ *+ *+ *+ *+ *+ *+ *+ *+ *+ *+ *+ *+ *+ *+ *+ *+ *+ *+ *+ *+ *+ *+ *+ *+ *+ *+ *+ *+ *+ *+ *+ *+ *+ *+ *+ *+ *+ *+ *+ *+ *+ *+ *+ *+ *+ *+ *+ *+ *+ *+ *+ *+ *+ *+ *+ *+ *+ *+ *+ *+ *+ *+ *+ *+ *+ *+ *+ *+ *+ *+ *+ *+ *+ *+ *+ *+ *+ *+ *+ *+ *+ *+ *+ *+ *+ *+ *+ *+ *+ *+ *+ *+ *+ *+ *+ *+ *+ *+ *+ *+ *+ *+ *+ *+ *+ *+ *+ *+ *+ *+ *+ *+ *+ *+ *+ *+ *+ *+ *+ *+ *+ *+ *+ *+ *+ *+ *+ *+ *+ *+ *+ *+ *+ *+ *+ *+ *+ *+ *+ *+ *+ *+ *+ *+ *+ *+ *+ *+ *+ *+ *+ *+ *+ *+ *+ *+ *+ *+ *+ *+ *+ *+ *+ *+ *+ *+ *+ *+ *+ *+ *+ *+ *+ *+ *+ *+ *+ *+ *+ *+ *+ *+ *+ *+ *+ *+ *+ *+ *+ *+ *+ *+ *+ *+ *+ *+ *+ *+ *+ *+ *+ *+ *+ *+ *+ *+ *+ *+ *+ *+ *+ *+ *+ *+ *+ *+ *+ *+ *+ *+ *+ *+ *+ *+ *+ *+ $+ *+ T  T  T  T  T  M+ N+ N+ T  P  P  M+ N+ N+ N+ N+ 4@ 4@ y@ y@ y@ %@ m+ o+ o+ o+ -@ -@ -@ =@ -@ S+ S+ S+ S+ 5@ 5@ 5@ z@ &@ S+ S+ S+ S+ S+ S+ S+ A@ A@ B@ B@ A@ A@ C@ Q+ &@ -@ o+ Q+ C@ D@ E@  .  .  .  .  .  .  .  . )@ ^+ ^+ ^+ ^+ ^+ ^+ ^+ ^+ ^+ ^+ ^+ ^+ ^+ ^+ ^+ ^+ ^+ F@ e@ e@ e@ G@ H@ I@ &. &. &. &. &. &. &. &. &. &. &. &. &. &. &. &. &. &. &. &. =. =. =. =. =. =. =. =. =. =. =. =. =. =. =. =. =. =. =. ",
".  -. J@ @  @  @  @  @  @  K@ $  $  $  $  L@ M@ N@ *  *  *  O@ A. o@ ;  ;  ;  ;  ;  ;  ;  ;  ;  ;  ;  ;  ;  ,  ,  ,  ,  ,  (@ )  )  )  )  )  ~  ~  ~  ~  {  ]  ]  ]  ]  ]  ]  ]  ]  ]  ]  ]  ]  ]  ]  ]  ]  ]  ]  ]  ]  P@ Q@ |  <  <  <  |+ |+ <  <  <  <  <  <  <  R@ :  <  :  <  <  G. <  {. :  :  :  {. {. 1+ H. <  1+ 1+ ^. t@ 3+ L. 7  7  7  7  9  9  @@ S@ S@ @@ @@ @@ @@ @@ T@ *+ M+ M+ M+ M+ M+ M+ M+ M+ M+ M+ M+ M+ M+ M+ M+ M+ M+ M+ M+ M+ M+ M+ M+ M+ M+ M+ M+ M+ M+ M+ M+ M+ M+ M+ M+ M+ M+ M+ M+ M+ M+ M+ M+ M+ M+ M+ M+ M+ M+ M+ M+ M+ M+ M+ M+ M+ M+ M+ M+ T  T  T  T  T  T  T  T  T  T  T  T  T  T  T  T  T  T  T  T  T  T  T  T  T  T  T  T  T  T  T  T  T  T  T  T  T  T  T  T  T  T  T  T  T  T  T  T  T  T  T  T  T  T  T  T  T  T  T  T  T  T  T  T  T  T  T  T  T  T  T  T  T  T  T  T  T  T  T  T  T  T  T  T  T  T  T  T  T  T  T  T  T  T  T  T  T  T  T  T  T  T  T  T  T  T  T  T  T  T  T  T  T  T  T  T  T  T  T  T  T  T  T  T  T  T  T  T  T  T  T  T  T  T  T  T  T  T  T  T  T  T  T  T  T  T  T  T  T  T  T  T  T  T  T  T  T  T  T  T  T  T  T  T  T  T  T  T  T  T  T  T  T  T  T  T  T  T  T  T  T  T  T  T  T  T  T  T  T  T  T  M+ M+ T  M+ M+ P  N+ y@ y@ N+ N+ l. l. N+ y@ y@ N+ l. l. U@ n+ n+ n+ n+ o+ -@ =@ -@ -@ 6@ 6@ V@ -@ S+ 6@ W@ 6@ A@ A@ A@ z@ z@ &@ X@ X@ A@ A@ B@ C@ B@ B@ Y@ Y@ Z@ `@ 8@ z@ 7@ ;@ -@  # &@ .# +#  .  .  .  .  .  .  .  . @# ^+ ^+ ^+ ^+ ^+ ^+ ^+ ^+ ^+ ^+ ^+ ^+ ^+ ^+ ^+ ^+ ^+ e@ e@ e@ e@ ## H@ i@ &. &. &. &. &. &. &. &. &. &. &. &. &. &. &. &. &. &. &. $# =. =. =. =. =. =. =. =. =. =. =. =. =. =. =. =. =. %# b@ ",
".  &# @  @  @  @  @  @  K@ $  $  $  $  $  M@ M@ *# *  *  *  =# A. -# ;  ;  ;  ;  ;  ;  ;  ;  ;  ;  ;  ;  ;  ,  ,  ,  ,  ,  (@ )  )  )  )  )  )  ~  ~  ~  ~  ~  ;# :@ {  H+ ># ]  ]  ]  ]  ]  ]  ]  ]  ]  ]  ]  ]  ]  ,# '# <  <  |  |  <  |+ |+ <  :  <  <  <  <  <  <  :  <  <  <  <  G. <  <  <  {. <  {. |+ 1+ {. {. 2  3  /. J. 3+ L+ )# 7  L. 7  :. 9  :. :. S@ S@ @@ @@ @@ @@ !# ~# N+ N+ N+ N+ N+ N+ N+ N+ N+ N+ N+ N+ N+ N+ N+ N+ N+ N+ N+ N+ N+ N+ N+ N+ N+ N+ N+ N+ N+ N+ N+ N+ N+ N+ N+ N+ N+ N+ N+ N+ N+ N+ N+ N+ N+ N+ N+ N+ N+ N+ N+ N+ N+ N+ N+ N+ N+ N+ N+ N+ N+ N+ N+ N+ N+ N+ N+ N+ N+ N+ N+ N+ N+ N+ N+ N+ N+ N+ N+ N+ N+ N+ N+ N+ N+ N+ N+ N+ N+ N+ N+ N+ N+ N+ N+ N+ N+ N+ N+ N+ N+ N+ N+ N+ N+ N+ N+ N+ N+ N+ N+ N+ N+ N+ N+ N+ N+ N+ N+ N+ N+ N+ N+ N+ N+ N+ N+ N+ N+ N+ N+ N+ N+ N+ N+ N+ N+ N+ N+ N+ N+ N+ N+ N+ N+ N+ N+ N+ N+ N+ N+ N+ N+ N+ N+ N+ N+ N+ N+ N+ N+ N+ N+ N+ N+ N+ N+ N+ N+ N+ N+ N+ N+ N+ N+ N+ N+ N+ N+ N+ N+ N+ N+ N+ N+ N+ N+ N+ N+ N+ N+ N+ N+ N+ N+ N+ N+ N+ N+ N+ N+ N+ N+ N+ N+ N+ N+ N+ N+ N+ N+ N+ N+ N+ N+ N+ N+ N+ N+ N+ N+ N+ N+ N+ N+ N+ N+ N+ N+ N+ N+ N+ N+ N+ N+ N+ N+ N+ N+ N+ N+ N+ N+ N+ N+ N+ N+ N+ N+ N+ N+ %@ U@ y@ y@ {# y@ ]# ^# n+ n+ l+ l+ {# {# m. m. l. m. m+ o+ o+ Q+ o+ =@ -@ S+ S+ S+ A@ X@ 6@ 6@ 5@ S+ 6@ A@ A@ A@ A@ X@ X@ A@ A@ A@ /# B@ Y@ B@ (# _# Z@ Z@ `@ A@ A@ 7@ :# <#  # [# [# }# |# 1#  .  .  .  .  .  .  . @# ^+ ^+ ^+ ^+ ^+ ^+ ^+ ^+ ^+ ^+ ^+ ^+ ^+ ^+ ^+ ^+ ^+ e@ e@ e@ e@ 2# H@ i@ &. &. &. &. &. &. &. &. &. &. &. &. &. &. &. &. &. &. $# =. =. =. =. =. =. =. =. =. =. =. =. =. =. =. =. =. 3# &. &. ",
"4# @  @  @  @  @  @  @  $  $  $  $  $  5# M@ M@ 6# *  *  *  7# A. -  ;  ;  ;  ;  ;  ;  ;  ;  ;  ;  ;  ;  ;  ,  ,  ,  ,  ,  (@ )  )  )  )  )  )  )  ~  ~  ~  ~  ~  ~  ~  ~  ;# ]  ]  ]  ]  ]  ]  ]  G+ 8# 9# 0# 0# a# b# c# <  :  <  <  <  <  |+ <  <  <  <  <  <  <  <  <  <  (  G. <  G. G. G. G. <  <  <  <  <  1+ 1+ 2  2+ d# /. 3+ 3+ L+ )# _. )# 7  7  7  7  7  7  7  7  7  7  7  3+ j+ n+ n+ n+ n+ n+ n+ n+ n+ n+ n+ n+ n+ n+ n+ n+ n+ n+ n+ n+ n+ n+ n+ n+ n+ n+ n+ n+ n+ n+ n+ n+ n+ n+ n+ n+ n+ n+ n+ n+ n+ n+ n+ n+ n+ n+ n+ n+ n+ n+ n+ n+ n+ n+ n+ n+ n+ n+ n+ n+ n+ n+ n+ n+ n+ n+ n+ n+ n+ n+ n+ n+ n+ n+ n+ n+ n+ n+ n+ n+ n+ n+ n+ n+ n+ n+ n+ n+ n+ n+ n+ n+ n+ n+ n+ n+ n+ n+ n+ n+ n+ n+ n+ n+ n+ n+ n+ n+ n+ n+ n+ n+ n+ n+ n+ n+ n+ n+ n+ n+ n+ n+ n+ n+ n+ n+ n+ n+ n+ n+ n+ n+ n+ n+ n+ n+ n+ n+ n+ n+ n+ n+ n+ n+ n+ n+ n+ n+ n+ n+ n+ n+ n+ n+ n+ n+ n+ n+ n+ n+ n+ n+ n+ n+ n+ n+ n+ n+ n+ n+ n+ n+ n+ n+ n+ n+ n+ n+ n+ n+ n+ n+ n+ n+ n+ n+ n+ n+ n+ n+ n+ n+ n+ n+ n+ n+ n+ n+ n+ n+ n+ n+ n+ n+ n+ n+ n+ n+ n+ n+ n+ n+ n+ n+ n+ n+ n+ n+ n+ n+ n+ n+ n+ n+ n+ n+ n+ n+ n+ n+ n+ n+ n+ n+ n+ n+ n+ n+ n+ n+ n+ n+ n+ n+ n+ n+ n+ n+ n+ n+ n+ n+ n+ ^# ^# ^# ^# ^# ^# ^# ^# ^# ^# n+ m+ m+ o+ l+ o+ =@ &@ 5@ 5@ 5@ 5@ X@ A@ A@ A@ A@ A@ A@ /# /# A@ A@ `@ A@ A@ /# /# Y@ Y@ _# /# e# Y@ B@ Y@ _# Z@ `@ Z@ /# B@ B@ 6@ 7@ <#  # m+ m+ W@ f# g#  .  .  .  .  .  .  . @# ^+ ^+ ^+ ^+ ^+ ^+ ^+ ^+ ^+ ^+ ^+ ^+ ^+ ^+ ^+ ^+ ^+ e@ e@ e@ e@ e@ h# i# &. &. &. &. &. &. &. &. &. &. &. &. &. &. &. &. &. j# =. =. =. =. =. =. =. =. =. =. =. =. =. =. =. =. =. $# &. &. &. ",
"@  @  @  @  @  @  @  @  $  $  $  $  $  k# M@ M@ M@ l# *  *  *  m# -  ;  ;  ;  ;  ;  ;  ;  ;  ;  ;  ;  ;  <+ ,  ,  ,  ,  ,  (@ )  )  )  )  )  )  )  )  ~  ~  ~  ~  ~  ~  ~  ~  ># ]  ]  ]  ]  ]  ]  ]  n# o# o# o# p# q# r# <  (  (  <  (  <  <  <  <  <  <  <  <  <  <  <  <  G. G. _  <  <  <  _  G. _  _  <  <  {. 1+ 2  2  4  ^. t@ L+ L+ )# )# 6  7  7  7  7  7  7  7  7  7  7  7  3+ s# U@ ^# ^# ^# ^# ^# ^# ^# ^# ^# ^# ^# ^# ^# ^# ^# ^# ^# ^# ^# ^# ^# ^# ^# ^# ^# ^# ^# ^# ^# ^# ^# ^# ^# ^# ^# ^# ^# ^# ^# ^# ^# ^# ^# ^# ^# ^# ^# ^# ^# ^# ^# ^# ^# ^# ^# ^# ^# ^# ^# ^# ^# ^# ^# ^# ^# ^# ^# ^# ^# ^# ^# ^# ^# ^# ^# ^# ^# ^# ^# ^# ^# ^# ^# ^# ^# ^# ^# ^# ^# ^# ^# ^# ^# ^# ^# ^# ^# ^# ^# ^# ^# ^# ^# ^# ^# ^# ^# ^# ^# ^# ^# ^# ^# ^# ^# ^# ^# ^# ^# ^# ^# ^# ^# ^# ^# ^# ^# ^# ^# ^# ^# ^# ^# ^# ^# ^# ^# ^# ^# ^# ^# ^# ^# ^# ^# ^# ^# ^# ^# ^# ^# ^# ^# ^# ^# ^# ^# ^# ^# ^# ^# ^# ^# ^# ^# ^# ^# ^# ^# ^# ^# ^# ^# ^# ^# ^# ^# ^# ^# ^# ^# ^# ^# ^# ^# ^# ^# ^# ^# ^# ^# ^# ^# ^# ^# ^# ^# ^# ^# ^# ^# ^# ^# ^# ^# ^# ^# ^# ^# ^# ^# ^# ^# ^# ^# ^# ^# ^# ^# ^# ^# ^# ^# ^# ^# ^# ^# ^# ^# ^# ^# ^# ^# ^# ^# ^# ^# ^# ^# ^# ^# ^# ^# ^# ^# ^# ^# ^# ^# ^# ^# t# ^# ^# ^# ^# ^# t# t# t# t# ^# t# =@ =@ 9@ &@ X@ X@ u# u# v# u# w# `@ A@ B@ B@ B@ /# /# Y@ Z@ `@ Y@ /# e# Z@ Z@ _# x# y# y# y# y# Y@ x# z# A# _# _# Y@ Y@ B@ W@ :# -@ S+ S+ ;@ ;@ B# w.  .  .  .  .  .  .  . C# ^+ ^+ ^+ ^+ ^+ ^+ ^+ ^+ ^+ ^+ ^+ ^+ ^+ ^+ ^+ ^+ ^+ e@ e@ e@ e@ e@ D# E# &. &. &. &. &. &. &. &. &. &. &. &. &. &. &. &. w. =. =. =. =. =. =. =. =. =. =. =. =. =. =. =. =. =. w. &. &. &. F# ",
"@  @  @  @  @  @  @  @  G# $  $  $  $  k# M@ M@ M@ H# *  *  *  I# -  ;  ;  ;  ;  ;  ;  ;  ;  ;  ;  ;  ;  >  ,  ,  ,  ,  ,  (@ )  )  )  )  )  )  )  )  )  ~  ~  ~  ~  ~  ~  ~  {  ]  ]  ]  ]  ]  ]  ]  G+ o# o# o# J# K# <  <  <  <  <  (  <  <  <  <  <  <  <  <  <  <  <  <  <  <  |  |  G. G. G. _  _  G. Q@ <  1+ 1+ 1+ 3  L# ^. (. M# /. L+ (. L+ L+ L+ L+ L+ L+ L+ L+ L+ L+ L+ L+ L+ /. N# =@ =@ =@ =@ =@ =@ =@ =@ =@ =@ =@ =@ =@ =@ =@ =@ =@ =@ =@ =@ =@ =@ =@ =@ =@ =@ =@ =@ =@ =@ =@ =@ =@ =@ =@ =@ =@ =@ =@ =@ =@ =@ =@ =@ =@ =@ =@ =@ =@ =@ =@ =@ =@ =@ =@ =@ =@ =@ =@ =@ =@ =@ =@ =@ =@ =@ =@ =@ =@ =@ =@ =@ =@ =@ =@ =@ =@ =@ =@ =@ =@ =@ =@ =@ =@ =@ =@ =@ =@ =@ =@ =@ =@ =@ =@ =@ =@ =@ =@ =@ =@ =@ =@ =@ =@ =@ =@ =@ =@ =@ =@ =@ =@ =@ =@ =@ =@ =@ =@ =@ =@ =@ =@ =@ =@ =@ =@ =@ =@ =@ =@ =@ =@ =@ =@ =@ =@ =@ =@ =@ =@ =@ =@ =@ =@ =@ =@ =@ =@ =@ =@ =@ =@ =@ =@ =@ =@ =@ =@ =@ =@ =@ =@ =@ =@ =@ =@ =@ =@ =@ =@ =@ =@ =@ =@ =@ =@ =@ =@ =@ =@ =@ =@ =@ =@ =@ =@ =@ =@ =@ =@ =@ =@ =@ =@ =@ =@ =@ =@ =@ =@ =@ =@ =@ =@ =@ =@ =@ =@ =@ =@ =@ =@ =@ =@ =@ =@ =@ =@ =@ =@ =@ =@ =@ =@ =@ =@ =@ =@ =@ =@ =@ =@ =@ =@ =@ =@ =@ =@ =@ =@ =@ =@ =@ =@ =@ =@ =@ =@ =@ =@ =@ =@ =@ =@ =@ O# =@ =@ =@ =@ =@ =@ 5@ 5@ X@ X@ 6@ A@ A@ Z@ Z@ /# Z@ Z@ /# P# A# Z@ x# _# P# x# x# _# x# x# _# Q# z# z# z# _# _# x# x# y# x# x# _# _# _# Z@ _# B@ 7@ -@ <# :# R+ ;@ R# S# T#  .  .  .  .  .  .  . ^+ ^+ ^+ ^+ ^+ ^+ ^+ ^+ ^+ ^+ ^+ ^+ ^+ ^+ ^+ ^+ ^+ e@ e@ e@ e@ e@ U# E# &. &. &. &. &. &. &. &. &. &. &. &. &. &. &. %# =. =. =. =. =. =. =. =. =. =. =. =. =. =. =. =. =. =. &. &. &. V# W# ",
"@  @  @  @  @  @  @  @  @  X# $  $  $  k# M@ M@ M@ M@ *  *  *  n@ Y# ;  ;  <+ Z# `# >  ;  ;  ;  ;  ;  ;   $ ,  ,  ,  ,  ,  B. )  )  )  )  )  )  )  )  )  )  ~  ~  ~  ~  ;# ># .$ ]  ]  ]  ]  ]  ]  ]  ]  +$ o# p# @$ #$ <  <  <  <  <  <  <  <  <  <  :  <  <  <  <  <  <  <  <  <  |  |  <  G. G. G. G. <  <  |  |  1+ 1+ 2  2  4  4  3  ^. 4  /. 4  /. /. /. /. /. /. /. /. /. /. /. /. /. 3  t# 5@ 5@ 5@ 5@ 5@ 5@ 5@ 5@ 5@ 5@ 5@ 5@ 5@ 5@ 5@ 5@ 5@ 5@ 5@ 5@ 5@ 5@ 5@ 5@ 5@ 5@ 5@ 5@ 5@ 5@ 5@ 5@ 5@ 5@ 5@ 5@ 5@ 5@ 5@ 5@ 5@ 5@ 5@ 5@ 5@ 5@ 5@ 5@ 5@ 5@ 5@ 5@ 5@ 5@ 5@ 5@ 5@ 5@ 5@ 5@ 5@ 5@ 5@ 5@ 5@ 5@ 5@ 5@ 5@ 5@ 5@ 5@ 5@ 5@ 5@ 5@ 5@ 5@ 5@ 5@ 5@ 5@ 5@ 5@ 5@ 5@ 5@ 5@ 5@ 5@ 5@ 5@ 5@ 5@ 5@ 5@ 5@ 5@ 5@ 5@ 5@ 5@ 5@ 5@ 5@ 5@ 5@ 5@ 5@ 5@ 5@ 5@ 5@ 5@ 5@ 5@ 5@ 5@ 5@ 5@ 5@ 5@ 5@ 5@ 5@ 5@ 5@ 5@ 5@ 5@ 5@ 5@ 5@ 5@ 5@ 5@ 5@ 5@ 5@ 5@ 5@ 5@ 5@ 5@ 5@ 5@ 5@ 5@ 5@ 5@ 5@ 5@ 5@ 5@ 5@ 5@ 5@ 5@ 5@ 5@ 5@ 5@ 5@ 5@ 5@ 5@ 5@ 5@ 5@ 5@ 5@ 5@ 5@ 5@ 5@ 5@ 5@ 5@ 5@ 5@ 5@ 5@ 5@ 5@ 5@ 5@ 5@ 5@ 5@ 5@ 5@ 5@ 5@ 5@ 5@ 5@ 5@ 5@ 5@ 5@ 5@ 5@ 5@ 5@ 5@ 5@ 5@ 5@ 5@ 5@ 5@ 5@ 5@ 5@ 5@ 5@ 5@ 5@ 5@ 5@ 5@ 5@ 5@ 5@ 5@ 5@ 5@ 5@ 5@ 5@ 5@ 5@ 5@ 5@ 5@ 5@ 5@ 5@ 5@ 5@ 5@ 5@ 5@ 5@ 5@ 5@ 5@ 5@ 5@ 5@ 5@ 5@ 5@ X@ 5@ 5@ 5@ 5@ 5@ 5@ 6@ A@ A@ Z@ P# $$ Z@ Z@ x# Z@ P# P# x# x# x# %$ x# x# P# z# Q# &$ _# _# x# z# z# z# z# x# z# x# z# z# z# _# x# _# *$ _# _# x# x# Y@ Y@ =$ W@ :# T+ S+ 7@ -$ j#  .  .  .  .  .  .  . x+ ^+ ^+ ^+ ^+ ^+ ^+ ^+ ^+ ^+ ^+ ^+ ^+ ^+ ^+ ^+ ^+ e@ e@ e@ e@ e@ e@ ;$ &. &. &. &. &. &. &. &. &. &. &. &. &. b@ =. =. =. =. =. =. =. =. =. =. =. =. =. =. =. =. =. =. =. j# &. &. >$ W# W# ",
"@  @  @  @  @  @  @  @  @  ,$ $  $  $  k# M@ M@ M@ M@ '$ *  *  )$ A. ;  ;  !$ ,  ,  ,  !$ >  >   $ Z# ,  ,  ,  ,  ,  ,  ,  `+ )  )  )  )  )  )  )  )  )  )  )  ~  ~  ~  ;# ]  ]  ]  ]  ]  ]  ]  ]  ]  ]  ]  ~$ 8# {$ ]$ <  <  <  <  :  <  <  <  <  :  :  <  <  <  <  <  <  <  <  <  <  <  |  <  <  <  G. G. <  <  <  {. ]. ^$ ]. 2+ 2+ /$ 2+ 2+ 4  4  2+ 2  2  2  2  2  2  2  2  2  4  4  4  L# ($ /# /# /# /# /# /# /# /# /# /# /# /# /# /# /# /# /# /# /# /# /# /# /# /# /# /# /# /# /# /# /# /# /# /# /# /# /# /# /# /# /# /# /# /# /# /# /# /# /# /# /# /# /# /# /# /# /# /# /# /# /# /# /# /# /# /# /# /# /# /# /# /# /# /# /# /# /# /# /# /# /# /# /# /# /# /# /# /# /# /# /# /# /# /# /# /# /# /# /# /# /# /# /# /# /# /# /# /# /# /# /# /# /# /# /# /# /# /# /# /# /# /# /# /# /# /# /# /# /# /# /# /# /# /# /# /# /# /# /# /# /# /# /# /# /# /# /# /# /# /# /# /# /# /# /# /# /# /# /# /# /# /# /# /# /# /# /# /# /# /# /# /# /# /# /# /# /# /# /# /# /# /# /# /# /# /# /# /# /# /# /# /# /# /# /# /# /# /# /# /# /# /# /# /# /# /# /# /# /# /# /# /# /# /# /# /# /# /# /# /# /# /# /# /# /# /# /# /# /# /# /# /# /# /# /# /# /# /# /# /# /# /# /# /# /# /# /# /# /# /# /# /# /# /# e# /# /# /# /# /# /# /# e# /# _# z# x# z# _$ _$ &$ _$ _$ _$ &$ %$ :$ :$ x# _$ P# %$ x# z# x# x# %$ x# x# x# x# x# <$ <$ x# z# z# <$ z# z# x# x# x# x# _# B@ 6@ W@ W@ l+ -@ [$ }$  .  .  .  .  .  .  . ]+ ^+ ^+ ^+ ^+ ^+ ^+ ^+ ^+ ^+ ^+ ^+ ^+ ^+ ^+ ^+ ^+ e@ e@ e@ e@ e@ e@ |$ &. &. &. &. &. &. &. &. &. &. &. &. b@ =. =. =. =. =. =. =. =. =. =. =. =. =. =. =. =. =. =. =. =. &. &. 1$ W# W# W# ",
"@  @  @  @  @  @  @  @  @  @  K@ $  $  2$ M@ M@ M@ M@ 3$ *  *  4$ A. ;  <+ ,  ,  ,  ,  ,  ,  ,  ,  ,  ,  ,  ,  ,  ,  ,  ,  `+ )  )  )  )  )  )  )  )  )  )  )  !  ~  ~  ~  .$ ]  ]  ]  ]  ]  5$ 5$ ]  ]  ]  .$ ;# 6$ s@ (  <  <  :  :  <  <  <  <  <  :  <  <  |  <  <  <  <  |  <  <  |  |  <  <  |  <  <  <  <  <  }  }  <  7$ 1  8$ 1+ 1  2  |  9$ 0$ a$ [# -@ S+ 6@ -@ [#  # b$ c$ d$ e$ 9$ V@ P# P# P# P# P# P# P# P# P# P# P# P# P# P# P# P# P# P# P# P# P# P# P# P# P# P# P# P# P# P# P# P# P# P# P# P# P# P# P# P# P# P# P# P# P# P# P# P# P# P# P# P# P# P# P# P# P# P# P# P# P# P# P# P# P# P# P# P# P# P# P# P# P# P# P# P# P# P# P# P# P# P# P# P# P# P# P# P# P# P# P# P# P# P# P# P# P# P# P# P# P# P# P# P# P# P# P# P# P# P# P# P# P# P# P# P# P# P# P# P# P# P# P# P# P# P# P# P# P# P# P# P# P# P# P# P# P# P# P# P# P# P# P# P# P# P# P# P# P# P# P# P# P# P# P# P# P# P# P# P# P# P# P# P# P# P# P# P# P# P# P# P# P# P# P# P# P# P# P# P# P# P# P# P# P# P# P# P# P# P# P# P# P# P# P# P# P# P# P# P# P# P# P# P# P# P# P# P# P# P# P# P# P# P# P# P# P# P# P# P# P# P# P# P# P# P# P# P# P# P# P# P# P# P# P# P# P# P# P# P# P# P# P# P# P# P# P# P# P# P# P# P# P# P# P# P# P# P# P# P# P# :$ x# :$ %$ _$ _$ _$ _$ _$ _$ _$ _$ _$ _$ &$ _$ _$ _$ :$ &$ :$ :$ :$ :$ :$ :$ P# x# _$ :$ _$ _$ P# <$ x# z# z# x# x# z# x# x# z# x# P# Z@ /# /# 6@ T+ f$ g$ h$  .  .  .  .  .  .  . w+ ^+ ^+ ^+ ^+ ^+ ^+ ^+ ^+ ^+ ^+ ^+ ^+ ^+ ^+ ^+ e@ e@ e@ e@ e@ e@ i$ &. &. &. &. &. &. &. &. &. &. &. &. =. =. =. =. =. =. =. =. =. =. =. =. =. =. =. =. =. =. =. =. w. &. &. j$ W# W# W# ",
"@  @  @  @  @  @  @  @  @  @  D+ $  $  2$ M@ M@ M@ M@ k$ *  *  *  A. ;  Z# ,  ,  ,  ,  ,  ,  ,  ,  ,  ,  ,  ,  ,  ,  ,  ,  `+ )  )  )  )  )  )  )  )  )  )  )   @ ~  ~  ~  ;# ]  ]  ]  ]  5$ l$ l$ l$ 5$ ]  m$ q# n$ o$ (  :  <  <  :  :  <  <  <  <  <  <  |  <  |  <  <  |  |  |  |  <  <  <  <  <  |  <  <  <  <  <  |+ _  <  s@ <  <  p$ Y  Y@ y# x# x# x# z# _$ _$ z# x# x# x# y# y# x# y# x# _$ _$ _$ _$ _$ _$ _$ _$ _$ _$ _$ _$ _$ _$ _$ _$ _$ _$ _$ _$ _$ _$ _$ _$ _$ _$ _$ _$ _$ _$ _$ _$ _$ _$ _$ _$ _$ _$ _$ _$ _$ _$ _$ _$ _$ _$ _$ _$ _$ _$ _$ _$ _$ _$ _$ _$ _$ _$ _$ _$ _$ _$ _$ _$ _$ _$ _$ _$ _$ _$ _$ _$ _$ _$ _$ _$ _$ _$ _$ _$ _$ _$ _$ _$ _$ _$ _$ _$ _$ _$ _$ _$ _$ _$ _$ _$ _$ _$ _$ _$ _$ _$ _$ _$ _$ _$ _$ _$ _$ _$ _$ _$ _$ _$ _$ _$ _$ _$ _$ _$ _$ _$ _$ _$ _$ _$ _$ _$ _$ _$ _$ _$ _$ _$ _$ _$ _$ _$ _$ _$ _$ _$ _$ _$ _$ _$ _$ _$ _$ _$ _$ _$ _$ _$ _$ _$ _$ _$ _$ _$ _$ _$ _$ _$ _$ _$ _$ _$ _$ _$ _$ _$ _$ _$ _$ _$ _$ _$ _$ _$ _$ _$ _$ _$ _$ _$ _$ _$ _$ _$ _$ _$ _$ _$ _$ _$ _$ _$ _$ _$ _$ _$ _$ _$ _$ _$ _$ _$ _$ _$ _$ _$ _$ _$ _$ _$ _$ _$ _$ _$ _$ _$ _$ _$ _$ _$ _$ _$ _$ _$ _$ _$ _$ _$ _$ _$ _$ _$ _$ _$ _$ _$ _$ _$ _$ _$ _$ _$ _$ _$ _$ _$ _$ _$ _$ _$ _$ _$ _$ _$ _$ _$ _$ _$ _$ _$ _$ _$ _$ _$ _$ _$ _$ _$ _$ _$ _$ _$ _$ _$ _$ _$ _$ _$ _$ _$ z# &$ _$ _$ z# z# %$ :$ :$ %$ %$ %$ x# %$ %$ x# P# Q# x# z# P# _# Z@ A@ X@ A@ q$ j#  .  .  .  .  .  .  .  . ^+ ^+ ^+ ^+ ^+ ^+ ^+ ^+ ^+ ^+ ^+ ^+ ^+ ^+ ^+ e@ e@ e@ e@ e@ e@ r$ &. &. &. &. &. &. &. &. &. &. &. %# =. =. =. =. =. =. =. =. =. =. =. =. =. =. =. =. =. =. =. =. *. &. &. V# W# W# W# ",
"@  @  @  @  @  @  @  @  @  @  ;. $  $  s$ M@ M@ M@ M@ t$ *  *  *  A. u$ ,  ,  ,  ,  ,  ,  ,  ,  ,  ,  ,  ,  ,  ,  ,  ,  ,  )  )  )  )  )  )  )  )  )  )  )  )  G+ ~  ~  ~  ~  v$ ]  ]  ]  w$ l$ l$ l$ l$ ]  [+ ~. x$ y$ E. :  <  <  :  :  :  <  <  <  <  <  <  |  <  <  <  |  |  |  <  <  <  <  <  <  <  <  <  <  <  <  |+ _  <  |+ z$ :# Y@ %$ _$ _$ _$ _$ _$ _$ _$ _$ _$ _$ _$ _$ _$ _$ _$ _$ _$ _$ _$ _$ _$ _$ _$ _$ _$ _$ _$ _$ _$ _$ _$ _$ _$ _$ _$ _$ _$ _$ _$ _$ _$ _$ _$ _$ _$ _$ _$ _$ _$ _$ _$ _$ _$ _$ _$ _$ _$ _$ _$ _$ _$ _$ _$ _$ _$ _$ _$ _$ _$ _$ _$ _$ _$ _$ _$ _$ _$ _$ _$ _$ _$ _$ _$ _$ _$ _$ _$ _$ _$ _$ _$ _$ _$ _$ _$ _$ _$ &$ &$ z# _$ _$ _$ _$ _$ A$ A$ B$ C$ C$ C$ C$ C$ D$ D$ D$ D$ D$ E$ F$ F$ F$ F$ F$ F$ F$ F$ F$ F$ F$ F$ F$ F$ F$ F$ F$ F$ F$ F$ F$ F$ F$ F$ F$ F$ F$ F$ F$ F$ F$ F$ F$ F$ F$ F$ F$ F$ F$ F$ F$ D$ D$ D$ D$ D$ C$ C$ C$ C$ C$ B$ A$ _$ _$ _$ _$ _$ _$ &$ &$ &$ _$ _$ _$ _$ _$ _$ _$ _$ _$ _$ _$ _$ _$ _$ _$ _$ _$ _$ _$ _$ _$ _$ _$ _$ _$ _$ _$ _$ _$ _$ _$ _$ _$ _$ _$ _$ _$ _$ _$ _$ _$ _$ _$ _$ _$ _$ _$ _$ _$ _$ _$ _$ _$ _$ _$ _$ _$ _$ _$ _$ _$ _$ _$ _$ _$ _$ _$ _$ _$ _$ _$ _$ _$ _$ _$ _$ _$ _$ _$ _$ _$ _$ _$ _$ _$ _$ _$ _$ _$ _$ _$ _$ _$ _$ _$ _$ _$ _$ _$ _$ _$ _$ _$ _$ _$ _$ _$ _$ _$ _$ _$ _$ _$ _$ _$ _$ _$ _$ _$ _$ _$ _$ _$ _$ _$ _$ z# %$ z# &$ Q# :$ _$ z# x# G$ H$ H$ x# x# <$ z# _# I$ (# B@ B@ W@ J$ K$  .  .  .  .  .  .  .  . )@ ^+ ^+ ^+ ^+ ^+ ^+ ^+ ^+ ^+ ^+ ^+ ^+ ^+ ^+ e@ e@ e@ e@ e@ e@ L$ &. &. &. &. &. &. &. &. &. &. $# =. =. =. =. =. =. =. =. =. =. =. =. =. =. =. =. =. =. =. =. =. &. &. &. W# W# W# W# ",
"@  @  @  @  @  @  @  @  @  M$ $  $  5# M@ M@ M@ M@ M@ M@ *  *  *  N$ ,  ,  ,  ). `+ `+ B. `+ `+ ). ,  ,  ,  ,  ,  ,  ,  ,  )  )  )  )  )  )  )  )  )  )  !  G+ ~  ~  ~  ~  ~  v$ ]  ]  ]  O$ l$ l$ l$ l$ l$ P$ Q$ R$ G. :  :  <  <  <  <  <  :  <  <  <  <  <  <  |  <  <  |  |  <  <  <  <  <  <  <  <  <  <  <  <  <  s@ S$ T$ U$ Y@ _$ _$ _$ _$ _$ _$ _$ _$ _$ _$ _$ _$ _$ _$ _$ _$ _$ _$ _$ _$ _$ _$ _$ _$ _$ _$ _$ _$ _$ _$ _$ _$ _$ _$ _$ _$ _$ _$ _$ _$ _$ _$ _$ _$ _$ _$ _$ _$ _$ _$ _$ _$ _$ _$ _$ _$ _$ _$ _$ _$ _$ _$ _$ _$ _$ _$ _$ _$ _$ _$ _$ _$ _$ _$ _$ _$ _$ _$ _$ _$ _$ _$ _$ _$ A$ C$ C$ C$ C$ C$ D$ E$ E$ E$ V$ W$ X$ Y$ Z$ Z$ Z$ Z$ `$ `$ `$ `$ `$  %  %  % .% +% +% +% +% @% @% @% @% #% $% $% $% $% $% %% %% %% %% %% %% %% %% %% &% &% &% &% &% &% &% &% &% &% &% &% &% &% &% &% %% %% %% %% %% %% %% %% %% %% $% $% $% $% #% @% @% @% +% +% +% +% .% +%  %  % `$ `$ `$ `$  % Z$ *% Z$ Z$ Z$ X$ X$ V$ E$ E$ E$ E$ D$ C$ C$ C$ C$ C$ A$ _$ _$ %$ &$ _$ _$ _$ _$ _$ _$ _$ _$ _$ _$ _$ _$ _$ _$ _$ _$ _$ _$ _$ _$ _$ _$ _$ _$ _$ _$ _$ _$ _$ _$ _$ _$ _$ _$ _$ _$ _$ _$ _$ _$ _$ _$ _$ _$ _$ _$ _$ _$ _$ _$ _$ _$ _$ _$ _$ _$ _$ _$ _$ _$ _$ _$ _$ _$ _$ _$ _$ _$ _$ _$ _$ _$ _$ _$ _$ _$ _$ _$ _$ _$ _$ _$ _$ _$ _$ _$ _$ _$ _$ _$ _$ _$ _$ _$ _$ _$ _$ _$ _$ _$ _$ _$ _$ _$ _$ _$ _$ _$ %$ %$ P# x# :$ P# z# z# z# H$ G$ =% =% P# =% *$ _# Y@ W@ 8@ I$ S# W#  .  .  .  .  .  .  .  . w+ ^+ ^+ ^+ ^+ ^+ ^+ ^+ ^+ ^+ ^+ ^+ ^+ ^+ e@ e@ e@ e@ e@ e@ L$ &. &. &. &. &. &. &. &. &. &. %# =. =. =. =. =. =. =. =. =. =. =. =. =. =. =. =. =. =. =. =. w. &. &. F# W# W# W# W# ",
"@  @  @  @  @  @  @  @  @  K@ $  $  -% ;% M@ M@ M@ M@ M@ >% *  *  ,  ,  ,  ,  )  )  )  )  )  )  )  ,  ,  ,  ,  ,  ,  ,  ). )  )  )  )  )  )  )   @ G+ ~  ~  ~  ~  ~  ~  ~  ~  ]  ]  ]  ]  ,% l$ l$ l$ l$ '% )% !% Q@ s@ <  <  <  <  <  <  <  <  :  <  <  <  <  <  |  |  <  <  <  <  <  <  <  <  <  <  <  <  <  <  <  <  S$ ~% Y@ _$ _$ _$ _$ _$ _$ _$ _$ _$ _$ _$ _$ _$ _$ _$ _$ _$ _$ _$ _$ _$ _$ _$ _$ _$ _$ _$ _$ _$ _$ _$ _$ _$ _$ _$ _$ _$ _$ _$ _$ _$ _$ _$ _$ _$ _$ _$ _$ _$ _$ _$ _$ _$ _$ _$ _$ _$ _$ _$ _$ _$ _$ _$ _$ _$ _$ _$ _$ _$ _$ _$ _$ &$ z# _$ _$ C$ C$ D$ W$ {% Z$ Y$ Z$ Z$  %  %  %  % +% +% ]% @% $% ^% ^% /% &% &% (% _% _% _% _% :% :% :% <% <% <% <% <% <% [% [% }% }% }% }% }% }% |% }% }% }% 1% 2% 2% 2% 2% 2% 2% 2% 2% 2% 2% 3% 4% 4% 4% 4% 4% 4% 4% 4% 4% 4% 4% 4% 4% 4% 3% 2% 2% 2% 2% 2% 2% 2% 2% 2% 1% 1% }% }% }% |% }% }% }% }% }% [% <% <% <% <% <% <% <% <% :% :% :% _% _% _% (% &% &% &% ^% ^% ^% $% @% ]% +%  %  %  %  %  % Z$ Y$ Y$ Z$ W$ E$ D$ C$ C$ _$ _$ x# Q# _$ _$ _$ _$ _$ _$ _$ _$ _$ _$ _$ _$ _$ _$ _$ _$ _$ _$ _$ _$ _$ _$ _$ _$ _$ _$ _$ _$ _$ _$ _$ _$ _$ _$ _$ _$ _$ _$ _$ _$ _$ _$ _$ _$ _$ _$ _$ _$ _$ _$ _$ _$ _$ _$ _$ _$ _$ _$ _$ _$ _$ _$ _$ _$ _$ _$ _$ _$ _$ _$ _$ _$ _$ _$ _$ _$ _$ _$ _$ _$ _$ _$ _$ _$ _$ _$ _$ _$ _$ _$ _$ _$ _$ _$ _$ _$ _$ _$ _$ %$ %$ :$ P# :$ P# _$ z# =% =% z# x# z# x# /# Y@ Y@ Y@ `@ 6@ 5% j#  .  .  .  .  .  .  .  .  . ^+ ^+ ^+ ^+ ^+ ^+ ^+ ^+ ^+ ^+ ^+ ^+ ^+ e@ e@ e@ e@ e@ e@ L$ &. &. &. &. &. &. &. &. &. b@ %# j# 3# j# %# =. =. =. =. =. =. =. =. =. =. =. =. =. =. =. =. *. &. &. W# W# W# W# W# ",
"@  @  @  @  @  @  @  @  @  $  $  6% 7% s$ M@ M@ M@ M@ M@ '$ *  *  ,  ,  ,  ,  )  )  )  )  )  )  )  '  ,  ,  ,  ,  ,  ,  (@ )  )  )  )  )  )  )  8% ~  ~  ~  ~  ~  ~  ~  ~  ~  ]  ]  ]  ]  ,% l$ l$ l$ l$ 9% 0% a% s@ <  <  <  <  <  <  <  <  <  <  <  <  <  <  |  |  |  <  <  <  <  <  <  <  <  <  <  <  |+ <  <  <  |+ T$ y# _$ _$ _$ _$ _$ _$ _$ _$ _$ _$ _$ _$ _$ _$ _$ _$ _$ _$ _$ _$ _$ _$ _$ _$ _$ _$ _$ _$ _$ _$ _$ _$ _$ _$ _$ _$ _$ _$ _$ _$ _$ _$ _$ _$ _$ _$ _$ _$ _$ _$ _$ _$ _$ _$ _$ _$ _$ _$ _$ _$ _$ &$ P# Q# _$ _$ A$ C$ E$ F$ F$ W$ b% Z$ Z$  % +% +% #% %% &% c% _% _% _% d% <% <% <% <% <% e% f% }% }% }% |% |% |% g% 4% h% i% i% i% j% k% l% l% l% m% m% m% m% n% o% o% p% p% p% p% p% p% p% q% q% r% s% t% s% s% s% s% s% s% s% s% s% u% u% u% v% v% v% v% v% v% v% v% u% u% s% s% s% s% s% s% s% s% s% s% t% t% r% q% q% p% p% p% p% p% p% p% p% o% m% m% m% m% l% l% l% k% k% j% i% i% i% h% 4% g% |% }% }% }% }% }% f% e% <% <% <% <% <% d% _% _% c% &% %% $% ]% .% +% `$ Y$ Z$ X$ W$ F$ F$ E$ C$ A$ _$ _$ P# &$ &$ _$ _$ _$ _$ _$ _$ _$ _$ _$ _$ _$ _$ _$ _$ _$ _$ _$ _$ _$ _$ _$ _$ _$ _$ _$ _$ _$ _$ _$ _$ _$ _$ _$ _$ _$ _$ _$ _$ _$ _$ _$ _$ _$ _$ _$ _$ _$ _$ _$ _$ _$ _$ _$ _$ _$ _$ _$ _$ _$ _$ _$ _$ _$ _$ _$ _$ _$ _$ _$ _$ _$ _$ _$ _$ _$ _$ _$ _$ _$ _$ _$ _$ _$ _$ _$ _$ _$ _$ _$ _$ _$ %$ P# x# _$ _$ z# Q# _$ x# P# x# I$ B@ Y@ _# _# w% x%  .  .  .  .  .  .  .  .  . )@ ^+ ^+ ^+ ^+ ^+ ^+ ^+ ^+ ^+ ^+ ^+ ^+ e@ e@ e@ e@ e@ y% K$ &. &. &. &. &. &. &. &. &. &. &. &. &. &. &. $# =. =. =. =. =. =. =. =. =. =. =. =. =. =. =. &. &. j$ W# W# W# W# W# ",
"@  @  @  @  @  @  @  @  ,$ $  $  z% 7% s$ M@ M@ M@ M@ M@ '$ *  A% ,  ,  ,  ). )  )  )  )  )  )  )  (@ ,  ,  ,  ,  ,  ,  `+ )  )  )  )  )  )  )  )  ~  ~  ~  ~  ~  ~  ~  ~  :@ ]  ]  ]  ]  ,% l$ l$ l$ B% C% D% G. s@ :  <  <  <  <  <  <  <  <  <  <  <  <  <  <  |  |  <  <  <  <  <  <  <  <  <  <  <  <  <  <  <  z$ W@ _$ _$ _$ _$ _$ _$ _$ _$ _$ _$ _$ _$ _$ _$ _$ _$ _$ _$ _$ _$ _$ _$ _$ _$ _$ _$ _$ _$ _$ _$ _$ _$ _$ _$ _$ _$ _$ _$ _$ _$ _$ _$ _$ _$ _$ _$ _$ _$ _$ _$ _$ _$ _$ _$ _$ _$ _$ :$ x# _$ _$ C$ F$ W$ Z$ `$ +% .% ]% ^% &% (% _% :% <% <% E% }% }% }% 1% 4% 4% 4% 4% i% j% j% k% l% m% m% m% m% o% p% p% t% t% t% s% u% u% u% u% F% G% G% G% H% H% H% H% H% H% I% I% J% J% J% J% K% K% L% L% L% M% N% M% N% N% N% N% N% N% O% O% O% O% O% O% O% O% O% O% O% O% O% O% O% O% O% O% O% O% O% O% P% N% N% N% N% M% M% Q% R% L% L% K% K% K% J% J% J% J% I% H% H% H% H% H% H% S% G% G% G% F% u% u% u% s% s% t% t% q% p% p% o% m% m% m% m% k% j% j% j% h% 4% 4% 4% 2% 1% }% }% f% E% <% <% _% _% (% &% $% ]% .%  % Z$ X$ W$ F$ C$ _$ _$ P# &$ _$ _$ _$ _$ _$ _$ _$ _$ _$ _$ _$ _$ _$ _$ _$ _$ _$ _$ _$ _$ _$ _$ _$ _$ _$ _$ _$ _$ _$ _$ _$ _$ _$ _$ _$ _$ _$ _$ _$ _$ _$ _$ _$ _$ _$ _$ _$ _$ _$ _$ _$ _$ _$ _$ _$ _$ _$ _$ _$ _$ _$ _$ _$ _$ _$ _$ _$ _$ _$ _$ _$ _$ _$ _$ _$ _$ _$ _$ _$ _$ _$ _$ _$ _$ _$ _$ _$ P# P# %$ &$ _$ z# _$ x# x# x# z# x# B@ *$ _# *$ T% q.  .  .  .  .  .  .  .  .  . v+ ^+ ^+ ^+ ^+ ^+ ^+ ^+ ^+ ^+ r. ^+ e@ e@ e@ e@ e@ U% V% &. &. &. &. &. &. &. &. &. &. &. &. &. &. &. &. $# =. =. =. =. =. =. =. =. =. =. =. =. =. w. &. &. W# W# W# W# W# W# ",
"@  @  @  @  @  @  @  @  G# $  $  W% 7% s$ M@ M@ M@ M@ M@ '$ *  X% ,  ,  ,  ). )  )  )  )  )  )  )  (@ ,  ,  ,  ,  ,  ,  )  )  )  )  )  )  )  )  )   @ ~  ~  ~  ~  ~  ~  ~  H+ ]  ]  ]  ]  ,% l$ l$ l$ Y% Z% `% }  :  <  <  <  <  <  <  <  <  <  <  <  <  <  <  <  <  |  <  <  <  <  <  <  <  <  <  <  <  <  <  <  s@  & _$ _$ _$ _$ _$ _$ _$ _$ _$ _$ _$ _$ _$ _$ _$ _$ _$ _$ _$ _$ _$ _$ _$ _$ _$ _$ _$ _$ _$ _$ _$ _$ _$ _$ _$ _$ _$ _$ _$ _$ _$ _$ _$ _$ _$ _$ _$ _$ _$ _$ _$ &$ _$ _$ C$ C$ F$ W$ W$ Z$  % .% ^% c% _% E% E% }% }% }% }% 4% 4% 4% h% i% j% l% l% .& o% o% p% t% t% s% u% u% +& G% G% @& H% H% H% #& J% J% K% K% L% L% N% $& $& O% %& %& && && *& =& *& -& ;& ;& >& ,& '& '& )& )& !& !& ~& ~& ~& {& ]& ]& ]& ]& ^& ^& ^& ^& /& /& /& /& /& /& /& (& _& _& _& _& _& _& (& /& /& /& /& /& :& :& ^& ^& ^& ^& <& ]& ]& [& }& ~& !& !& !& |& )& )& '& 1& ,& >& ;& -& *& *& =& 2& && && 3& O% O% $& N% 4& 4& L% K% 5& J% J% #& H% H% H% G% G% G% +& u% v% s% t% t% o% o% .& m% l% l% j% i% h% 4% 4% |% }% }% }% }% <% <% :% (% ]% +% Z$ X$ W$ W$ E$ C$ B$ _$ _$ _$ _$ _$ _$ _$ _$ _$ _$ _$ _$ _$ _$ _$ _$ _$ _$ _$ _$ _$ _$ _$ _$ _$ _$ _$ _$ _$ _$ _$ _$ _$ _$ _$ _$ _$ _$ _$ _$ _$ _$ _$ _$ _$ _$ _$ _$ _$ _$ _$ _$ _$ _$ _$ _$ _$ _$ _$ _$ _$ _$ _$ _$ _$ _$ _$ _$ _$ _$ _$ _$ _$ _$ _$ _$ _$ &$ &$ _$ _$ _$ _$ z# Q# P# P# :$ %$ _$ z# x# x# x# z# <$ (# (# (# 6& $#  .  .  .  .  .  .  .  .  . C# ^+ ^+ ^+ ^+ ^+ ^+ ^+ ^+ ^+ 7& ^+ e@ e@ e@ e@ e@ 8& 9& 0& &. &. &. &. &. &. &. &. &. &. &. &. &. &. &. &. (+ =. =. =. =. =. =. =. =. =. =. =. =. *. &. &. V# W# W# W# W# W# ",
"@  @  @  @  @  @  @  @  %  $  $  a& 7% s$ M@ M@ M@ M@ M@ '$ *  X% ,  ,  ,  '  )  )  )  )  )  )  )  `+ ). ,  ,  ,  ,  b& )  )  )  )  )  )  )  )  )  )  c& ~  ~  ~  ~  ~  ~  ]  ]  ]  ]  ]  ,% l$ l$ l$ d& e& f& }  <  <  <  <  <  <  <  <  <  <  <  <  <  <  <  <  <  <  <  <  <  <  <  <  <  <  <  <  <  <  <  <  g& U$ _$ _$ _$ _$ _$ _$ _$ _$ _$ _$ _$ _$ _$ _$ _$ _$ _$ _$ _$ _$ _$ _$ _$ _$ _$ _$ _$ _$ _$ _$ _$ _$ _$ _$ _$ _$ _$ _$ _$ _$ _$ _$ _$ _$ _$ _$ _$ _$ C$ C$ E$ F$ b% *% +% $% (% :% e% }% g% 4% 4% 4% 4% j% j% l% m% .& o% p% q% t% t% u% u% G% G% h& H% H% i& J% j& L% L% 4& N% $& O% && && *& *& ;& ;& ,& '& k& |& ~& }& ]& l& :& /& (& _& m& n& n& o& p& q& r& s& t& u& v& w& x& x& y& z& z& A& B& B& C& C& D& D& E& F& F& G& G& G& G& G& G& G& H& I& I& I& I& I& I& H& G& G& G& G& G& J& F& F& F& E& D& D& K& C& B& L& A& z& y& M& x& v& v& N& u& t& r& r& q& O& P& n& m& Q& _& (& :& ^& ]& {& }& !& |& k& ,& >& ;& R& *& *& && 3& O% N% N% 4& L% L% J% J% S& H% h& G% G% T& u% u% t% t% q% o% o% .& l% l% j% i% h% 4% 4% 4% }% f% <% _% &% ^% +% *% X$ F$ E$ C$ _$ _$ _$ _$ _$ _$ _$ _$ _$ _$ _$ _$ _$ _$ _$ _$ _$ _$ _$ _$ _$ _$ _$ _$ _$ _$ _$ _$ _$ _$ _$ _$ _$ _$ _$ _$ _$ _$ _$ _$ _$ _$ _$ _$ _$ _$ _$ _$ _$ _$ _$ _$ _$ _$ _$ _$ _$ _$ _$ _$ _$ _$ _$ _$ _$ _$ _$ _$ _$ _$ _$ _$ _$ _$ &$ _$ _$ _$ _$ z# _$ %$ %$ :$ :$ :$ =% %$ B$ z# z# <$ (# *$ U& V&  .  .  .  .  .  .  .  .  . W+ ^+ ^+ ^+ ^+ ^+ ^+ ^+ ^+ W& X& v+ e@ e@ e@ e@ Y& 9& 9& Z& &. &. &. &. &. &. &. &. &. &. &. &. &. &. &. &. &. =. =. =. =. =. =. =. =. =. =. =. }$ &. &. &. V# W# W# W# W# W# ",
"@  @  @  @  @  @  @  @  $  $  $  a& 7% ;% M@ M@ M@ M@ M@ '$ *  X% ,  ,  ,  (@ )  )  )  )  )  )  )  )  )  (@ ,  ,  ,  `+ )  )  )  )  )  )  )  )  )  )  )  ~  ~  ~  ~  ~  ;# ]  ]  ]  ]  ]  w$ l$ l$ B% `&  * <  <  |  |  <  <  <  <  <  <  <  <  <  <  <  <  <  <  <  <  <  <  <  <  <  <  <  <  <  <  <  <  <  <  .* W@ _$ _$ _$ _$ _$ _$ _$ _$ _$ _$ _$ _$ _$ _$ _$ _$ _$ _$ _$ _$ _$ _$ _$ _$ _$ _$ _$ _$ _$ _$ _$ _$ _$ _$ _$ _$ _$ _$ _$ _$ _$ _$ _$ _$ _$ _$ D$ b% +% $% (% <% e% e% f% }% 4% 4% i% j% l% m% m% o% p% +* t% u% u% T& G% @& h& H% I% J% K% L% N% N% O% 3& && *& =& ;& ,& '& |& @* ~& {& l& /& Q& #* n& $* %* r& s& u& N& x& &* z& B& ** D& F& J& G& I& =* -* ;* >* ,* '* )* !* ~* {* {* ]* ]* ^* /* (* (* _* :* <* [* }* |* 1* 2* 2* 2* 2* 2* 2* 3* 4* 4* 4* 4* 4* 4* 3* 2* 2* 2* 2* 2* |* |* |* }* [* :* :* 5* 6* (* /* 7* ]* 8* {* ~* !* !* '* 9* ,* >* ;* 0* a* b* G& F& c* d* B& B& z& y& w& N& t& s& r& O& o& n& Q& _& :& ^& ]& }& |& k& '& e* ;& *& f* && 3& O% M% L% L% J% J% H% H% h& G% g* u% u% s% t% p% o% m% m% l% k% j% j% 4% 4% }% [% E% d% (% ]% *% W$ C$ P# P# _$ _$ _$ _$ _$ _$ _$ _$ _$ _$ _$ _$ _$ _$ _$ _$ _$ _$ _$ _$ _$ _$ _$ _$ _$ _$ _$ _$ _$ _$ _$ _$ _$ _$ _$ _$ _$ _$ _$ _$ _$ _$ _$ _$ _$ _$ _$ _$ _$ _$ _$ _$ _$ _$ _$ _$ _$ _$ _$ _$ _$ _$ _$ _$ _$ _$ _$ _$ _$ _$ _$ _$ &$ _$ _$ _$ _$ z# z# %$ :$ %$ :$ P# z# _$ z# z# h* i* j* k*  .  .  .  .  .  .  .  . ]+ ^+ ^+ ^+ ^+ ^+ ^+ ^+ ^+ ^+ l* X& m* e@ e@ e@ e@ Y& 9& n* &. &. &. F# >$ V# W# V# >$ F# &. &. &. &. &. &. &. &. j# =. =. =. =. =. =. =. =. =. =. b@ &. &. &. W# W# W# W# W# W# ",
"@  @  @  @  @  @  @  ,$ $  $  $  7% 7% M@ M@ M@ M@ M@ M@ '$ *  o* ,  ,  ,  `+ )  )  )  )  )  )  )  )  )  )  )  B. b& )  )  )  )  )  )  )  )  )  )  )  )  _@ ~  ~  ~  ~  {  ]  ]  ]  ]  ]  5$ l$ l$ p* q* ]$ <  |  <  <  <  <  <  <  <  <  <  <  <  <  <  <  <  <  <  <  <  <  <  <  <  <  <  <  <  <  <  <  <  <  r* U$ _$ _$ _$ _$ _$ _$ _$ _$ _$ _$ _$ _$ _$ _$ _$ _$ _$ _$ _$ _$ _$ _$ _$ _$ _$ _$ _$ _$ _$ _$ _$ _$ _$ _$ _$ _$ _$ _$ _$ _$ _$ _$ _$ C$ F$ +% _% }% g% g% h% s* N& t* d* D& c* c* F& F& G& H& u* I& b* b* a* =* v* v* ;* ;* >* w* x* y* '* )* !* ~* z* A* 8* ]* ]* /* (* 6* _* :* [* B* |* 2* C* D* E* F* G* H* I* J* K* L* M* N* N* O* O* P* Q* R* S* T* U* V* W* X* Y* Z* `*  = .= += += @= #= $= $= %= &= *= == -= ;= >= ,= '= )= )= != != != != != ~= ~= ~= ~= != != != != )= )= '= ,= >= {= ;= -= *= *= &= %= $= ]= ^= @= += += .= /= (= _= Y* X* W* := <= [= S* R* Q* }= O* |= N* 1= M* 2= K* J* 3= G* 4= F* D* 4* 2* 5= |* |* [* _* _* 6* 6= /* ]* ]* 8* 7= z* 8= !* '* '* ,* ,* w* ;* ;* 9= v* v* 0= a* b* I& I& H& G& G& F& F& c* c* D& d* D& C& B& B& B& B& A& x& a= b= B$ _$ _$ _$ _$ _$ _$ _$ _$ _$ _$ _$ _$ _$ _$ _$ _$ _$ _$ _$ _$ _$ _$ _$ _$ _$ _$ _$ _$ _$ _$ _$ _$ _$ _$ _$ _$ _$ _$ _$ _$ _$ _$ _$ _$ _$ _$ _$ _$ _$ _$ _$ _$ _$ _$ _$ _$ _$ _$ _$ _$ _$ _$ _$ _$ _$ _$ _$ _$ _$ _$ &$ &$ _$ _$ _$ _$ z# z# z# :$ %$ %$ %$ G$ _$ c= d= e= h* f= g=  .  .  .  .  .  .  . v+ ^+ ^+ ^+ ^+ ^+ ^+ ^+ ^+ ^+ 7& X& m* e@ e@ e@ e@ Y& h= F# &. F# W# W# W# W# W# W# W# W# W# F# &. &. &. &. &. &. &. =. =. =. =. =. =. =. =. =. *. &. &. &. i= W# W# W# W# W# W# ",
"@  @  @  @  @  @  @  y. $  $  6% 7% 7% M@ M@ M@ M@ M@ M@ '$ *  j= ,  ,  ,  )  )  )  )  )  )  )  )  )  )  )  )  )  )  )  )  )  )  )  )  )  )  )  )  )  )  !  ~  ~  ~  ~  ># ]  ]  ]  ]  ]  ]  k= l$ l= m= y$ <  :  :  <  <  :  <  <  <  <  <  <  <  <  <  <  <  <  <  <  <  <  <  <  <  <  <  <  <  <  <  <  <  <  s@  & _$ _$ _$ _$ _$ _$ _$ _$ _$ _$ _$ _$ _$ _$ _$ _$ _$ _$ _$ _$ _$ _$ _$ _$ _$ _$ _$ _$ _$ _$ _$ _$ _$ _$ _$ _$ _$ _$ _$ _$ _$ c= n= &% }% 4% 4% 4% i% j% n% :& o= p= q= q= q= q= q= r= q= s= q= q= q= q= q= q= q= q= q= r= r= t= t= t= u= u= v= p= w= w= x= x= x= y= z= A= A= A= B= C= C= C= D= D= E= F= F= G= H= I= J= K= L= L= M= N= O= P= Q= R= S= T= U= V= W= X= Y= Z= `=  - .- +- @- #- $- %- %- &- *- =- -- ;- >- ,- '- )- )- !- !- ~- ~- ~- {- ]- ]- ]- ^- ~- ~- ~- ~- !- !- )- '- '- >- >- /- /- *- *- (- _- :- <- [- @- }- .-  - |- 1- Y= 2- 3- U= U= T= 4- 5- Q= 6- O= N= M= L= 7- 8- I= I= H= G= F= E= D= D= 9- C= C= 0- B= A= A= A= y= a- x= x= x= w= w= p= u= u= u= r= t= t= r= r= q= q= q= r= r= q= q= q= q= s= q= r= q= q= q= q= q= r= q= q= q= t= r= b- b- c- d- *% F$ A$ _$ _$ _$ _$ _$ _$ _$ _$ _$ _$ _$ _$ _$ _$ _$ _$ _$ _$ _$ _$ _$ _$ _$ _$ _$ _$ _$ _$ _$ _$ _$ _$ _$ _$ _$ _$ _$ _$ _$ _$ _$ _$ _$ _$ _$ _$ _$ _$ _$ _$ _$ _$ _$ _$ _$ _$ _$ _$ _$ _$ _$ _$ _$ _$ _$ _$ _$ _$ _$ _$ _$ _$ _$ _$ _$ _$ z# _$ _$ %$ :$ H$ G$ A$ e- e= f- g- h-  .  .  .  .  .  . w+ ^+ ^+ ^+ ^+ ^+ ^+ ^+ ^+ ^+ ^+ i- X& m* e@ e@ e@ e@ j- &. &. 1$ W# W# W# W# W# W# W# W# W# W# W# F# &. &. &. &. &. &. j# =. =. =. =. =. =. =. $# &. &. &. &. W# W# W# W# W# W# W# ",
"@  @  @  @  @  @  ;. $  $  $  k- 7% l- M@ M@ M@ M@ M@ M@ '$ *  m- (@ ). B. )  )  )  )  )  )  )  )  )  )  )  )  )  )  )  )  )  )  )  )  )  )  )  )  )  )  )  ~  ~  ~  ~  ]  ]  ]  ]  ]  ]  ]  5$ n- o- p- }  |  :  <  <  <  <  <  <  <  <  <  <  <  <  <  <  <  <  <  <  <  <  <  <  <  <  <  <  <  <  <  <  <  <  ]. q- Y@ _$ _$ _$ _$ _$ _$ _$ _$ _$ _$ _$ _$ _$ _$ _$ _$ _$ _$ _$ _$ _$ _$ _$ _$ _$ _$ _$ _$ _$ _$ _$ _$ _$ _$ _$ _$ _$ _$ _$ D$ &% }% 4% h% j% j% l% m% o% u% G& r- s- t- u- u- u- v- v- w- w- w- x- x- x- y- z- z- z- z- A- B- B- B- C- C- C- C- C- C- C- C- C- C- C- C- C- C- C- C- C- D- C- B- B- B- z- z- E- x- x- x- w- v- F- u- G- H- t- I- J- K- K- L- M- N- O- P- Q- R- S- T- U- V- W- X- Y- Z- `-  ; .; +; @; #; $; %; &; *; =; -; ;; >; ,; '; '; '; '; '; '; >; >; ); -; =; *; &; %; $; #; +; !; ~;  ; {; Z- ]; X- ^; /; T- (; _; :; <; O- [; M- L- K- }; |; J- I- t- H- G- u- u- v- w- x- x- x- y- z- z- z- A- A- C- C- C- C- C- C- C- C- C- C- C- C- C- C- C- C- C- C- C- A- B- B- 1; z- z- z- z- y- x- x- x- 2; w- w- v- F- F- u- G- t- t- t- 3; J- J- |; K- 4; 5; u* 6; <% *% A$ _$ _$ _$ _$ _$ _$ _$ _$ _$ _$ _$ _$ _$ _$ _$ _$ _$ _$ _$ _$ _$ _$ _$ _$ _$ _$ _$ _$ _$ _$ _$ _$ _$ _$ _$ _$ _$ _$ _$ _$ _$ _$ _$ _$ _$ _$ _$ _$ _$ _$ _$ _$ _$ _$ _$ _$ _$ _$ _$ _$ _$ _$ _$ _$ _$ _$ _$ _$ _$ _$ _$ _$ _$ _$ _$ _$ z# z# %$ _$ P# 7; C$ e- 8; 9; 0; a;  .  .  .  .  .  . ^+ ^+ ^+ ^+ ^+ ^+ ^+ ^+ ^+ ^+ ^+ X& X& b; e@ e@ e@ e@ c; &. &. >$ W# W# W# W# W# W# W# W# W# W# W# W# &. &. &. &. &. &. &. =. =. =. =. =. =. b@ &. &. &. &. T# W# W# W# W# W# W# W# ",
"@  @  @  j@ j@ j@ $  $  $  $  d; 7% l- M@ M@ M@ M@ M@ M@ *  *  e; )  )  )  )  )  )  )  )  )  )  )  )  )  )  )  )  )  )  )  )  )  )  )  )  )  )  )  )  )  )  ~  ~  ~  :@ ]  ]  ]  ]  ]  ]  ]  ]  f; g; H. |  <  <  <  <  <  <  <  <  <  <  <  <  <  <  <  <  <  <  <  <  <  <  <  <  <  <  <  <  <  <  <  <  <  <  <  _  Y  _$ _$ _$ _$ _$ _$ _$ _$ _$ _$ _$ _$ _$ _$ _$ _$ _$ _$ _$ _$ _$ _$ _$ _$ _$ _$ _$ _$ _$ _$ _$ _$ _$ _$ _$ _$ _$ _$ P# *% }% 4% h% j% l% m% m% p% +* u% b* h; i; N- M- L- j; K- K- K- K- K- k; J- J- l; t- t- t- G- G- G- G- G- G- G- u- u- u- G- u- u- u- u- u- u- u- G- u- G- G- G- G- t- t- t- t- l; J- J- J- J- K- L- L- M- N- O- P- <; R- i; S- (; T- /; m; X- Y- Z- `- {;  ; !; +; #; n; o; =; p; q; r; s; t; u; v; w; x; y; z; A; B; C; D; E; F; E; D; D; C; B; A; G; H; I; w; J; K; L; M; N; p; -; O; P; n; Q; +; R;  ; `- Z- S; X- W- m; /; T- (; _; R- R- P- P- N- M- M- M- L- K- K- J- J- l; l; t- t- t- G- G- G- G- G- u- G- u- u- u- u- u- u- G- u- u- u- u- G- G- G- t- G- G- t- t- t- l; l; J- J- J- K- K- K- K- j; L- M- N- T; T; O- P- <; <; R- i; U; V; v* <% 4% <% F$ P# _$ _$ _$ _$ _$ _$ _$ _$ _$ _$ _$ _$ _$ _$ _$ _$ _$ _$ _$ _$ _$ _$ _$ _$ _$ _$ _$ _$ _$ _$ _$ _$ _$ _$ _$ _$ _$ _$ _$ _$ _$ _$ _$ _$ _$ _$ _$ _$ _$ _$ _$ _$ _$ _$ _$ _$ _$ _$ _$ _$ _$ _$ _$ _$ _$ _$ _$ _$ _$ _$ _$ _$ _$ _$ _$ &$ &$ z# _$ %$ G$ 7; W; X; Y; Z; `;  >  .  .  .  . )@ ^+ ^+ ^+ ^+ ^+ ^+ ^+ ^+ ^+ ^+ ^+ X& X& .> e@ e@ e@ e@ +> &. F# W# W# W# W# W# W# W# W# W# W# W# W# W# &. &. &. &. &. &. &. &. $# j# j# *. &. &. &. &. &. j$ W# W# W# W# W# W# W# W# ",
"@  @  @  j@ $  $  $  $  $  $  @> 7% #> M@ M@ M@ M@ $> M@ *  *  e; )  )  )  )  )  )  )  )  )  )  )  )  )  )  )  )  )  )  )  )  )  )  )  )  )  )  )  )  )  )  8% ~  ~  H+ ]  ]  ]  ]  ]  ]  ]  ]  %> &> |+ <  <  <  <  <  <  <  <  <  <  <  <  <  <  <  <  <  <  <  <  <  <  <  <  <  <  <  <  <  <  <  <  <  <  <  <  {. T$ x# _$ _$ _$ _$ _$ _$ _$ _$ _$ _$ _$ _$ _$ _$ _$ _$ _$ _$ _$ _$ _$ _$ _$ _$ _$ _$ _$ _$ _$ _$ _$ _$ _$ _$ _$ _$ _$ Q# b% <% 4% h% j% j% l% m% o% p% u% b* *> (; T; N- M- L- j; K- K- K- K- k; J- J- J- l; t- t- t- G- G- G- G- G- G- G- u- u- u- u- u- u- u- u- u- u- u- u- u- G- G- G- G- t- t- t- l; I- J- J- J- K- K- j; M- N- T; P- <; R- i; _; (; (; => /; ^; X- ]; Z- `-  ; ~; !; -> #; n; ;> >> -; p; N; M; t; ,> '> v; w; )> H; H; G; z; !> !> !> z; ~> {> H; I; ]> v; '> K; ^> t; /> N; p; -; *; &; n; -> !; ~;  ; (> `- Z- ]; X- ^; /; _> T- S- i; R- Q- P- T; T; M- M- K- K- K- J- J- J- l; l; t- t- t- G- G- G- G- u- u- u- u- u- u- u- u- u- u- u- u- u- u- G- G- G- G- G- G- t- t- t- l; J- J- J- K- K- K- K- K- j; M- M- N- T; O- P- <; <; R- i; _; i; V; -* d% 4% :> E$ P# _$ _$ _$ _$ _$ _$ _$ _$ _$ _$ _$ _$ _$ _$ _$ _$ _$ _$ _$ _$ _$ _$ _$ _$ _$ _$ _$ _$ _$ _$ _$ _$ _$ _$ _$ _$ _$ _$ _$ _$ _$ _$ _$ _$ _$ _$ _$ _$ _$ _$ _$ _$ _$ _$ _$ _$ _$ _$ _$ _$ _$ _$ _$ _$ _$ _$ _$ _$ _$ _$ _$ _$ _$ _$ _$ &$ _$ &$ z# _$ %$ H$ A$ f- <> Y; [> }>  .  .  .  . ]+ v+ v+ ^+ ^+ ^+ ^+ ^+ ^+ ^+ ^+ ^+ X& X& |> e@ e@ e@ 1> V# T# W# W# W# W# W# W# W# W# W# W# W# W# W# j$ &. &. &. &. &. &. &. &. &. &. &. &. &. &. &. &. j$ W# W# W# W# W# W# W# W# W# ",
"@  @  @  j@ $  $  $  $  $  k@ 7% 7% 2> M@ M@ M@ 3> 4> 5> *  *  e; )  )  )  )  )  )  )  )  )  )  )  )  )  )  )  )  )  )  )  )  )  )  )  )  )  )  )  )  )  )  8% ~  ~  v$ ]  ]  ]  ]  ]  ]  ]  [+ 6> r# G. <  <  <  <  <  <  <  <  <  <  <  <  <  <  <  <  <  <  <  <  <  <  <  <  <  <  <  <  <  <  <  <  <  <  <  <  <  .* U$ _$ _$ _$ _$ _$ _$ _$ _$ _$ _$ _$ _$ _$ _$ _$ _$ _$ _$ _$ _$ _$ _$ _$ _$ _$ _$ _$ _$ _$ _$ _$ _$ _$ _$ _$ _$ _$ _$ c= b% :> }% 4% 4% i% j% j% m% v% I& 7> m; i; i; i; <; <; <; <; P- O- O- T; T; M- s- K- K- K- 8> 8> k; J- J- l; l; l; l; l; l; l; l; l; t- t- l; l; t- l; l; l; t- l; J- J- J- J- J- J- J- |; K- K- K- s- s- s- N- T; O- O- <; <; R- 9> S- (; => U- /; m; W- X- Y- ]; Z- 0> {;  ;  ; R; a> -> #; Q; Q; n; n; b> P; P; *; >> =; c> c> *; >> *; d> P; %; n; $; Q; #; -> @; !; R;  ; {; `- e> ]; Y- X- X- m; /; U- => T- S- S- i; R- Q- P- O- O- T; M- s- s- s- j; K- 4; 4; J- J- J- J- J- J- J- l; t- l; t- l; t- l; l; l; l; l; l; l; l; l; l; l; l; l; f> g> k; 8> K- K- K- s- M- M- T; T; T; O- P- P- <; <; i; i; i; _; _; (; (; T- _> V- V- /; A- ;* (% $% D$ _$ _$ _$ _$ _$ _$ _$ _$ _$ _$ _$ _$ _$ _$ _$ _$ _$ _$ _$ _$ _$ _$ _$ _$ _$ _$ _$ _$ _$ _$ _$ _$ _$ _$ _$ _$ _$ _$ _$ _$ _$ _$ _$ _$ _$ _$ _$ _$ _$ _$ _$ _$ _$ _$ _$ _$ _$ _$ _$ _$ _$ _$ _$ _$ _$ _$ _$ _$ _$ _$ _$ _$ _$ _$ _$ _$ _$ _$ _$ _$ z# z# _$ %$ H$ d= h> <> i> j>  .  .  .  .  .  .  .  . ]+ W+ v+ ^+ ^+ ^+ ^+ r. X& X& k> e@ e@ e@ 1> W# W# W# W# W# W# W# W# W# W# W# W# W# W# T# &. &. &. &. &. &. &. &. &. &. &. &. &. &. &. &. j$ W# W# W# W# W# W# W# W# W# W# ",
"@  @  @  $  $  $  $  $  $  l> 7% 7% 2> M@ M@ M@ m> n> t$ *  *  ~  )  )  )  )  )  )  )  )  )  )  )  )  )  )  )  )  )  )  )  )  )  )  )  )  )  )  )  )  )  )  8% ~  ~  v$ ]  ]  ]  ]  ]  ]  ]  o> 6$ E. <  <  <  <  <  <  <  <  <  <  <  <  <  <  <  <  <  <  <  <  <  <  <  <  <  <  <  <  <  <  <  <  <  <  <  <  <  <  <  ~% _$ _$ _$ _$ _$ _$ _$ _$ _$ _$ _$ _$ _$ _$ _$ _$ _$ _$ _$ _$ _$ _$ _$ _$ _$ _$ _$ _$ _$ _$ _$ _$ _$ _$ _$ _$ _$ _$ _$ _$ C$ X$ :> }% 4% 4% 4% i% m% *& (= >= p> p> p> p> p> p> p> p> p> p> q> r> r> r> {= {= r> {= {= {= {= ,= ,= s> s> t> u> v> w> w> x> y> y> y> z> z> A> B> B> C> D> E> F> G> H> I> J> J> K> L> L> o= M> N> N> O> P> Q> R> S> T> U> V> W> X> Y> r= r= u= Z> `> y= A= B= C= D= D= E=  , G= ., +, +, +, K= 7- 7- @, #, #, #, #, #, #, #, @, #, #, $, 7- 7- 8- 8- +, I= G=  ,  , E= D= %, 0- A= &, y= *, p= u= r= q= =, X> W> V> -, T> ;, R> >, P> ,, N> N> o= o= L> L> ', J> ), I> !, G> F> D> C> ~, B> {, z> z> z> y> y> y> x> w> v> ], u> u> s> s> ^, ^, {= {= ^, r> {= /, ;= r> r> r> q> p> p> p> p> p> p> p> == p> p> p> p> (, p> == ;= p> p> /= i& C$ C$ _$ _$ _$ _$ _$ _$ _$ _$ _$ _$ _$ _$ _$ _$ _$ _$ _$ _$ _$ _$ _$ _$ _$ _$ _$ _$ _$ _$ _$ _$ _$ _$ _$ _$ _$ _$ _$ _$ _$ _$ _$ _$ _$ _$ _$ _$ _$ _$ _$ _$ _$ _$ _$ _$ _$ _$ _$ _$ _$ _$ _$ _$ _$ _$ _$ _$ _$ _$ _$ _$ _$ _$ _$ _$ _$ _$ _$ _$ _$ _$ _$ A$ A$ z# z# %$ d= _, V$ <> :, <,  .  .  .  .  .  .  .  .  .  . ]+ W+ v+ ^+ [, }, s. F@ e@ e@ e@ 1> W# W# W# W# W# W# W# W# W# W# W# W# W# W# &. &. &. &. &. &. &. &. &. &. &. &. &. &. &. &. F# W# W# W# W# W# W# W# W# W# W# W# ",
"@  @  M$ $  $  $  $  $  $  7% 7% 7% 2> M@ M@ |, n> n> 1, *  *  )  )  )  )  )  )  )  )  )  )  )  )  )  )  )  )  )  )  )  )  )  )  )  )  )  )  )  )  )  )  )  ~  ~  ~  v$ ]  ]  ]  ]  ]  ]  ]  2, n$ E. :  <  <  <  <  <  <  <  <  <  <  <  <  <  <  <  <  <  <  <  <  <  <  <  <  <  <  <  <  <  <  <  <  <  <  <  <  <  ]. z$ y# _$ _$ _$ _$ _$ _$ _$ _$ _$ _$ _$ _$ _$ _$ _$ _$ _$ _$ _$ _$ _$ _$ _$ _$ _$ _$ _$ _$ _$ _$ _$ _$ _$ _$ _$ _$ _$ _$ _$ _$ _$ 3, Y$ +% (% <% |% 4% j% u% 4, 4, H% S& i& j& j& 5, M% M% 6, O% 3& && 7, *& -& ;& >& '& d- )& ~& {& <& ^& (& (& 8, n& $* O& r& s& 9, 0, v& y& a, B& K& t* J& H& b* =* 9= ;* ,* y* )* b, ~* {* ]* ^* c, 6* _* [* |* 5= 2* D* E* d, 3= I* K* 2= L* M* N* e, f, }= Q* Q* R* R* S* S* g, h, <= <= V* i, i, j, j, j, j, j, j, j, j, j, j, i, k, := <= U* g, g, S* S* l, R* Q* P* }= |= e, m, M* n, o, K* 3= d, p, E* D* 2* q, r, s, _* 6* /* ]* t, 7= ~* u, )* v, w, ;* 0* b* H& H& F& D& C& B& z& x& w& v& t& s& p& O& n& m& Q& _& :& ^& ]& ~& !& )& d- x, >& -& *& *& 7, y, %& O% O% M% M% 5, j& j& i& S& 4, 4, G% G% z, z, A, o% B, C, D, C$ _$ _$ _$ _$ _$ _$ _$ _$ _$ _$ _$ _$ _$ _$ _$ _$ _$ _$ _$ _$ _$ _$ _$ _$ _$ _$ _$ _$ _$ _$ _$ _$ _$ _$ _$ _$ _$ _$ _$ _$ _$ _$ _$ _$ _$ _$ _$ _$ _$ _$ _$ _$ _$ _$ _$ _$ _$ _$ _$ _$ _$ _$ _$ _$ _$ _$ _$ _$ _$ _$ _$ _$ _$ _$ _$ _$ _$ _$ _$ _$ _$ _$ _$ _$ A$ A$ z# A$ =% c= V$ Y; E, }>  .  .  .  .  .  .  .  .  .  .  .  .  .  .  .  . F, e@ e@ e@ e@ 1> W# W# W# W# W# W# W# W# W# W# W# W# W# j$ &. &. &. &. &. &. &. &. &. &. &. &. &. &. &. F# W# W# W# W# W# W# W# W# W# W# W# W# ",
"@  @  ;. $  $  $  $  $  $  7% 7% 7% s$ M@ M@ G, n> n> H, *  *  )  )  )  )  )  )  )  )  )  )  `+ +$ I, )  )  )  )  )  )  )  )  )  )  )  )  )  )  )  )  )  )  ~  ~  ~  v$ ]  ]  ]  ]  ]  ]  J, K, L, :  <  <  <  <  <  <  <  <  <  <  <  <  <  <  <  <  <  <  <  <  <  <  <  <  <  <  <  <  <  <  <  <  <  <  <  <  <  <  <  _   & _$ _$ _$ _$ _$ _$ _$ _$ _$ _$ _$ _$ _$ _$ _$ _$ _$ _$ _$ _$ _$ _$ _$ _$ _$ _$ _$ _$ _$ _$ _$ _$ _$ _$ _$ _$ _$ _$ _$ _$ _$ _$ _$ A$ D$ F$ b% *% ]% ^% :> <% }% |% 4% h% h% j% j% k% m% m% o% p% q% t% u% u% u% g* G% 4, H% i& J% 5& L% L% N% $& O% 3& && f* *& M, ;& '& k& |& !& }& ]& ^& :& (& _& #* n& O& p& q& s& N, u& v& x& &* z& B& C& D& D& c* J& G& b* b* v* v* ;* ;* O, ,* ,* '* '* '* !* !* ~* z* P, P, {* {* {* t, t, t, ]* ]* ]* ]* ]* ]* ]* ]* t, t, Q, {* {* {* P, z* z* ~* 8= u, '* '* y* ,* ,* R, ;* ;* v* b* b* S, J& J& c* D& K& B& A& z& &* v& v& u& N, s& q& p& O& n& m& _& (& :& <& ]& }& !& |& d- '& ;& M, *& T, && %& $& $& M% L% L% J% J% S& 4, 4, G% G% u% u% s% t% p% p% n% m% m% j% j% j% 4% 4% 4% g% [% U, (% ^% .% b% F$ E$ C$ _$ &$ _$ _$ _$ _$ _$ _$ _$ _$ _$ _$ _$ _$ _$ _$ _$ _$ _$ _$ _$ _$ _$ _$ _$ _$ _$ _$ _$ _$ _$ _$ _$ _$ _$ _$ _$ _$ _$ _$ _$ _$ _$ _$ _$ _$ _$ _$ _$ _$ _$ _$ _$ _$ _$ _$ _$ _$ _$ _$ _$ _$ _$ _$ _$ _$ _$ _$ _$ _$ _$ _$ _$ _$ _$ _$ _$ _$ _$ _$ _$ _$ _$ _$ _$ _$ _$ _$ _$ A$ z# _$ B$ V, W, X, Y,  .  .  .  .  .  .  .  .  .  .  .  .  .  .  .  . Z, e@ e@ e@ e@ 1> W# W# W# W# W# W# W# W# W# W# W# W# W# `, &. &. &. &. &. &. &. &. &. &. &. &. &. &. i= W# W# W# W#  ' .' +' @'  . W# W# W# W# ",
"@  @  %  $  $  $  $  $  $  7% 7% 7% 2> M@ M@ G, n> n> #' *  *  )  )  )  )  )  )  )  )  )  b& $' $' $' I, )  )  )  )  )  )  )  )  )  )  )  )  )  )  )  )  )  ~  ~  ~  ># ]  ]  ]  ]  ]  %' &' *' G. :  <  <  <  <  <  <  <  <  <  <  <  <  <  <  <  <  <  <  <  <  <  <  <  <  <  <  <  <  <  <  <  <  <  <  <  <  <  <  <  <  z$ %$ _$ _$ _$ _$ _$ _$ _$ _$ _$ _$ _$ _$ _$ _$ _$ _$ _$ _$ _$ _$ _$ _$ _$ _$ _$ _$ _$ _$ _$ _$ _$ _$ _$ _$ _$ _$ _$ _$ _$ _$ _$ _$ _$ _$ Q# &$ _$ C$ C$ F$ W$ Z$ +% ]% &% :% <% e% }% }% }% 4% 4% 4% j% j% j% m% m% m% o% o% t% t% =' u% u% G% G% G% 4, H% I% I% J% K% L% 4& N% N% $& O% -' && f* *& *& M, ;& ,& '& '& d- )& ;' {& }& {& <& :& /& /& (& _& >' m& n& n& O& O& p& q& q& r& s& 9, t& t& t& v& v& v& v& N& N& w& w& w& x& x& x& x& x& x& x& x& x& w& w& w& w& N& N& N& v& 0, t& t& t& t& 9, s& r& q& q& O& O& P& n& m& 8, _& _& /& /& :& ^& ^& ]& }& !& |& )& d- '& ,& ;& ;& =& =& *& 2& && && O% N% N% 4& L% L% K% J% J% H% H% 4, G% G% u% u% u% v% t% t% o% o% m% l% l% j% j% i% 4% 4% g% }% }% }% }% <% _% ^% .% *% X$ F$ F$ C$ B$ _$ P# &$ _$ _$ _$ _$ _$ _$ _$ _$ _$ _$ _$ _$ _$ _$ _$ _$ _$ _$ _$ _$ _$ _$ _$ _$ _$ _$ _$ _$ _$ _$ _$ _$ _$ _$ _$ _$ _$ _$ _$ _$ _$ _$ _$ _$ _$ _$ _$ _$ _$ _$ _$ _$ _$ _$ _$ _$ _$ _$ _$ _$ _$ _$ _$ _$ _$ _$ _$ _$ _$ _$ _$ _$ _$ _$ _$ _$ _$ _$ _$ _$ _$ _$ _$ _$ _$ _$ _$ _$ _$ _$ _$ _$ _$ A$ ,' {% W, '' F,  .  .  .  .  .  .  .  .  .  .  .  . )' !' !' o@ e@ e@ e@ e@ 1> W# W# W# W# W# W# W# W# W# W# W# W# V# &. &. &. &. &. &. &. &. &. &. &. &. &. &. &. W# W# ~' {' ]' ^' ^' ^' ^' ^' /' (' q. W# ",
"@  #  $  $  $  $  $  $  $  _' 7% 7% 2> M@ M@ :' n> n> <' *  [' )  )  )  )  )  )  )  }' +$ $' $' $' $' $' `+ )  )  )  )  )  )  )  )  )  )  )  )  )  )  )  )  G+ ~  ~  {  ]  ]  ]  |' 1' 2' 3' 4' <  :  <  <  <  <  <  <  <  <  <  <  <  <  <  <  <  <  <  <  <  <  <  <  <  <  <  <  <  <  <  <  <  <  <  <  <  <  <  <  <  ]. r* =$ _$ _$ _$ _$ _$ _$ _$ _$ _$ _$ _$ _$ _$ _$ _$ _$ _$ _$ _$ _$ _$ _$ _$ _$ _$ _$ _$ _$ _$ _$ _$ _$ _$ _$ _$ _$ _$ _$ _$ _$ _$ _$ _$ _$ _$ _$ _$ _$ _$ _$ &$ _$ _$ C$ E$ W$ Y$ 5' +% .% $% &% (% _% <% <% e% }% 2% 2% 4% 4% 4% i% i% j% k% l% m% m% n% o% q% p% t% =' u% u% u% g* G% G% 4, G% H% 6' 6' i& J% J% 5& 5& L% L% L% N% N% N% P% 7' 7' 3& 3& && 2& 2& *& *& *& M, M, ;& >& ;& e* '& '& '& d- k& k& k& k& d- )& |& |& |& |& !& !& !& !& !& !& !& !& |& |& |& |& |& d- d- k& d- '& '& '& '& '& e* ;& ;& ;& M, M, *& f* f* 2& && 3& 3& 3& 7' 7' $& N% N% 4& L% L% L% 5& J% J% J% i& 6' 6' S% G% 8' G% T& g* u% v% s% t% t% +* p% o% o% m% m% l% k% j% i% h% 4% 4% 4% 2% }% }% e% <% _% _% (% ^% ]% .% +% `$ Y$ W$ C$ _$ _$ P# &$ _$ _$ _$ _$ _$ _$ _$ _$ _$ _$ _$ _$ _$ _$ _$ _$ _$ _$ _$ _$ _$ _$ _$ _$ _$ _$ _$ _$ _$ _$ _$ _$ _$ _$ _$ _$ _$ _$ _$ _$ _$ _$ _$ _$ _$ _$ _$ _$ _$ _$ _$ _$ _$ _$ _$ _$ _$ _$ _$ _$ _$ _$ _$ _$ _$ _$ _$ _$ _$ _$ _$ _$ _$ _$ _$ _$ _$ _$ _$ _$ _$ _$ _$ _$ _$ _$ _$ _$ _$ _$ _$ _$ _$ _$ _$ _$ _$ _$ _$ H$ B$ {% 8; 9' 0'  .  .  .  .  .  .  .  .  .  .  . a' b' b' b' b' c' d' e' e@ f' W# W# W# W# W# W# W# W# W# W# W# W# T# &. &. &. &. &. &. &. &. &. &. &. &. &. &. j$ W# ~' ^' ^' ^' ^' ^' ^' ^' ^' ^' ^' ^' ^' ",
"@  G# $  $  $  $  $  $  $  a& 7% 7% g' M@ M@ h' n> n> *  *  i' )  )  )  )  )  )  I, $' $' $' $' $' $' $' j' )  )  )  )  )  )  )  )  )  )  )  )  )  )  )  )  !  ~  ~  ~  ]  k' l' 2' 2' m' n' <  :  <  <  <  <  <  <  <  <  <  <  <  <  <  <  <  <  <  <  <  <  <  <  <  <  <  <  <  <  <  <  <  <  <  <  <  <  <  <  <  <  <  _  o' _$ _$ _$ _$ _$ _$ _$ _$ _$ _$ _$ _$ _$ _$ _$ _$ _$ _$ _$ _$ _$ _$ _$ _$ _$ _$ _$ _$ _$ _$ _$ _$ _$ _$ _$ _$ _$ _$ _$ _$ _$ _$ _$ _$ _$ _$ _$ _$ _$ _$ _$ _$ _$ _$ _$ &$ _$ _$ p' C$ D$ F$ F$ W$ Z$ Z$ *% .% $% $% $% &% (% _% :% <% <% f% }% f% }% |% |% }% 4% 4% h% i% i% i% j% l% l% l% m% m% o% o% p% p% p% q% t% s% s% u% u% u% u% T& T& G% G% G% G% @& q' q' H% H% H% H% i& i& J% J% r' J% J% J% J% J% J% J% s' s' J% s' K% J% J% t' t' J% J% J% J% K% J% J% J% s' J% J% J% J% J% J% J% J% J% J% i& i& H% H% H% h& q' G% G% G% G% G% G% +& u% u% u% u% =' s% s% t% q% p% p% o% o% o% m% m% l% l% k% j% i% i% h% 4% 2% |% |% |% |% }% f% }% e% <% <% :% :> &% &% $% $% .% +% Z$ Z$ Z$ W$ W$ F$ C$ p' _$ _$ &$ &$ _$ _$ _$ _$ _$ _$ _$ _$ _$ _$ _$ _$ _$ _$ _$ _$ _$ _$ _$ _$ _$ _$ _$ _$ _$ _$ _$ _$ _$ _$ _$ _$ _$ _$ _$ _$ _$ _$ _$ _$ _$ _$ _$ _$ _$ _$ _$ _$ _$ _$ _$ _$ _$ _$ _$ _$ _$ _$ _$ _$ _$ _$ _$ _$ _$ _$ _$ _$ _$ _$ _$ _$ _$ _$ _$ _$ _$ _$ _$ _$ _$ _$ _$ _$ _$ _$ _$ _$ _$ _$ _$ _$ _$ _$ _$ _$ _$ _$ _$ _$ _$ _$ _$ A$ A$ A$ E$ Y$ X, u' q.  .  .  .  .  .  .  .  .  . v' w' b' b' b' b' b' b' b' x' e@ W# W# W# W# W# W# W# W# W# W# W# W# j$ &. &. &. &. &. &. &. &. &. &. &. &. &. i= W# W# y' ^' ^' ^' ^' ^' ^' ^' ^' ^' ^' ^' ^' ",
"M$ $  $  $  $  $  $  $  $  @> 7% 7% z' M@ M@ h' n> A' *  *  i' )  )  )  )  `+ $' $' $' $' $' $' $' $' $' B' )  )  )  )  )  )  )  )  )  )  )  )  )  )  )  )  )  G+ ~  ~  C' 2' 2' 2' D' E' F' <  :  <  <  <  <  <  <  <  <  <  <  <  <  <  <  <  <  <  <  <  <  <  <  <  <  <  <  <  <  <  <  <  <  <  <  <  <  <  <  <  <  <  |+ T$ _$ _$ _$ _$ _$ _$ _$ _$ _$ _$ _$ _$ _$ _$ _$ _$ _$ _$ _$ _$ _$ _$ _$ _$ _$ _$ _$ _$ _$ _$ _$ _$ _$ _$ _$ _$ _$ _$ _$ _$ _$ _$ _$ v# ^# ^# ^# ^# ^# ^# ^# ^# ^# ^# ^# ^# ^# ^# ^# ^# ^# ^# ^# ^# ^# n+ n+ ^# *@ =@ V@ V@ =$ I$ G' H' I' J' J' f- e- e- e- K' L' Y; Y; M' N' N' N' O' P' P' Q' R' R' S' S' S' T' U' U' U' U' V' _% W' 6; 6; 6; 6; 6; 6; E% E% E% E% E% E% E% E% }% E% X' X' X' X' X' X' X' X' X' X' X' X' X' X' Y' X' 1% 1% 1% 1% 1% X' X' X' X' X' X' X' X' X' X' X' X' X' X' X' X' X' E% Z' E% E% E% E% E% E% E% `' 6; 6; 6; 6; 6; W' c% _% U' U' U' U' U' T' S' S' S' R'  ) P' P' O' .) N' N' M' Y; Y; 8; L' K' e- e- e- f- J' I' I' +) G' =$ =$ V@ =@ =@ *@ ^# {# ]# ^# ^# ^# ^# ^# ^# ^# ^# ^# ^# ^# ^# ^# ^# ^# ^# ^# ^# ^# ^# ^# ^# ^# ^# ^# ^# ^# ^# ^# ^# v# _$ _$ _$ _$ _$ _$ _$ _$ _$ _$ _$ _$ _$ _$ _$ _$ _$ _$ _$ _$ _$ _$ _$ _$ _$ _$ _$ _$ _$ _$ _$ _$ _$ _$ _$ _$ _$ _$ _$ _$ _$ _$ _$ _$ _$ _$ _$ _$ _$ _$ _$ _$ _$ _$ _$ _$ _$ _$ _$ _$ _$ _$ _$ _$ _$ _$ _$ _$ _$ _$ _$ _$ _$ _$ _$ _$ _$ _$ _$ _$ _$ _$ A$ A$ A$ B$ V$ N' @) T#  .  .  .  .  .  .  .  .  . #) $) b' b' b' b' b' b' %) e@ e@ C# &) ]+ W# W# W# W# W# W# W# W# W# j$ &. &. &. &. &. &. &. &. &. &. &. &. &. >$ W# W# ]' ^' ^' ^' ^' ^' ^' ^' ^' ^' ^' ^' ^' ",
";. $  $  $  $  $  $  $  $  *) 7% 7% 7% l@ M@ h' n> =) *  *  i' )  )  )  (@ $' $' $' $' $' $' $' $' $' $' +$ )  )  )  )  )  )  )  )  )  )  )  )  )  )  )  )  )  !  ~  ~  -) D' D' ;) G+ >) E. :  :  <  <  <  <  <  <  <  <  <  <  <  <  <  <  <  <  <  <  <  <  <  <  <  <  <  <  <  <  <  <  <  <  <  <  <  <  <  <  <  <  <  |+ ,) _$ _$ _$ _$ _$ _$ _$ _$ _$ _$ _$ _$ _$ _$ _$ _$ _$ _$ _$ _$ _$ _$ _$ _$ _$ _$ _$ _$ _$ _$ _$ _$ _$ _$ _$ _$ _$ _$ _$ _$ _$ _$ 5@ ') )) !) ~) ~) ~) ~) ~) ~) ~) ~) ~) ~) ~) ~) ~) ~) ~) ~) ~) ~) ~) ~) ~) ~) ~) ~) ~) ~) {) {) ]) {) {) {) {) ^) ^) /) () r  t  t  V. a+ _) _) c+ 3@ w@ :) <) <) [) }) }) |) }) |) |) |) |) |) 1) 1) 9$ 9$ 9$ 9$ 9$ 9$ c$ z$ z$ z$ q- q- c$ c$ 0$ 0$ 2) T$ T$ T$ T$ T$ 3) 3) 3) 3) 3) 3) 3) 3) T$ T$ T$ T$ T$ T$ T$ T$ T$ T$ 3) 3) 3) 3) 3) 3) 3) 3) T$ T$ T$ T$ 2) 0$ 0$ 0$ 0$ q- q- q- z$ z$ c$ 4) 9$ 9$ 9$ 9$ 9$ 9$ 1) 5) |) |) |) |) |) |) |) }) [) [) <) <) w@ 3@ 6) c+ c+ a+ V. 7) t  t  r  () 8) ^) !) {) {) {) {) {) {) {) ~) ~) ~) ~) ~) ~) ~) ~) ~) ~) ~) ~) ~) ~) ~) ~) ~) ~) ~) ~) ~) ~) ~) ~) ~) ~) ~) ~) ~) ~) ~) ~) ~) ~) ~) ~) !) a. ^# x# _$ _$ _$ _$ _$ _$ _$ _$ _$ _$ _$ _$ _$ _$ _$ _$ _$ _$ _$ _$ _$ _$ _$ _$ _$ _$ _$ _$ _$ _$ _$ _$ _$ _$ _$ _$ _$ _$ _$ _$ _$ _$ _$ _$ _$ _$ _$ _$ _$ _$ _$ _$ _$ _$ _$ _$ _$ _$ _$ _$ _$ _$ _$ _$ _$ _$ _$ _$ _$ _$ _$ _$ _$ _$ _$ _$ _$ _$ _$ _$ _$ A$ A$ A$ E$ 8; 9) K$ q.  .  .  .  .  .  .  .  . 0) $) b' b' b' b' b' a) e@ e@ e@ b) c) .. W# W# W# W# W# W# W# W# W# V# &. &. &. &. &. &. &. &. &. &. &. &. F# W# W#  . ^' ^' d) e) ^' ^' ^' ^' ^' ^' ^' ^' ^' ",
"X# $  $  $  $  $  $  $  $  k- 7% 7% 7% f) M@ h' n> g) *  *  h) )  )  (@ $' $' $' $' $' $' $' $' $' $' $' +$ )  )  )  )  )  )  )  )  )  )  )  )  )  )  )  )  )  )  G+ ~  ~  ~  ~  ~  i) j) <  <  <  <  <  <  <  <  <  <  <  <  <  <  <  <  <  <  <  <  <  <  <  <  <  <  <  <  <  <  <  <  <  <  <  <  <  <  <  <  <  <  <  <  r* W@ _$ _$ _$ _$ _$ _$ _$ _$ _$ _$ _$ _$ _$ _$ _$ _$ _$ _$ _$ _$ _$ _$ _$ _$ _$ _$ _$ _$ _$ _$ _$ _$ _$ _$ _$ _$ _$ _$ _$ _$ _$ /# B  k) l) m) n) n) n) n) n) n) n) n) n) n) n) n) n) n) n) n) n) n) n) n) n) n) n) n) n) n) n) n) n) n) n) n) n) n) n) n) n) n) n) n) n) n) n) n) o) p) p) o) n) q) q) r) q) s) s) s) s) s) t) u) v) w) w) w) w) w) w) x) x) x) x) y) y) z) y) y) y) y) y) y) y) A) A) A) A) A) A) A) A) A) A) A) A) A) A) A) A) A) A) A) A) A) A) A) A) A) A) A) A) A) A) A) A) y) y) y) y) y) y) y) y) y) x) x) x) x) x) w) w) w) w) w) B) B) u) t) s) s) s) s) s) q) q) q) n) n) o) p) p) n) n) n) n) n) n) n) n) n) n) n) n) n) n) n) n) n) n) n) n) n) n) n) n) n) n) n) n) n) n) n) n) n) n) n) n) n) n) n) n) n) n) n) n) n) n) n) n) n) n) n) n) n) n) n) C) D) E) *@ _$ _$ _$ _$ _$ _$ _$ _$ _$ _$ _$ _$ _$ _$ _$ _$ _$ _$ _$ _$ _$ _$ _$ _$ _$ _$ _$ _$ _$ _$ _$ _$ _$ _$ _$ _$ _$ _$ _$ _$ _$ _$ _$ _$ _$ _$ _$ _$ _$ _$ _$ _$ _$ _$ _$ _$ _$ _$ _$ _$ _$ _$ _$ _$ _$ _$ _$ _$ _$ _$ _$ _$ _$ _$ _$ _$ _$ _$ _$ _$ _$ A$ c= c= D$ Y$ F) G) ~'  .  .  .  .  .  .  .  . $) $) b' b' b' b' b' e' e@ e@ e@ H) c) I) W# W# W# W# W# W# W# W# W# W# &. &. &. &. &. &. &. &. &. &. &. &. W# W# W# y' ^' d) k# k# J) K) ^' ^' ^' ^' ^' ^' ^' ",
"$  $  $  $  $  $  $  $  $  6% 7% 7% 7% z' l@ h' n> L) *  *  M) )  (@ $' $' $' $' $' $' $' $' $' $' $' $' b& )  )  )  )  )  )  )  )  )  )  )  )  )  )  )  )  )  )   @ ~  ~  ~  ~  ~  N) D. <  <  <  <  <  <  <  <  <  <  <  <  <  <  <  <  <  <  <  <  <  <  <  <  <  <  <  <  <  }  <  <  <  <  <  <  <  <  <  <  <  <  |+ g& ~% _$ _$ _$ _$ _$ _$ _$ _$ _$ _$ _$ _$ _$ _$ _$ _$ _$ _$ _$ _$ _$ _$ _$ _$ _$ _$ _$ _$ _$ _$ _$ _$ _$ _$ _$ _$ _$ _$ _$ _$ _$ P# $+ k) k) k) O) n) n) n) n) n) n) n) n) n) n) n) n) n) n) n) n) n) n) n) n) n) n) n) n) n) n) n) n) n) n) n) n) n) n) n) n) n) n) n) n) n) n) n) n) n) n) n) n) n) n) n) n) n) n) n) n) n) n) n) n) n) n) n) n) n) n) n) n) n) n) n) n) n) n) p) p) p) p) p) p) p) p) p) p) p) p) p) p) n) n) n) n) n) n) n) n) n) n) n) n) n) n) n) n) n) n) p) p) p) p) p) p) p) p) p) p) p) p) p) p) n) n) n) n) n) n) n) n) n) n) n) n) n) n) n) n) n) n) n) n) n) n) n) n) n) n) n) n) n) n) n) n) n) n) n) n) n) n) n) n) n) n) n) n) n) n) n) n) n) n) n) n) n) n) n) n) n) n) n) n) n) n) n) n) n) n) n) n) n) n) n) n) n) n) n) n) n) n) n) n) n) n) n) P) Q) k) k) a. e# _$ _$ _$ _$ _$ _$ _$ _$ _$ _$ _$ _$ _$ _$ _$ _$ _$ _$ _$ _$ _$ _$ _$ _$ _$ _$ _$ _$ _$ _$ _$ _$ _$ _$ _$ _$ _$ _$ _$ _$ _$ _$ _$ _$ _$ _$ _$ _$ _$ _$ _$ _$ _$ _$ _$ _$ _$ _$ _$ _$ _$ _$ _$ _$ _$ _$ _$ _$ _$ _$ _$ _$ _$ _$ _$ _$ _$ _$ _$ _$ _$ c= c= C$ R) S) T) T#  .  .  .  .  .  .  . U) $) $) b' b' b' b' b' e@ e@ e@ e@ e@ c) V) W# W# W# W# W# W# W# W# W# W# j$ &. &. &. &. &. &. &. &. &. &. j$ W# W# W# .' ^' d) k# k# k# k# W) e) ^' ^' ^' ^' ^' ",
"$  $  $  $  $  $  $  $  $  $  @> 7% 7% 7% X) n> n> #' *  *  Y) )  $' $' $' $' $' $' $' $' $' $' $' $' $' b& )  )  )  )  )  )  )  )  )  )  )  )  )  )  )  )  )  )  )  ~  ~  ~  ~  :@ Z) }  <  <  <  <  <  <  <  <  <  <  <  <  <  <  <  <  <  <  <  <  <  <  <  <  <  <  <  <  <  <  <  s@ s@ |+ _  _  g& g& g& r* r* .* q- Y  x# _$ _$ _$ _$ _$ _$ _$ _$ _$ _$ _$ _$ _$ _$ _$ _$ _$ _$ _$ _$ _$ _$ _$ _$ _$ _$ _$ _$ _$ _$ _$ _$ _$ _$ _$ _$ _$ _$ _$ _$ P# h+ `)  ! k) k) Q) m) n) n) n) n) n) n) n) n) n) n) n) n) n) n) n) n) n) n) n) n) n) n) n) n) n) n) n) n) n) n) n) n) n) n) n) n) n) n) n) n) n) n) n) n) n) n) n) n) n) n) n) n) n) n) n) n) n) n) n) n) n) n) n) n) n) n) n) n) n) n) n) n) n) n) n) n) n) n) n) n) n) n) n) n) n) n) n) n) n) n) n) n) n) n) n) n) n) n) n) n) n) n) n) n) n) n) n) n) n) n) n) n) n) n) n) n) n) n) n) n) n) n) n) n) n) n) n) n) n) n) n) n) n) n) n) n) n) n) n) n) n) n) n) n) n) n) n) n) n) n) n) n) n) n) n) n) n) n) n) n) n) n) n) n) n) n) n) n) n) n) n) n) n) n) n) n) n) n) n) n) n) n) n) n) n) n) n) n) n) n) n) n) n) n) n) n) n) n) n) n) n) n) .! k) k)  ! +! @! e# _$ _$ _$ _$ _$ _$ _$ _$ _$ _$ _$ _$ _$ _$ _$ _$ _$ _$ _$ _$ _$ _$ _$ _$ _$ _$ _$ _$ _$ _$ _$ _$ _$ _$ _$ _$ _$ _$ _$ _$ _$ _$ _$ _$ _$ _$ _$ _$ _$ _$ _$ _$ _$ _$ _$ _$ _$ _$ _$ _$ _$ _$ _$ _$ _$ _$ _$ _$ _$ _$ _$ _$ _$ _$ _$ _$ _$ _$ _$ _$ _$ _$ A$ B$ W$ #! +# ~'  .  .  .  .  .  . $! $) %! b' b' b' b' &! e@ e@ e@ e@ e@ *! c) ]+ W# W# W# W# W# W# W# W# W# W# F# &. &. &. &. &. &. &. &. i= W# W# W# W# =! ^' d) k# k# k# k# k# k# -! ^' ^' ^' ^' ",
"$  $  $  $  $  $  $  $  $  $  z% 7% 7% 7% ;! n> n> #' *  *  e; I, $' $' $' $' $' $' $' $' $' $' $' $' $' j' )  )  )  )  )  )  )  )  )  )  )  )  )  )  )  )  )  )  !  ~  ~  ~  ~  %> >! <  <  <  <  <  <  <  <  <  <  <  <  <  <  <  <  <  <  <  <  <  <  <  <  <  <  <  <  <  <  <  r* T$ Y  =$ Y@ x# x# x# x# x# x# x# x# _$ _$ _$ _$ _$ _$ _$ _$ _$ _$ _$ _$ _$ _$ _$ _$ _$ _$ _$ _$ _$ _$ _$ _$ _$ _$ _$ _$ _$ _$ _$ _$ _$ _$ _$ _$ _$ _$ _$ _$ _$ P# $+ +! k) k) k) k) k) Q) m) n) n) n) n) n) n) n) n) n) n) n) n) n) n) n) n) n) n) n) n) n) n) n) n) n) n) n) n) n) n) n) n) n) n) n) n) n) n) n) n) n) n) n) n) n) n) n) n) n) n) n) n) n) n) n) n) n) n) n) n) n) n) n) n) n) n) n) n) n) n) n) n) n) n) n) n) n) n) n) n) n) n) n) n) n) n) n) n) n) n) n) n) n) n) n) n) n) n) n) n) n) n) n) n) n) n) n) n) n) n) n) n) n) n) n) n) n) n) n) n) n) n) n) n) n) n) n) n) n) n) n) n) n) n) n) n) n) n) n) n) n) n) n) n) n) n) n) n) n) n) n) n) n) n) n) n) n) n) n) n) n) n) n) n) n) n) n) n) n) n) n) n) n) n) n) n) n) n) n) n) n) n) n) n) n) n) n) n) n) n) n) n) n) n) n) n) n) n) n) n) .! k) k) k) k) k) ,! Y. /# _$ _$ _$ _$ _$ _$ _$ _$ _$ _$ _$ _$ _$ _$ _$ _$ _$ _$ _$ _$ _$ _$ _$ _$ _$ _$ _$ _$ _$ _$ _$ _$ _$ _$ _$ _$ _$ _$ _$ _$ _$ _$ _$ _$ _$ _$ _$ _$ _$ _$ _$ _$ _$ _$ _$ _$ _$ _$ _$ _$ _$ _$ _$ _$ _$ _$ _$ _$ _$ _$ _$ _$ _$ _$ _$ _$ _$ _$ _$ _$ _$ _$ A$ V, F) f= h$  .  .  .  .  .  . $! $) '! b' b' )! !! ~! e@ e@ e@ e@ e@ {! c) ]! W# W# W# W# W# W# W# W# W# W# W# W# W# V# T# j$ F# i= F# W# W# W# W# W# ]' ^' d) k# k# k# k# k# k# k# -! ^' ^' ^' ",
"$  $  $  $  $  $  $  $  $  $  $  _' 7% 7% ;! n> n> #' *  *  c& ^! $' $' $' $' $' $' $' $' $' $' $' $' $' }' )  )  )  )  )  )  )  )  )  )  )  )  )  )  )  )  )  )  G+ ~  ~  ~  ~  /! a% <  <  <  <  <  <  <  <  <  <  <  <  <  <  <  <  <  <  <  <  <  <  <  <  <  <  <  <  <  .* :# x# x# %$ _$ _$ _$ _$ _$ _$ _$ _$ _$ _$ _$ _$ _$ _$ _$ _$ _$ _$ _$ _$ _$ _$ _$ _$ _$ _$ _$ _$ _$ _$ _$ _$ _$ _$ _$ _$ _$ _$ _$ _$ _$ _$ _$ _$ _$ _$ _$ _$ _$ _$ _$ N+ (! k) k) k) k) k) k) k) C) m) n) n) n) n) n) n) n) n) n) n) n) n) n) n) n) n) n) n) n) n) n) n) n) n) n) n) n) n) n) n) n) n) n) n) n) n) n) n) n) n) n) n) n) n) n) n) n) n) n) n) n) n) n) n) n) n) n) n) n) n) n) n) n) n) n) n) n) n) n) n) n) n) n) n) n) n) n) n) n) n) n) n) n) n) n) n) n) n) n) n) n) n) n) n) n) n) n) n) n) n) n) n) n) n) n) n) n) n) n) n) n) n) n) n) n) n) n) n) n) n) n) n) n) n) n) n) n) n) n) n) n) n) n) n) n) n) n) n) n) n) n) n) n) n) n) n) n) n) n) n) n) n) n) n) n) n) n) n) n) n) n) n) n) n) n) n) n) n) n) n) n) n) n) n) n) n) n) n) n) n) n) n) n) n) n) n) n) n) n) n) n) n) n) n) n) n) n) n) _! Q) k) k) k) k) k) k) :! <! P# _$ _$ _$ _$ _$ _$ _$ _$ _$ _$ _$ _$ _$ _$ _$ _$ _$ _$ _$ _$ _$ _$ _$ _$ _$ _$ _$ _$ _$ _$ _$ _$ _$ _$ _$ _$ _$ _$ _$ _$ _$ _$ _$ _$ _$ _$ _$ _$ _$ _$ _$ _$ _$ _$ _$ _$ _$ _$ _$ _$ _$ _$ _$ _$ _$ _$ _$ _$ _$ _$ _$ _$ _$ _$ _$ _$ _$ _$ _$ _$ A$ B$ [! N' }! T#  .  .  .  .  .  . v' $) |! b' 1! 2! ~! ~! e@ e@ e@ e@ e@ 3! c) 4! W# W# W# W# W# W# W# W# W# W# W# W# W# W# W# W# W# W# W# W# W# W# W# W# ^' ^' d) k# k# k# k# k# k# k# k# -! ^' ^' ",
"$  $  $  $  $  $  $  $  $  $  $  z% 7% 7% 5! n> n> #' *  *  6! 7! 7! 8! 9! $' $' $' $' $' $' $' $' $' $' }' )  )  )  )  )  )  )  )  )  )  )  )  )  )  )  )  )  )  ~  ~  ~  ~  H+ 0! <  <  <  <  <  <  <  <  <  <  <  <  <  <  <  <  <  <  <  <  <  <  <  <  <  <  <  <  _  ,) Y@ %$ _$ _$ _$ _$ _$ _$ _$ _$ _$ _$ _$ _$ _$ _$ _$ _$ _$ _$ _$ _$ _$ _$ _$ _$ _$ _$ _$ _$ _$ _$ _$ _$ _$ _$ _$ _$ _$ _$ _$ _$ _$ _$ _$ _$ _$ _$ _$ _$ _$ _$ _$ _$ _$ y@ a! k) k) k) k) k) k) k) k) b! q) n) n) n) n) n) n) n) n) n) n) n) n) n) n) n) n) n) n) n) n) n) n) n) n) n) n) n) n) n) n) n) n) n) n) n) n) n) n) n) n) n) n) n) n) n) n) n) n) n) n) n) n) n) n) n) n) n) n) n) n) n) n) n) n) n) n) n) n) n) n) n) n) n) n) n) n) n) n) n) n) n) n) n) n) n) n) n) n) n) n) n) n) n) n) n) n) n) n) n) n) n) n) n) n) n) n) n) n) n) n) n) n) n) n) n) n) n) n) n) n) n) n) n) n) n) n) n) n) n) n) n) n) n) n) n) n) n) n) n) n) n) n) n) n) n) n) n) n) n) n) n) n) n) n) n) n) n) n) n) n) n) n) n) n) n) n) n) n) n) n) n) n) n) n) n) n) n) n) n) n) n) n) n) n) n) n) n) n) n) n) n) n) n) n) n) n) n) n) c! k) k) k) k) k) k) k) k) ~) M+ x# _$ _$ _$ _$ _$ _$ _$ _$ _$ _$ _$ _$ _$ _$ _$ _$ _$ _$ _$ _$ _$ _$ _$ _$ _$ _$ _$ _$ _$ _$ _$ _$ _$ _$ _$ _$ _$ _$ _$ _$ _$ _$ _$ _$ _$ _$ _$ _$ _$ _$ _$ _$ _$ _$ _$ _$ _$ _$ _$ _$ _$ _$ _$ _$ _$ _$ _$ _$ _$ _$ _$ _$ _$ _$ _$ _$ _$ _$ _$ A$ A$ A$ ,' d! j# ~'  .  .  .  .  .  . $) e! b' f! ~! ~! ~! e@ e@ e@ e@ e@ g! c) h! W# W# W# W# W# W# W# W# W# W# W# W# W# W# W# W# W# W# W# W# W# W# W# W# ]' ^' -! k# k# k# k# k# k# k# k# k# -! ^' ",
"$  $  $  $  $  $  $  $  $  $  $  $  i! 7% j! n> n> k! l! m! n! 7! 7! 7! 7! 9! $' $' $' $' $' $' $' $' $' (@ )  )  )  )  )  )  )  )  )  )  )  )  )  )  )  )  )  )  ~  ~  ~  ~  o! p! <  <  <  <  <  <  <  <  <  <  <  <  <  <  <  <  <  <  <  <  <  <  <  <  <  <  <  .* U$ x# _$ _$ _$ _$ _$ _$ _$ _$ _$ _$ _$ _$ _$ _$ _$ _$ _$ _$ _$ _$ _$ _$ _$ _$ _$ _$ _$ _$ _$ _$ _$ _$ _$ _$ _$ _$ _$ _$ _$ _$ _$ _$ _$ _$ _$ _$ _$ _$ _$ _$ _$ _$ _$ _$ y@ q! k) k) k) k) k) k) k) k) k) k) l) m) n) n) n) n) n) n) n) n) n) n) n) n) n) n) n) n) n) n) n) n) n) n) n) n) n) n) n) n) n) n) n) n) n) n) n) n) n) n) n) n) n) n) n) n) n) n) n) n) n) n) n) n) n) n) n) n) n) n) n) n) n) n) n) n) n) n) n) n) n) n) n) n) n) n) n) n) n) n) n) n) n) n) n) n) n) n) n) n) n) n) n) n) n) n) n) n) n) n) n) n) n) n) n) n) n) n) n) n) n) n) n) n) n) n) n) n) n) n) n) n) n) n) n) n) n) n) n) n) n) n) n) n) n) n) n) n) n) n) n) n) n) n) n) n) n) n) n) n) n) n) n) n) n) n) n) n) n) n) n) n) n) n) n) n) n) n) n) n) n) n) n) n) n) n) n) n) n) n) n) n) n) n) n) n) n) n) n) n) n) n) n) n) n) n) n) n) .! k) k) k) k) k) k) k) k) k) k) r! M+ x# _$ _$ _$ _$ _$ _$ _$ _$ _$ _$ _$ _$ _$ _$ _$ _$ _$ _$ _$ _$ _$ _$ _$ _$ _$ _$ _$ _$ _$ _$ _$ _$ _$ _$ _$ _$ _$ _$ _$ _$ _$ _$ _$ _$ _$ _$ _$ _$ _$ _$ _$ _$ _$ _$ _$ _$ _$ _$ _$ _$ _$ _$ _$ _$ _$ _$ _$ _$ _$ _$ _$ _$ _$ _$ _$ _$ _$ _$ A$ A$ =% B$ s! t! T#  .  .  .  .  .  . $) u! b' ~! ~! ~! ~! e@ e@ e@ e@ e@ e@ c) &) W# W# W# W# W# W# W# W# W# W# W# W# W# W# W# W# W# W# W# W# W# W# W# W# =! ^' ^' k# k# k# k# k# k# k# k# k# k# K) ",
"$  $  $  $  $  $  $  $  $  $  $  $  k@ 7% m> n> n> v! k! k! w! 7! 7! 7! 7! 7! 9! $' $' $' $' $' $' $' $' I, )  )  )  )  )  )  )  )  )  )  )  )  )  )  )  )  )  )  )  )  _@ ~  }+ ]$ <  <  <  <  <  <  <  <  <  <  |  <  <  <  {. {. <  <  <  <  <  <  <  <  <  <  ~% =$ %$ _$ _$ _$ _$ _$ _$ _$ _$ _$ _$ _$ _$ _$ _$ _$ _$ _$ _$ _$ _$ _$ _$ _$ _$ _$ _$ _$ _$ _$ _$ _$ _$ _$ _$ _$ _$ _$ _$ _$ _$ _$ _$ _$ _$ _$ _$ _$ _$ _$ _$ _$ _$ _$ _$ 5@ x! k) k) k) k) k) k) k) k) k) k) k) k) l) m) n) m) m) m) m) m) m) m) m) m) m) m) m) m) m) m) m) m) m) m) m) m) m) m) m) m) m) m) m) m) m) m) m) m) m) m) m) m) m) m) m) m) m) m) m) m) m) m) m) m) m) m) m) m) m) m) m) m) m) m) m) m) m) m) m) m) m) m) m) m) m) m) m) m) m) m) m) m) m) m) m) m) m) m) m) m) m) m) m) m) m) m) m) m) m) m) m) m) m) m) m) m) m) m) m) m) m) m) m) m) m) m) m) m) m) m) m) m) m) m) m) m) m) m) m) m) m) m) m) m) m) m) m) m) m) m) m) m) m) m) m) m) m) m) m) m) m) m) m) m) m) m) m) m) m) m) m) m) m) m) m) m) m) m) m) m) m) m) m) m) m) m) m) m) m) m) m) m) m) m) m) m) m) m) m) m) m) m) m) m) m) m) n) n) O) D) k) k) k) k) k) k) k) k) k) k) k) r! n+ x# _$ _$ _$ _$ _$ _$ _$ _$ _$ _$ _$ _$ _$ _$ _$ _$ _$ _$ _$ _$ _$ _$ _$ _$ _$ _$ _$ _$ _$ _$ _$ _$ _$ _$ _$ _$ _$ _$ _$ _$ _$ _$ _$ _$ _$ _$ _$ _$ _$ _$ _$ _$ _$ _$ _$ _$ _$ _$ _$ _$ _$ _$ _$ _$ _$ _$ _$ _$ _$ _$ _$ _$ _$ _$ _$ _$ _$ _$ A$ =% A$ y! z! F,  .  .  .  .  .  . $) A! &! ~! ~! ~! ~! e@ e@ e@ e@ e@ e@ B! C! W# W# W# W# W# W# W# W# W# W# W# W# W# W# W# W# W# W# W# W# W# W# W# W# =! ^' ^' k# k# k# k# k# k# k# k# k# k# k# ",
"k@ $  $  $  $  $  $  $  $  $  $  $  $  D! n> n> n> E! k! k! k! F! 7! 7! 7! 7! 8! G! $' $' $' $' $' $' $' $' )  )  )  )  )  )  )  )  )  )  )  )  )  )  )  )  )  )  )  )  )  H! I! <  <  <  <  <  <  <  <  |  |  1+ {. {. {. <  ]. {. <  <  <  <  <  <  <  ]. r* o' y# _$ _$ _$ _$ _$ _$ _$ _$ _$ _$ _$ _$ _$ _$ _$ _$ _$ _$ _$ _$ _$ _$ _$ _$ _$ _$ _$ _$ _$ _$ _$ _$ _$ _$ _$ _$ _$ _$ _$ _$ _$ _$ _$ _$ _$ _$ _$ _$ _$ _$ _$ _$ _$ _$ _$ /# ') ,! k) k) k) k) k) k) k) k) k) k) k) k) J! x! U@ O# O# O# O# O# O# O# O# O# O# O# O# O# O# O# O# O# O# O# O# O# O# O# O# O# O# O# O# O# O# O# O# O# O# O# O# O# O# O# O# O# O# O# O# O# O# O# O# O# O# O# O# O# O# O# O# O# O# O# O# O# O# O# O# O# O# O# O# O# O# O# O# O# O# O# O# O# O# O# O# O# O# O# O# O# O# O# O# O# O# O# O# O# O# O# O# O# O# O# O# O# O# O# O# O# O# O# O# O# O# O# O# O# O# O# O# O# O# O# O# O# O# O# O# O# O# O# O# O# O# O# O# O# O# O# O# O# O# O# O# O# O# O# O# O# O# O# O# O# O# O# O# O# O# O# O# O# O# O# O# O# O# O# O# O# O# O# O# O# O# O# O# O# O# O# O# O# O# O# O# O# O# O# O# O# O# O# O# O# O# O# 5@ K! +! k) k) k) k) k) k) k) k) k) k) k) k) k) L! O# _$ _$ _$ _$ _$ _$ _$ _$ _$ _$ _$ _$ _$ _$ _$ _$ _$ _$ _$ _$ _$ _$ _$ _$ _$ _$ _$ _$ _$ _$ _$ _$ _$ _$ _$ _$ _$ _$ _$ _$ _$ _$ _$ _$ _$ _$ _$ _$ _$ _$ _$ _$ _$ _$ _$ _$ _$ _$ _$ _$ _$ _$ _$ _$ _$ _$ _$ _$ _$ _$ _$ _$ _$ _$ _$ _$ _$ _$ _$ A$ A$ M! N! O!  .  .  .  .  .  . '! b' P! ~! ~! ~! ~! e@ e@ e@ e@ e@ e@ Q! c) W# W# W# W# W# W# W# W# W# W# W# W# W# W# W# W# W# W# W# W# W# W# W# W# =! ^' ^' J) k# k# k# k# k# k# k# k# k# k# ",
"R! S! k- $  $  $  $  $  $  $  $  $  $  T! n> n> n> U! k! k! k! V! 7! 7! 7! 7! 7! W! $' $' $' $' $' $' $' $' I, )  )  )  )  )  )  )  )  )  )  )  )  )  )  )  )  )  )  )  !  X! q@ <  <  <  <  <  <  <  <  {. 1+ 1+ 1+ {. 2  2  1+ ]. <  <  <  <  <  <  <  Y! U$ x# _$ _$ _$ _$ _$ _$ _$ _$ _$ _$ _$ _$ _$ _$ _$ _$ _$ _$ _$ _$ _$ _$ _$ _$ _$ _$ _$ _$ _$ _$ _$ _$ _$ _$ _$ _$ _$ _$ _$ _$ _$ _$ _$ _$ _$ _$ _$ _$ _$ _$ _$ _$ _$ _$ _$ P# B  +! k) k) k) k) k) k) k) k) k) k) k) k) Q) Y. Z! `! x# %$ %$ %$ %$ %$ %$ %$ %$ %$ %$ %$ %$ %$ %$ %$ %$ %$ %$ %$ %$ %$ %$ %$ %$ %$ %$ %$ %$ %$ %$ %$ %$ %$ %$ %$ %$ %$ %$ %$ %$ %$ %$ %$ %$ %$ %$ %$ %$ %$ %$ %$ %$ %$ %$ %$ %$ %$ %$ %$ %$ %$ %$ %$ %$ %$ %$ %$ %$ %$ %$ %$ %$ %$ %$ %$ %$ %$ %$ %$ %$ %$ %$ %$ %$ %$ %$ %$ %$ %$ %$ %$ %$ %$ %$ %$ %$ %$ %$ %$ %$ %$ %$ %$ %$ %$ %$ %$ %$ %$ %$ %$ %$ %$ %$ %$ %$ %$ %$ %$ %$ %$ %$ %$ %$ %$ %$ %$ %$ %$ %$ %$ %$ %$ %$ %$ %$ %$ %$ %$ %$ %$ %$ %$ %$ %$ %$ %$ %$ %$ %$ %$ %$ %$ %$ %$ %$ %$ %$ %$ %$ %$ %$ %$ %$ %$ %$ %$ %$ %$ %$ %$ %$ %$ %$ %$ %$ %$ %$ %$ %$ %$ %$ %$ %$ %$ %$ %$ %$ %$ %$ C$  ~ q! `) k) k) k) k) k) k) k) k) k) k) k) k) .~ +~ 5@ _$ _$ _$ _$ _$ _$ _$ _$ _$ _$ _$ _$ _$ _$ _$ _$ _$ _$ _$ _$ _$ _$ _$ _$ _$ _$ _$ _$ _$ _$ _$ _$ _$ _$ _$ _$ _$ _$ _$ _$ _$ _$ _$ _$ _$ _$ _$ _$ _$ _$ _$ _$ _$ _$ _$ _$ _$ _$ _$ _$ _$ _$ _$ _$ _$ _$ _$ _$ _$ _$ _$ _$ _$ _$ _$ _$ _$ &$ _$ A$ M! @~ #~ $~ %~ &~ *~ ]+  . =~ b' -~ ~! ~! ~! ~! e@ e@ e@ e@ e@ e@ ;~ c) ]+ W# W# W# W# W# W# W# W# W# W# W# W# W# W# W# W# W# W# W# W# W# W# W# +' ^' ^' J) k# k# k# k# k# k# k# k# k# k# ",
"R! R! R! R! J) >~ >~ ,~ S! R! R! >~ $  T! n> n> n> '~ k! k! k! )~ !~ 7! 7! 7! 7! 7! ~~ $' $' $' $' $' $' $' $' }' )  )  )  )  )  )  )  )  )  )  )  )  )  )  )  )  )  )  ;# {~ ]$ <  <  <  <  <  <  <  {. /$ /$ 2+ ^. 4  4  2+ 2  2  ]. <  <  <  <  g& ,) =$ _$ _$ _$ _$ _$ _$ _$ _$ _$ _$ _$ _$ _$ _$ _$ _$ _$ _$ _$ _$ _$ _$ _$ _$ _$ _$ _$ _$ _$ _$ _$ _$ _$ _$ _$ _$ _$ _$ _$ _$ _$ _$ _$ _$ _$ _$ _$ _$ _$ _$ _$ _$ _$ _$ _$ _$ P# h+ :!  ! k) k) k) k) k) k) k) k) k) k) k) k) ]~ ^~ /~ (~ m+ t# t# t# t# t# t# t# t# t# t# t# t# t# t# t# t# t# t# t# t# t# t# t# t# t# t# t# t# t# t# t# t# t# t# t# t# t# t# t# t# t# t# t# t# t# t# t# t# t# t# t# t# t# t# t# t# t# t# t# t# t# t# t# t# t# t# t# t# t# t# t# t# t# t# t# t# t# t# t# t# t# t# t# t# t# t# t# t# t# t# t# t# t# t# t# t# t# t# t# t# t# t# t# t# t# t# t# t# t# t# t# t# t# t# t# t# t# t# t# t# t# t# t# t# t# t# t# t# t# t# t# t# t# t# t# t# t# t# t# t# t# t# t# t# t# t# t# t# t# t# t# t# t# t# t# t# t# t# t# t# t# t# t# t# t# t# t# t# t# t# t# t# t# t# t# t# t# t# t# t# t# t# t# t# t# t# t# t# t# t# 6@ _~ <! :~ k) k) k) k) k) k) k) k) k) k) k) k) k) b! b. v# _$ _$ _$ _$ _$ _$ _$ _$ _$ _$ _$ _$ _$ _$ _$ _$ _$ _$ _$ _$ _$ _$ _$ _$ _$ _$ _$ _$ _$ _$ _$ _$ _$ _$ _$ _$ _$ _$ _$ _$ _$ _$ _$ _$ _$ _$ _$ _$ _$ _$ _$ _$ _$ _$ _$ _$ _$ _$ _$ _$ _$ _$ _$ _$ _$ _$ _$ _$ _$ _$ _$ _$ _$ _$ _$ _$ &$ &$ _$ D$ <~ T) v' *# *# *# *# *# [~ b' }~ ~! ~! ~! ~! e@ e@ e@ e@ e@ e@ |~ c) ]! W# W# W# W# W# W# W# W# W# W# W# W# W# W# W# W# W# W# W# W# W# W# W# ^' ^' ^' >~ k# k# k# k# k# k# k# k# k# k# ",
"R! R! R! R! R! R! R! R! R! R! R! R! >~ T! n> n> n> '~ 1~ k! 2~ 3~ 4~ !~ 7! 7! 7! 7! 7! 9! $' $' $' $' $' $' $' b& )  )  )  )  )  )  )  )  )  )  )  )  )  )  )  )  )  G+ w$ 5~ <  <  <  <  <  <  1+ 2+ 2+ ^. /. /. |@ (. /. 4  2  2  2  <  <  r* T$ Y  x# _$ _$ _$ _$ _$ _$ _$ _$ _$ _$ _$ _$ _$ _$ _$ _$ _$ _$ _$ _$ _$ _$ _$ _$ _$ _$ _$ _$ _$ _$ _$ _$ _$ _$ _$ _$ _$ _$ _$ _$ _$ _$ _$ _$ _$ _$ _$ _$ _$ _$ _$ _$ _$ _$ _$ _$ _$ M+ 6~ k) k) k) k) k) k) k) k) k) k) k) k) `) 7~ 8~ 9~ 0~ m+ =@ =@ =@ =@ =@ =@ =@ =@ =@ =@ =@ =@ =@ =@ =@ =@ =@ =@ =@ =@ =@ =@ =@ =@ =@ =@ =@ =@ =@ =@ =@ =@ =@ =@ =@ =@ =@ =@ =@ =@ =@ =@ =@ =@ =@ =@ =@ =@ =@ =@ =@ =@ =@ =@ =@ =@ =@ =@ =@ =@ =@ =@ =@ =@ =@ =@ =@ =@ =@ =@ =@ =@ =@ =@ =@ =@ =@ =@ =@ =@ =@ =@ =@ =@ =@ =@ =@ =@ =@ =@ =@ =@ =@ =@ =@ =@ =@ =@ =@ =@ =@ =@ =@ =@ =@ =@ =@ =@ =@ =@ =@ =@ =@ =@ =@ =@ =@ =@ =@ =@ =@ =@ =@ =@ =@ =@ =@ =@ =@ =@ =@ =@ =@ =@ =@ =@ =@ =@ =@ =@ =@ =@ =@ =@ =@ =@ =@ =@ =@ =@ =@ =@ =@ =@ =@ =@ =@ =@ =@ =@ =@ =@ =@ =@ =@ =@ =@ =@ =@ =@ =@ =@ =@ =@ =@ =@ =@ =@ =@ =@ =@ =@ =@ =@ =@ =@ =@ =@ =@ =@ =@ =@ =@ U@ e+ :~ k) k) k) k) k) k) k) k) k) k) k) k) k) `) <! /# _$ _$ _$ _$ _$ _$ _$ _$ _$ _$ _$ _$ _$ _$ _$ _$ _$ _$ _$ _$ _$ _$ _$ _$ _$ _$ _$ _$ _$ _$ _$ _$ _$ _$ _$ _$ _$ _$ _$ _$ _$ _$ _$ _$ _$ _$ _$ _$ _$ _$ _$ _$ _$ _$ _$ _$ _$ _$ _$ _$ _$ _$ _$ _$ _$ _$ _$ _$ _$ _$ _$ _$ _$ _$ _$ &$ &$ _$ A$ V, a~  ' *# *# *# *# b~ b' b' }~ ~! ~! ~! ~! e@ e@ e@ e@ e@ e@ |~ c) ]! W# W# W# W# W# W# W# W# W# W# W# W# W# W# W# W# W# W# W# W# W# W# c~ ^' ^' ^' d~ k# k# k# k# k# k# k# k# k# k# ",
"R! R! R! R! R! R! R! R! R! R! R! R! S! T! n> n> e~ '~ 1~ k! f~ g~ g~ 4~ h~ 7! 7! 7! 7! 8! $' $' $' $' $' $' $' +$ )  )  )  )  )  )  )  )  )  )  )  )  )  )  )  )  G+ :@ i~ #$ <  <  <  |  1+ 2+ ^. j~ k~ 3+ 3+ l~ 3+ L+ L+ M# L# 2  2  g& T$ U$ %$ _$ _$ _$ _$ _$ _$ _$ _$ _$ _$ _$ _$ _$ _$ _$ _$ _$ _$ _$ _$ _$ _$ _$ _$ _$ _$ _$ _$ _$ _$ _$ _$ _$ _$ _$ _$ _$ _$ _$ _$ _$ _$ _$ _$ _$ _$ _$ _$ _$ _$ _$ _$ _$ _$ _$ _$ _$ _$ y@ 8) k) k) k) k) k) k) k) k) k) k) k) k) `) `) m~ n~ o~ m+ -@ -@ -@ -@ -@ -@ -@ -@ -@ -@ -@ -@ -@ -@ -@ -@ -@ -@ -@ -@ -@ -@ -@ -@ -@ -@ -@ -@ -@ -@ -@ -@ -@ -@ -@ -@ -@ -@ -@ -@ -@ -@ -@ -@ -@ -@ -@ -@ -@ -@ -@ -@ -@ -@ -@ -@ -@ -@ -@ -@ -@ -@ -@ -@ -@ -@ -@ -@ -@ -@ -@ -@ -@ -@ -@ -@ -@ -@ -@ -@ -@ -@ -@ -@ -@ -@ -@ -@ -@ -@ -@ -@ -@ -@ -@ -@ -@ -@ -@ -@ -@ -@ -@ -@ -@ -@ -@ -@ -@ -@ -@ -@ -@ -@ -@ -@ -@ -@ -@ -@ -@ -@ -@ -@ -@ -@ -@ -@ -@ -@ -@ -@ -@ -@ -@ -@ -@ -@ -@ -@ -@ -@ -@ -@ -@ -@ -@ -@ -@ -@ -@ -@ -@ -@ -@ -@ -@ -@ -@ -@ -@ -@ -@ -@ -@ -@ -@ -@ -@ -@ -@ -@ -@ -@ -@ -@ -@ -@ -@ -@ -@ -@ -@ -@ -@ -@ -@ -@ -@ -@ -@ -@ -@ -@ -@ K! p~ +! k) k) k) k) k) k) k) k) k) k) k) k) k) +! q~ /# _$ _$ _$ _$ _$ _$ _$ _$ _$ _$ _$ _$ _$ _$ _$ _$ _$ _$ _$ _$ _$ _$ _$ _$ _$ _$ _$ _$ _$ _$ _$ _$ _$ _$ _$ _$ _$ _$ _$ _$ _$ _$ _$ _$ _$ _$ _$ _$ _$ _$ _$ _$ _$ _$ _$ _$ _$ _$ _$ _$ _$ _$ _$ _$ _$ _$ _$ _$ _$ _$ _$ _$ _$ _$ _$ _$ _$ H$ H$ r~ s~ t~ *# *# *# u~ b' b' ~! ~! ~! ~! v~ e@ e@ e@ e@ e@ e@ |~ c) ]! W# W# W# W# W# W# W# W# W# W# W# W# W# W# W# W# W# W# W# W# W# W# w~ ^' ^' ^' d~ k# k# k# k# k# k# k# k# k# k# ",
"R! R! R! R! R! R! R! R! R! R! R! R! R! x~ n> n> e~ '~ v! k! y~ g~ g~ g~ z~ 7! A~ 7! 7! 7! ~~ $' $' $' $' $' $' +$ )  )  )  )  )  )  )  )  )  )  )  )  )  )  )  )  ~  :@ j) B~ {. ]. 2+ ^. j~ (. L. C~ 9  D~ [. [. 7  7  6  L+ 2  E~ 9$ Y  x# _$ _$ _$ _$ _$ _$ _$ _$ _$ _$ _$ _$ _$ _$ _$ _$ _$ _$ _$ _$ _$ _$ _$ _$ _$ _$ _$ _$ _$ _$ _$ _$ _$ _$ _$ _$ _$ _$ _$ _$ _$ _$ _$ _$ _$ _$ _$ _$ _$ _$ _$ _$ _$ _$ _$ _$ _$ _$ _$ ^# r! k) k) k) k) k) k) k) k) k) k) k) k) k) F~ G~ H~ `! V@ V@ V@ V@ V@ V@ V@ V@ V@ V@ V@ V@ V@ V@ V@ V@ V@ V@ V@ V@ V@ V@ V@ V@ V@ V@ V@ V@ V@ V@ V@ V@ V@ V@ V@ V@ V@ V@ V@ V@ V@ V@ V@ V@ V@ V@ V@ V@ V@ V@ V@ V@ V@ V@ V@ V@ V@ V@ V@ V@ V@ V@ V@ V@ V@ V@ V@ V@ V@ V@ V@ V@ V@ V@ V@ V@ V@ V@ V@ V@ V@ V@ V@ V@ V@ V@ V@ V@ V@ V@ V@ V@ V@ V@ V@ V@ V@ V@ V@ V@ V@ V@ V@ V@ V@ V@ V@ V@ V@ V@ V@ V@ V@ V@ V@ V@ V@ V@ V@ V@ V@ V@ V@ V@ V@ V@ V@ V@ V@ V@ V@ V@ V@ V@ V@ V@ V@ V@ V@ V@ V@ V@ V@ V@ V@ V@ V@ V@ V@ V@ V@ V@ V@ V@ V@ V@ V@ V@ V@ V@ V@ V@ V@ V@ V@ V@ V@ V@ V@ V@ V@ V@ V@ V@ V@ V@ V@ V@ V@ V@ V@ V@ V@ V@ V@ V@ V@ V@ V@ V@ V@ V@ V@ V@ V@ V@ V@ V@ U  ]~ F~ `) I~ k) k) k) k) k) k) k) k) k) k) Q) :! @+ P# _$ _$ _$ _$ _$ _$ _$ _$ _$ _$ _$ _$ _$ _$ _$ _$ _$ _$ _$ _$ _$ _$ _$ _$ _$ _$ _$ _$ _$ _$ _$ _$ _$ _$ _$ _$ _$ _$ _$ _$ _$ _$ _$ _$ _$ _$ _$ _$ _$ _$ _$ _$ _$ _$ _$ _$ _$ _$ _$ _$ _$ _$ _$ _$ _$ _$ _$ _$ _$ _$ _$ _$ _$ _$ _$ _$ _$ z# W, J~ K~ *# *# *# L~ b' b' ~! ~! ~! ~! M~ e@ e@ e@ e@ e@ e@ |~ c) N~ W# W# W# W# W# W# W# W# W# W# W# W# W# W# W# W# W# W# W# W# W# W# ]' ^' ^' ^' O~ k# k# k# k# k# k# k# k# k# k# ",
"R! R! R! R! R! R! R! R! R! R! R! R! R! x~ n> n> P~ '~ k! Q~ g~ g~ g~ g~ g~ R~ S~ T~ U~ 7! 7! G! $' $' $' $' $' b& )  )  )  )  )  )  )  )  )  )  )  )  )  )  )  c& ~  5$ V~ [  W~ k~ X~ c  8  @@ Y~ e  M. v@ @@ 8  [. 3+ /. Z~ `~  { e# _$ _$ _$ _$ _$ _$ _$ _$ _$ _$ _$ _$ _$ _$ _$ _$ _$ _$ _$ _$ _$ _$ _$ _$ _$ _$ _$ _$ _$ _$ _$ _$ _$ _$ _$ _$ _$ _$ _$ _$ _$ _$ _$ _$ _$ _$ _$ _$ _$ _$ _$ _$ _$ _$ _$ _$ _$ _$ _$ %$ ^# +~ k) k) k) k) k) k) k) k) k) k) k) k) k) +! b% .{ +{ Y@ 6@ 6@ 6@ 6@ 6@ 6@ 6@ 6@ 6@ 6@ 6@ 6@ 6@ 6@ 6@ 6@ 6@ 6@ 6@ 6@ 6@ 6@ 6@ 6@ 6@ 6@ 6@ 6@ 6@ 6@ 6@ 6@ 6@ 6@ 6@ 6@ 6@ 6@ 6@ 6@ 6@ 6@ 6@ 6@ 6@ 6@ 6@ 6@ 6@ 6@ 6@ 6@ 6@ 6@ 6@ 6@ 6@ 6@ 6@ 6@ 6@ 6@ 6@ 6@ 6@ 6@ 6@ 6@ 6@ 6@ 6@ 6@ 6@ 6@ 6@ 6@ 6@ 6@ 6@ 6@ 6@ 6@ 6@ 6@ 6@ 6@ 6@ 6@ 6@ 6@ 6@ 6@ 6@ 6@ 6@ 6@ 6@ 6@ 6@ 6@ 6@ 6@ 6@ 6@ 6@ 6@ 6@ 6@ 6@ 6@ 6@ 6@ 6@ 6@ 6@ 6@ 6@ 6@ 6@ 6@ 6@ 6@ 6@ 6@ 6@ 6@ 6@ 6@ 6@ 6@ 6@ 6@ 6@ 6@ 6@ 6@ 6@ 6@ 6@ 6@ 6@ 6@ 6@ 6@ 6@ 6@ 6@ 6@ 6@ 6@ 6@ 6@ 6@ 6@ 6@ 6@ V@ V@ V@ V@ V@ V@ V@ V@ V@ V@ V@ V@ V@ V@ V@ V@ V@ V@ V@ V@ V@ V@ V@ V@ V@ V@ V@ V@ V@ V@ V@ V@ V@ V@ V@ V@ V@ V@ V@ V@ V@ V@ V@ M+ +~ +! @{ k) k) k) k) k) k) k) k) k) k) k) Q) r! M+ P# _$ _$ _$ _$ _$ _$ _$ _$ _$ _$ _$ _$ _$ _$ _$ _$ _$ _$ _$ _$ _$ _$ _$ _$ _$ _$ _$ _$ _$ _$ _$ _$ _$ _$ _$ _$ _$ _$ _$ _$ _$ _$ _$ _$ _$ _$ _$ _$ _$ _$ _$ _$ _$ _$ _$ _$ _$ _$ _$ _$ _$ _$ _$ _$ _$ _$ _$ _$ _$ _$ _$ _$ _$ _$ _$ _$ #{ D$ ${ %{ *# &{ i! *{ b' b' !! ~! ~! ~! ={ e@ e@ e@ e@ e@ -{ |~ c) ;{ W# W# W# W# W# W# W# W# W# W# W# W# W# W# W# W# W# W# W# W# W# q. ^' ^' ^' ^' d) k# k# k# k# k# k# k# k# k# k# ",
"R! R! R! R! R! R! R! R! R! R! R! R! R! R! n> n> n> '~ k! l! g~ g~ g~ g~ g~ >{ 7! ,{ '{ ){ 7! !{ $' $' $' $' $' b& )  )  )  )  )  )  )  )  )  )  )  )  )  )  )  ~  :@ ~{ {{ ]{ ^{ <. /{ 4+ |. |. |. ({ |. e  1@ :. _{ |) N# =@ A@ /# P# _$ _$ _$ _$ _$ _$ _$ _$ _$ _$ _$ _$ _$ _$ _$ _$ _$ _$ _$ _$ _$ _$ _$ _$ _$ _$ _$ _$ _$ _$ _$ _$ _$ _$ _$ _$ _$ _$ _$ _$ _$ _$ _$ _$ _$ _$ _$ _$ _$ _$ _$ _$ _$ _$ _$ _$ _$ _$ _$ ^# :{ k) k) k) k) k) k) k) k) k) k) k) k) k) ,! <{ [{ }{ A$ 6@ 6@ 6@ W@ 6@ 6@ 6@ 6@ 6@ 6@ 6@ 6@ 6@ 6@ 6@ 6@ 6@ 6@ 6@ 6@ 6@ 6@ 6@ 6@ 6@ 6@ 6@ 6@ 6@ 6@ 6@ 6@ 6@ 6@ 6@ 6@ 6@ 6@ 6@ 6@ 6@ 6@ 6@ 6@ 6@ 6@ 6@ 6@ 6@ 6@ 6@ 6@ 6@ 6@ 6@ 6@ 6@ 6@ 6@ 6@ 6@ 6@ 6@ 6@ 6@ 6@ 6@ 6@ 6@ 6@ 6@ 6@ 6@ 6@ 6@ 6@ 6@ 6@ 6@ 6@ 6@ 6@ 6@ 6@ 6@ 6@ 6@ 6@ 6@ 6@ 6@ 6@ 6@ 6@ 6@ 6@ 6@ 6@ 6@ 6@ 6@ 6@ 6@ 6@ 6@ 6@ 6@ 6@ 6@ 6@ 6@ 6@ 6@ 6@ 6@ 6@ 6@ 6@ 6@ 6@ 6@ 6@ 6@ 6@ 6@ 6@ 6@ 6@ 6@ 6@ 6@ 6@ 6@ 6@ 6@ 6@ 6@ 6@ 6@ 6@ 6@ 6@ 6@ 6@ 6@ 6@ 6@ 6@ 6@ 6@ 6@ 6@ 6@ 6@ 6@ 6@ 6@ 6@ 6@ 6@ 6@ 6@ 6@ 6@ 6@ 6@ 6@ 6@ 6@ 6@ 6@ W@ 6@ 6@ V@ U$ U$ U$ U$ W@ 6@ 6@ 6@ 6@ 6@ 6@ 6@ 6@ 6@ 6@ 6@ 6@ 6@ 6@ 6@ 6@ 6@ 6@ 6@ 6@ 6@ T  |{ `) k) k) k) k) k) k) k) k) k) k) k) k) Q) q! y@ _$ _$ _$ _$ _$ _$ _$ _$ _$ _$ _$ _$ _$ _$ _$ _$ _$ _$ _$ _$ _$ _$ _$ _$ _$ _$ _$ _$ _$ _$ _$ _$ _$ _$ _$ _$ _$ _$ _$ _$ _$ _$ _$ _$ _$ _$ _$ _$ _$ _$ _$ _$ _$ _$ _$ _$ _$ _$ _$ _$ _$ _$ _$ _$ _$ _$ &$ z# z# z# z# _$ _$ _$ %$ _$ _$ A$ 1{ 2{ 3{ K) 4{ 5{ b' b' 6{ ~! ~! ~! 7{ e@ e@ e@ e@ e@ 1> |~ c) ;{ W# W# W# W# W# W# W# W# W# W# W# W# W# W# W# W# W# W# W# W# W# (' ^' ^' ^' ^' K) k# k# k# k# k# k# k# k# k# k# ",
"R! R! R! R! R! R! R! R! R! R! R! R! R! R! 8{ n> n> '~ k! l! g~ g~ g~ g~ g~ g~ h~ 9{ ,{ ,{ 0{ 7! 9! $' $' $' $' b& )  )  )  )  )  )  )  )  )  )  )  )  )  )  c& ~  a{ b{ c{ d{ v@ h  N. h  h  g  |. |. d  9+ e{ f{ N+ ^# =@ 5@ /# /# P# _$ _$ _$ _$ _$ _$ _$ _$ _$ _$ _$ _$ _$ _$ _$ _$ _$ _$ _$ _$ _$ _$ _$ _$ _$ _$ _$ _$ _$ _$ _$ _$ _$ _$ _$ _$ _$ _$ _$ _$ _$ _$ _$ _$ _$ _$ _$ _$ _$ _$ _$ _$ _$ _$ _$ _$ _$ _$ 5@ g{ k) k) k) k) k) k) k) k) k) k) k) k) `) `) U@ h{ i{ E$ =$ =$ =$ j{ k{ k{ l{ m{ =$ n{ =$ =$ =$ =$ =$ =$ =$ =$ =$ =$ =$ =$ =$ =$ =$ =$ =$ =$ =$ =$ =$ =$ =$ =$ =$ =$ =$ =$ =$ =$ =$ =$ =$ =$ =$ =$ =$ =$ =$ =$ =$ =$ =$ =$ =$ =$ =$ =$ =$ =$ =$ =$ =$ =$ =$ =$ =$ =$ =$ =$ =$ =$ =$ =$ =$ =$ =$ =$ =$ =$ =$ =$ =$ =$ =$ =$ =$ =$ =$ =$ =$ =$ =$ =$ =$ =$ =$ =$ =$ =$ n{ n{ n{ n{ =$ =$ =$ =$ =$ =$ =$ =$ =$ =$ =$ =$ =$ =$ =$ =$ =$ =$ =$ =$ =$ =$ =$ =$ =$ =$ =$ =$ =$ =$ =$ =$ =$ =$ =$ =$ =$ =$ =$ =$ =$ =$ =$ =$ =$ =$ =$ =$ =$ =$ =$ =$ =$ =$ =$ =$ n{ n{ n{ n{ n{ n{ n{ n{ o{ p{ m{ k{ q{ r{ s{ s{ s{ s{ s{ s{ t{ j{ =$ =$ =$ =$ =$ =$ =$ =$ =$ =$ =$ =$ =$ =$ =$ =$ =$ =$ =$ =$ =$ u{ 7~ k) k) k) k) k) k) k) k) k) k) k) k) k) k) +~ v{ _$ _$ _$ _$ _$ _$ _$ _$ _$ _$ _$ _$ _$ _$ _$ _$ _$ _$ _$ _$ _$ _$ _$ _$ _$ _$ _$ _$ _$ _$ _$ _$ _$ _$ _$ _$ _$ _$ _$ _$ _$ _$ _$ _$ _$ _$ _$ _$ _$ _$ _$ _$ _$ _$ _$ _$ _$ _$ _$ _$ _$ _$ %$ %$ %$ P# z# z# z# z# x# _$ _$ _$ _$ H$ A$ 8; J~ ^' X# A! 5{ b' b' w{ ~! ~! ~! 7{ e@ e@ e@ e@ x{ y{ |~ c) ;{ W# W# W# W# W# W# W# W# W# W# W# W# W# W# W# W# W# W# W# W# W# .' ^' ^' ^' ^' d~ k# k# k# k# k# k# k# k# k# k# ",
"R! R! R! R! R! R! R! R! R! R! R! R! R! R! z{ n> n> A{ k! B{ g~ g~ g~ g~ g~ g~ C{ D{ ,{ ,{ ,{ E{ F{ $' $' $' $' I, )  )  )  )  )  )  )  )  )  )  )  )  )  )  ~  ~  G{ H{ I{ J{ K{ j  h  n  P. L{ $@ d+ @! h+ K  M+ N+ ^# =@ 5@ /# /# P# _$ _$ _$ _$ _$ _$ _$ _$ _$ _$ _$ _$ _$ _$ _$ _$ _$ _$ _$ _$ _$ _$ _$ _$ _$ _$ _$ _$ _$ _$ _$ _$ _$ _$ _$ _$ _$ _$ _$ _$ _$ _$ _$ _$ _$ _$ _$ _$ _$ _$ _$ _$ _$ _$ _$ _$ _$ /# c. k) k) k) k) k) k) k) k) k) k) k) k) k) `) M{ N{ 9~ b% Y@ Y@ Y@ Y@ j{ t{ s{ O{ s{ s{ r{ k{ j{ =$ =$ Y@ Y@ Y@ Y@ Y@ Y@ Y@ Y@ Y@ Y@ Y@ Y@ Y@ Y@ Y@ Y@ Y@ Y@ Y@ Y@ Y@ Y@ Y@ Y@ Y@ Y@ Y@ Y@ Y@ Y@ Y@ Y@ Y@ Y@ Y@ Y@ Y@ Y@ Y@ Y@ Y@ Y@ Y@ Y@ Y@ Y@ Y@ Y@ Y@ Y@ Y@ Y@ Y@ Y@ Y@ Y@ Y@ Y@ Y@ Y@ Y@ Y@ Y@ Y@ Y@ Y@ Y@ Y@ Y@ Y@ Y@ Y@ Y@ Y@ Y@ Y@ Y@ Y@ Y@ Y@ /# n{ =$ m{ k{ k{ k{ k{ k{ k{ k{ k{ m{ j{ =$ =$ Y@ Y@ Y@ Y@ Y@ Y@ Y@ Y@ Y@ Y@ Y@ Y@ Y@ Y@ Y@ Y@ Y@ Y@ Y@ Y@ Y@ Y@ Y@ Y@ Y@ Y@ Y@ Y@ Y@ Y@ Y@ Y@ Y@ Y@ Y@ Y@ Y@ Y@ Y@ Y@ Y@ Y@ =$ j{ j{ m{ k{ P{ q{ r{ r{ r{ r{ s{ r{ r{ r{ s{ s{ s{ s{ O{ Q{ Q{ Q{ Q{ Q{ Q{ Q{ Q{ Q{ O{ t{ R{ I$ Y@ Y@ Y@ Y@ Y@ Y@ Y@ Y@ Y@ Y@ Y@ =$ =$ =$ =$ =$ =$ =$ V@ M{ 6~ `) `) `) k) k) k) k) k) k) k) k) k) k) k) +~ O# _$ _$ _$ _$ _$ _$ _$ _$ _$ _$ _$ _$ _$ _$ _$ _$ _$ _$ _$ _$ _$ _$ _$ _$ _$ _$ _$ _$ _$ _$ _$ _$ _$ _$ _$ _$ _$ _$ _$ _$ _$ _$ _$ _$ _$ _$ _$ _$ _$ _$ _$ _$ _$ _$ _$ _$ _$ _$ _$ _$ _$ S{ x# P# P# /# e# Z@ A# x# P# z# _$ z# z# z# B$ T{ U{ V{ W{ 5{ b' b' X{ ~! ~! ~! Y{ Z{ e@ e@ e@ `{  ] |~ c) ;{ W# W# W# W# W# W# W# W# W# W# W# W# W# W# W# W# W# W# W# W# W# =! ^' ^' ^' ^' >~ k# k# k# k# k# k# k# k# k# k# ",
"R! R! R! R! R! R! R! R! R! R! R! R! R! R! .] n> n> +] k! @] g~ g~ g~ g~ g~ g~ #] U~ ,{ ,{ ,{ ,{ $] '  $' $' $' $' I, }' )  )  )  )  )  )  )  )  )  )  )  _@ ~  ~  %] &] *] =] -] ;] >] t  u  w  Z. D  c. h+ =+ M+ N+ ^# =@ 5@ /# /# P# _$ _$ _$ _$ _$ _$ _$ _$ _$ _$ _$ _$ _$ _$ _$ _$ _$ _$ _$ _$ _$ _$ _$ _$ _$ _$ _$ _$ _$ _$ _$ _$ _$ _$ _$ _$ _$ _$ _$ _$ _$ _$ _$ _$ _$ _$ _$ _$ _$ _$ _$ _$ _$ _$ _$ _$ /# q~ ,! k) k) k) k) k) k) k) k) k) k) k) k) k) ]~ Z! ,] (~ Y@ Y@ Y@ Y@ Y@ j{ t{ O{ Q{ Q{ Q{ Q{ O{ s{ s{ r{ P{ k{ k{ P{ P{ P{ P{ P{ k{ k{ m{ =$ =$ =$ =$ /# Y@ Y@ Y@ Y@ Y@ Y@ Y@ Y@ Y@ Y@ Y@ Y@ Y@ Y@ Y@ Y@ Y@ Y@ Y@ Y@ Y@ Y@ Y@ Y@ Y@ Y@ Y@ Y@ Y@ Y@ Y@ Y@ Y@ Y@ Y@ Y@ Y@ Y@ Y@ Y@ Y@ Y@ Y@ Y@ Y@ Y@ Y@ Y@ Y@ Y@ Y@ Y@ Y@ Y@ Y@ Y@ Y@ Y@ n{ n{ =$ m{ k{ P{ t{ r{ s{ s{ O{ O{ O{ O{ O{ O{ O{ s{ s{ s{ s{ s{ t{ t{ P{ k{ m{ j{ =$ =$ =$ =$ Y@ /# /# /# /# /# /# /# /# n{ n{ n{ =$ =$ =$ =$ =$ =$ =$ =$ =$ =$ j{ m{ m{ k{ k{ P{ P{ t{ t{ '] s{ s{ s{ s{ O{ O{ Q{ Q{ Q{ Q{ Q{ Q{ Q{ Q{ Q{ Q{ Q{ Q{ Q{ Q{ Q{ Q{ Q{ Q{ Q{ Q{ Q{ Q{ Q{ Q{ Q{ O{ '] t{ )] f$ Y@ Y@ Y@ Y@ Y@ Y@ Y@ Y@ Y@ Y@ Y@ Y@ Y@ Y@ Y@ Y@ V@ c. 6~ `) `) k) k) k) k) k) k) k) k) k) k) k) @{ x! 5@ _$ _$ _$ _$ _$ _$ _$ _$ _$ _$ _$ _$ _$ _$ _$ _$ _$ _$ _$ _$ _$ _$ _$ _$ _$ _$ _$ _$ _$ _$ _$ _$ _$ _$ _$ _$ _$ _$ _$ _$ _$ _$ _$ _$ _$ _$ _$ _$ _$ _$ _$ _$ _$ _$ _$ _$ _$ _$ %$ _# e# e# e# u# A@ u# u# u# u# /# Y@ Z@ P# x# _# x# V$ !] ~] W{ 5{ {] b' 1! ~! ~! ~! Y{ ]] e@ e@ x{ y{ ^] |~ c) .. W# W# W# W# W# W# W# W# W# W# W# W# W# W# W# W# W# W# W# W# W# =! ^' ^' ^' ^' J) k# k# k# k# k# k# k# k# k# k# ",
"R! R! R! R! R! R! R! R! R! R! R! R! R! R! /] n> n> (] k! @] g~ g~ g~ g~ g~ g~ g~ _] :] ,{ ,{ ,{ ,{ <] G! $' $' [] +$ $' $' }] )  )  )  )  )  )  )  )   @ ~  ~  ~  |] 7+ 1] 2] 3] 4] |{ v  x  y  A  D  c. h+ =+ M+ N+ ^# =@ 5@ /# /# P# _$ _$ _$ _$ _$ _$ _$ _$ _$ _$ _$ _$ _$ _$ _$ _$ _$ _$ _$ _$ _$ _$ _$ _$ _$ _$ _$ _$ _$ _$ _$ _$ _$ _$ _$ _$ _$ _$ _$ _$ _$ _$ _$ _$ _$ _$ _$ _$ _$ _$ _$ _$ _$ _$ _$ P# q~ `) k) k) k) k) k) k) k) k) k) k) k) k) k)  ! 5] 6] 7] x# Y@ Y@ Y@ Y@ Y@ j{ t{ O{ Q{ Q{ Q{ Q{ Q{ Q{ Q{ Q{ O{ O{ s{ O{ O{ O{ O{ O{ s{ s{ r{ r{ r{ r{ r{ t{ k{ m{ =$ n{ n{ Y@ Y@ Y@ Y@ Y@ Y@ Y@ Y@ Y@ Y@ Y@ Y@ Y@ Y@ Y@ Y@ Y@ Y@ Y@ Y@ Y@ Y@ Y@ Y@ Y@ Y@ Y@ Y@ Y@ Y@ Y@ Y@ Y@ Y@ Y@ Y@ Y@ Y@ Y@ Y@ Y@ Y@ Y@ Y@ Y@ Y@ Y@ Y@ /# n{ p{ m{ k{ P{ r{ r{ s{ O{ O{ Q{ Q{ Q{ Q{ Q{ Q{ Q{ Q{ Q{ Q{ Q{ Q{ Q{ Q{ Q{ Q{ Q{ Q{ O{ O{ s{ r{ r{ r{ r{ t{ t{ P{ P{ P{ P{ P{ P{ P{ P{ P{ q{ r{ r{ r{ r{ r{ r{ r{ r{ r{ r{ r{ r{ r{ r{ s{ s{ O{ Q{ Q{ Q{ Q{ Q{ Q{ Q{ Q{ Q{ Q{ Q{ Q{ Q{ Q{ Q{ Q{ Q{ Q{ Q{ Q{ Q{ Q{ Q{ Q{ Q{ Q{ Q{ Q{ Q{ Q{ Q{ Q{ Q{ Q{ Q{ Q{ Q{ Q{ O{ '] )] I$ Y@ Y@ Y@ Y@ Y@ Y@ Y@ Y@ Y@ Y@ Y@ Y@ Y@ Y@ Y@ t# 8] :~ `) k) k) k) k) k) k) k) k) k) k) k) k) ,! ') z# _$ _$ _$ _$ _$ _$ _$ _$ _$ _$ _$ _$ _$ _$ _$ _$ _$ _$ _$ _$ _$ _$ _$ _$ _$ _$ _$ _$ _$ _$ _$ _$ _$ _$ _$ _$ _$ _$ _$ _$ _$ _$ _$ _$ _$ _$ _$ _$ _$ _$ _$ _$ _$ _$ _$ _$ _$ %$ /# 9] /# 0] 0] v# 5@ &@ &@ v{ O# O# S+ W@ A@ B@ Y@ _# a] 4# b] 5{ c] b' b' ~! ~! ~! Y{ ]] e@ e@ d] y{ e] f] g] ]! W# W# W# W# W# W# W# W# W# W# W# W# W# W# W# W# W# W# W# W# W# =! ^' ^' ^' ^' h] k# k# k# k# k# k# k# k# k# k# ",
"R! R! R! R! R! R! R! R! R! R! R! R! R! R! i] n> n> (] k! @] g~ g~ g~ g~ g~ g~ g~ j] A~ k] ,{ ,{ ,{ l] m] +$ n] n] n] G! o] p] q] )  !  G+ ~  8% !  )  G+ ~  ~  ~  r] s] t] )) 4] u] |{ v  x  y  A  D  c. h+ =+ M+ N+ ^# =@ 5@ /# /# P# _$ _$ _$ _$ _$ _$ _$ _$ _$ _$ _$ _$ _$ _$ _$ _$ _$ _$ _$ _$ _$ _$ _$ _$ _$ _$ _$ _$ _$ _$ _$ _$ _$ _$ _$ _$ _$ _$ _$ _$ _$ _$ _$ _$ _$ _$ _$ _$ _$ _$ _$ _$ _$ _$ _$ v] w] k) k) k) k) k) k) k) k) k) k) k) k) k) k) x] y] Z! x# y# y# y# y# y# y# G' z] O{ Q{ Q{ Q{ Q{ Q{ Q{ Q{ Q{ Q{ Q{ Q{ Q{ Q{ Q{ Q{ Q{ Q{ Q{ Q{ Q{ Q{ Q{ Q{ Q{ O{ s{ r{ r{ P{ P{ k{ R{ R{ R{ G' y# y# y# y# y# y# y# y# y# y# y# y# y# y# y# y# y# y# y# y# y# y# y# y# y# y# y# y# y# y# y# y# y# y# y# y# y# Y@ Y@ j{ R{ P{ P{ t{ s{ s{ O{ O{ Q{ Q{ Q{ Q{ Q{ Q{ Q{ Q{ Q{ Q{ Q{ Q{ Q{ Q{ Q{ Q{ Q{ Q{ Q{ Q{ Q{ Q{ Q{ Q{ Q{ Q{ Q{ Q{ Q{ Q{ Q{ Q{ O{ O{ O{ O{ O{ O{ O{ O{ O{ O{ Q{ Q{ Q{ Q{ Q{ Q{ Q{ Q{ Q{ Q{ Q{ Q{ Q{ Q{ Q{ Q{ Q{ Q{ Q{ Q{ Q{ Q{ Q{ Q{ Q{ Q{ Q{ Q{ Q{ Q{ Q{ Q{ Q{ Q{ Q{ Q{ Q{ Q{ Q{ Q{ Q{ Q{ Q{ Q{ Q{ Q{ Q{ Q{ Q{ Q{ Q{ Q{ Q{ Q{ Q{ Q{ Q{ O{ t{ A] y# y# y# y# y# y# y# y# y# y# y# y# y# y# y# B] x  ,!  ! k) k) k) k) k) k) k) k) k) k) k) k) +! <! P# _$ _$ _$ _$ _$ _$ _$ _$ _$ _$ _$ _$ _$ _$ _$ _$ _$ _$ _$ _$ _$ _$ _$ _$ _$ _$ _$ _$ _$ _$ _$ _$ _$ _$ _$ _$ _$ _$ _$ _$ _$ _$ _$ _$ _$ _$ _$ _$ _$ _$ _$ _$ _$ _$ _$ _$ z# y# /# 5@ 5@ S+ =@ t# m. X  N+ l. l. m. n+ o+ C] 6@ C@ D] E] F] 5{ G] b' b' }~ ~! ~! Y{ ]] e@ e@ H] y{ I] J] K] ]! W# W# W# W# W# W# W# W# W# W# W# W# W# W# W# W# W# W# W# W# W# =! ^' ^' ^' ^' ^' >~ k# k# k# k# k# k# k# k# k# ",
"R! R! R! R! R! R! R! R! R! R! R! R! R! R! L] n> n> M] k! f~ g~ g~ g~ g~ g~ g~ g~ >{ 7! S~ N] ,{ ,{ O] 7! P] n] n] n] Q] p] p] R] 8% ~  ~  ~  ~  ~  G+ ~  ~  ~  ~  1] s] t] )) 4] u] +~ S] x  y  A  D  c. h+ =+ M+ N+ ^# =@ 5@ /# /# P# _$ _$ _$ _$ _$ _$ _$ _$ _$ _$ _$ _$ _$ _$ _$ _$ _$ _$ _$ _$ _$ _$ _$ _$ _$ _$ _$ _$ _$ _$ _$ _$ _$ _$ _$ _$ _$ _$ _$ _$ _$ _$ _$ _$ _$ _$ _$ _$ _$ _$ _$ _$ _$ _$ n+ a! k) k) k) k) k) k) k) k) k) k) k) k) `) T] U] V] W] %$ x# x# x# x# x# x# x# G' z] X] Q{ Q{ Q{ Q{ Q{ Q{ Q{ Y] Z] `]  ^  ^  ^ .^ .^  ^ .^ .^ .^ .^ +^ +^ +^ @^ @^ @^ #^ #^ #^ $^ 9; %^ <> V, V, D$ D$ C$ C$ C$ C$ C$ C$ C$ C$ C$ C$ C$ C$ C$ C$ C$ C$ C$ C$ C$ C$ C$ C$ C$ C$ C$ C$ C$ C$ D$ D$ e- K' $^ K' $^ $^ $^ &^ *^ .^ .^ .^  ^  ^  ^  ^  ^  ^  ^  ^  ^  ^  ^  ^  ^  ^  ^  ^  ^  ^  ^  ^  ^  ^  ^  ^  ^  ^  ^  ^  ^  ^  ^  ^  ^  ^  ^  ^  ^  ^  ^  ^  ^  ^  ^  ^  ^  ^  ^  ^  ^  ^ `]  ^  ^  ^  ^  ^  ^  ^  ^  ^  ^  ^  ^  ^  ^  ^  ^  ^  ^  ^  ^  ^  ^  ^  ^  ^  ^  ^  ^  ^  ^  ^  ^  ^  ^  ^  ^  ^  ^ `] `] `] `] `] `] `] `] `] =^ =^ Y] Q{ Q{ Q{ O{ t{ -^ G' G$ x# x# x# x# x# x# x# x# x# x# x# x# y# U@ L! `) k) k) k) k) k) k) k) k) k) k) k) k) k) w] h+ x# _$ _$ _$ _$ _$ _$ _$ _$ _$ _$ _$ _$ _$ _$ _$ _$ _$ _$ _$ _$ _$ _$ _$ _$ _$ _$ _$ _$ _$ _$ _$ _$ _$ _$ _$ _$ _$ _$ _$ _$ _$ _$ _$ _$ _$ _$ _$ _$ _$ _$ _$ _$ _$ _$ _$ P# /# 5@ *@ *@ n+ N+ *+ K  E  c. C  A  b. y  x  ;^ ;^ 0. q  >^ ,^ 5{ '^ b' b' -~ ~! ~! Y{ ]] e@ e@ `{ y{ ^] y{ y{ O! W# W# W# W# W# W# W# W# W# W# W# W# W# W# W# W# W# W# W# W# W# y' ^' ^' ^' ^' ^' ^' d) W) k# k# k# k# k# k# k# ",
"R! R! R! R! R! R! R! R! R! R! R! R! R! R! )^ n> n> n> k! !^ g~ g~ g~ g~ g~ g~ g~ g~ _] 7! 7! ){ ){ ){ 7! m] n] n] ~^ {^ p] o] `+ ~  ~  ~  ~  ~  ~  ~  ~  ~  ~  ~  1] s] t] )) 4] u] +~ v  x  y  A  D  c. h+ =+ M+ N+ ^# =@ 5@ /# /# P# _$ _$ _$ _$ _$ _$ _$ _$ _$ _$ _$ _$ _$ _$ _$ _$ _$ _$ _$ _$ _$ _$ _$ _$ _$ _$ _$ _$ _$ _$ _$ _$ _$ _$ _$ _$ _$ _$ _$ _$ _$ _$ _$ _$ _$ _$ _$ _$ _$ _$ _$ _$ _$ ^# ]^ @{ k) k) k) k) k) k) k) k) k) k) k) `) k) M{ ^^ /^ D$ G$ G$ G$ G$ G$ G$ G$ G$ G' z] O{ Q{ Q{ Q{ Q{ Q{ Y] (^ _^ :^ |  |  |  r@ r@ r@ r@ r@ <^ <^ <^ [) [) [) [) [) [) <) <) <) <) [^ [^ [^ }^ }^ }^ .+ .+ .+ .+ .+ .+ .+ .+ .+ .+ .+ .+ .+ .+ .+ .+ .+ .+ .+ .+ .+ .+ .+ .+ .+ .+ .+ .+ .+ .+ }^ }^ <) <^ <^ <^ r@ r@ <^ r@ r@ r@ r@ |  |  |  |  |  |  |  |  |  |  |  |  |  |  |  |  |  |  |  |  |  |  |  |  |  |  |  |  |  |  |  |  |  |  |  |  |  |  |  |  |  |  |  |  |  |  |  |  |  |  |  |  |  |  |  |  |  |  |  |  |  |  |  |  |  |  |  |  |  |  |  |  |  |  |  |  |  |  |  |  |  |  |  |  |  |  |  |  |  |  |  |  |  |  |  |  |  2  |  |^ 1^ Q{ 2^ Q{ Q{ O{ '] 3^ G$ G$ G$ G$ G$ G$ G$ G$ G$ G$ G$ G$ G$ G$ Y@ U  4] `) `) `) k) k) k) k) k) k) k) k) k) k) k) ~) *+ x# _$ _$ _$ _$ _$ _$ _$ _$ _$ _$ _$ _$ _$ _$ _$ _$ _$ _$ _$ _$ _$ _$ _$ _$ _$ _$ _$ _$ _$ _$ _$ _$ _$ _$ _$ _$ _$ _$ _$ _$ _$ _$ _$ _$ _$ _$ _$ _$ _$ _$ _$ _$ _$ _$ P# /# 5@ *@ n+ N+ =+ K  c. <! B  Z. x  S] |{ 4] )) 4^ 5^ 1] 6^ 7^ 5{ *{ b' b' f! ~! 8^ Y{ ]] e@ e@ 9^ y{ y{ y{ y{ 0^ a^ W# W# W# W# W# W# W# W# W# W# W# W# W# W# W# W# W# W# W# W# ~' ^' ^' ^' ^' ^' ^' ^' ^' b^ h] c^ k# k# k# k# ",
"J) R! R! R! R! R! R! R! R! R! R! R! R! R! 1, d^ 8{ n> 2~ g~ g~ g~ g~ g~ g~ g~ g~ g~ C{ 7! 7! 7! 7! 7! 7! 7! e^ f^ g^ {^ o] h^ ~  ~  ~  ~  ~  ~  ~  ~  ~  ~  ~  ~  1] s] t] )) 4] u] +~ v  x  y  A  D  c. h+ =+ M+ N+ ^# =@ 5@ /# /# P# _$ _$ _$ _$ _$ _$ _$ _$ _$ _$ _$ _$ _$ _$ _$ _$ _$ _$ _$ _$ _$ _$ _$ _$ _$ _$ _$ _$ _$ _$ _$ _$ _$ _$ _$ _$ _$ _$ _$ _$ _$ _$ _$ _$ _$ _$ _$ _$ _$ _$ _$ _$ ^# +~ `) k) k) k) k) k) k) k) k) k) k) k) k) i^ @! j^ k^ l^ G$ A$ A$ A$ A$ A$ A$ A$ A$ I' z] m^ Q{ Q{ Q{ Q{ Y] n^ o^ p^ q^ s) q) s) s) r^ r^ r^ r^ q) q) q) s^ s^ s^ s^ t^ t^ t^ t^ t^ t^ t^ t^ t^ t^ t^ t^ s^ s^ s^ s^ s^ s^ s^ s^ s^ s^ s^ s^ s^ s^ s^ s^ s^ s^ s^ s^ s^ s^ s^ s^ s^ s^ s^ s^ s^ s^ t^ t^ r^ r^ r^ r^ u^ r^ r^ r^ r^ r^ r^ r^ q) q) q) q) q) q) q) q) q) q) q) q) q) q) q) q) q) q) q) q) q) q) q) q) q) q) q) q) q) q) q) q) q) q) q) q) q) q) q) q) q) q) q) q) q) q) q) q) q) q) q) q) q) q) q) q) q) q) q) q) q) q) q) q) q) q) q) q) q) q) q) q) q) q) q) q) q) q) q) q) q) q) q) q) q) q) q) q) q) q) q) q) q) q) _! s^ s^ t) v^ |^ Q{ Y] Q{ Q{ Q{ O{ '] w^ G$ A$ A$ A$ A$ A$ A$ A$ A$ A$ A$ A$ A$ A$ x# U  8) `) `) k) k) k) k) k) k) k) k) k) k) k) k) !) $+ P# _$ _$ _$ _$ _$ _$ _$ _$ _$ _$ _$ _$ _$ _$ _$ _$ _$ _$ _$ _$ _$ _$ _$ _$ _$ _$ _$ _$ _$ _$ _$ _$ _$ _$ _$ _$ _$ _$ _$ _$ _$ _$ _$ _$ _$ _$ _$ _$ _$ _$ _$ _$ _$ P# /# 5@ *@ n+ N+ =+ K  c. c. B  Z. x  S] |{ 4] )) 4^ 5^ 1] x^ 7^ 5{ y^ b' b' X{ ~! z^ Y{ ]] e@ e@ 9^ y{ y{ y{ y{ y{ A^ B^ >$ W# W# W# W# W# W# W# W# W# W# W# W# W# W# W# W# W# W# W#  ' ^' ^' ^' ^' ^' ^' ^' ^' ^' ^' ^' d) >~ C^ ",
".' a' R! R! R! R! R! R! R! R! R! R! R! K) D^ E^ E^ E^ F^ g~ g~ g~ g~ g~ g~ g~ g~ g~ G^ H^ H^ H^ 7! 7! 7! 7! 7! I^ 7! b& ~  ~  ~  ~  ~  ~  ~  ~  ~  ~  ~  ~  ~  ~  1] s] t] )) 4] u] +~ v  x  y  A  D  c. h+ =+ M+ N+ ^# =@ 5@ /# /# P# _$ _$ _$ _$ _$ _$ _$ _$ _$ _$ _$ _$ _$ _$ _$ _$ _$ _$ _$ _$ _$ _$ _$ _$ _$ _$ _$ _$ _$ _$ _$ _$ _$ _$ _$ _$ _$ _$ _$ _$ _$ _$ _$ _$ _$ _$ _$ _$ _$ _$ _$ u# x! @{ k) k) k) k) k) k) k) k) k) k) k) k) k) J^ Z! K^ 5] A$ A$ A$ A$ A$ A$ A$ A$ A$ A$ I' L^ m^ Q{ Q{ Q{ Y] Y] M^ N^ O^ i^ m) p) p) P^ P^ P^ P^ P^ P^ P^ P^ P^ P^ P^ P^ P^ P^ P^ P^ P^ P^ P^ P^ P^ P^ P^ P^ P^ P^ P^ P^ P^ P^ P^ P^ P^ P^ P^ P^ P^ P^ P^ P^ P^ P^ P^ P^ P^ P^ P^ P^ P^ P^ P^ P^ P^ P^ P^ P^ P^ P^ P^ P^ P^ P^ P^ P^ P^ P^ P^ P^ P^ Q^ Q^ Q^ Q^ Q^ Q^ Q^ Q^ Q^ Q^ Q^ Q^ Q^ Q^ Q^ Q^ Q^ Q^ Q^ Q^ Q^ Q^ Q^ Q^ Q^ Q^ Q^ Q^ Q^ Q^ Q^ Q^ Q^ Q^ Q^ Q^ Q^ Q^ Q^ Q^ Q^ Q^ Q^ Q^ Q^ Q^ Q^ Q^ Q^ Q^ Q^ Q^ Q^ Q^ Q^ Q^ Q^ Q^ Q^ Q^ Q^ Q^ Q^ Q^ Q^ Q^ Q^ Q^ Q^ Q^ Q^ Q^ Q^ Q^ Q^ Q^ Q^ Q^ Q^ Q^ Q^ Q^ Q^ Q^ Q^ Q^ Q^ Q^ Q^ Q^ Q^ Q^ Q^ R^ S^ T^ U^ k) V^ W^ O{ X^ Q{ Q{ Q{ O{ '] w^ I' A$ A$ A$ A$ A$ A$ A$ A$ A$ A$ A$ A$ A$ y# @+ 8) `) k) k) k) k) k) k) k) k) k) k) k) k) k) ~) ^# %$ _$ _$ _$ _$ _$ _$ _$ _$ _$ _$ _$ _$ _$ _$ _$ _$ _$ _$ _$ _$ _$ _$ _$ _$ _$ _$ _$ _$ _$ _$ _$ _$ _$ _$ _$ _$ _$ _$ _$ _$ _$ _$ _$ _$ _$ _$ _$ _$ _$ _$ _$ _$ P# /# 5@ *@ n+ N+ =+ K  c. c. B  Z. x  S] |{ 4] )) 4^ 5^ Y^ x^ 7^ 5{ 5{ Z^ b' b' ~! z^ Y{ ]] e@ e@ 9^ y{ y{ y{ y{ y{ `^  / ./ `, +/ 8& @/ #/ W# W# W# W# W# W# W# W# W# W# W# W# W# W# W# c~ ^' ^' ^' ^' ^' ^' ^' ^' ^' ^' ^' ^' ^' ",
".' .' J) R! R! R! R! R! R! R! R! 1, $/ E^ E^ E^ E^ E^ %/ g~ g~ g~ g~ g~ g~ g~ g~ g~ &/ */ =/ =/ =/ =/ =/ 7! 7! -/ ;/ >/ ~  ~  ~  ~  ~  ~  ~  ~  ~  ~  ~  ~  ~  ~  1] s] t] )) 4] u] +~ v  x  y  A  D  c. h+ =+ M+ N+ ^# =@ 5@ /# /# P# _$ _$ _$ _$ _$ _$ _$ _$ _$ _$ _$ _$ _$ _$ _$ _$ _$ _$ _$ _$ _$ _$ _$ _$ _$ _$ _$ _$ _$ _$ _$ _$ _$ _$ _$ _$ _$ _$ _$ _$ _$ _$ _$ _$ _$ _$ _$ _$ _$ _$ P# c. +! k) k) k) k) k) k) k) k) k) k) k) k) k) J! ,/ '/ )/ G$ A$ A$ A$ A$ A$ A$ A$ A$ A$ A$ I' L^ m^ Q{ Q{ Q{ Y] Q{ W^ !/ ~/ b! {/ P) n) n) n) n) n) n) n) n) n) n) n) n) n) n) n) n) n) n) n) n) n) n) n) n) n) n) n) n) n) n) n) n) n) n) n) n) n) n) n) n) n) n) n) n) n) n) n) n) n) n) n) n) n) n) n) n) n) n) n) n) n) n) n) n) n) n) n) n) n) n) n) n) n) n) n) n) n) n) n) n) n) n) n) n) n) n) n) n) n) n) n) n) n) n) n) n) n) n) n) n) n) n) n) n) n) n) n) n) n) n) n) n) n) n) n) n) n) n) n) n) n) n) n) n) n) n) n) n) n) n) n) n) n) n) n) n) n) n) n) n) n) n) n) n) n) n) n) n) n) n) n) n) n) n) n) n) n) n) n) n) n) n) ]/ ]/ m) {/ Q) Q) `) T@ ^/ X^ Y] Q{ Q{ Q{ Q{ m^ z] d= d= A$ A$ A$ A$ A$ A$ A$ A$ A$ A$ A$ A$ Y@ @! ~) k) k) k) k) k) k) k) k) k) k) k) k) k) k) ]~ O# _$ _$ _$ _$ _$ _$ _$ _$ _$ _$ _$ _$ _$ _$ _$ _$ _$ _$ _$ _$ _$ _$ _$ _$ _$ _$ _$ _$ _$ _$ _$ _$ _$ _$ _$ _$ _$ _$ _$ _$ _$ _$ _$ _$ _$ _$ _$ _$ _$ _$ _$ _$ P# /# 5@ *@ n+ N+ =+ K  c. c. B  Z. x  S] |{ 4] )) 4^ 5^ // x^ ,^ 5{ 5{ (/ b' b' -~ z^ Y{ ]] e@ e@ 9^ y{ y{ y{ y{ y{ y{ A^  /  / _/ :/ </ [/ 9& }/ W# W# W# W# W# W# W# W# W# W# W# W# W# W# ~' (' /' ^' ^' ^' ^' ^' ^' ^' ^' ^' ^' ",
".' .' .' k# R! R! R! R! R! R! |/ 1/ 2/ 2/ 3/ E^ E^ E^ 4/ g~ g~ g~ g~ g~ g~ g~ g~ g~ g~ 5/ 6/ =/ =/ =/ =/ _] ;/ -/ 7/ 8/ ~  ~  ~  ~  ~  ~  ~  ~  ~  ~  ~  ~  ;# .$ 1] s] t] )) 4] u] +~ v  x  y  A  D  c. h+ =+ M+ N+ ^# =@ 5@ /# /# P# _$ _$ _$ _$ _$ _$ _$ _$ _$ _$ _$ _$ _$ _$ _$ _$ _$ _$ _$ _$ _$ _$ _$ _$ _$ _$ _$ _$ _$ _$ _$ _$ _$ _$ _$ _$ _$ _$ _$ _$ _$ _$ _$ _$ _$ _$ _$ _$ _$ /# @+ w] k) k) k) k) k) k) k) k) k) k) k) k) k) {/ G~ 9/ 0/ G$ d= d= d= d= d= d= d= d= d= d= d= f- a/ b/ Q{ Q{ Y] c/ d/ e/ f/ Q) k) k) g/ h/ R^ R^ Q^ Q^ Q^ Q^ Q^ Q^ Q^ Q^ Q^ Q^ Q^ Q^ Q^ Q^ Q^ Q^ Q^ Q^ Q^ Q^ Q^ Q^ Q^ Q^ Q^ Q^ Q^ Q^ Q^ Q^ Q^ Q^ Q^ Q^ Q^ Q^ Q^ Q^ Q^ Q^ Q^ Q^ Q^ Q^ Q^ Q^ Q^ Q^ Q^ Q^ Q^ Q^ Q^ Q^ Q^ Q^ Q^ Q^ Q^ Q^ Q^ Q^ Q^ Q^ Q^ Q^ Q^ Q^ Q^ Q^ Q^ Q^ Q^ Q^ Q^ Q^ Q^ Q^ Q^ Q^ Q^ Q^ Q^ Q^ Q^ Q^ Q^ Q^ Q^ Q^ Q^ Q^ Q^ Q^ Q^ Q^ Q^ Q^ Q^ Q^ Q^ Q^ Q^ Q^ Q^ Q^ Q^ Q^ Q^ Q^ Q^ Q^ Q^ Q^ Q^ Q^ Q^ Q^ Q^ Q^ Q^ Q^ Q^ Q^ Q^ Q^ Q^ Q^ Q^ Q^ Q^ Q^ Q^ Q^ Q^ Q^ Q^ Q^ Q^ Q^ Q^ Q^ Q^ Q^ Q^ Q^ Q^ Q^ Q^ Q^ Q^ Q^ Q^ Q^ Q^ Q^ Q^ Q^ Q^ p) i/ {/ Q) k) Q) Q) f/ r@ 1^ Y] Y] Q{ Q{ Q{ Q{ m^ L^ d= d= d= d= d= d= d= d= d= d= d= d= d= d= V@ Z. {) k) k) k) k) k) k) k) k) k) k) k) k) k) k) a. *@ %$ _$ _$ _$ _$ _$ _$ _$ _$ _$ _$ _$ _$ _$ _$ _$ _$ _$ _$ _$ _$ _$ _$ _$ _$ _$ _$ _$ _$ _$ _$ _$ _$ _$ _$ _$ _$ _$ _$ _$ _$ _$ _$ _$ _$ _$ _$ _$ _$ _$ _$ P# /# 5@ *@ n+ N+ =+ K  c. c. B  Z. x  S] |{ 4] )) 4^ 5^ // x^ j/ 5{ 5{ k/ b' b' &! z^ Y{ e@ e@ e@ 9^ y{ y{ y{ y{ y{ y{ l/  /  /  /  / m/ [/ </ </ n/ o/ W# W# W# W# W# W# W# W# W# W# W# W# W# W# W# W# ~' c~ c~ c~ {' {' .' +' ^' ",
".' .' .' p/ R! R! R! R! q/ r/ s/ s/ s/ s/ s/ t/ u/ E^ v/ g~ g~ g~ g~ g~ g~ g~ g~ g~ g~ 5/ 5/ 6/ =/ =/ =/ H^ ;/ -/ w/ o* ~  ~  ~  ~  ~  ~  ~  ~  {  .$ v$ ]  ]  ]  1] s] t] )) 4] u] +~ v  x  y  A  D  c. h+ =+ M+ N+ ^# =@ 5@ /# /# P# _$ _$ _$ _$ _$ _$ _$ _$ _$ _$ _$ _$ _$ _$ _$ _$ _$ _$ _$ _$ _$ _$ _$ _$ _$ _$ _$ _$ _$ _$ _$ _$ _$ _$ _$ _$ _$ _$ _$ _$ _$ _$ _$ _$ _$ _$ _$ _$ Q# q~ ,! k) k) k) k) k) k) k) k) k) k) k) k) `) k) b% x/ y/ D$ D$ D$ D$ D$ D$ D$ D$ D$ D$ D$ D$ D$ f- z/ Q{ Q{ Y] Y] 1^ A/ B/ C/ Q) k) k) {/ D/ n) n) n) n) n) n) n) n) n) n) n) n) n) n) n) n) n) n) n) n) n) n) n) n) n) n) n) n) n) n) n) n) n) n) n) n) n) n) n) n) n) n) n) n) n) n) n) n) n) n) n) n) n) n) n) n) n) n) n) n) n) n) n) n) n) n) n) n) n) n) n) n) n) n) n) n) n) n) n) n) n) n) n) n) n) n) n) n) n) n) n) n) n) n) n) n) n) n) n) n) n) n) n) n) n) n) n) n) n) n) n) n) n) n) n) n) n) n) n) n) n) n) n) n) n) n) n) n) n) n) n) n) n) n) n) n) n) n) n) n) n) n) n) n) n) n) n) n) n) n) n) n) n) n) n) n) n) n) n) n) n) m) O) Q) k) k) k) Q) i^ E/ g& F/ Y] Y] Q{ Q{ Q{ Q{ G/ H/ [! D$ D$ D$ D$ D$ D$ D$ D$ D$ D$ D$ D$ D$ I/ a. :~ .~ k) k) k) k) k) k) k) k) k) k) k) k) Q) x! 5@ _$ _$ _$ _$ _$ _$ _$ _$ _$ _$ _$ _$ _$ _$ _$ _$ _$ _$ _$ _$ _$ _$ _$ _$ _$ _$ _$ _$ _$ _$ _$ _$ _$ _$ _$ _$ _$ _$ _$ _$ _$ _$ _$ _$ _$ _$ _$ _$ _$ _$ P# /# 5@ *@ n+ N+ =+ K  c. c. B  Z. x  S] |{ 4] )) 4^ 5^ // x^ J/ 5{ 5{ y^ b' b' b' K/ Y{ e@ e@ e@ 9^ y{ y{ y{ y{ y{ y{ y{ L/  /  /  /  / M/ N/ :/ </ O/ W# W# W# W# W# W# W# W# W# W# W# W# W# W# W# W# W# W# W# W# W# W# W# W# q. ",
".' .' .' .' >~ R! b^ P/ s/ s/ s/ s/ s/ s/ s/ s/ s/ Q/ g~ g~ g~ g~ g~ g~ g~ g~ g~ g~ g~ 5/ 5/ 5/ R/ =/ =/ h~ S/ -/ 6> T/ H+ ~  ~  ~  ~  ~  ~  ]  ]  ]  ]  ]  ]  ]  1] s] t] )) 4] u] +~ v  x  y  A  D  c. h+ =+ M+ N+ ^# =@ 5@ /# /# P# _$ _$ _$ _$ _$ _$ _$ _$ _$ _$ _$ _$ _$ _$ _$ _$ _$ _$ _$ _$ _$ _$ _$ _$ _$ _$ _$ _$ _$ _$ _$ _$ _$ _$ _$ _$ _$ _$ _$ _$ _$ _$ _$ _$ _$ _$ _$ P# {# :~ k) k) k) k) k) k) k) k) k) k) k) k) k) `) U/ V] V/ W$ D$ D$ D$ D$ D$ D$ D$ D$ D$ D$ D$ D$ V, W/ z/ Q{ Q{ Y] Q{ X/ Y/ ,! C/ k) k) Q) `) Z/ `/  (  (  (  (  (  (  (  (  (  (  (  ( .( .(  ( +( +( +( +(  ( .( .(  (  (  (  (  (  (  (  (  (  (  (  (  (  (  (  (  (  (  (  (  (  (  (  (  (  (  (  (  (  (  (  (  (  (  (  (  (  (  (  (  (  (  (  (  (  (  (  (  (  (  (  (  (  (  (  (  (  (  (  (  (  (  (  (  (  (  (  (  (  (  (  (  (  (  (  (  (  (  (  (  (  (  (  (  (  (  (  (  (  (  (  (  (  (  (  (  (  (  (  (  (  (  (  (  (  (  (  (  (  (  (  (  (  (  (  (  (  (  (  (  (  (  (  (  (  (  (  (  (  (  (  (  (  (  (  ( @( @( Q. #( k) k) k) k) k) Q) k) $( %( Q{ Y] Y] Q{ Q{ Q{ Q{ G/ H/ e- D$ D$ D$ D$ D$ D$ D$ D$ D$ D$ D$ D$ D$ K! x! :~ `) k) k) k) k) k) k) k) k) k) k) k) k) k) q~ P# _$ _$ _$ _$ _$ _$ _$ _$ _$ _$ _$ _$ _$ _$ _$ _$ _$ _$ _$ _$ _$ _$ _$ _$ _$ _$ _$ _$ _$ _$ _$ _$ _$ _$ _$ _$ _$ _$ _$ _$ _$ _$ _$ _$ _$ _$ _$ _$ _$ P# /# 5@ *@ n+ N+ =+ K  c. c. B  Z. x  S] |{ 4] )) 4^ 5^ r] x^ &( 5{ 5{ 5{ *( b' b' =( Y{ e@ e@ e@ y{ y{ y{ y{ y{ y{ y{ y{ y{ A^  /  /  /  /  /  / -( V# W# W# W# W# W# W# W# W# W# W# W# W# W# W# W# W# W# W# W# W# W# W# W# W# W# ",
".' .' .' .' p/ ;( s/ s/ s/ s/ s/ s/ s/ s/ s/ s/ >( ,( g~ g~ g~ g~ g~ g~ g~ g~ g~ g~ g~ 5/ 5/ 5/ T~ =/ '( )( -/ -/ !( !( >) H+ ~  ~  ~  ~  ~  ]  ]  ]  ~( ~( ~( {( ]( s] t] )) 4] u] +~ v  x  y  A  D  c. h+ =+ M+ N+ ^# =@ 5@ /# /# P# _$ _$ _$ _$ _$ _$ _$ _$ _$ _$ _$ _$ _$ _$ _$ _$ _$ _$ _$ _$ _$ _$ _$ _$ _$ _$ _$ _$ _$ _$ _$ _$ _$ _$ _$ _$ _$ _$ _$ _$ _$ _$ _$ _$ _$ _$ P# M+ :! k) k) k) k) k) k) k) k) k) k) k) k) k) @{ ^( /^ /( (( D$ D$ D$ D$ D$ D$ D$ D$ D$ D$ D$ D$ D$ e- }# G/ Q{ Y] Y] _( r@ -] C/ k) k) k) k) q  r* :( <( [( [( [( [( :( :( :( :( :( :( :( _( }( }( }( [( [( |( |( }( :( :( :( :( :( :( :( :( _^ :( :( :( :( :( :( :( :( :( :( :( :( [( [( [( [( [( [( [( [( [( [( [( [( [( [( [( [( [( [( [( [( [( [( [( [( [( [( [( [( [( [( [( [( [( [( [( [( [( [( [( [( [( [( [( [( [( [( [( [( [( [( [( [( [( [( [( [( [( [( [( [( [( [( [( [( [( [( [( [( [( [( [( [( [( [( [( [( [( [( [( [( [( [( [( [( [( [( [( [( [( [( [( [( [( [( [( [( [( [( [( [( [( [( [( [( [( [( [( [( [( [( [( [( [( [( [( [( <( <( X/ T@ F~ k) k) k) k) k) Q) 1( 2( [( Y] Y] Q{ Q{ Q{ Q{ Q{ G/ }# e- D$ D$ D$ D$ D$ D$ D$ D$ D$ D$ D$ D$ D$ U/ +~ :~ k) k) k) k) k) k) k) k) k) k) k) k) k) :~ %+ P# _$ _$ _$ _$ _$ _$ _$ _$ _$ _$ _$ _$ _$ _$ _$ _$ _$ _$ _$ _$ _$ _$ _$ _$ _$ _$ _$ _$ _$ _$ _$ _$ _$ _$ _$ _$ _$ _$ _$ _$ _$ _$ _$ _$ _$ _$ _$ _$ P# /# 5@ *@ n+ N+ =+ K  c. c. B  Z. x  S] |{ 4] )) 4^ 5^ r] x^ 3( 5{ 5{ 5{ k/ b' b' U~ 4( e@ e@ 5( y{ y{ y{ y{ y{ y{ y{ y{ y{ 6(  /  /  /  /  / 7( 8( 8( 9(  > W# W# W# W# W# W# W# W# W# W# W# W# W# W# W# W# W# W# W# W# W# W# W# ",
".' .' .' .' 0( s/ s/ s/ ^] ^] ^] ^] a( b( c( d( g~ g~ g~ g~ g~ g~ g~ g~ g~ g~ g~ g~ g~ e( 5/ 5/ 5/ f( g( -/ -/ h( !( !( !( i( j( k( l( m( n( o( o( o( o( o( o( o( 5^ s] t] )) 4] u] +~ v  x  y  A  D  c. h+ =+ M+ N+ ^# =@ 5@ /# /# P# _$ _$ _$ _$ _$ _$ _$ _$ _$ _$ _$ _$ _$ _$ _$ _$ _$ _$ _$ _$ _$ _$ _$ _$ _$ _$ _$ _$ _$ _$ _$ _$ _$ _$ _$ _$ _$ _$ _$ _$ _$ _$ _$ _$ _$ _$ ^# ~) k) k) k) k) k) k) k) k) k) k) k) k) k) k) 6~ p( N{ q( F$ F$ F$ F$ F$ F$ F$ F$ F$ F$ F$ F$ F$ e- }# G/ Q{ Y] Y] <( e$ r( s( s( k) D) C/ t( e$ 1^ Y] X^ X^ X^ X^ X^ X^ 2^ (^ Q{ M^ X^ u( u( v( v( }# W/ W/ w( w( }# G/ M^ (^ 2^ 2^ (^ (^ (^ Q{ M^ X^ X^ X^ u( u( u( u( u( u( X^ X^ X^ X^ X^ X^ X^ X^ X^ X^ X^ X^ X^ X^ X^ X^ X^ X^ X^ X^ X^ X^ X^ X^ X^ X^ X^ X^ X^ X^ X^ X^ X^ X^ X^ X^ X^ X^ X^ X^ X^ X^ X^ X^ X^ X^ X^ X^ X^ X^ X^ X^ X^ X^ X^ X^ X^ X^ X^ X^ X^ X^ X^ X^ X^ X^ X^ X^ X^ X^ X^ X^ X^ X^ X^ X^ X^ X^ X^ X^ X^ X^ X^ X^ X^ X^ X^ X^ X^ X^ X^ X^ X^ X^ X^ X^ X^ X^ X^ X^ X^ X^ X^ X^ X^ X^ X^ X^ X^ X^ X^ X^ X^ X^ X^ X^ X^ X^ X^ Y] Q{ x( y( `) k) k) k) k) Q) k) // e$ 1^ Y] Y] Q{ Q{ Q{ Q{ Q{ G/ z( w( V$ F$ F$ F$ F$ F$ F$ F$ F$ F$ F$ F$ F$ A( B( ,! k) k) k) k) k) k) k) k) k) k) k) k) k) C( q~ e# _$ _$ _$ _$ _$ _$ _$ _$ _$ _$ _$ _$ _$ _$ _$ _$ _$ _$ _$ _$ _$ _$ _$ _$ _$ _$ _$ _$ _$ _$ _$ _$ _$ _$ _$ _$ _$ _$ _$ _$ _$ _$ _$ _$ _$ _$ _$ P# /# 5@ *@ n+ N+ =+ K  c. c. B  Z. x  S] |{ 4] )) 4^ 5^ r] D( 5{ 5{ 5{ 5{ y^ b' b' )! 4( e@ e@ E( y{ y{ y{ y{ y{ y{ y{ y{ y{ y{ F(  /  / G( H( I( y% J( J( 8( K( L( W# W# W# W# W# W# W# W# W# W# W# W# W# W# W# W# W# W# W# W# W# ",
".' .' M( N( O( P( g~ g~ g~ g~ g~ g~ g~ g~ g~ g~ g~ g~ g~ g~ g~ g~ g~ g~ g~ g~ g~ g~ g~ Q( R( */ '( g( -/ -/ -/ K@ g~ S( T( o( o( o( o( o( o( o( o( o( o( o( o( o( 5^ s] t] )) 4] u] +~ v  x  y  A  D  c. h+ =+ M+ N+ ^# =@ 5@ /# /# P# _$ _$ _$ _$ _$ _$ _$ _$ _$ _$ _$ _$ _$ _$ _$ _$ _$ _$ _$ _$ _$ _$ _$ _$ _$ _$ _$ _$ _$ _$ _$ _$ _$ _$ _$ _$ _$ _$ _$ _$ _$ _$ _$ _$ _$ O# a! @{ k) k) k) k) k) k) k) k) k) k) k) `) `) 7~ o{ /~ U( W$ W$ W$ W$ W$ W$ W$ W$ W$ W$ W$ W$ W$ K' V( b/ Q{ Y] Y] W( A/ r] s( Q) k) k) k) f/ r@ :( Y] Q{ Q{ Q{ Q{ Q{ Q{ b/ X( u( }# Y( 0@ j* j* <> V, V, F$ W$ W$ W$ V, W/ }# u( X( b/ u( u( }# }# }# Y( Y( Y( 0@ j* j* j* j* 0@ V( b/ Q{ Q{ Q{ Q{ Q{ Q{ Q{ Q{ Q{ Q{ Q{ Q{ Q{ Q{ Q{ Q{ Q{ Q{ Q{ Q{ Q{ Q{ Q{ Q{ Q{ Q{ Q{ Q{ Q{ Q{ Q{ Q{ Q{ Q{ Q{ Q{ Q{ Q{ Q{ Q{ Q{ Q{ Q{ Q{ Q{ Q{ Q{ Q{ Q{ Q{ Q{ Q{ Q{ Q{ Q{ Q{ Q{ Q{ Q{ Q{ Q{ Q{ Q{ Q{ Q{ Q{ Q{ Q{ Q{ Q{ Q{ Q{ Q{ Q{ Q{ Q{ Q{ Q{ Q{ Q{ Q{ Q{ Q{ Q{ Q{ Q{ Q{ Q{ Q{ Q{ Q{ Q{ Q{ Q{ Q{ Q{ Q{ Q{ Q{ Q{ Q{ Q{ Q{ Q{ Q{ Q{ Q{ Q{ Q{ Q{ Q{ Q{ Q{ Q{ Q{ Q{ Q{ Q{ Y] Z( S$ `( k) k) k) k) k) k) `) q  _  W( Y] Y] Q{ Q{ Q{ Q{ Q{ M^  _ ._ K' W$ _~ _~ W$ W$ W$ W$ W$ W$ W$ W$ d= *+ 8) .~ k) k) k) k) k) k) k) k) k) k) k) k) k) w] $+ _$ _$ _$ _$ _$ _$ _$ _$ _$ _$ _$ _$ _$ _$ _$ _$ _$ _$ _$ _$ _$ _$ _$ _$ _$ _$ _$ _$ _$ _$ _$ _$ _$ _$ _$ _$ _$ _$ _$ _$ _$ _$ _$ _$ _$ _$ _$ P# /# 5@ *@ n+ N+ =+ K  c. c. B  Z. x  S] |{ 4] )) 4^ 5^ r] +_ 5{ 5{ 5{ 5{ 5{ G] b' b' @_ e@ e@ A+ y{ y{ y{ y{ y{ y{ y{ y{ y{ y{ y{ #_ v. $_ I( I( %_ J( J( J( J( J( &_ *_ L( W# W# W# W# W# W# W# W# W# W# W# W# W# W# W# W# W# W# ",
"=_ g~ g~ g~ g~ g~ g~ g~ g~ g~ g~ g~ g~ g~ g~ g~ g~ g~ g~ g~ g~ g~ g~ g~ g~ g~ g~ g~ g~ g~ -_ ;_ -/ -/ -/ >_ ,_ g~ g~ g~ '_ o( o( o( o( o( o( o( o( o( o( o( o( o( 5^ s] t] )) 4] u] +~ v  x  y  A  D  c. h+ =+ M+ N+ ^# =@ 5@ /# /# P# _$ _$ _$ _$ _$ _$ _$ _$ _$ _$ _$ _$ _$ _$ _$ _$ _$ _$ _$ _$ _$ _$ _$ _$ _$ _$ _$ _$ _$ _$ _$ _$ _$ _$ _$ _$ _$ _$ _$ _$ _$ _$ _$ _$ O# ]~ k) k) k) k) k) k) k) k) k) k) k) k) k) `) 7~ )_ !_ p( W$ W$ W$ W$ W$ W$ W$ W$ W$ W$ W$ W$ W$ <> V( b/ Q{ Y] Y] Q{ x( O^ .~ D) k) k) Q) #( !/ ~_ 2^ (^ Q{ Q{ Q{ b/ {_ a/ Y( ]_ V, W$ W$ W$ W$ W$ W$ W$ W$ W$ W$ W$ W$ W$ W$ W$ V, j* j* K' V, V, W$ W$ W$ W$ W$ W$ W$ W$ W$ W$ W$ K' z/ Q{ Q{ Q{ Q{ Q{ Q{ Q{ Q{ Q{ Q{ Q{ Q{ Q{ Q{ o^ o^ o^ Q{ Q{ Q{ Q{ Q{ Q{ Q{ Q{ Q{ Q{ Q{ Q{ Q{ Q{ Q{ Q{ Q{ Q{ Q{ o^ o^ o^ Q{ b/ b/ m^ m^ m^ m^ m^ Q{ o^ o^ o^ Q{ Q{ Q{ Q{ Q{ Q{ Q{ Q{ Q{ Q{ Q{ Q{ Q{ Q{ Q{ Q{ Q{ Q{ Q{ Q{ Q{ Q{ Q{ Q{ Q{ Q{ Q{ Q{ Q{ Q{ Q{ Q{ Q{ Q{ Q{ Q{ Q{ Q{ Q{ Q{ Q{ Q{ Q{ Q{ Q{ Q{ Q{ Q{ Q{ Q{ Q{ Q{ Q{ Q{ Q{ Q{ Q{ Q{ Q{ Q{ Q{ Q{ Q{ Q{ Q{ Q{ Q{ Q{ 2^ }( ^_ F~  ! k) k) k) k) C/ /_ y( (_ Q{ __ Y] Q{ Q{ Q{ Q{ Q{ Q{ X^ v( Y( ]_ :_ W$ W$ W$ W$ W$ W$ W$ W$ W$ G' c. ~) k) k) k) k) k) k) k) k) k) k) k) k) k) k) a! U@ _$ _$ _$ _$ _$ _$ _$ _$ _$ _$ _$ _$ _$ _$ _$ _$ _$ _$ _$ _$ _$ _$ _$ _$ _$ _$ _$ _$ _$ _$ _$ _$ _$ _$ _$ _$ _$ _$ _$ _$ _$ _$ _$ _$ _$ _$ P# /# 5@ *@ n+ N+ =+ K  c. c. B  Z. x  S] |{ 4] )) 4^ 5^ r] <_ 5{ 5{ 5{ 5{ 5{ y^ b' b' [_ e@ e@ 9^ y{ y{ y{ y{ y{ y{ y{ y{ y{ y{ y{ }_ I( I( I( |_ 1_ J( J( J( J( J( J( J( J( 8( 2_ 3_ 4_ 5_  > W# W# W# W# W# W# L( 5_ *_ 6_ y% J( ",
"g~ g~ g~ g~ g~ g~ g~ g~ g~ S( 7_ 7_ 7_ S( g~ g~ g~ g~ g~ g~ g~ g~ g~ g~ g~ g~ g~ g~ g~ g~ g~ 4/ ,_ ,_ g~ g~ g~ g~ g~ g~ g~ 8_ o( o( o( o( o( 9_ 0_ a_ b_ c_ d_ d_ ]( s] t] )) 4] u] +~ v  x  y  A  D  c. h+ =+ M+ N+ ^# =@ 5@ /# /# P# _$ _$ _$ _$ _$ _$ _$ _$ _$ _$ _$ _$ _$ _$ _$ _$ _$ _$ _$ _$ _$ _$ _$ _$ _$ _$ _$ _$ _$ _$ _$ _$ _$ _$ _$ _$ _$ _$ _$ _$ _$ _$ _$ O# +~ @{ k) k) k) k) k) k) k) k) k) k) k) k) k) +! A$ n~ e_ b% W$ W$ W$ W$ W$ W$ W$ W$ W$ W$ W$ W$ V$ Y( X( Q{ Y] Y] c/ ^/ Y/ ~/ D) k) k) C/ /_ f_ g_ X^ Y] Q{ Q{ b/ {_ a/ j* V, W$ W$ W$ W$ W$ W$ W$ W$ W$ W$ W$ W$ W$ W$ W$ W$ W$ W$ W$ W$ W$ W$ W$ W$ W$ W$ W$ W$ W$ W$ W$ W$ W$ W$ W$ W$ K' z/ b/ Q{ Q{ Q{ Q{ o^ o^ o^ Q{ b/ b/ G/ G/ G/ u( u( u( G/ X^ Q{ Q{ W( o^ Q{ Q{ Q{ Q{ Q{ Q{ Q{ Q{ W( W( Q{ G/ h_ z( }# }# Y( 0@ 0@ j* j* j* Y( }# z( z( G/ Q{ i_ Q{ Q{ Q{ Q{ Q{ Q{ Q{ Q{ Q{ Q{ Q{ Q{ Q{ Q{ Q{ Q{ Q{ Q{ Q{ Q{ Q{ Q{ Q{ Q{ Q{ Q{ Q{ Q{ Q{ Q{ Q{ Q{ Q{ Q{ Q{ Q{ Q{ Q{ Q{ Q{ Q{ Q{ Q{ Q{ Q{ Q{ Q{ Q{ Q{ Q{ Q{ Q{ Q{ Q{ Q{ Q{ Q{ Q{ Q{ Q{ Q{ Q{ Q{ Q{ Q{ Q{ Q{ Q{ j_ k_ l_  ! k) k) k) D) D) ~/ Y/ m_ (^ Y] Q{ Q{ Q{ Q{ Q{ Q{ Q{ Q{ b/ u( }# K' W$ n= W$ W$ W$ W$ W$ W$ W$ =$ .+ ~) `) `) k) k) k) k) k) k) k) k) k) k) k) k) q! U@ _$ _$ _$ _$ _$ _$ _$ _$ _$ _$ _$ _$ _$ _$ _$ _$ _$ _$ _$ _$ _$ _$ _$ _$ _$ _$ _$ _$ _$ _$ _$ _$ _$ _$ _$ _$ _$ _$ _$ _$ _$ _$ _$ _$ _$ P# /# 5@ *@ n+ N+ =+ K  c. c. B  Z. x  S] |{ 4] )) 4^ 5^ 8. n_ o_ 5{ 5{ 5{ 5{ 5{ b' b' p_ e@ e@ 9^ y{ y{ y{ y{ y{ y{ y{ y{ y{ y{ q_ I( I( r_ s_ y{ t_ u_ J( J( J( J( J( J( J( J( J( J( J( J( J( J( J( J( J( J( J( J( J( J( J( J( J( ",
"g~ g~ g~ g~ v_ w_ @  x_ y_ y_ y_ y_ y_ y_ z_ A_ B_ C_ >. D_ g~ g~ g~ g~ g~ g~ g~ g~ g~ g~ g~ g~ g~ g~ g~ g~ g~ g~ g~ g~ E_ F_ G_ >  H_ 1' 1' 1' I_ d_ d_ d_ d_ d_ ]( s] t] )) 4] u] +~ v  x  y  A  D  c. h+ =+ M+ N+ ^# =@ 5@ /# /# P# _$ _$ _$ _$ _$ _$ _$ _$ _$ _$ _$ _$ _$ _$ _$ _$ _$ _$ _$ _$ _$ _$ _$ _$ _$ _$ _$ _$ _$ _$ _$ _$ _$ _$ _$ _$ _$ _$ _$ _$ _$ _$ /# <! @{ k) k) k) k) k) k) k) k) k) k) k) k) k) i^ J_ K_ k^ (( b% b% b% b% b% b% b% b% b% b% b% b% Y$ 9; u( Q{ Q{ Y] Y] [( ^_ F~ C/ C/ k) k) C/ t( L_ Z( Y] Q{ Q{ Q{ M_ 9; {% n= b% b% b% b% b% b% b% b% b% b% b% b% b% b% b% b% b% b% b% b% b% b% b% b% b% b% b% b% b% b% b% b% b% b% b% b% b% n= <> a/ X^ Q{ b/ G/ G/ z/ }# }# Y( Y( 9; K' <> <> <> <> 9; $^ }# }# a/ z( u( Q{ o^ o^ o^ o^ W( i_ m^ z/ Y( K' V$ W$ W$ W$ W$ W$ W$ W$ W$ W$ W$ W$ W$ {% K' a/ b/ Q{ o^ Q{ Q{ Q{ Q{ Q{ Q{ Q{ Q{ Q{ Q{ Q{ Q{ Q{ Q{ Q{ Q{ Q{ Q{ Q{ Q{ Q{ Q{ Q{ Q{ Q{ Q{ Q{ o^ o^ o^ o^ o^ N_ o^ W( W( W( o^ o^ o^ Q{ Q{ b/ X^ X^ X^ X^ G/ G/ G/ X^ X^ b/ Q{ o^ o^ Q{ Q{ Q{ Q{ Q{ Q{ Q{ Q{ Q{ Q{ Q{ x( $( `) k) k) k) k) D) Q) -] |  1^ =^ Y] Q{ Q{ Q{ Q{ Q{ Q{ Q{ Q{ Q{ G/ }# <> n= b% b% b% b% b% b% b% W$ V@ Z. 8) `) k) k) k) k) k) k) k) k) k) k) k) k) k) L! ^# _$ _$ _$ _$ _$ _$ _$ _$ _$ _$ _$ _$ _$ _$ _$ _$ _$ _$ _$ _$ _$ _$ _$ _$ _$ _$ _$ _$ _$ _$ _$ _$ _$ _$ _$ _$ _$ _$ _$ _$ _$ _$ _$ _$ P# /# 5@ *@ n+ N+ =+ K  c. c. B  Z. x  S] |{ 4] )) 4^ 5^ 8. O_ P_ Q_ 5{ 5{ 5{ R_ b' b' S_ e@ e@ 9^ y{ y{ y{ y{ y{ y{ y{ y{ y{ T_ I( U_ V_ y{ y{ r$ )@ W_ J( J( J( J( J( J( J( J( J( J( J( J( J( J( J( J( J( J( J( J( J( J( J( J( J( ",
"D_ X_ Y_ Z_ `_ `_ `_ `_ `_ `_ `_ `_ `_ `_ `_ `_ `_ `_ `_  : g~ g~ g~ g~ g~ g~ g~ g~ g~ g~ g~ g~ g~ g~ g~ G^ .: +: @: #: 1' 1' 1' 1' 1' 1' 1' 1' 1' $: d_ d_ d_ d_ ]( s] t] )) 4] u] +~ v  x  y  A  D  c. h+ =+ M+ N+ ^# =@ 5@ /# /# P# _$ _$ _$ _$ _$ _$ _$ _$ _$ _$ _$ _$ _$ _$ _$ _$ _$ _$ _$ _$ _$ _$ _$ _$ _$ _$ _$ _$ _$ _$ _$ _$ _$ _$ _$ _$ _$ _$ _$ _$ _$ P# %+ :! k) k) k) k) k) k) k) k) k) k) k) k) k) {/ n{ %: &: (( b% b% b% b% b% b% b% b% b% b% b% b% b% {% *: b/ Q{ Y] Y] O{ =: q  b! D) k) k) Q) #( -: :( Y] Q{ Q{ Q{ u( 9; {% b% b% b% b% b% b% b% b% b% b% b% b% b% b% b% b% b% b% b% b% b% b% b% b% b% b% b% b% b% b% b% b% b% b% b% b% b% b% b% b% b% 8; $^ }# W/ K' K' V$ W$ X$ X$ X$ X$ b% b% b% b% b% X$ X$ V$ W$ W$ 8; K' }# v( G/ X] G/ G/ }# K' V$ W$ b% l^ l^ l^ b% b% b% b% b% b% b% b% l^ l^ l^ n= R) 0@ }# X^ Q{ Q{ W( W( W( W( W( W( W( W( W( W( W( W( W( W( W( o^ Q{ Q{ Q{ Q{ b/ b/ b/ b/ b/ X^ G/ G/ G/ G/ ;: G/ u( {_ u( u( v( z( }# }# Y( Y( $^ $^ w( w( K' K' $^ Y( Y( }# z( G/ X^ Q{ Q{ Q{ Q{ Q{ Q{ Q{ Q{ Q{ Y] O{ >: t( k) k) k) k) k) Q) k) Q. A/ Q{ n^ Y] Q{ Q{ Q{ Q{ Q{ Q{ Q{ Q{ Q{  _ $^ Y$ G~ b% b% b% b% b% b% b% F$ t# ]~ w] k) k) k) k) k) k) k) k) k) k) k) k) k) .~ x! 5@ _$ _$ _$ _$ _$ _$ _$ _$ _$ _$ _$ _$ _$ _$ _$ _$ _$ _$ _$ _$ _$ _$ _$ _$ _$ _$ _$ _$ _$ _$ _$ _$ _$ _$ _$ _$ _$ _$ _$ _$ _$ _$ _$ P# /# 5@ *@ n+ N+ =+ K  c. c. B  Z. x  S] |{ 4] )) 4^ 5^ 8. O_ ,: ': ): 5{ 5{ {] b' b' e@ e@ e@ 9^ y{ y{ y{ y{ y{ y{ y{ !: F( V_ y{ y{ y{ s/ T# ~: ~: ~: y% J( J( J( J( J( J( J( J( J( J( J( J( J( J( J( J( J( J( J( J( Z{ Z{ Z{ Z{ ",
"`_ `_ `_ `_ `_ `_ `_ `_ `_ `_ `_ `_ `_ `_ `_ `_ `_ `_ `_ `_ N( g~ g~ g~ g~ g~ g~ g~ g~ g~ g~ {: ]: ^: /: (: (: (: (: _: :: 1' 1' 1' 1' 1' 1' 1' 1' <: d_ d_ d_ d_ 1] s] t] )) 4] u] +~ v  x  y  A  D  c. h+ =+ M+ N+ ^# =@ 5@ /# /# P# _$ _$ _$ _$ _$ _$ _$ _$ _$ _$ _$ _$ _$ _$ _$ _$ _$ _$ _$ _$ _$ _$ _$ _$ _$ _$ _$ _$ _$ _$ _$ _$ _$ _$ _$ _$ _$ _$ _$ _$ P# $+ :~ k) k) k) k) k) k) k) k) k) k) k) k) `) k) ^( p( 8~ [: 5' 5' 5' 5' 5' 5' 5' 5' 5' 5' 5' 5' (( Z$ %^ M_ Q{ Y] Y] X^ x( 0+ `) k) k) k) s( #( T@ m_ Q{ Q{ Q{ Q{ u( K' {% 5' 5' 5' 5' 5' 5' 5' 5' 5' 5' 5' 5' 5' 5' 5' 5' 5' 5' 5' 5' 5' 5' 5' 5' 5' 5' 5' 5' 5' 5' 5' 5' 5' 5' 5' 5' 5' 5' 5' 5' 5' 5' Z$ Z$ W$ n= n= Z$ Z$ 5' 5' 5' 5' 5' 5' 5' 5' 5' 5' 5' 5' Z$ 5' 5' Z$ Z$ y! {% %^ 9; <> <> {% Z$ 5' 5' 5' 5' 5' 5' 5' 5' 5' 5' 5' 5' 5' 5' 5' 5' 5' 5' 5' n= 8; $^ }: u( {_ m^ m^ O{ O{ O{ O{ O{ O{ O{ m^ {_ {_ {_ {_ u( u( V( V( *: *: *: *: *: *: *: Y( 9; %^ <> <> <> <> R) R) {% {% {% W$ W$ n= n= n= n= n= n= n= n= n= n= n= W$ {% K' |: V( X^ M^ Q{ Q{ Q{ Q{ Q{ Q{ Q{ X^ [( 1: :~ C/ k) k) k) k) b! `) 2: |^ (^ 3: Y] Q{ Q{ Q{ Q{ Q{ Q{ Q{ Q{ X^ ._ W, 5' 5' 5' 5' 5' 5' 5' 5' 5' W$ m+ a! 4: k) k) k) k) k) k) k) k) k) k) k) k) k) `) x! v# _$ _$ _$ _$ _$ _$ _$ _$ _$ _$ _$ _$ _$ _$ _$ _$ _$ _$ _$ _$ _$ _$ _$ _$ _$ _$ _$ _$ _$ _$ _$ _$ _$ _$ _$ _$ _$ _$ _$ _$ _$ _$ P# /# 5@ *@ n+ N+ =+ K  c. c. B  Z. x  S] |{ 4] )) 4^ 5^ 8. O_ ,: ,: 5: *{ *( b' b' 6: e@ e@ e@ 9^ y{ y{ y{ y{ y{ E( d@ e@ e@ 7: y{ y{ 8: ~: ~: ~: ~: ~: 9: J( J( J( J( J( 0: a: b: b: 0: 0: 0: J( J( c: d: e: f: g: g: g: g: g: g: ",
"`_ `_ h: i: i: i: i: i: i: i: j: k: k: k: k: k: k: k: k: k: _+ l: m: n: o: G^ p: q: r: s: t: u: v: (: (: (: (: (: (: (: (: w: x: y: z: z: y: x: A: (: d_ d_ d_ B: Y^ s] t] )) 4] u] +~ v  x  y  A  D  c. h+ =+ M+ N+ ^# =@ 5@ /# /# P# _$ _$ _$ _$ _$ _$ _$ _$ _$ _$ _$ _$ _$ _$ _$ _$ _$ _$ _$ _$ _$ _$ _$ _$ _$ _$ _$ _$ _$ _$ _$ _$ _$ _$ _$ _$ _$ _$ _$ _$ M+ r! i^ k) k) k) k) k) k) k) k) k) k) k) `) k) 6~ E$ C:  ~ (( (( (( (( (( (( (( (( (( (( (( (( D: (( `$ E: X^ 2^ Y] M^ ^/ V^ l_ k) k) k) D) `) `/ x( Y] Y] Q{ Q{ M_ 9; Z$ (( (( (( (( (( (( (( (( (( (( (( (( (( (( (( (( (( (( (( (( (( (( (( (( (( (( (( (( (( (( (( (( (( (( (( (( (( (( (( (( (( (( (( (( (( (( (( (( (( (( (( (( (( (( (( (( (( (( (( (( (( (( (( (( (( (( (( (( 5' Z$ Z$ 5' 5' 5' (( (( (( (( (( (( (( (( (( (( (( (( (( (( (( (( (( (( (( (( (( Z$ Z$ N' W, W, W, Y; F: F: F: F: F: F: Y; Y; W, W, W, W, W, W, W, W, G: y! y! y! y! y! y! y! Z$ 5' 5' 5' 5' 5' 5' 5' (( (( (( (( (( (( (( (( (( (( (( (( (( (( (( (( (( (( Z$ `$ W, Y; #^ H: M_ Q{ Q{ Q{ Q{ Q{ Q{ X^ I: J: ,! s( k) k) k) k) C/ ~/ K: W^ 2^ n^ (^ Q{ Q{ Q{ Q{ Q{ Q{ Q{ b/ }: Y; (( D: (( (( (( (( (( (( (( (( F$ U/ 8) `) L: `) k) k) k) k) k) k) k) k) k) k) k) `) ') P# _$ _$ _$ _$ _$ _$ _$ _$ _$ _$ _$ _$ _$ _$ _$ _$ _$ _$ _$ _$ _$ _$ _$ _$ _$ _$ _$ _$ _$ _$ _$ _$ _$ _$ _$ _$ _$ _$ _$ _$ _$ P# /# 5@ *@ n+ N+ =+ K  c. c. B  Z. x  S] |{ 4] )) 4^ 5^ 8. O_ ,: ,: ,: M: b' b' b' N: e@ e@ e@ O: y{ y{ y{ !: 5( e@ e@ e@ e@ e@ d] P: ~: ~: ~: ~: ~: ~: ~: Q: J( J( c: R: S: S: S: S: S: S: S: S: S: S: S: S: S: S: S: S: S: S: T: ",
"U: U: U: U: U: U: U: U: U: U: U: U: U: U: U: U: U: U: U: U: U: U: U: U: U: V: W: t: t: t: X: v: (: (: (: (: (: (: (: (: (: (: (: (: (: (: (: (: (: (: Y: d_ d_ Z: Y^ s] t] )) 4] u] +~ v  x  y  A  D  c. h+ =+ M+ N+ ^# =@ 5@ /# /# P# _$ _$ _$ _$ _$ _$ _$ _$ _$ _$ _$ _$ _$ _$ _$ _$ _$ _$ _$ _$ _$ _$ _$ _$ _$ _$ _$ _$ _$ _$ _$ _$ _$ _$ _$ _$ _$ _$ _$ ^# E) k) k) k) k) k) k) k) k) k) k) k) k) k) k) :{ `:  < .< (( (( (( (( (( (( (( (( (( (( (( (( (( D: (( Y; +< Q{ Y] Y] [( 2( F~ D) C/ k) k) C/ r( e$ O{ Y] (^ Q{ b/ *: Z$ (( (( (( (( (( (( (( (( (( (( (( (( (( (( (( (( (( (( (( (( (( (( (( (( (( (( (( (( (( (( (( (( (( (( (( (( (( (( (( (( (( (( (( (( (( (( (( (( (( (( (( (( (( (( (( (( (( (( (( (( (( (( (( (( (( (( (( (( (( (( (( (( (( (( (( (( (( (( (( (( (( (( (( (( (( (( (( (( (( (( (( (( (( (( (( (( (( (( (( D: D: D: (( (( (( (( (( (( (( (( D: D: D: D: D: D: D: D: D: (( (( (( (( (( (( (( (( (( (( (( (( (( (( (( (( (( (( (( (( (( (( (( (( (( (( (( (( (( (( (( (( (( (( (( (( D: (( `$ W, |: }: X^ Q{ Q{ o^ o^ (^ b/ 3) @< .~ C/ k) k) k) k) D) F~ ^_ _^ n^ Y] Q{ Q{ Q{ Q{ Q{ Q{ Q{ b/ }: Y; (( D: (( (( (( (( (( (( (( (( (( D$ *+ /) F~ `) k) k) k) k) k) k) k) k) k) k) k) k) :! h+ x# _$ _$ _$ _$ _$ _$ _$ _$ _$ _$ _$ _$ _$ _$ _$ _$ _$ _$ _$ _$ _$ _$ _$ _$ _$ _$ _$ _$ _$ _$ _$ _$ _$ _$ _$ _$ _$ _$ _$ _$ P# /# 5@ *@ n+ N+ =+ K  c. c. B  Z. x  S] |{ 4] )) 4^ 5^ 8. O_ ,: ,: ,: ,: #< b' b' d' e@ e@ d@ y{ y{ y{ !: d@ e@ e@ e@ e@ e@ e@ $< ~: ~: ~: ~: ~: ~: ~: ~: %< &< *< =< S: S: S: T: -< -< ;< >< >< >< Q! ,< ,< ,< ,< ,< W_ W_ W_ W_ ",
"U: U: U: U: U: U: U: U: U: U: U: U: U: U: U: U: U: U: U: U: U: U: U: U: U: '< )< !< t: X: v: (: (: (: (: (: (: (: (: (: (: (: (: (: (: (: (: (: (: ~< {< d_ i( ]< Y^ s] t] )) 4] u] +~ v  x  y  A  D  c. h+ =+ M+ N+ ^# =@ 5@ /# /# P# _$ _$ _$ _$ _$ _$ _$ _$ _$ _$ _$ _$ _$ _$ _$ _$ _$ _$ _$ _$ _$ _$ _$ _$ _$ _$ _$ _$ _$ _$ _$ _$ _$ _$ _$ _$ _$ _$ ^# L! k) k) k) k) k) k) k) k) k) k) k) k) k) k) g/ `: ^< C: (( (( (( (( (( (( (( (( (( (( (( (( (( (~ (~ (( $^ X^ Q{ Y] m^ r* // s( C/ k) k) C/ 1( T@ /< Y] (^ i_ b/ }: W, (( D: (( (( (( (( (( (( (( (( (( (( (( (( (( (( (( (( (( (( (( (( (( (( (( (( (( (( (( (( (( (( (( (( (( (( (( (( (( (( (( (( (( (( (( (( (( (( (( (( (( (( (( (( (( (( (( (( (( (( (( (( (( (( (( (( (( (( (( (( (( (( (( (( (( (( (( (( (( (( (( (( (( (( (( (( (( (( (( (( (( (( (( (( (( (( (( (( (( D: D: D: D: D: D: D: D: D: D: D: D: D: D: D: D: D: D: D: D: D: D: (( (( (( (( (( (( (( (( (( (( (( (( (( (( (( (( (( (( (( (( (( (( (( (( (( (( (( (( (( (( (( (( (( (( D: D: D: D: (( `$ W, 9; &^ H: X^ Q{ (^ Y] s{ 9$ B/ k) k) k) k) k) D) k) q  r* o^ Y] Y] Q{ Q{ Q{ Q{ Q{ Q{ Q{ v( Y; (( D: D: (( (( (( (( (( (( (( D: (( A$ H  /) ,! k) k) k) k) k) k) k) k) k) k) k) k) k) :~ @+ x# _$ _$ _$ _$ _$ _$ _$ _$ _$ _$ _$ _$ _$ _$ _$ _$ _$ _$ _$ _$ _$ _$ _$ _$ _$ _$ _$ _$ _$ _$ _$ _$ _$ _$ _$ _$ _$ _$ _$ P# /# 5@ *@ n+ N+ =+ K  c. c. B  Z. x  S] |{ 4] )) 4^ 5^ r] (< ,: ,: ,: ,: _< c] b' e' e@ e@ d] y{ y{ :< d@ e@ e@ e@ e@ e@ e@ e@ Z, ~: ~: ~: ~: ~: ~: ~: << %< %< s/ |~ ,< W_ W_ W_ W_ W_ W_ W_ W_ W_ W_ W_ W_ W_ W_ W_ W_ W_ W_ W_ ",
"U: U: U: U: U: U: U: U: U: U: U: U: U: U: U: U: U: U: U: U: U: U: U: U: U: [< }< W: |< 1< 2< 3< 3< 4< (: (: (: (: (: (: (: (: (: (: (: (: (: 5< 6< 7< 8< [' 9< ]< Y^ s] t] )) 4] u] +~ v  x  y  A  D  c. h+ =+ M+ N+ ^# =@ 5@ /# /# P# _$ _$ _$ _$ _$ _$ _$ _$ _$ _$ _$ _$ _$ _$ _$ _$ _$ _$ _$ _$ _$ _$ _$ _$ _$ _$ _$ _$ _$ _$ _$ _$ _$ _$ _$ _$ _$ 5@ 0< k) k) k) k) k) k) k) k) k) k) k) k) k) k) a< U/ b< c< G~ (~ (~ (~ (~ (~ (~ (~ (~ (~ (~ (~ (~ (~ (~ U] *% ._ Q{ (^ c/ X/ 0+ `) k) k) k) Q) `) O^ d< Q{ Q{ Q{ Q{ }: W, D: D: D: D: D: D: D: D: D: D: D: D: D: D: D: D: D: D: D: D: D: D: D: D: D: D: D: D: D: D: D: D: D: D: D: D: D: D: D: D: D: D: D: D: D: D: D: D: D: D: D: D: D: D: D: D: D: D: D: D: D: D: D: D: D: D: D: D: D: D: D: D: D: D: D: D: D: D: D: D: D: D: D: D: D: D: D: D: D: D: D: D: D: D: D: D: D: D: D: D: D: D: D: D: D: D: D: D: D: D: D: D: D: D: D: D: D: D: D: D: D: D: D: D: D: D: D: D: D: D: D: D: D: D: D: D: D: D: D: D: D: D: D: D: D: D: D: D: D: D: D: D: D: D: D: D: D: D: D: D: D: D: (( ((  % W, e< #^ M_ Y] Y] f< [) w] C/ k) k) k) k) k) `) 2: g< Q{ Y] Y] Q{ Q{ Q{ Q{ Q{ Q{ M_ Y; D: h< D: D: D: D: D: D: D: D: D: D: G~ x# B  8) .~ k) k) k) k) k) k) k) k) k) k) k) k) k) +! M+ x# _$ _$ _$ _$ _$ _$ _$ _$ _$ _$ _$ _$ _$ _$ _$ _$ _$ _$ _$ _$ _$ _$ _$ _$ _$ _$ _$ _$ _$ _$ _$ _$ _$ _$ _$ _$ _$ _$ P# /# 5@ *@ n+ N+ =+ K  c. c. B  Z. x  S] |{ 4] )) 4^ 5^ 5^ i< j< k< _] 7! l< m< )! e@ e@ d@ O: O: d] e@ e@ e@ e@ e@ e@ e@ e@ $< ~: ~: ~: ~: ~: ~: ~: ~: n< %< %< o< W_ W_ W_ W_ W_ W_ W_ W_ W_ W_ W_ W_ W_ W_ W_ W_ W_ W_ W_ W_ W_ ",
"U: U: U: U: U: U: U: U: U: U: U: U: U: U: U: U: U: U: U: U: U: U: U: U: U: p< 3< 2< q< r< 3< 3< 3< s< (: (: (: (: (: (: (: (: (: (: (: (: (: 6< t< u< 8< v< ]< ]< Y^ s] t] )) 4] u] +~ v  x  y  A  D  c. h+ =+ M+ N+ ^# =@ 5@ /# /# P# _$ _$ _$ _$ _$ _$ _$ _$ _$ _$ _$ _$ _$ _$ _$ _$ _$ _$ _$ _$ _$ _$ _$ _$ _$ _$ _$ _$ _$ _$ _$ _$ _$ _$ _$ _$ O# a. C( k) k) k) k) k) k) k) k) k) k) k) k) k) i^ w< N{ C: (( (~ (~ (~ (~ (~ (~ (~ (~ (~ (~ (~ (~ (~ (~ x< x<  % }: X^ Y] _^ 3  f/ k) k) k) Q) k) y< z< Q{ Y] Q{ Q{ v( Y; D: A< (~ (~ (~ (~ (~ (~ (~ (~ (~ (~ (~ (~ (~ (~ (~ (~ (~ (~ (~ (~ (~ (~ (~ (~ (~ (~ (~ (~ (~ (~ (~ (~ (~ (~ (~ (~ (~ (~ (~ (~ (~ (~ (~ (~ (~ (~ (~ (~ (~ (~ (~ (~ (~ (~ (~ (~ (~ (~ (~ (~ (~ (~ (~ (~ (~ (~ (~ (~ (~ (~ (~ (~ (~ (~ (~ (~ (~ (~ (~ (~ (~ (~ (~ (~ (~ (~ (~ (~ (~ (~ (~ (~ (~ (~ (~ (~ (~ (~ (~ (~ (~ (~ (~ (~ (~ (~ (~ (~ (~ (~ (~ (~ (~ (~ (~ (~ (~ (~ (~ (~ (~ (~ (~ (~ (~ (~ (~ (~ (~ (~ (~ (~ (~ (~ (~ (~ (~ (~ (~ (~ (~ (~ (~ (~ (~ (~ (~ (~ (~ (~ (~ (~ (~ (~ (~ (~ (~ (~ (~ (~ (~ (~ (~ (~ D: [: +% e< B< C< Y] D< E< 4: k) k) k) k) k) C/ `) V^ m_ 2^ Y] Q{ Q{ Q{ Q{ Q{ Q{ M_ Y; D: A< (~ (~ (~ (~ (~ (~ (~ (~ (~ (~ (~ (( /# Z. F< .~ k) k) k) k) k) k) k) k) k) k) k) k) k) r! y@ x# _$ _$ _$ _$ _$ _$ _$ _$ _$ _$ _$ _$ _$ _$ _$ _$ _$ _$ _$ _$ _$ _$ _$ _$ _$ _$ _$ _$ _$ _$ _$ _$ _$ _$ _$ _$ _$ P# /# 5@ *@ n+ N+ =+ K  c. c. B  Z. x  S] |{ 4] )) 4^ 5^ 5^ i< e@ e@ e@ e@ e@ e@ e@ e@ e@ d@ 5( e@ e@ e@ e@ e@ G< H< H< H< H< I< J< K< a^ ~: ~: ~: L< M< N< %< %< O< P< P< Q< W_ W_ W_ W_ W_ W_ W_ W_ W_ W_ W_ W_ W_ W_ W_ W_ W_ W_ ",
"U: U: U: U: U: U: U: U: U: U: U: U: U: U: U: U: U: U: U: U: U: U: U: U: [< 3< 3< 3< 3< 3< 3< 3< 3< R< (: (: (: (: (: (: (: (: (: (: (: (: 5< t< t< h) 8< 8< ]< ]< Y^ s] t] )) 4] u] +~ v  x  y  A  D  c. h+ =+ M+ N+ ^# =@ 5@ /# /# P# _$ _$ _$ _$ _$ _$ _$ _$ _$ _$ _$ _$ _$ _$ _$ _$ _$ _$ _$ _$ _$ _$ _$ _$ _$ _$ _$ _$ _$ _$ _$ _$ _$ _$ _$ v# x! @{ k) k) k) k) k) k) k) k) k) k) k) k) `) `) u{ S< 8~ b= b= b= b= b= b= b= b= b= b= b= b= b= b= b= T< U< b= W, H: X^ :( 7$ Z/ k) k) k) D) C/ `( 7$ 1^ Y] Y] X^ H: e< +% b= b= b= b= b= b= b= b= b= b= b= b= b= b= b= b= b= b= b= b= b= b= b= b= b= b= b= b= b= b= b= b= b= b= b= b= b= b= b= b= b= b= b= b= b= b= b= b= b= b= b= b= b= b= b= b= b= b= b= b= b= b= b= b= b= b= b= b= b= b= b= b= b= b= b= b= b= b= b= b= b= b= b= b= b= b= b= b= b= b= b= b= b= b= b= b= b= b= b= b= b= b= b= b= b= b= b= b= b= b= b= b= b= b= b= b= b= b= b= b= b= b= b= b= b= b= b= b= b= b= b= b= b= b= b= b= b= b= b= b= b= b= b= b= b= b= b= b= b= b= b= b= b= b= b= b= b= b= b= b= b= b= b= b= b= b= T< A< A< .% V< *^ Y] Q{ Y! W< .~ k) k) k) k) C/ Q) F~ r@ <( Y] Y] Q{ Q{ Q{ Q{ Q{ X^ X< .% U< b= b= b= b= b= b= b= b= b= b= b= b= (( =@ g{ F< .~ k) k) k) k) k) k) k) k) k) k) k) k) k) B( ^# _$ _$ _$ _$ _$ _$ _$ _$ _$ _$ _$ _$ _$ _$ _$ _$ _$ _$ _$ _$ _$ _$ _$ _$ _$ _$ _$ _$ _$ _$ _$ _$ _$ _$ _$ _$ _$ P# /# 5@ *@ n+ N+ =+ K  c. c. B  Z. x  S] |{ 4] )) 4^ 5^ 5^ i< e@ e@ e@ e@ e@ e@ e@ e@ e@ e@ e@ e@ e@ e@ e@ e@ Y< H< H< H< H< H< H< H< Z< $< `<  [ .[ .[ +[ %< %< O< P< P< P< K< W_ W_ W_ W_ W_ W_ W_ W_ W_ W_ W_ W_ W_ W_ W_ W_ W_ ",
"U: U: U: U: U: U: U: U: U: U: U: U: U: U: U: U: U: U: U: U: U: U: U: U: @[ 3< 3< 3< 3< 3< 3< 3< 3< }< (: (: (: (: (: (: (: #[ $[ %[ &[ *[ =[ t< t< -[ 8< 8< ]< ]< Y^ s] t] )) 4] u] +~ v  x  y  A  D  c. h+ =+ M+ N+ ^# =@ 5@ /# /# P# _$ _$ _$ _$ _$ _$ _$ _$ _$ _$ _$ _$ _$ _$ _$ _$ _$ _$ _$ _$ _$ _$ _$ _$ _$ _$ _$ _$ _$ _$ _$ _$ _$ _$ e# ;[ `) k) k) k) k) k) k) k) k) k) k) k) k) k) `) 8) >[ ,[ 5] T< T< T< T< T< T< T< T< T< T< T< T< T< T< T< T< b=  % #^ __ Q{ A/ r] k) C/ k) k) k) t( '[ }( 2^ Y] X^ |: )[ [: b= b= T< T< T< T< T< T< T< T< T< T< T< T< T< T< T< T< T< T< T< T< T< T< T< T< T< T< T< T< T< T< T< T< T< T< T< T< T< T< T< T< T< T< T< T< T< T< T< T< T< T< T< T< T< T< T< T< T< T< T< T< T< T< T< T< T< T< T< T< T< T< T< T< T< T< T< T< T< T< T< T< T< T< T< T< T< T< T< T< T< T< T< T< T< T< T< T< T< T< T< T< T< T< T< T< T< T< T< T< T< T< T< T< T< T< T< T< T< T< T< T< T< T< T< T< T< T< T< T< T< T< T< T< T< T< T< T< T< T< T< T< T< T< T< T< T< T< T< T< T< T< T< T< T< T< T< T< T< T< T< T< T< T< T< T< T< T< b= T< U< b= )[ @^ Y] ![ ~[ r( i^ i^ k) k) k) Q) i^ {[ =: Z( Y] Y] Q{ Q{ Q{ Q{ b/ ][ $% U< T< T< T< T< T< T< T< T< T< T< T< T< T< D: U@ v  w] `) k) k) k) k) k) k) k) k) k) k) k) k) k) ^[ O# _$ _$ _$ _$ _$ _$ _$ _$ _$ _$ _$ _$ _$ _$ _$ _$ _$ _$ _$ _$ _$ _$ _$ _$ _$ _$ _$ _$ _$ _$ _$ _$ _$ _$ _$ _$ P# /# 5@ *@ n+ N+ =+ K  c. c. B  Z. x  S] |{ 4] )) 4^ 5^ 5^ /[ ([ ([ _[ e@ e@ e@ e@ e@ e@ e@ e@ e@ e@ e@ e@ :[ H< H< H< H< H< H< H< <[ .[ .[ .[ .[ .[ .[ [[ %< }[ O< P< P< P< P< Z, W_ W_ W_ W_ W_ W_ W_ W_ W_ W_ W_ W_ W_ W_ W_ W_ ",
"U: U: U: U: U: U: U: U: U: U: U: U: U: U: U: U: U: U: U: U: U: U: U: |[ 3< 3< 3< 1[ 2[ 3< 3< 3< 3< 3[ (: (: (: (: (: 4[ 5[ 6[ 7[ 8[ 8[ 8[ 8[ 8[ 9[ 8< 8< 8< 0[ ]< Y^ s] t] )) 4] u] +~ v  x  y  A  D  c. h+ =+ M+ N+ ^# =@ 5@ /# /# P# _$ _$ _$ _$ _$ _$ _$ _$ _$ _$ _$ _$ _$ _$ _$ _$ _$ _$ _$ _$ _$ _$ _$ _$ _$ _$ _$ _$ _$ _$ _$ _$ _$ P# $+ +! k) k) k) k) k) k) k) k) k) k) k) k) k) k) r( S{ a[ +{ T< T< T< T< T< T< T< T< T< T< T< T< T< T< T< b[ T< +% $^ X^ c/ m_ V^ `) Q) k) k) C/ `) c[ d[ 2^ 2^ X^ |: e[ T< T< T< T< T< T< T< T< T< T< T< T< T< T< T< T< T< T< T< T< T< T< T< T< T< T< T< T< T< T< T< T< T< T< T< T< T< T< T< T< T< T< T< T< T< T< T< T< T< T< T< T< T< T< T< T< T< T< T< T< T< T< T< T< T< T< T< T< T< T< T< T< T< T< T< T< T< T< T< T< T< T< T< T< T< T< T< T< T< T< T< T< T< T< T< T< T< T< T< T< T< T< T< T< T< T< T< T< T< T< T< T< T< T< T< T< T< T< T< T< T< T< T< T< T< T< T< T< T< T< T< T< T< T< T< T< T< T< T< T< T< T< T< T< T< T< T< T< T< T< T< T< T< T< T< T< T< T< T< T< T< T< T< T< T< T< T< T< T< T< T< T< U< q( T< O' *^ X^ f[ w@ :~ k) k) k) k) k) Q) `) V^ W^ Y] Y] Q{ Q{ Q{ Q{ b/ g[ h[ q( T< T< T< T< T< T< T< T< T< T< T< T< T< T< D: *+ +~ w] @{ k) k) k) k) k) k) k) k) k) k) k) k) k) a. 5@ _$ _$ _$ _$ _$ _$ _$ _$ _$ _$ _$ _$ _$ _$ _$ _$ _$ _$ _$ _$ _$ _$ _$ _$ _$ _$ _$ _$ _$ _$ _$ _$ _$ _$ _$ P# /# 5@ *@ n+ N+ =+ K  c. c. B  Z. x  S] |{ 4] )) 4^ 5^ {) i[ j[ j[ j[ j[ j[ j[ k[ l[ m[ n[ o[ Y& Y& Y& p[ Y< H< H< H< H< H< H< H< Y< q[ .[ .[ .[ .[ .[ r[ %< V_ O< P< P< P< P< s[ W_ W_ W_ W_ W_ W_ W_ W_ W_ W_ W_ W_ W_ W_ W_ W_ ",
"U: U: U: U: U: U: U: U: U: U: U: U: U: U: U: U: U: U: U: U: U: U: N( 3< 3< 3< t[ <: 3< 3< 3< 3< 3< s< (: (: (: (: 5[ 6[ 6[ 6[ 6[ u[ 8[ 8[ 8[ 8[ 9[ 8< 8< 8< v[ ]< Y^ s] t] )) 4] u] +~ v  x  y  A  D  c. h+ =+ M+ N+ ^# =@ 5@ /# /# P# _$ _$ _$ _$ _$ _$ _$ _$ _$ _$ _$ _$ _$ _$ _$ _$ _$ _$ _$ _$ _$ _$ _$ _$ _$ _$ _$ _$ _$ _$ _$ _$ P# $+ :! k) k) k) k) k) k) k) k) k) k) k) k) k) k) `) =$ w[ .< T< T< T< T< T< T< T< T< T< T< T< T< T< T< T< b[ b[ [: Y; M_ Q{ ~_ 2( -] k) k) k) C/ .~ y( |^ Q{ C< v( %^ e[ b[ b[ T< T< T< T< T< T< T< T< T< T< T< T< T< T< T< T< T< T< T< T< T< T< T< T< T< T< T< T< T< T< T< T< T< T< T< T< T< T< T< T< T< T< T< T< T< T< T< T< T< T< T< T< T< T< T< T< T< T< T< T< T< T< T< T< T< T< T< T< T< T< T< T< T< T< T< T< T< T< T< T< T< T< T< T< T< T< T< T< T< T< T< T< T< T< T< T< T< T< T< T< T< T< T< T< T< T< T< T< T< T< T< T< T< T< T< T< T< T< T< T< T< T< T< T< T< T< T< T< T< T< T< T< T< T< T< T< T< T< T< T< T< T< T< T< T< T< T< T< T< T< T< T< T< T< T< T< T< T< T< T< T< T< T< T< T< T< T< T< T< T< T< T< b[ q( T< x[ y[ M_ z[ 6) F~ i^ k) k) k) k) Q) F~ k_ m_ b/ Y] Q{ Q{ Q{ b/ A[ B[ b[ T< T< T< T< T< T< T< T< T< T< T< T< T< T< T< n= @+ +~ +! k) k) k) k) k) k) k) k) k) k) k) k) k) k) B  u# _$ _$ _$ _$ _$ _$ _$ _$ _$ _$ _$ _$ _$ _$ _$ _$ _$ _$ _$ _$ _$ _$ _$ _$ _$ _$ _$ _$ _$ _$ _$ _$ _$ _$ P# /# 5@ *@ n+ N+ =+ K  c. c. B  Z. x  S] |{ 4] )) 4^ 5^ 1] C[ D[ D[ D[ D[ D[ D[ D[ D[ D[ D[ E[ F[ F[ F[ F[ F[ F[ F[ F[ F[ F[ F[ F[ F[ F[ .[ .[ .[ .[ .[ %< %< V_ O< G[ P< P< P< P< Z, W_ W_ W_ W_ W_ W_ W_ W_ W_ W_ W_ W_ W_ W_ W_ ",
"U: U: U: U: U: U: U: U: U: U: U: U: U: U: U: U: U: U: U: U: U: [< H[ 3< 3< I[ (: R< 3< 3< 3< 3< 3< J[ (: (: (: K[ 6[ 6[ L[ M[ 6[ N[ 8[ 8[ 8[ 8[ 8< 8< 8< 8< O[ P[ 1] s] t] )) 4] u] +~ v  x  y  A  D  c. h+ =+ M+ N+ ^# =@ 5@ /# /# P# _$ _$ _$ _$ _$ _$ _$ _$ _$ _$ _$ _$ _$ _$ _$ _$ _$ _$ _$ _$ _$ _$ _$ _$ _$ _$ _$ _$ _$ _$ _$ x# Q[ ,! k) k) k) k) k) k) k) k) k) k) k) k) k) k) `) u{ R[ w[ T< T< T< T< T< T< T< T< T< T< T< T< T< T< T< q( q( T< `$ H: Y] }( '[ t( k) k) k) Q) Q) Z/ e$ _^ Y] @^ x[ S[ b[ T< T< T< T< T< T< T< T< T< T< T< T< T< T< T< T< T< T< T< T< T< T< T< T< T< T< T< T< T< T< T< T< T< T< T< T< T< T< T< T< T< T< T< T< T< T< T< T< T< T< T< T< T< T< T< T< T< T< T< T< T< T< T< T< T< T< T< T< T< T< T< T< T< T< T< T< T< T< T< T< T< T< T< T< T< T< T< T< T< T< T< T< T< T< T< T< T< T< T< T< T< T< T< T< T< T< T< T< T< T< T< T< T< T< T< T< T< T< T< T< T< T< T< T< T< T< T< T< T< T< T< T< T< T< T< T< T< T< T< T< T< T< T< T< T< T< T< T< T< T< T< T< T< T< T< T< T< T< T< T< T< T< T< T< T< T< T< T< T< T< T< T< T< T< T< T< q( T< x[ y[ u( T$ T[ U[ C/ k) k) k) k) D) F~ 1: [( Y] Y] Y] Q{ b/ y[ V[ b[ T< T< T< T< T< T< T< T< T< T< T< T< T< T< T< T< D$ c. r! .~ k) k) k) k) k) k) k) k) k) k) k) k) k) .~ %+ _$ _$ _$ _$ _$ _$ _$ _$ _$ _$ _$ _$ _$ _$ _$ _$ _$ _$ _$ _$ _$ _$ _$ _$ _$ _$ _$ _$ _$ _$ _$ _$ _$ _$ P# /# 5@ *@ n+ N+ =+ K  c. c. B  Z. x  S] |{ 4] )) 4^ 5^ {) W[ X[ D[ D[ D[ D[ D[ D[ D[ D[ D[ Y[ F[ F[ F[ F[ F[ F[ F[ F[ F[ F[ F[ F[ F[ F[ .[ .[ .[ .[ q[ %< %< V_ O< #/ G[ P< P< P< =. W_ W_ W_ W_ W_ W_ W_ W_ W_ W_ W_ W_ W_ W_ W_ ",
"U: U: U: U: U: U: U: U: U: U: U: U: U: U: U: U: U: U: U: U: U: w_ 3< 3< 3< q< Z[ 3< 3< 3< 3< 3< 3< `[ (: (: (: (: (: (: (: (:  } 6[ 8[ 8[ 8[ .} 8< 8< +} 8< O[ P[ 1] s] t] )) 4] u] +~ v  x  y  A  D  c. h+ =+ M+ N+ ^# =@ 5@ /# /# P# _$ _$ _$ _$ _$ _$ _$ _$ _$ _$ _$ _$ _$ _$ _$ _$ _$ _$ _$ _$ _$ _$ _$ _$ _$ _$ _$ _$ _$ _$ _$ *@ 8) k) k) k) k) k) k) k) k) k) k) k) k) k) `) `) ^( K^ w[  ~ T< T< T< T< T< T< T< T< T< T< T< T< T< T< q( q( T< `$ @^ C< Q{ =: `( k) Q) k) k) Q) @} 2( d/ M_ @^ )[ b[ #} q( T< T< T< T< T< T< T< T< T< T< T< T< T< T< T< T< T< T< T< T< T< T< T< T< T< T< T< T< T< T< T< T< T< T< T< T< T< T< T< T< T< T< T< T< T< T< T< T< T< T< T< T< T< T< T< T< T< T< T< T< T< T< T< T< T< T< T< T< T< T< T< T< T< T< T< T< T< T< T< T< T< T< T< T< T< T< T< T< T< T< T< T< T< T< T< T< T< T< T< T< T< T< T< T< T< T< T< T< T< T< T< T< T< T< T< T< T< T< T< T< T< T< T< T< T< T< T< T< T< T< T< T< T< T< T< T< T< T< T< T< T< T< T< T< T< T< T< T< T< T< T< T< T< T< T< T< T< T< T< T< T< T< T< T< T< T< T< T< T< T< T< T< T< T< T< T< U< q( T< $} y[ f< %} ]) Q) i^ k) k) k) D) D) r( ~[ <( Y] Y] Q{ b/ @^ )[ T< T< T< T< T< T< T< T< T< T< T< T< T< T< T< T< T< [: x# B  !) &} k) k) k) k) k) k) k) k) k) k) k) k) i^ :! @+ P# _$ _$ _$ _$ _$ _$ _$ _$ _$ _$ _$ _$ _$ _$ _$ _$ _$ _$ _$ _$ _$ _$ _$ _$ _$ _$ _$ _$ _$ _$ _$ _$ P# /# 5@ *@ n+ N+ =+ K  c. c. B  Z. x  S] |{ 4] )) 4^ 5^ {) *} =} -} F[ ;} D[ D[ D[ D[ D[ D[ >} F[ F[ F[ F[ F[ F[ F[ F[ F[ F[ F[ F[ F[ F[ .[ .[ .[ .[ ,} %< %< V_ O< #/ j$ P< P< P< P< W_ W_ W_ W_ W_ W_ W_ W_ W_ W_ W_ W_ W_ W_ W_ ",
"U: U: U: U: U: U: U: U: U: U: U: U: U: U: U: U: U: U: U: U: U: U: |[ 3< 3< '} `[ Z[ t[ s< R< s< Z[ (: (: (: (: (: (: (: (: (:  } )} 8[ 8[ 8[ !} 8< 8< ~} +} {} P[ 1] s] t] )) 4] u] +~ v  x  y  A  D  c. h+ =+ M+ N+ ^# =@ 5@ /# /# P# _$ _$ _$ _$ _$ _$ _$ _$ _$ _$ _$ _$ _$ _$ _$ _$ _$ _$ _$ _$ _$ _$ _$ _$ _$ _$ _$ _$ _$ _$ X@ x! @{ k) k) k) k) k) k) k) k) k) k) k) k) k) `) ') ]} 0/  ~ T< T< T< T< T< T< T< T< T< T< T< T< T< T< T< U< U< `$ *: Y] (^ ^} +( `) i^ k) k)  ! 1( /} (} B< 0; @% U< q( b[ T< T< T< T< T< T< T< T< T< T< T< T< T< T< T< T< T< T< T< T< T< T< T< T< T< T< T< T< T< T< T< T< T< T< T< T< T< T< T< T< T< T< T< T< T< T< T< T< T< T< T< T< T< T< T< T< T< T< T< T< T< T< T< T< T< T< T< T< T< T< T< T< T< T< T< T< T< T< T< T< T< T< T< T< T< T< T< T< T< T< T< T< T< T< T< T< T< T< T< T< T< T< T< T< T< T< T< T< T< T< T< T< T< T< T< T< T< T< T< T< T< T< T< T< T< T< T< T< T< T< T< T< T< T< T< T< T< T< T< T< T< T< T< T< T< T< T< T< T< T< T< T< T< T< T< T< T< T< T< T< T< T< T< T< T< T< T< T< T< T< T< T< T< T< T< T< T< T< T< b[ #% S) *: _} e+ ,! Q) k) k) k) k) Q) b! q  =: Z( Y] (^ Q{ H: )[ T< T< T< T< T< T< T< T< T< T< T< T< T< T< T< T< T< T< D: O# Y. 8) +! k) k) k) k) k) k) k) k) k) k) k) k) k) 6~ v] _$ _$ _$ _$ _$ _$ _$ _$ _$ _$ _$ _$ _$ _$ _$ _$ _$ _$ _$ _$ _$ _$ _$ _$ _$ _$ _$ _$ _$ _$ _$ _$ P# /# 5@ *@ n+ N+ =+ K  c. c. B  Z. x  S] |{ 4] )) 4^ 5^ {) :} =} =} =} =} =} <} [} [} [} }} F[ F[ F[ F[ F[ F[ F[ F[ F[ F[ F[ F[ F[ F[ |} .[ .[ .[ .[ 1} %< %< V_ O< #/ #/ 2} P< P< P< =. W_ W_ W_ W_ W_ W_ W_ W_ W_ W_ W_ W_ W_ W_ ",
"U: U: U: U: U: U: U: U: U: U: U: U: U: U: U: U: U: U: U: U: U: U: U: 3} 4} 3< 3< 5} `[ (: (: (: (: (: (: (: (: (: (: (: (: (: 6} 7} 8[ 8[ .} 8} 8< v< 9} 0} P[ P[ 1] s] t] )) 4] u] +~ v  x  y  A  D  c. h+ =+ M+ N+ ^# =@ 5@ /# /# P# _$ _$ _$ _$ _$ _$ _$ _$ _$ _$ _$ _$ _$ _$ _$ _$ _$ _$ _$ _$ _$ _$ _$ _$ _$ _$ _$ _$ _$ 5@ Y. .~ k) k) k) k) k) k) k) k) k) k) k) k) k) k) W. C: V/ a} T< T< T< T< T< T< T< T< T< T< T< T< T< T< T< U< b}  % &^ X^ Q{ ^/ T@ #( i^ k) k) i^ c} d} e} *: <~ $% U< U< U< T< T< T< T< T< T< T< T< T< T< T< T< T< T< T< T< T< T< T< T< T< T< T< T< T< T< T< T< T< T< T< T< T< T< T< T< T< T< T< T< T< T< T< T< T< T< T< T< T< T< T< T< T< T< T< T< T< T< T< T< T< T< T< T< T< T< T< T< T< T< T< T< T< T< T< T< T< T< T< T< T< T< T< T< T< T< T< T< T< T< T< T< T< T< T< T< T< T< T< T< T< T< T< T< T< T< T< T< T< T< T< T< T< T< T< T< T< T< T< T< T< T< T< T< T< T< T< T< T< T< T< T< T< T< T< T< T< T< T< T< T< T< T< T< T< T< T< T< T< T< T< T< T< T< T< T< T< T< T< T< T< T< T< T< T< T< T< T< T< T< T< T< T< T< T< T< T< T< T< T< b[ q( $% S) #^ f} c+ +!  ! k) k) k) k) Q) I~ O^ x( X^ Y] Q{ B< <~ g} q( T< T< T< T< T< T< T< T< T< T< T< T< T< T< T< T< T< (( m+ x! r! `) k) k) k) k) k) k) k) k) k) k) k) k) k) L! ^# _$ _$ _$ _$ _$ _$ _$ _$ _$ _$ _$ _$ _$ _$ _$ _$ _$ _$ _$ _$ _$ _$ _$ _$ _$ _$ _$ _$ _$ _$ _$ P# /# 5@ *@ n+ N+ =+ K  c. c. B  Z. x  S] |{ 4] )) 4^ 5^ {) h} i} =} =} =} =} =} <} F[ F[ F[ F[ F[ F[ F[ F[ F[ F[ F[ F[ F[ F[ F[ F[ F[ j} k} .[ .[ .[ [[ %< %< T_ O< #/ #/ #/ G[ P< P< P< K< W_ W_ W_ W_ W_ W_ W_ W_ W_ W_ W_ W_ W_ ",
"U: U: U: U: U: U: U: U: U: U: U: U: U: U: U: U: U: U: U: U: U: U: U: U: U: p< 3< 3< 3< q< (: (: (: (: (: (: (: (: (: (: (: l} m} 8[ 8[ 8[ n} 8< 8< o} 9} 0} P[ P[ 1] s] t] )) 4] u] +~ v  x  y  A  D  c. h+ =+ M+ N+ ^# =@ 5@ /# /# P# _$ _$ _$ _$ _$ _$ _$ _$ _$ _$ _$ _$ _$ _$ _$ _$ _$ _$ _$ _$ _$ _$ _$ _$ _$ _$ _$ _$ 5@ a. `) k) k) k) k) k) k) k) k) k) k) k) k) k) i^ T[ x< >[  ~ U< U< U< U< U< U< U< U< U< U< U< U< U< U< U< q( U< .% |: X^ 2^ :( ^_ F~ i^ k) k) Q) i^ q^ p} Y( ]% g} q( U< U< U< U< U< U< U< U< U< U< U< U< U< U< U< U< U< U< U< U< U< U< U< U< U< U< U< U< U< U< U< U< U< U< U< U< U< U< U< U< U< U< U< U< U< U< U< U< U< U< U< U< U< U< U< U< U< U< U< U< U< U< U< U< U< U< U< U< U< U< U< U< U< U< U< U< U< U< U< U< U< U< U< U< U< U< U< U< U< U< U< U< U< U< U< U< U< U< U< U< U< U< U< U< U< U< U< U< U< U< U< U< U< U< U< U< U< U< U< U< U< U< U< U< U< U< U< U< U< U< U< U< U< U< U< U< U< U< U< U< U< U< U< U< U< U< U< U< U< U< U< U< U< U< U< U< U< U< U< U< U< U< U< U< U< U< U< U< U< U< U< U< U< U< U< U< U< U< U< U< U< U< U< U< q( U< ]% S) *: ~% :{ k) i^ k) k) k) i^ Q) F~ 1: [( Y] Y] q} 0; g} r} U< U< U< U< U< U< U< U< U< U< U< U< U< U< U< U< U< U< G~ U@ +~ w] k) k) k) k) k) k) k) k) k) k) k) k) k) .~ +~ U@ _$ _$ _$ _$ _$ _$ _$ _$ _$ _$ _$ _$ _$ _$ _$ _$ _$ _$ _$ _$ _$ _$ _$ _$ _$ _$ _$ _$ _$ _$ P# /# 5@ *@ n+ N+ =+ K  c. c. B  Z. x  S] |{ 4] )) 4^ 5^ {) h} s} t} =} =} =} =} =} <} F[ F[ F[ F[ F[ F[ F[ F[ F[ F[ F[ F[ F[ F[ F[ F[ u} v} .[ .[ .[ w} %< %< _/ O< #/ #/ #/ W# P< P< P< P< s[ Z, W_ W_ W_ W_ W_ W_ W_ W_ W_ W_ W_ ",
"U: U: U: U: U: U: U: U: U: U: U: U: U: U: U: U: U: U: U: U: U: U: U: U: U: U: [< x} W_ w. 9: y} (: (: (: (: (: (: (: v: z} A} 8[ 8[ 8[ 8[ B} 8< 8< C} 9} D} P[ P[ 1] s] t] )) 4] u] +~ v  x  y  A  D  c. h+ =+ M+ N+ ^# =@ 5@ /# /# P# _$ _$ _$ _$ _$ _$ _$ _$ _$ _$ _$ _$ _$ _$ _$ _$ _$ _$ _$ _$ _$ _$ _$ _$ _$ _$ _$ e# q~ .~ k) k) k) k) k) k) k) k) k) k) k) k) `) k) +! E} m~ F} U< U< U< U< U< U< U< U< U< U< U< U< U< U< U< q( q( b= e< B< Y] W( r* `( k) k) k) k) Q) 1( :) w^ ]% F} r} r} U< U< U< U< U< U< U< U< U< U< U< U< U< U< U< U< U< U< U< U< U< U< U< U< U< U< U< U< U< U< U< U< U< U< U< U< U< U< U< U< U< U< U< U< U< U< U< U< U< U< U< U< U< U< U< U< U< U< U< U< U< U< U< U< U< U< U< U< U< U< U< U< U< U< U< U< U< U< U< U< U< U< U< U< U< U< U< U< U< U< U< U< U< U< U< U< U< U< U< U< U< U< U< U< U< U< U< U< U< U< U< U< U< U< U< U< U< U< U< U< U< U< U< U< U< U< U< U< U< U< U< U< U< U< U< U< U< U< U< U< U< U< U< U< U< U< U< U< U< U< U< U< U< U< U< U< U< U< U< U< U< U< U< U< U< U< U< U< U< U< U< U< U< U< U< U< U< U< U< U< U< U< U< U< U< q( U< ]% G} z] %} :~ i^ k) k) k) k) C/ C/ // e$ 1^ Y] X^ |: $% r} U< U< U< U< U< U< U< U< U< U< U< U< U< U< U< U< U< U< U< b% Q[ q! :! k) k) k) k) k) k) k) k) k) k) k) k) k) @{ +~ =@ _$ _$ _$ _$ _$ _$ _$ _$ _$ _$ _$ _$ _$ _$ _$ _$ _$ _$ _$ _$ _$ _$ _$ _$ _$ _$ _$ _$ _$ P# /# 5@ *@ n+ N+ =+ K  c. c. B  Z. x  S] |{ 4] )) 4^ 5^ {) h} s} s} H} =} =} =} =} =} |} F[ F[ F[ F[ F[ F[ F[ F[ F[ F[ F[ F[ F[ F[ F[ u} I} .[ .[ .[ w} %< %< `, O< #/ #/ #/ #/ T# P< P< P< P< P< s[ W_ W_ W_ W_ W_ W_ W_ W_ W_ W_ ",
"U: U: U: U: U: U: U: U: U: U: U: U: U: U: U: U: U: U: U: U: U: U: U: U: U: U: U: [< W_ =. w. w. J} K} L} M} 1< N} O} P} P} Q} 8[ 8[ 8[ 8[ R} S} ~} 9} 9} T} P[ P[ 1] s] t] )) 4] u] +~ v  x  y  A  D  c. h+ =+ M+ N+ ^# =@ 5@ /# /# P# _$ _$ _$ _$ _$ _$ _$ _$ _$ _$ _$ _$ _$ _$ _$ _$ _$ _$ _$ _$ _$ _$ _$ _$ _$ _$ P# v] ~)  ! k) k) k) k) k) k) k) k) k) k) k) k) `) w] U/ ,/ p( U< U< U< U< U< U< U< U< U< U< U< U< U< U< U< q( q( b= V< v( 2^ 2^ m_ V^ `) D) k) k) k) `) c+ R{ @%  ~ q( q( U< U< U< U< U< U< U< U< U< U< U< U< U< U< U< U< U< U< U< U< U< U< U< U< U< U< U< U< U< U< U< U< U< U< U< U< U< U< U< U< U< U< U< U< U< U< U< U< U< U< U< U< U< U< U< U< U< U< U< U< U< U< U< U< U< U< U< U< U< U< U< U< U< U< U< U< U< U< U< U< U< U< U< U< U< U< U< U< U< U< U< U< U< U< U< U< U< U< U< U< U< U< U< U< U< U< U< U< U< U< U< U< U< U< U< U< U< U< U< U< U< U< U< U< U< U< U< U< U< U< U< U< U< U< U< U< U< U< U< U< U< U< U< U< U< U< U< U< U< U< U< U< U< U< U< U< U< U< U< U< U< U< U< U< U< U< U< U< U< U< U< U< U< U< U< U< U< U< U< U< U< U< U< U< U< U< U< r} U< R' e< U} x! @{ Q) k) k) k) k) C/ k) y< z< Q{ Y] H: )[ g} r} U< U< U< U< U< U< U< U< U< U< U< U< U< U< U< U< U< U< U< E$ %+ a! :~ `) k) k) k) k) k) k) k) k) k) k) k) k) `) a. v# _$ _$ _$ _$ _$ _$ _$ _$ _$ _$ _$ _$ _$ _$ _$ _$ _$ _$ _$ _$ _$ _$ _$ _$ _$ _$ _$ _$ P# /# 5@ *@ n+ N+ =+ K  c. c. B  Z. x  S] |{ 4] )) 4^ 5^ {) h} s} s} i} =} =} =} =} =} =} |} F[ F[ F[ F[ F[ [} V} O< W} X} X} Y} O< Z} `} I} 7: .[ .[ r[ %< %< >$ O< #/ #/ #/ #/ #/ <, P< P< P< P< P< P<  | W_ W_ W_ W_ W_ W_ W_ W_ ",
"U: U: U: U: U: U: U: U: U: U: U: U: U: U: U: U: U: U: U: U: U: U: U: U: U: U: U: U: 1/ W_ %# w. w. .| +| +| @| P} P} P} P} #| 8[ 8[ 8[ 8[ $| 7< 9} 9} 9} T} P[ P[ 1] s] t] )) 4] u] +~ v  x  y  A  D  c. h+ =+ M+ N+ ^# =@ 5@ /# /# P# _$ _$ _$ _$ _$ _$ _$ _$ _$ _$ _$ _$ _$ _$ _$ _$ _$ _$ _$ _$ _$ _$ _$ _$ _$ e# $+ 8) k) k) k) k) k) k) k) k) k) k) k) k) k) k) `) u{ .< %| U< U< U< U< U< U< U< U< U< U< U< U< U< U< U< U< U< T< M' v( M^ 2^ }( &| *| k) k) k) Q) b! B/ ($ +% =|  ~ q( U< U< U< U< U< U< U< U< U< U< U< U< U< U< U< U< U< U< U< U< U< U< U< U< U< U< U< U< U< U< U< U< U< U< U< U< U< U< U< U< U< U< U< U< U< U< U< U< U< U< U< U< U< U< U< U< U< U< U< U< U< U< U< U< U< U< U< U< U< U< U< U< U< U< U< U< U< U< U< U< U< U< U< U< U< U< U< U< U< U< U< U< U< U< U< U< U< U< U< U< U< U< U< U< U< U< U< U< U< U< U< U< U< U< U< U< U< U< U< U< U< U< U< U< U< U< U< U< U< U< U< U< U< U< U< U< U< U< U< U< U< U< U< U< U< U< U< U< U< U< U< U< U< U< U< U< U< U< U< U< U< U< U< U< U< U< U< U< U< U< U< U< U< U< U< U< U< U< U< U< U< U< U< U< U< U< U< U< q( r} g} @% K' K! B( @{ C/ k) k) k) k) Q) L: V^ ^/ Y] M_ g[ $% r} q( U< U< U< U< U< U< U< U< U< U< U< U< U< U< U< U< U< U< b= B$ q~ B( w] `) k) k) k) k) k) k) k) k) k) k) k) k) ,! ;[ O# _$ _$ _$ _$ _$ _$ _$ _$ _$ _$ _$ _$ _$ _$ _$ _$ _$ _$ _$ _$ _$ _$ _$ _$ _$ _$ _$ P# /# 5@ *@ n+ N+ =+ K  c. c. B  Z. x  S] |{ 4] )) 4^ 5^ {) h} s} s} -| =} =} =} =} =} =} =} ;| F[ F[ F[ F[ >| ,| ,| ,| ,| ,| ,| ,| ,| ,| I} G@ .[ .[ %< %< %< >$ '| #/ #/ #/ #/ #/ #/ )| P< P< P< P< P< P< K< W_ W_ W_ W_ W_ W_ W_ ",
"U: U: U: U: U: U: U: U: U: U: U: U: U: U: U: U: U: U: U: U: U: U: U: U: U: U: U: U: !| W_ W_ w. w. w. .| +| +| ~| P} P} {| 8[ 8[ 8[ 8[ ]| $| ^| 9} 9} 9} ~} P[ P[ 1] s] t] )) 4] u] +~ v  x  y  A  D  c. h+ =+ M+ N+ ^# =@ 5@ /# /# P# _$ _$ _$ _$ _$ _$ _$ _$ _$ _$ _$ _$ _$ _$ _$ _$ _$ _$ _$ _$ _$ _$ _$ _$ _$ M+ ~) Q) k) k) k) k) k) k) k) k) k) k) k) k) k) {/ /| p( Z! U< U< U< U< U< U< U< U< U< U< U< U< U< U< U< U< U< b= N' &^ M^ 2^ }( e$ (| k) k) k) k) Q) _| @! E$ :| F} U< U< U< U< U< U< U< U< U< U< U< U< U< U< U< U< U< U< U< U< U< U< U< U< U< U< U< U< U< U< U< U< U< U< U< U< U< U< U< U< U< U< U< U< U< U< U< U< U< U< U< U< U< U< U< U< U< U< U< U< U< U< U< U< U< U< U< U< U< U< U< U< U< U< U< U< U< U< U< U< U< U< U< U< U< U< U< U< U< U< U< U< U< U< U< U< U< U< U< U< U< U< U< U< U< U< U< U< U< U< U< U< U< U< U< U< U< U< U< U< U< U< U< U< U< U< U< U< U< U< U< U< U< U< U< U< U< U< U< U< U< U< U< U< U< U< U< U< U< U< U< U< U< U< U< U< U< U< U< U< U< U< U< U< U< U< U< U< U< U< U< U< U< U< U< U< U< U< U< U< U< U< U< U< U< U< U< U< U< U< U< r} q( h[ @% j* <| 8) C/ k) k) k) k) k) k) f/ ^_ :( Y] B< x[ T< q( U< U< U< U< U< U< U< U< U< U< U< U< U< U< U< U< U< U< U< (~ y# ') B( :~ k) k) k) k) k) k) k) k) k) k) k) k) k) @{ a. e# _$ _$ _$ _$ _$ _$ _$ _$ _$ _$ _$ _$ _$ _$ _$ _$ _$ _$ _$ _$ _$ _$ _$ _$ _$ _$ P# /# 5@ *@ n+ N+ =+ K  c. c. B  Z. x  S] |{ 4] )) 4^ 5^ {) h} s} s} s} [| =} =} =} =} =} =} =} }| || F[ F[ F[ }} X} X} X} X} 1| ,| ,| ,| I} G@ .[ .[ %< %< %< #/ #/ #/ #/ #/ #/ #/ #/ #/ V# G[ P< P< P< P< P< K< W_ W_ W_ W_ W_ W_ ",
"U: U: U: U: U: U: U: U: U: U: U: U: U: U: U: U: U: U: U: U: U: U: U: U: U: U: U: U: !| W_ W_ Z, w. w. w. .| +| +| ~| P} P} {| 8[ 8[ 8[ 2| $| 9} 9} 9} 9} 3| P[ P[ 1] s] t] )) 4] u] +~ v  x  y  A  D  c. h+ =+ M+ N+ ^# =@ 5@ /# /# P# _$ _$ _$ _$ _$ _$ _$ _$ _$ _$ _$ _$ _$ _$ _$ _$ _$ _$ _$ _$ _$ _$ _$ x# ^# E) D) k) k) k) k) k) k) k) k) k) k) k) k) k) J! ^[ 4| 0/ U< U< U< U< U< U< U< U< U< U< U< U< U< U< U< U< U< b= N' }: X^ Y] Q{ =: {[ k) k) k) k) i^ i^ B( v# U] F} U< U< U< U< U< U< U< U< U< U< U< U< U< U< U< U< U< U< U< U< U< U< U< U< U< U< U< U< U< U< U< U< U< U< U< U< U< U< U< U< U< U< U< U< U< U< U< U< U< U< U< U< U< U< U< U< U< U< U< U< U< U< U< U< U< U< U< U< U< U< U< U< U< U< U< U< U< U< U< U< U< U< U< U< U< U< U< U< U< U< U< U< U< U< U< U< U< U< U< U< U< U< U< U< U< U< U< U< U< U< U< U< U< U< U< U< U< U< U< U< U< U< U< U< U< U< U< U< U< U< U< U< U< U< U< U< U< U< U< U< U< U< U< U< U< U< U< U< U< U< U< U< U< U< U< U< U< U< U< U< U< U< U< U< U< U< U< U< U< U< U< U< U< U< U< U< U< U< U< U< U< U< U< U< U< U< U< U< U< U< U< U< U< q( q( h[ O' w^ /| F~ i^ k) k) k) k) k) k) // e$ 1^ Y] }: `$ T< U< U< U< U< U< U< U< U< U< U< U< U< U< U< U< U< U< U< U< U< (( V@ Y. q! `) k) k) k) k) k) k) k) k) k) k) k) k) k) C( $+ P# _$ _$ _$ _$ _$ _$ _$ _$ _$ _$ _$ _$ _$ _$ _$ _$ _$ _$ _$ _$ _$ _$ _$ _$ _$ P# /# 5@ *@ n+ N+ =+ K  c. c. B  Z. x  S] |{ 4] )) 4^ 5^ {) h} s} s} s} s} 5| =} =} =} =} =} =} =} =} 6| F[ F[ F[ F[ F[ F[ F[ F[ [} ,| ,| I} G@ .[ .[ %< %< %< #/ #/ #/ #/ #/ #/ #/ #/ #/ #/ q. <, P< P< P< P< P< K< W_ W_ W_ W_ W_ ",
"U: U: U: U: U: U: U: U: U: U: U: U: U: U: U: U: U: U: U: U: U: U: U: U: U: U: U: U: 7| W_ W_ W_ Q< w. w. w. .| +| +| 8| P} P} Q} 8[ 8[ 2| $| 9} 9} 9} 9} C} P[ P[ 1] s] t] )) 4] u] +~ v  x  y  A  D  c. h+ =+ M+ N+ ^# =@ 5@ /# /# P# _$ _$ _$ _$ _$ _$ _$ _$ _$ _$ _$ _$ _$ _$ _$ _$ _$ B$ D$ C$ _$ _$ _$ *@ E) k) k) k) k) k) k) k) k) k) k) k) k) k) k) i^ 0< 9| >[ U< U< U< U< U< U< U< U< U< U< U< U< U< U< U< U< U< b= N' v( Q{ c/ c/ ^/ Y/ `)  ! k) k) i^ Q) ~) M+ l^ F} F} U< U< U< U< U< U< U< U< U< U< U< U< U< U< U< U< U< U< U< U< U< U< U< U< U< U< U< U< U< U< U< U< U< U< U< U< U< U< U< U< U< U< U< U< U< U< U< U< U< U< U< U< U< U< U< U< U< U< U< U< U< U< U< U< U< U< U< U< U< U< U< U< U< U< U< U< U< U< U< U< U< U< U< U< U< U< U< U< U< U< U< U< U< U< U< U< U< U< U< U< U< U< U< U< U< U< U< U< U< U< U< U< U< U< U< U< U< U< U< U< U< U< U< U< U< U< U< U< U< U< U< U< U< U< U< U< U< U< U< U< U< U< U< U< U< U< U< U< U< U< U< U< U< U< U< U< U< U< U< U< U< U< U< U< U< U< U< U< U< U< U< U< U< U< U< U< U< U< U< U< U< U< U< U< U< U< U< U< U< U< U< U< U< U< q( q( $% )[ U} 0| L:  ! k) k) k) k)  ! I~ $( (_ Q{ Y] y[ O' U< q( U< U< U< U< U< U< U< U< U< U< U< U< U< U< U< U< U< U< U< G~ a| a. !) .~ k) k) k) k) k) k) k) k) k) k) k) k) k) ~) n+ z# _$ _$ _$ _$ _$ _$ _$ _$ _$ _$ _$ _$ _$ _$ _$ _$ _$ _$ _$ _$ _$ _$ _$ _$ P# /# 5@ *@ n+ N+ =+ K  c. c. B  Z. x  S] |{ 4] )) 4^ 5^ {) h} s} s} s} s} -| 5| =} =} =} =} =} =} =} =} -} <} F[ F[ F[ F[ F[ F[ F[ b| ,| I} G@ .[ .[ %< %< %< #/ #/ #/ #/ #/ #/ #/ #/ #/ #/ #/ #/ W# P< P< P< P< P< K< W_ W_ W_ W_ ",
"U: U: U: U: U: U: U: U: U: U: U: U: U: U: U: U: U: U: U: U: U: U: U: U: U: U: U: U: W_ W_ W_ W_ W_ w. w. w. w. .| c| d| P} P} e| 8[ 8[ 2| $| 9} 9} 9} 9} 9} P[ P[ 1] s] t] )) 4] u] +~ v  x  y  A  D  c. h+ =+ M+ N+ ^# =@ 5@ /# /# P# _$ _$ _$ _$ _$ _$ _$ _$ _$ _$ _$ _$ _$ _$ _$ _$ C$ +% :% $% A$ _$ _$ %+ 6~ @{ k) k) k) k) k) k) k) k) k) k) k) `) `) w] f| m~ U< U< U< U< U< U< U< U< U< U< U< U< U< U< U< U< U< b= N' v( Q{ Q{ X^ :( r@ t( k) k) k) b! b! :! q~ C$  ~ F} U< U< U< U< U< U< U< U< U< U< U< U< U< U< U< U< U< U< U< U< U< U< U< U< U< U< U< U< U< U< U< U< U< U< U< U< U< U< U< U< U< U< U< U< U< U< U< U< U< U< U< U< U< U< U< U< U< U< U< U< U< U< U< U< U< U< U< U< U< U< U< U< U< U< U< U< U< U< U< U< U< U< U< U< U< U< U< U< U< U< U< U< U< U< U< U< U< U< U< U< U< U< U< U< U< U< U< U< U< U< U< U< U< U< U< U< U< U< U< U< U< U< U< U< U< U< U< U< U< U< U< U< U< U< U< U< U< U< U< U< U< U< U< U< U< U< U< U< U< U< U< U< U< U< U< U< U< U< U< U< U< U< U< U< U< U< U< U< U< U< U< U< U< U< U< U< U< U< U< U< U< U< U< U< U< U< U< U< U< U< U< U< U< U< U< U< U< g} R' M' g| :{ k) Q) k) k) k) k) s( `) h| N^ i| Y] ][ b= r} U< U< U< U< U< U< U< U< U< U< U< U< U< U< U< U< U< U< U< U< (( U/ +~ r! `) k) k) k) k) k) k) k) k) k) k) k) k) +! ') e# C$ W$ C$ _$ _$ _$ _$ _$ _$ _$ _$ _$ _$ _$ _$ _$ _$ _$ _$ _$ _$ _$ _$ _$ P# /# 5@ *@ n+ N+ =+ K  c. c. B  Z. x  S] |{ 4] )) 4^ 5^ ]( j| N/ k| s} s} s} -| =} =} =} =} =} =} =} =} =} =} ;| '| F[ F[ F[ F[ F[ }} ,| I} G@ .[ .[ %< %< %< #/ #/ #/ #/ #/ #/ #/ #/ #/ #/ #/ #/ l| P< P< P< P< P< P< K< W_ W_ W_ ",
"U: U: U: U: U: U: U: U: U: U: U: U: U: U: U: U: U: U: U: U: U: U: U: U: U: U: U: m| W_ W_ W_ W_ W_ w. w. w. w. w. c~ n| o| P} e| 8[ 8[ 2| $| 9} 9} 9} 9} 9} p| P[ 1] s] t] )) 4] u] +~ v  x  y  A  D  c. h+ =+ M+ N+ ^# =@ 5@ /# /# P# _$ _$ _$ _$ _$ _$ _$ _$ _$ _$ _$ _$ _$ _$ _$ _$ F$ }% h% }% Y$ _$ _$ *+ S] ~) @{ k) k) k) k) k) k) k) k) k) k) `) +! q| b} F} U< U< U< U< U< U< U< U< U< U< U< U< U< U< U< q( T< N' v( M^ Q{ Y] <( >: r( k) k) k)  ! J! @{ ') _$ q( 4| F} U< U< U< U< U< U< U< U< U< U< U< U< U< U< U< U< U< U< U< U< U< U< U< U< U< U< U< U< U< U< U< U< U< U< U< U< U< U< U< U< U< U< U< U< U< U< U< U< U< U< U< U< U< U< U< U< U< U< U< U< U< U< U< U< U< U< U< U< U< U< U< U< U< U< U< U< U< U< U< U< U< U< U< U< U< U< U< U< U< U< U< U< U< U< U< U< U< U< U< U< U< U< U< U< U< U< U< U< U< U< U< U< U< U< U< U< U< U< U< U< U< U< U< U< U< U< U< U< U< U< U< U< U< U< U< U< U< U< U< U< U< U< U< U< U< U< U< U< U< U< U< U< U< U< U< U< U< U< U< U< U< U< U< U< U< U< U< U< U< U< U< U< U< U< U< U< U< U< U< U< U< U< U< U< U< U< U< U< U< U< U< U< U< U< U< U< U< U< ^% ^% W$ U  8) C/ Q) k) k) k) k) Q) l_ r| d[ 2^ B< V< b} U< U< U< U< U< U< U< U< U< U< U< U< U< U< U< U< U< U< U< U< U< f| M{ x! 7~ +! k) k) k) k) k) k) k) k) k) k) /_ (! <! P# ]% }% ^% C$ _$ _$ _$ _$ _$ _$ _$ _$ _$ _$ _$ _$ _$ _$ _$ _$ _$ _$ _$ _$ P# /# 5@ *@ n+ N+ =+ K  c. c. B  Z. x  S] |{ 4] )) 4^ 5^ ]( j| s| t| s} s} s} s} i} =} =} =} =} =} =} =} =} =} =} }| '| F[ F[ F[ F[ F[ u| I} .[ .[ .[ %< %< %< #/ #/ #/ #/ #/ #/ #/ #/ #/ #/ #/ #/ F, P< P< P< P< P< P< P< K< W_ W_ ",
"U: U: U: U: U: U: U: U: U: U: U: U: U: U: U: U: U: U: U: U: U: U: U: U: U: U: U: W_ W_ W_ W_ W_ =. w. w. w. w. w. w. %{ v| P} e| 8[ 8[ w| $| 9} 9} 9} 9} 9} x| P[ 1] s] t] )) 4] u] +~ v  x  y  A  D  c. h+ =+ M+ N+ ^# =@ 5@ /# /# P# _$ _$ _$ _$ _$ _$ _$ _$ _$ _$ _$ _$ _$ _$ _$ C$ .% 4% h% 4% &% A$ _$ *+ x! a! ~) .~ k) k) k) k) k) k) k) k) k) k) ^( X$ F} U< U< U< U< U< U< U< U< U< U< U< U< U< U< U< U< T< N' v( Q{ Q{ Y] Q{ p$ q  k) k) k) k) Q) Q) a! n{ U< U( F} U< U< U< U< U< U< U< U< U< U< U< U< U< U< U< U< U< U< U< U< U< U< U< U< U< U< U< U< U< U< U< U< U< U< U< U< U< U< U< U< U< U< U< U< U< U< U< U< U< U< U< U< U< U< U< U< U< U< U< U< U< U< U< U< U< U< U< U< U< U< U< U< U< U< U< U< U< U< U< U< U< U< U< U< U< U< U< U< U< U< U< U< U< U< U< U< U< U< U< U< U< U< U< U< U< U< U< U< U< U< U< U< U< U< U< U< U< U< U< U< U< U< U< U< U< U< U< U< U< U< U< U< U< U< U< U< U< U< U< U< U< U< U< U< U< U< U< U< U< U< U< U< U< U< U< U< U< U< U< U< U< U< U< U< U< U< U< U< U< U< U< U< U< U< U< U< U< U< U< U< U< U< U< U< U< U< U< U< U< U< U< U< U< U< U< U< U< U< U< U< g} h[ f- /| +! Q) Q) k) k) k) k) k) // e$ 1^ 2^ B< N' U< q( U< U< U< U< U< U< U< U< U< U< U< U< U< U< U< U< U< U< U< U< E$ .+ +~ ~) .~ k) k) k) k) k) k) k) k) /_ ~) +~ y| _$ _% 4% [% b% P# _$ _$ _$ _$ _$ _$ _$ _$ _$ _$ _$ _$ _$ _$ _$ _$ _$ _$ _$ P# /# 5@ *@ n+ N+ =+ K  c. c. B  Z. x  S] |{ 4] )) 4^ 5^ ]( j| s| s| s| z| s} s} s} A| B| =} =} =} =} =} =} =} =} =} C| F[ F[ F[ F[ F[ D| I} .[ .[ .[ E| %< %< #/ #/ #/ #/ #/ #/ #/ #/ #/ #/ #/ #/ g= P< P< P< P< P< P< P< F| W_ W_ ",
"U: U: U: U: U: U: U: U: U: U: U: U: U: U: U: U: U: U: U: U: U: U: U: U: U: U: 7| W_ W_ W_ W_ %# w. w. w. w. w. w. w. q/ G| H| &[ 8[ 8[ 8[ $| 9} 9} 9} 9} 9} x| P[ 1] s] t] )) 4] u] +~ v  x  y  A  D  c. h+ =+ M+ N+ ^# =@ 5@ /# /# P# _$ _$ _$ _$ _$ _$ _$ _$ _$ _$ _$ _$ _$ _$ _$ E$ _% 4% j% h% }% I| _$ *+ x! +~ L! 8) `) k) k) k) k) k) k) k) k) J| `: p( U< U< U< U< U< U< U< U< U< U< U< U< U< U< U< U< b= K| }: Q{ Q{ Q{ X^ L| V^ #( k) k) k) Q) D) 8) U@ G~ 5] F} U< U< U< U< U< U< U< U< U< U< U< U< U< U< U< U< U< U< U< U< U< U< U< U< U< U< U< U< U< U< U< U< U< U< U< U< U< U< U< U< U< U< U< U< U< U< U< U< U< U< U< U< U< U< U< U< U< U< U< U< U< U< U< U< U< U< U< U< U< U< U< U< U< U< U< U< U< U< U< U< U< U< U< U< U< U< U< U< U< U< U< U< U< U< U< U< U< U< U< U< U< U< U< U< U< U< U< U< U< U< U< U< U< U< U< U< U< U< U< U< U< U< U< U< U< U< U< U< U< U< U< U< U< U< U< U< U< U< U< U< U< U< U< U< U< U< U< U< U< U< U< U< U< U< U< U< U< U< U< U< U< U< U< U< U< U< U< U< U< U< U< U< U< U< U< U< U< U< U< U< U< U< U< U< U< U< U< U< U< U< U< U< U< U< U< U< U< U< U< U< U< g} $% e[ p{ ^[ .~ Q) k) k) k) k) k) `) y( g< Q{ X^ #^ +% U< U< U< U< U< U< U< U< U< U< U< U< U< U< U< U< U< U< U< U< U< (~ H$ 8] B( +! k) k) k) k) k) k) k) /_ ~) L! +~ c. W$ <% 4% h% $% _$ _$ _$ _$ _$ _$ _$ _$ _$ _$ _$ _$ _$ _$ _$ _$ _$ _$ _$ _$ P# /# 5@ *@ n+ N+ =+ K  c. c. B  Z. x  S] |{ 4] )) 4^ 5^ ]( M| s| s| s| s| b: s} s} s} s} s} N| t} H} =} =} =} =} =} =} 6| F[ F[ F[ F[ |} O| .[ .[ .[ w} %< %< {+ #/ #/ #/ #/ #/ #/ #/ #/ #/ #/ #/ G[ P< P< P< P< P< P< P< Z, W_ W_ ",
"U: U: U: U: U: U: U: U: U: U: U: U: U: U: U: U: U: U: U: U: U: U: U: U: U: m| W_ W_ W_ Z, w. w. w. w. w. w. w. w. P| G| G| G| Q| 8[ 8[ 8[ R| 9} 9} 9} 9} 9} S| P[ 1] s] t] )) 4] u] +~ v  x  y  A  D  c. h+ =+ M+ N+ ^# =@ 5@ /# /# P# _$ _$ _$ _$ _$ _$ _$ _$ _$ _$ _$ _$ _$ _$ _$ W$ }% h% j% i% 4% Z$ _$ *+ x! +~ +~ B( !) `) k) k) k) k) k) k) ,! C$ F} U< U< U< U< U< U< U< U< U< U< U< U< U< U< U< U< b= x[ &^ M^ Q{ Q{ X^ <( r@ t( k) k) k) i^ Q) w] *+ b% F} F} U< U< U< U< U< U< U< U< U< U< U< U< U< U< U< U< U< U< U< U< U< U< U< U< U< U< U< U< U< U< U< U< U< U< U< U< U< U< U< U< U< U< U< U< U< U< U< U< U< U< U< U< U< U< U< U< U< U< U< U< U< U< U< U< U< U< U< U< U< U< U< U< U< U< U< U< U< U< U< U< U< U< U< U< U< U< U< U< U< U< U< U< U< U< U< U< U< U< U< U< U< U< U< U< U< U< U< U< U< U< U< U< U< U< U< U< U< U< U< U< U< U< U< U< U< U< U< U< U< U< U< U< U< U< U< U< U< U< U< U< U< U< U< U< U< U< U< U< U< U< U< U< U< U< U< U< U< U< U< U< U< U< U< U< U< U< U< U< U< U< U< U< U< U< U< U< U< U< U< U< U< U< U< U< U< U< U< U< U< U< U< U< U< U< U< U< U< U< U< U< U< U< U< g} h[ 5' V@ ]~ .~ i^ k) k) k) k) Q) #( O^ ^} Q{ B< V< b= U< U< U< U< U< U< U< U< U< U< U< U< U< U< U< U< U< U< U< U< U< (~ n{ ') /) ,! k) k) k) k) k) .~ ~) L! +~ +~ c.  % [% h% i% :> E$ _$ _$ _$ _$ _$ _$ _$ _$ _$ _$ _$ _$ _$ _$ _$ _$ _$ _$ _$ P# /# 5@ *@ n+ N+ =+ K  c. c. B  Z. x  S] |{ 4] )) 4^ 5^ ]( T| U| V| s| s| s| b: s} s} s} s} s} s} s} -| t} 5| =} =} =} =} <} F[ F[ F[ F[ W| .[ .[ .[ w} %< %< X| #/ #/ #/ #/ #/ #/ #/ #/ #/ #/ #/ P< P< P< P< P< P< P< K< W_ W_ W_ ",
"U: U: U: U: U: U: U: U: U: U: U: U: U: U: U: U: U: U: U: U: U: U: U: U: m| W_ W_ W_ Z, w. w. w. w. w. w. w. w. ,< q/ G| G| G| Y| 8[ 8[ 8[ Z| 9} 9} 9} 9} 9} S_ P[ 1] s] t] )) 4] u] +~ v  x  y  A  D  c. h+ =+ M+ N+ ^# =@ 5@ /# /# P# _$ _$ _$ _$ _$ _$ _$ _$ _$ _$ _$ _$ _$ _$ c= +% 4% i% j% j% 4% :% C$ $+ x! +~ +~ +~ L! /) :! k) k) `) `) ~) E$ r} U< U< U< U< U< U< U< U< U< U< U< U< U< U< q( q( b= N' }: Q{ Q{ Q{ Y] 1^ e$ Z/ I~ k) k) k) Q) k) Y. H$  ~ F} U< U< U< U< U< U< U< U< U< U< U< U< U< U< U< U< U< U< U< U< U< U< U< U< U< U< U< U< U< U< U< U< U< U< U< U< U< U< U< U< U< U< U< U< U< U< U< U< U< U< U< U< U< U< U< U< U< U< U< U< U< U< U< U< U< U< U< U< U< U< U< U< U< U< U< U< U< U< U< U< U< U< U< U< U< U< U< U< U< U< U< U< U< U< U< U< U< U< U< U< U< U< U< U< U< U< U< U< U< U< U< U< U< U< U< U< U< U< U< U< U< U< U< U< U< U< U< U< U< U< U< U< U< U< U< U< U< U< U< U< U< U< U< U< U< U< U< U< U< U< U< U< U< U< U< U< U< U< U< U< U< U< U< U< U< U< U< U< U< U< U< U< U< U< U< U< U< U< U< U< U< U< U< U< U< U< U< U< U< U< U< U< U< U< U< U< U< U< U< U< U< U< U< U< U< g}  ~ (( ^# 8) Q) Q) k) k) k) k) Q) `) Y/ [( X^ *^ N' U< q( U< U< U< U< U< U< U< U< U< U< U< U< U< U< U< U< U< U< U< U< `: t# a. /) ,! k) k) k) `) !) B( +~ +~ +~ c. %% 4% i% j% }% b% P# _$ _$ _$ _$ _$ _$ _$ _$ _$ _$ _$ _$ _$ _$ _$ _$ _$ _$ P# /# 5@ *@ n+ N+ =+ K  c. c. B  Z. x  S] |{ 4] )) 4^ 5^ ]( T| U| U| U| `| s| s| z| s} s} s} s} s} s} s} s} s} t} 5| =} =} -} F[ F[ F[ F[  1 .[ .[ .[ w} %< %< .1 #/ #/ #/ #/ #/ #/ #/ #/ #/ #/ W# P< P< P< P< P< P< K< W_ W_ W_ W_ ",
"U: U: U: U: U: U: U: U: U: U: U: U: U: U: U: U: U: U: U: U: U: U: U: [< W_ W_ W_ Z, w. w. w. w. w. w. +1 @1 q/ G| G| G| G| G| Y| 8[ 8[ 8[ H_ 9} 9} 9} 9} 9} #1 P[ 1] s] t] )) 4] u] +~ v  x  y  A  D  c. h+ =+ M+ N+ ^# =@ 5@ /# /# P# _$ _$ _$ _$ _$ _$ _$ _$ _$ _$ _$ _$ _$ _$ E$ :% 4% j% j% j% h% |% F$ T  x! +~ +~ +~ +~ +~ a! ~) k) `) F~ 9] U< U< U< U< U< U< U< U< U< U< U< U< U< U< U< U< q( q( `$ *: b/ Q{ Q{ Y] Q{ (_ Q. k) k) k) k)  ! D) J| $1 D: 5] F} U< U< U< U< U< U< U< U< U< U< U< U< U< U< U< U< U< U< U< U< U< U< U< U< U< U< U< U< U< U< U< U< U< U< U< U< U< U< U< U< U< U< U< U< U< U< U< U< U< U< U< U< U< U< U< U< U< U< U< U< U< U< U< U< U< U< U< U< U< U< U< U< U< U< U< U< U< U< U< U< U< U< U< U< U< U< U< U< U< U< U< U< U< U< U< U< U< U< U< U< U< U< U< U< U< U< U< U< U< U< U< U< U< U< U< U< U< U< U< U< U< U< U< U< U< U< U< U< U< U< U< U< U< U< U< U< U< U< U< U< U< U< U< U< U< U< U< U< U< U< U< U< U< U< U< U< U< U< U< U< U< U< U< U< U< U< U< U< U< U< U< U< U< U< U< U< U< U< U< U< U< U< U< U< U< U< U< U< U< U< U< U< U< U< U< U< U< U< U< U< U< U< U< U< U< U< :| :| E$ @! .~ Q) k) k) k) k) k) Q) %1 &1 <( C< *1 =1 U< U< U< U< U< U< U< U< U< U< U< U< U< U< U< U< U< U< U< U< U< U< (( x@ x! /) +! k) .~ !) L! +~ +~ +~ S] *+ c% 4% j% j% 4% +% P# _$ _$ _$ _$ _$ _$ _$ _$ _$ _$ _$ _$ _$ _$ _$ _$ _$ _$ P# /# 5@ *@ n+ N+ =+ K  c. c. B  Z. x  S] |{ 4] )) 4^ 5^ ]( T| U| U| U| U| B+ s| s| -1 s} s} s} s} s} s} s} s} s} ;1 [| =} =} |} F[ F[ F[  1 .[ .[ .[ w} %< %< .1 #/ #/ #/ #/ #/ #/ #/ #/ #/ #/ <, P< P< P< P< P< K< W_ W_ W_ W_ W_ ",
"U: U: U: U: U: U: U: U: U: U: U: U: U: U: U: U: U: U: U: U: U: U: U: 7| W_ W_ W_ %# w. w. w. w. >1 G| G| G| G| G| G| G| G| G| ,1 8[ 8[ 8[ H_ 9} 9} 9} 9} 9} '1 P[ 1] s] t] )) 4] u] +~ v  x  y  A  D  c. h+ =+ M+ N+ ^# =@ 5@ /# /# P# _$ _$ _$ _$ _$ _$ _$ _$ _$ _$ _$ _$ _$ _$ Z$ }% 4% j% l% j% h% g% *% M+ x! +~ +~ +~ +~ +~ +~ a! :! `) 8) b% U< U< U< U< U< U< U< U< U< U< U< U< U< U< U< U< b} N' #^ X^ Q{ Q{ c/ Q{ ^/ V^ `) k) k) k) k) Q) 6~ )1 X$ F} F} U< U< U< U< U< U< U< U< U< U< U< U< U< U< U< U< U< U< U< U< U< U< U< U< U< U< U< U< U< U< U< U< U< U< U< U< U< U< U< U< U< U< U< U< U< U< U< U< U< U< U< U< U< U< U< U< U< U< U< U< U< U< U< U< U< U< U< U< U< U< U< U< U< U< U< U< U< U< U< U< U< U< U< U< U< U< U< T< (~ (~ (~ (~ (~ (~ (~ (~ (~ (~ (~ (~ (~ (~ (~ (~ (~ (~ (~ (~ (~ (~ (~ (~ (~ (~ (~ (~ (~ (~ (~ (~ U< U< U< U< U< U< U< U< U< U< U< U< U< U< U< U< U< U< U< U< U< U< U< U< U< U< U< U< U< U< U< U< U< U< U< U< U< U< U< U< U< U< U< U< U< U< U< U< U< U< U< U< U< U< U< U< U< U< U< U< U< U< U< U< U< U< U< U< U< U< U< U< U< U< U< U< U< U< U< U< U< U< U< U< U< U< U< :| F} b= e# ^[ `) Q) k) k) k) k) D) D) r( >: 1^ Y] !1 .% U< r} U< U< U< U< U< U< U< U< U< U< U< U< U< U< U< U< U< U< U< U< b% @+ :{ :~ `) F< a! +~ +~ +~ +~ +~  { _% 4% j% j% j% ^% _$ _$ _$ _$ _$ _$ _$ _$ _$ _$ _$ _$ _$ _$ _$ _$ _$ _$ _$ P# /# 5@ *@ n+ N+ =+ K  c. c. B  Z. x  S] |{ 4] )) 4^ 5^ ]( T| U| U| U| U| U| ~1 _/ s| N/ k| s} s} s} s} s} s} s} s} s} [| =} =} '| F[ F[ {1 .[ .[ .[ ]1 %< %< .1 {+ #/ #/ #/ #/ #/ #/ #/ #/ #/ G[ P< P< P< P< K< W_ W_ W_ W_ W_ W_ ",
"U: U: U: U: U: U: U: U: U: U: U: U: U: U: U: U: U: U: U: U: U: U: U: W_ W_ W_ =. w. w. w. w. P| G| G| G| G| G| G| G| G| G| G| ^1 8[ 8[ 8[ H_ 9} 9} 9} 9} 9} 9} /1 p  s] t] )) 4] u] +~ v  x  y  A  D  c. h+ =+ M+ N+ ^# =@ 5@ /# /# P# _$ _$ _$ _$ _$ _$ _$ _$ _$ _$ _$ _$ _$ _$ +% }% 4% j% m% l% j% 4% ]% U  x! +~ +~ +~ +~ +~ +~ L! ~) :~ u{ (( U< U< U< U< U< U< U< U< U< U< U< U< U< U< U< b= M' }: X^ Q{ Q{ c/ c/ }( r@ t( k) k) k) k) Q) w] (1 J_ r} F} U< U< U< U< U< U< U< U< U< U< U< U< U< U< U< U< U< U< U< U< U< U< U< U< U< U< U< U< U< U< U< U< U< U< U< U< U< U< U< U< U< U< U< U< U< U< U< U< U< U< U< U< U< U< U< U< U< U< U< U< U< U< U< U< U< U< U< U< U< U< U< U< U< U< U< U< U< U< U< U< U< U< U< U< U< U< U< U< (~ (~ (( (( (( (( (( (( (( (( (( (( (( (( (( (( (( (( (( (( (( (( (( (( (( (( (( (( (( (( (( (( D: U] U< U< U< U< U< U< U< U< U< U< U< U< U< U< U< U< U< U< U< U< U< U< U< U< U< U< U< U< U< U< U< U< U< U< U< U< U< U< U< U< U< U< U< U< U< U< U< U< U< U< U< U< U< U< U< U< U< U< U< U< U< U< U< U< U< U< U< U< U< U< U< U< U< U< U< U< U< U< U< U< U< U< U< U< U< U< U< F} 5] (~ 5@ L! k) Q) k) k) k) k) D) k) y< (_ O{ B< _1 .% U< U< U< U< U< U< U< U< U< U< U< U< U< U< U< U< U< U< U< U< U< U< B$ Y. F~ ~) a! +~ +~ +~ +~ +~ +~ m{ d% h% j% j% j% U, F$ _$ _$ _$ _$ _$ _$ _$ _$ _$ _$ _$ _$ _$ _$ _$ _$ _$ _$ P# /# 5@ *@ n+ N+ =+ K  c. c. B  Z. x  S] |{ 4] )) 4^ 5^ ]( T| U| U| U| U| U| U| U| :1 s| s| <1 [1 E@ E@ }1 s} s} s} s} ;1 =} =} |1 F[ F[ H< .[ .[ .[ 1} %< %< .1 F# #/ #/ #/ #/ #/ #/ #/ #/ W# P< P< P< P< %# W_ W_ W_ W_ W_ W_ W_ ",
"U: U: U: U: U: U: U: U: U: U: U: U: U: U: U: U: U: U: U: U: U: U: !| W_ W_ 11 w. w. w. w. w. 21 G| G| G| G| G| G| G| G| G| G| K@ 8[ 8[ 8[ H_ 9} 9} 9} 9} 9} 9} 31 1] s] t] )) 4] u] +~ v  x  y  A  D  c. h+ =+ M+ N+ ^# =@ 5@ /# /# P# _$ _$ _$ _$ _$ _$ _$ _$ _$ _$ _$ _$ _$ C$ $% }% h% l% m% m% j% 4% :> U@ x! +~ +~ +~ +~ +~ +~ L! r! w]  { (~ U< U< U< U< U< U< U< U< U< U< U< U< U< U< U<  % }: b/ Q{ Q{ Q{ Y] Q{ z< {[ k) k) k) k) i^ k) ^( H$ U< F} 9| U< U< U< U< U< U< U< U< U< U< U< U< U< U< U< U< U< U< U< U< U< U< U< U< U< U< U< U< U< U< U< U< U< U< U< U< U< U< U< U< U< U< U< U< U< U< U< U< U< U< U< U< U< U< U< U< U< U< U< U< U< U< U< U< U< U< U< U< U< U< U< U< U< U< U< U< U< U< U< U< U< U< U< U< U< U< U< 4| 41 51 61 71 71 71 71 71 71 71 71 71 71 71 71 71 71 71 71 71 71 71 71 71 71 71 71 71 71 71 71 61 81 91 4| U< U< U< U< U< U< U< U< U< U< U< U< U< U< U< U< U< U< U< U< U< U< U< U< U< U< U< U< U< U< U< U< U< U< U< U< U< U< U< U< U< U< U< U< U< U< U< U< U< U< U< U< U< U< U< U< U< U< U< U< U< U< U< U< U< U< U< U< U< U< U< U< U< U< U< U< U< U< U< U< U< U< U< U< U< U< U< F} 5] G~ U@ 7~  !  ! k) k) k) k) k) 1( Y/ ^/ Q{ H: x[ b= U< U< U< U< U< U< U< U< U< U< U< U< U< U< U< U< U< U< U< U< U< b= g| `( 8) +~ +~ +~ +~ +~ +~ x! 01 <% h% j% l% l% |% *% P# _$ _$ _$ _$ _$ _$ _$ _$ _$ _$ _$ _$ _$ _$ _$ _$ _$ P# /# 5@ *@ n+ N+ =+ K  c. c. B  Z. x  S] |{ 4] )) 4^ 5^ ]( T| U| U| U| U| U| U| U| U| :1 s| s| s| s| s| s| }1 s} s} s} s} H} =} =} '| F[ H< .[ .[ .[ 1} %< %< .1 #/ #/ #/ #/ #/ #/ #/ #/ #/ <, P< P< P< P< Z, W_ W_ W_ W_ W_ W_ W_ ",
"U: U: U: U: U: U: U: U: U: U: U: U: U: U: U: U: U: U: U: U: U: [< W_ W_ W_ %# w. w. w. P| q/ G| G| G| G| G| G| G| G| G| G| G| a1 8[ 8[ 8[ b1 9} 9} 9} 9} 9} 9} c1 {) s] t] )) 4] u] +~ v  x  y  A  D  c. h+ =+ M+ N+ ^# =@ 5@ /# /# P# _$ _$ _$ _$ _$ _$ _$ _$ _$ _$ _$ _$ _$ D$ &% g% i% l% m% m% j% 4% <% t# g{ +~ +~ +~ +~ +~ +~ L! r! w] B] (~ U< U< U< U< U< U< U< U< U< U< U< U< 9| 9| .% !1 X^ Q{ Q{ Q{ Y] Q{ x( O^ I~ k) k) k) k) Q) 8) t# `: F} F} U< U< U< U< U< U< U< U< U< U< U< U< U< U< U< U< U< U< U< U< U< U< U< U< U< U< U< U< U< U< U< U< U< U< U< U< U< U< U< U< U< U< U< U< U< U< U< U< U< U< U< U< U< U< U< U< U< U< U< U< U< U< U< U< U< U< U< U< U< U< U< U< U< U< U< U< U< U< U< U< U< U< U< U< U< U< U< `: d1 e1 f1 g1 h1 h1 h1 h1 h1 h1 h1 h1 h1 h1 h1 h1 h1 h1 h1 h1 h1 h1 h1 h1 h1 h1 h1 h1 h1 h1 h1 i1 j1 f1 k1 j^ l^ (~ U< U< U< U< U< U< U< U< U< U< U< U< U< U< U< U< U< U< U< U< U< U< U< U< U< U< U< U< U< U< U< U< U< U< U< U< U< U< U< U< U< U< U< U< U< U< U< U< U< U< U< U< U< U< U< U< U< U< U< U< U< U< U< U< U< U< U< U< U< U< U< U< U< U< U< U< U< U< U< U< U< U< U< U< U< U< F} F} D$ /| `) i^ k) k) k) k) k) k) f/ 3  :( M_ @^ `$ U< U< U< U< U< U< U< U< U< U< U< U< U< U< U< U< U< U< U< U< U< U< U$ W< 8) +~ +~ +~ +~ +~ +~ Y. 01 <% i% l% m% j% 4% $% &$ _$ _$ _$ _$ _$ _$ _$ _$ _$ _$ _$ _$ _$ _$ _$ _$ _$ P# /# 5@ *@ n+ N+ =+ K  c. c. B  Z. x  S] |{ 4] )) 4^ 5^ ]( l1 U| U| U| U| U| U| U| U| U| :1 s| s| s| s| s| s| k| s} s} s} t} =} =} |1 F[ H< .[ .[ .[ ,} %< %< .1 #/ #/ #/ #/ #/ #/ #/ #/ q. P< P< P< P< F| W_ W_ W_ W_ W_ W_ W_ W_ ",
"U: U: U: U: U: U: U: U: U: U: U: U: U: U: U: U: U: U: U: U: U: 1/ W_ W_ 11 w. w. w. ,< h$ G| G| G| G| G| G| G| G| G| G| G| G| G| 8[ 8[ m1 n1 9} 9} 9} 9} 9} 9} !( {) s] t] )) 4] u] +~ v  x  y  A  D  c. h+ =+ M+ N+ ^# =@ 5@ /# /# P# _$ _$ _$ _$ _$ _$ _$ _$ _$ _$ _$ _$ _$ W$ :% 4% j% l% m% m% j% h% }% [# x! +~ +~ +~ +~ +~ +~ L! r! w] [# (~ U< U< U< U< U< U< U< U< U< U< U< U< U< .% X< X^ Q{ Q{ Q{ Y] 2^ m_ Y/ `) k) k) k) k) Q) ,! o1 E$ 9| F} U< U< U< U< U< U< U< U< U< U< U< U< U< U< U< U< U< U< U< U< U< U< U< U< U< U< U< U< U< U< U< U< U< U< U< U< U< U< U< U< U< U< U< U< U< U< U< U< U< U< U< U< U< U< U< U< U< U< U< U< U< U< U< U< U< U< U< U< U< U< U< U< U< U< U< U< U< U< U< U< U< U< U< U< U< U< U< T< G~ p1 q1 r1 s1 s1 t1 t1 t1 t1 t1 t1 t1 t1 t1 t1 t1 t1 t1 t1 t1 t1 t1 t1 t1 t1 t1 t1 t1 t1 t1 s1 u1 u1 r1 v1 w1 _~ D: U< U< U< U< U< U< U< U< U< U< U< U< U< U< U< U< U< U< U< U< U< U< U< U< U< U< U< U< U< U< U< U< U< U< U< U< U< U< U< U< U< U< U< U< U< U< U< U< U< U< U< U< U< U< U< U< U< U< U< U< U< U< U< U< U< U< U< U< U< U< U< U< U< U< U< U< U< U< U< U< U< U< U< U< U< U< U< F} T< n{ L! k) k) k) k) k) k) k) k) r] S$ O{ x1 @^  % U< U< U< U< U< U< U< U< U< U< U< U< U< U< U< U< U< U< U< U< U< U$ W< 8) +~ +~ +~ +~ +~ +~ 8] 01 <% j% m% m% j% j% (% _$ _$ _$ _$ _$ _$ _$ _$ _$ _$ _$ _$ _$ _$ _$ _$ _$ _$ P# /# 5@ *@ n+ N+ =+ K  c. c. B  Z. x  S] |{ 4] )) 4^ 5^ ]( y1 z1 z1 z1 z1 A1 B1 U| U| U| U| s| s| s| s| s| s| !+ s} s} s} N| =} =} C1 F[ Z< .[ .[ .[ q[ %< %< .1 #/ #/ #/ #/ #/ #/ #/ #/ <, P< P< P< P< K< W_ W_ W_ W_ W_ W_ W_ W_ ",
"U: U: U: U: U: U: U: U: U: U: U: U: U: U: U: U: U: U: U: U: m| W_ W_ W_ D1 w. w. w. q/ G| G| G| G| G| G| G| G| G| G| G| G| G| G| Y| 8[ E1 F1 9} 9} 9} 9} 9} 9} G1 {) s] t] )) 4] u] +~ v  x  y  A  D  c. h+ =+ M+ N+ ^# =@ 5@ /# /# P# _$ _$ _$ _$ _$ _$ _$ _$ _$ _$ _$ _$ Q# X$ <% h% k% n% o% n% o% j% |% U$ x! +~ +~ +~ +~ +~ +~ L! r! w] I/ (~ U< U< U< U< U< U< U< U< U< U< U< U< b= X< X^ Q{ Q{ Q{ Q{ Q{ :( H1 f/ k) k) k) k) i^ .~ p~ I1 b} F} U< U< U< U< U< U< U< U< U< U< U< U< U< U< U< U< U< U< U< U< U< U< U< U< U< U< U< U< U< U< U< U< U< U< U< U< U< U< U< U< U< U< U< U< U< U< U< U< U< U< U< U< U< U< U< U< U< U< U< U< U< U< U< U< U< U< U< U< U< U< U< U< U< U< U< U< U< U< U< U< U< U< U< U< U< U< U< U< T< (( 81 J1 K1 L1 M1 M1 M1 M1 L1 L1 L1 L1 L1 L1 L1 L1 L1 L1 L1 L1 L1 L1 L1 L1 L1 L1 L1 L1 L1 L1 L1 M1 N1 O1 P1 Q1 8, R1 b= (~ U< U< U< U< U< U< U< U< U< U< U< U< U< U< U< U< U< U< U< U< U< U< U< U< U< U< U< U< U< U< U< U< U< U< U< U< U< U< U< U< U< U< U< U< U< U< U< U< U< U< U< U< U< U< U< U< U< U< U< U< U< U< U< U< U< U< U< U< U< U< U< U< U< U< U< U< U< U< U< U< U< U< U< U< U< F} r} S1 M+ r! k) k) k) k) k) k) k) k) 2: x( 2^ __ X< b= q( U< U< U< U< U< U< U< U< U< U< U< U< U< U< U< U< U< U< U< T1 W< 8) +~ +~ +~ +~ +~ ]^ U1 01 U, }% 4% i% 4% 4% :> C$ _$ _$ _$ _$ _$ _$ _$ _$ _$ _$ _$ _$ _$ _$ _$ _$ _$ P# /# 5@ *@ n+ N+ =+ K  c. c. B  Z. x  S] |{ 4] )) 4^ 5^ ]( V1 h- h- h- h- h- h- h- z1 U| U| W1 s| s| s| s| s| X1 s} s} s} s} =} =} =} D| .[ .[ .[ .[ 1} %< %< Y1 #/ #/ #/ #/ #/ #/ #/ q. P< P< P< P< P< Z, W_ W_ W_ W_ W_ W_ W_ W_ ",
"U: U: U: U: U: U: U: U: U: U: U: U: U: U: U: U: U: U: U: [< W_ W_ W_ W_ w. w. w. +1 G| G| G| G| G| G| G| G| G| G| G| G| G| G| G| Z1 E1 F1 F1 9} 9} 9} 9} 9} 9} X% {) s] t] )) 4] u] +~ v  x  y  A  D  c. h+ =+ M+ N+ ^# =@ 5@ /# /# P# _$ _$ _$ _$ _$ _$ _$ _$ _$ _$ _$ _$ P# x# `1 H> C> D> D>  2 :* L% 2% 9] a. +~ +~ +~ +~ +~ +~ L! r! r( T1 (~ U< U< U< U< U< U< U< U< U< U< U< .% X< X^ Q{ Q{ Q{ Q{ c/ 1^ 7$ E/ k) k) k) k) i^ k) 0< n{ b= F} U< U< U< U< U< U< U< U< U< U< U< U< U< U< U< U< U< U< U< U< U< U< U< U< U< U< U< U< U< U< U< U< U< U< U< U< U< U< U< U< U< U< U< U< U< U< U< U< U< U< U< U< U< U< U< U< U< U< U< U< U< U< U< U< U< U< U< U< U< U< U< U< U< U< U< U< U< U< U< U< U< U< U< U< U< U< U< U< U< T< (( 81 q1 .2 +2 +2 +2 +2 @2 #2 #2 #2 #2 #2 #2 #2 #2 #2 #2 #2 #2 #2 #2 #2 #2 #2 #2 #2 #2 #2 #2 #2 #2 #2 $2 %2 &2 *2 v* F$ F$ F} U< U< U< U< U< U< U< U< U< U< U< U< U< U< U< U< U< U< U< U< U< U< U< U< U< U< U< U< U< U< U< U< U< U< U< U< U< U< U< U< U< U< U< U< U< U< U< U< U< U< U< U< U< U< U< U< U< U< U< U< U< U< U< U< U< U< U< U< U< U< U< U< U< U< U< U< U< U< U< U< U< U< U< U< U< r} r} F$ %+ :~ Q) k) k) k) k) k) k) F~ c[ d[ Y] B< e< b= q( U< U< U< U< U< U< U< U< U< U< U< U< U< U< U< U< U< b=  & s  8) +~ +~ +~ +~ +~ x! U1 w( #* b* =2 =2 =2 A& M% C$ _$ _$ _$ _$ _$ _$ _$ _$ _$ _$ _$ _$ _$ _$ _$ _$ _$ P# /# 5@ *@ n+ N+ =+ K  c. c. B  Z. x  S] |{ 4] )) 4^ 5^ ]( V1 h- h- h- h- h- h- h- h- h- -2 U| `| s| s| s| s| <1 s} s} s} s} B| =} =} ;2 .[ .[ .[ .[ >2 %< %< ,2 #/ #/ #/ #/ #/ #/ #/ g# P< P< P< P< P< Z, W_ W_ W_ W_ W_ W_ W_ W_ ",
"U: U: U: U: U: U: U: U: U: U: U: U: U: U: U: U: U: U: U: W_ W_ W_ W_ 11 w. w. w. +1 G| G| G| G| G| G| G| G| G| G| G| G| G| G| G| F1 F1 F1 F1 '2 9} 9} 9} 9} 9} ^| {) s] t] )) 4] u] +~ v  x  y  A  D  c. h+ =+ M+ N+ ^# =@ 5@ /# /# P# _$ _$ _$ _$ _$ _$ _$ _$ _$ _$ _$ _$ _$ )2 M> ~; m; m; /; j; ,, m& }% A] Y. +~ +~ +~ +~ +~ +~ L! r! r( U$ (~ U< U< U< U< U< U< U< U< U< U< b= V< q} M^ Q{ Q{ Q{ c/ i_ A/ {[ k) k) k) k) k) Q) ~) y@ G~ F} U< U< U< U< U< U< U< U< U< U< U< U< U< U< U< U< U< U< U< U< U< U< U< U< U< U< U< U< U< U< U< U< U< U< U< U< U< U< U< U< U< U< U< U< U< U< U< U< U< U< U< U< U< U< U< U< U< U< U< U< U< U< U< U< U< U< U< U< U< U< U< U< U< U< U< U< U< U< U< U< U< U< U< U< U< U< U< U< U< U< T< (( 81 !2 ~2 {2 +2 +2 +2 N1 ]2 ]2 ]2 ]2 ]2 ]2 ]2 ]2 ]2 ]2 ]2 ]2 ]2 ]2 ]2 ]2 ]2 ]2 ]2 ]2 ]2 ]2 ]2 ]2 ^2 /2 (2 _2 :2 <2 Q# z# F} U< U< U< U< U< U< U< U< U< U< U< U< U< U< U< U< U< U< U< U< U< U< U< U< U< U< U< U< U< U< U< U< U< U< U< U< U< U< U< U< U< U< U< U< U< U< U< U< U< U< U< U< U< U< U< U< U< U< U< U< U< U< U< U< U< U< U< U< U< U< U< U< U< U< U< U< U< U< U< U< U< U< U< U< U< U< F} r} 3, ^( k) i^ k) k) k) k) k) k) t( '[ <( Y] B< V< b= U< U< U< U< U< U< U< U< U< U< U< U< U< U< U< U< U< .% [2 s  8) +~ +~ +~ +~ +~ x! }2 |2 12 u= 0- 22 22 L> (* x# _$ _$ _$ _$ _$ _$ _$ _$ _$ _$ _$ _$ _$ _$ _$ _$ _$ P# /# 5@ *@ n+ N+ =+ K  c. c. B  Z. x  S] |{ 4] )) 4^ 5^ ]( V1 h- h- h- h- h- h- h- h- h- h- A1 U| s| s| s| s| k| s} s} s} s} i} =} =} =} .[ .[ .[ .[ %< %< %< 32 #/ #/ #/ #/ #/ #/ 42 P< P< P< P< P< P< Q< W_ W_ W_ W_ W_ W_ W_ W_ ",
"U: U: U: U: U: U: U: U: U: U: U: U: U: U: U: U: U: U: 52 W_ W_ W_ W_ =. w. w. w. w. G| G| G| G| G| G| G| G| G| G| G| G| G| G| G| F1 F1 F1 F1 62 9} 9} 9} 9} 9} 72 {) s] t] )) 4] u] +~ v  x  y  A  D  c. h+ =+ M+ N+ ^# =@ 5@ /# /# P# _$ _$ _$ _$ _$ _$ _$ _$ _$ _$ _$ _$ A$ l. K> X- R- R- <; u- o= #* }% J' 8] +~ +~ +~ +~ +~ +~ L! r! r( p{ (~ U< U< U< U< U< U< U< U< U< b} K| v( Q{ Q{ Q{ Q{ Y] Y] m_ Y/ `) k) k) k) k) Q) `) 82 3, r} F} U< U< U< U< U< U< U< U< U< U< U< U< U< U< U< U< U< U< U< U< U< U< U< U< U< U< U< U< U< U< U< U< U< U< U< U< U< U< U< U< U< U< U< U< U< U< U< U< U< U< U< U< U< U< U< U< U< U< U< U< U< U< U< U< U< U< U< U< U< U< U< U< U< U< U< U< U< U< U< U< U< U< U< U< U< U< U< U< U< U< T< G~ 81 92 02 s1 s1 +2 a2 b2 c2 d2 d2 e2 e2 e2 e2 e2 e2 e2 e2 e2 e2 e2 e2 e2 e2 e2 e2 e2 e2 e2 e2 f2 g2 h2 i2 j2 k2 <* l2 l2 F} U< U< U< U< U< U< U< U< U< U< U< U< U< U< U< U< U< U< U< U< U< U< U< U< U< U< U< U< U< U< U< U< U< U< U< U< U< U< U< U< U< U< U< U< U< U< U< U< U< U< U< U< U< U< U< U< U< U< U< U< U< U< U< U< U< U< U< U< U< U< U< U< U< U< U< U< U< U< U< U< U< U< U< U< U< U< g} F} (~ m2 :{ i^ i^ k) k) k) k) k) k) {[ =: Z( 2^ q} V< b= b} b} U< U< U< U< U< U< U< U< U< U< U< U< U< U< n2 o2 y( 8) +~ +~ +~ +~ +~ +~ p2 q2 O= u- T; M- T; r2 s2 5@ _$ _$ _$ _$ _$ _$ _$ _$ _$ _$ _$ _$ _$ _$ _$ _$ _$ P# /# 5@ *@ n+ N+ =+ K  c. c. B  Z. x  S] |{ 4] )) 4^ 5^ ]( V1 h- h- h- h- h- h- h- h- h- h- h- U| t2 s| s| <1 s} s} s} s} s} -| =} =} =} .[ .[ .[ u2 %< %< %< q. #/ #/ #/ #/ #/ T# P< P< P< P< P< P< P< %# W_ W_ W_ W_ W_ W_ W_ W_ ",
"U: U: U: U: U: U: U: U: U: U: U: U: U: U: U: U: U: 52 W_ W_ W_ W_ W_ %# w. w. w. w. 2} G| G| G| G| G| G| G| G| G| G| G| G| G| v2 F1 F1 F1 F1 62 9} 9} 9} 9} 9} 9} 1] s] t] )) 4] u] +~ v  x  y  A  D  c. h+ =+ M+ N+ ^# =@ 5@ /# /# P# _$ _$ _$ _$ _$ _$ _$ _$ _$ _$ _$ _$ C$ n+ K> W- R- <; <; u- o= #* }% w( 8] +~ +~ +~ +~ +~ +~ L! r! r( p{ (~ U< U< U< U< U< U< U< U< b} K| &^ Q{ Q{ Q{ Q{ Q{ X^ <( '[ t( k) k) k) k) D) .~ ^[ y# U] r} U< U< U< U< U< U< U< U< U< U< U< U< U< U< U< U< U< U< U< U< U< U< U< U< U< U< U< U< U< U< U< U< U< U< U< U< U< U< U< U< U< U< U< U< U< U< U< U< U< U< U< U< U< U< U< U< U< U< U< U< U< U< U< U< U< U< U< U< U< U< U< U< U< U< U< U< U< U< U< U< U< U< U< U< U< U< U< U< U< U< U< b= G~ 81 w2 x2 y2 z2 {2 A2 B2 C2 D2 D2 E2 E2 E2 E2 E2 E2 E2 E2 E2 E2 E2 E2 E2 E2 E2 E2 E2 E2 E2 E2 E2 F2 G2 H2 I2 J2 [* p' _$ F} U< U< U< U< U< U< U< U< U< U< U< U< U< U< U< U< U< U< U< U< U< U< U< U< U< U< U< U< U< U< U< U< U< U< U< U< U< U< U< U< U< U< U< U< U< U< U< U< U< U< U< U< U< U< U< U< U< U< U< U< U< U< U< U< U< U< U< U< U< U< U< U< U< U< U< U< U< U< U< U< U< U< U< U< U< U< U< F} F} b% u{ t( i^ k) k) k) k) k) k) k) y( (_ O{ M^ X^ |: N' N' +% b= U< U< U< U< U< U< U< U< U< U< U< U< O' K2 y( 8) +~ +~ +~ +~ +~ ]^ L2 M2 4- 3; i; R- i; N2 += /# &$ _$ _$ _$ _$ _$ _$ _$ _$ _$ _$ _$ _$ _$ _$ _$ _$ P# /# 5@ *@ n+ N+ =+ K  c. c. B  Z. x  S] |{ 4] )) 4^ 5^ ]( V1 h- h- h- h- h- h- h- h- h- h- h- -2 U| s| s| z| s} s} s} s} s} s} 5| =} =} 1_ .[ .[ r[ %< %< O2 #/ #/ #/ #/ #/ j$ P< P< P< P< P< P< P< P< P< W_ W_ W_ W_ W_ W_ W_ W_ ",
"U: U: U: U: U: U: U: U: U: U: U: U: U: U: U: U: 52 W_ W_ W_ W_ W_ W_ Q< w. w. w. w. w. 2} G| G| G| G| G| G| G| G| G| G| G| G| p/ F1 F1 F1 F1 62 9} 9} 9} 9} 9} 9} 1] s] t] )) 4] u] +~ v  x  y  A  D  c. h+ =+ M+ N+ ^# =@ 5@ /# /# P# _$ _$ _$ _$ _$ _$ _$ _$ _$ _$ _$ _$ D$ =@ K> W- <; <; <; v- o= n& |% Y; @! a! +~ +~ +~ +~ +~ L! r! r( p{ (~ U< U< U< U< U< U< U< b} K| &^ Q{ Q{ Q{ Q{ Q{ X^ <( e$ `( `) k) k) k) k) P2 T[ V@ (~ r} U< U< U< U< U< U< U< U< U< U< U< U< U< U< U< U< U< U< U< U< U< U< U< U< U< U< U< U< U< U< U< U< U< U< U< U< U< U< U< U< U< U< U< U< U< U< U< U< U< U< U< U< U< U< U< U< U< U< U< U< U< U< U< U< U< U< U< U< U< U< U< U< U< U< U< U< U< U< U< U< U< U< U< U< U< U< U< U< U< U< U< U< b= G~  < Q2 R2 S2 y2 {2 T2 U2 V2 W2 X2 Y2 Y2 Z2 Z2 Z2 Z2 Z2 Z2 Z2 Z2 Z2 Z2 Z2 Z2 Z2 Z2 Z2 Z2 Z2 Z2 Z2 Y2 `2 Y2  3 .3 +3 p' _$ F} U< U< U< U< U< U< U< U< U< U< U< U< U< U< U< U< U< U< U< U< U< U< U< U< U< U< U< U< U< U< U< U< U< U< U< U< U< U< U< U< U< U< U< U< U< U< U< U< U< U< U< U< U< U< U< U< U< U< U< U< U< U< U< U< U< U< U< U< U< U< U< U< U< U< U< U< U< U< U< U< U< U< U< U< U< U< U< U< F} 9| @3 o1 +! Q) k) k) k) k) k) k) #( @( X/ Q{ Q{ Q{ O{ v( X< +% U< U< U< U< U< U< U< U< U< U< U< U< )[ 3) y( 8) +~ +~ +~ +~ +~ x! ~% M2 #3 3; i; <; R- N2 $3 Y@ P# _$ _$ _$ _$ _$ _$ _$ _$ _$ _$ _$ _$ _$ _$ _$ _$ P# /# 5@ *@ n+ N+ =+ K  c. c. B  Z. x  S] |{ 4] )) 4^ 5^ ]( V1 h- h- h- h- h- h- h- h- h- h- h- %3 U| `| s| &3 s} s} s} s} s} s} B| =} =} *< .[ +[ %< %< %< J] #/ #/ #/ #/ j$ P< P< P< P< P< P< P< P< P< P< *3 W_ W_ W_ W_ W_ W_ W_ ",
"U: U: U: U: U: U: U: U: U: U: U: U: U: U: U: 52 W_ W_ W_ W_ W_ W_ W_ W_ D1 w. w. w. w. w. +1 G| G| G| G| G| G| G| G| G| G| G| 1, F1 F1 F1 F1 62 9} 9} 9} 9} 9} 9} {) s] t] )) 4] u] +~ v  x  y  A  D  c. h+ =+ M+ N+ ^# =@ 5@ /# /# P# _$ _$ _$ _$ _$ _$ _$ _$ _$ _$ _$ _$ F$ &@ K> m; R- <; <; v- o= n& 2% N' /| a! +~ +~ +~ +~ +~ L! r! r( A] b= U< U< U< U< U< U< U< b} X< Q{ Q{ Q{ Q{ Q{ Q{ O{ p$ y< `) k) k) k) k)  ! w] x@ f| F} q( U< U< U< U< U< U< U< U< U< U< U< U< U< U< U< U< U< U< U< U< U< U< U< U< U< U< U< U< U< U< U< U< U< U< U< U< U< U< U< U< U< U< U< U< U< U< U< U< U< U< U< U< U< U< U< U< U< U< U< U< U< U< U< U< U< U< U< U< U< U< U< U< U< U< U< U< U< U< U< U< U< U< U< U< U< U< U< U< U< U< U<  ~ b= G~ 71 =3 -3 ;3 >3 ,3 '3 )3 !3 ~3 {3 ]3 ]3 ^3 ^3 ^3 ^3 ^3 ^3 ^3 ^3 ^3 ^3 ^3 ^3 ^3 ^3 ^3 ^3 ^3 ^3 ^3 ^3 /3 (3 _3 :3 <3 _~ ,' F} U< U< U< U< U< U< U< U< U< U< U< U< U< U< U< U< U< U< U< U< U< U< U< U< U< U< U< U< U< U< U< U< U< U< U< U< U< U< U< U< U< U< U< U< U< U< U< U< U< U< U< U< U< U< U< U< U< U< U< U< U< U< U< U< U< U< U< U< U< U< U< U< U< U< U< U< U< U< U< U< U< U< U< U< U< U< U< U< U< F} q( A$ Y. k) i^ k) k) k) k) k) k) Z/ |  1^ Y] Q{ Q{ X^ @^ O' U< U< U< U< U< U< U< U< U< U< U< U< x[ 3) y( 8) +~ +~ +~ +~ +~ x!  & [3 R= 3; i; <; i; N2 $3 G' %$ _$ _$ _$ _$ _$ _$ _$ _$ _$ _$ _$ _$ _$ _$ _$ _$ P# /# 5@ *@ n+ N+ =+ K  c. c. B  Z. x  S] |{ 4] )) 4^ 5^ ]( V1 h- h- h- h- h- h- h- h- h- h- h- h- U| B+ s| }3 s} s} s} s} s} s} t} =} =} F@ .[ [[ %< %< %< r$ #/ #/ #/ q. P< P< P< P< P< P< P< P< P< P< P< P< W_ W_ W_ W_ W_ W_ W_ ",
"[< U: U: U: U: U: U: U: U: U: U: U: U: [< W_ W_ W_ W_ W_ W_ W_ W_ W_ W_ W_ %# w. w. w. w. w. ,< G| G| G| G| G| G| G| G| G| G| |3 F1 F1 F1 F1 13 9} 9} 9} 9} 9} 9} 1] s] t] )) 4] u] +~ v  x  y  A  D  c. h+ =+ M+ N+ ^# =@ 5@ /# /# P# _$ _$ _$ _$ _$ _$ _$ _$ _$ _$ _$ &$ W$ B@ K> m; <; <; P- w- 23 m& 4% .) U1 +~ +~ +~ +~ +~ +~ L! r! r( A] T<  ~  ~  ~  ~  ~  ~  ~ $% ][ X^ Q{ Q{ Q{ Q{ Q{ ^/ Y/ F~ k) k) k) k) i^ L: ^( C$ q( 5]  ~  ~  ~  ~  ~  ~  ~  ~  ~  ~  ~  ~  ~  ~  ~  ~  ~  ~  ~  ~  ~  ~  ~  ~  ~  ~  ~  ~  ~  ~  ~  ~  ~  ~  ~  ~  ~  ~  ~  ~  ~  ~  ~  ~  ~  ~  ~  ~  ~  ~  ~  ~  ~  ~  ~  ~  ~  ~  ~  ~  ~  ~  ~  ~  ~  ~  ~  ~  ~  ~  ~  ~  ~  ~  ~  ~  ~  ~  ~  ~  ~  ~  ~  ~  ~  ~  ~  ~  ~  ~  ~  ~  ~ h[ D: 33 43 53 63 73 83 '3 93 !3 03 ]* x, x, a3 a3 a3 a3 a3 a3 a3 a3 a3 a3 a3 a3 a3 a3 a3 a3 a3 a3 a3 a3 a3 ~& ~& b3 c3 b[ d3  ~  ~  ~  ~  ~  ~  ~  ~  ~  ~  ~  ~  ~  ~  ~  ~  ~  ~  ~  ~  ~  ~  ~  ~  ~  ~  ~  ~  ~  ~  ~  ~  ~  ~  ~  ~  ~  ~  ~  ~  ~  ~  ~  ~  ~  ~  ~  ~  ~  ~  ~  ~  ~ U< U< U< U< U< U< U< U< U< U< U< U< U< U< U< U< U< U< U< U< U< U< U< U< U< U< U< U< U< U< U< U< U< U< U< U< U< 9| F} b= V@ L! k)  ! k) k) k) k) k) `) v^ r* 1^ Q{ Q{ X^ *1 ]% U< U< U< U< U< U< U< U< U< U< U< $% ][ e3 y( 8) +~ +~ +~ +~ +~ Y. [2 [3 Q= t- <; <; f3 N2 g3 H$ 7; _$ _$ _$ _$ _$ _$ _$ _$ _$ _$ _$ _$ _$ _$ _$ _$ P# /# 5@ *@ n+ N+ =+ K  c. c. B  Z. x  S] |{ 4] )) 4^ 5^ ]( V1 h- h- h- h- h- h- h- h- h- h- h- h- A1 U| s| <1 s} s} s} s} s} s} -| =} =} .[ .[ r[ %< %< %< h3 #/ #/ #/ j$ P< P< P< P< P< P< P< P< P< P< P< P< K< W_ W_ W_ W_ W_ W_ ",
"W_ W_ 1/ m| U: U: U: U: U: U: U: U: m| W_ W_ W_ W_ W_ W_ W_ W_ W_ W_ W_ W_ Z, w. w. w. w. w. w. ,< G| G| G| G| G| G| G| G| G| n1 F1 F1 F1 F1 i3 9} 9} 9} 9} 9} ^| 1] s] t] )) 4] u] +~ v  x  y  A  D  c. h+ =+ M+ N+ ^# =@ 5@ /# /# P# _$ _$ _$ _$ _$ _$ _$ _$ _$ _$ _$ P# Z$ G' K> V- P- P- P- w- o= n& h% j3 }2 +~ +~ +~ +~ +~ +~ L! r! r( -^ h[  ~  ~  ~  ~  ~  ~  ~ g} G} B< Q{ Q{ Q{ Y] 1^ r@ t( k) k) k) k)  ! k) k3 n{ T< 5]  ~  ~  ~  ~  ~  ~  ~  ~  ~  ~  ~  ~  ~  ~  ~  ~  ~  ~  ~  ~  ~  ~  ~  ~  ~  ~  ~  ~  ~  ~  ~  ~  ~  ~  ~  ~  ~  ~  ~  ~  ~  ~  ~  ~  ~  ~  ~  ~  ~  ~  ~  ~  ~  ~  ~  ~  ~  ~  ~  ~  ~  ~  ~  ~  ~  ~  ~  ~  ~  ~  ~  ~  ~  ~  ~  ~  ~  ~  ~  ~  ~  ~  ~  ~  ~  ~  ~  ~  ~  ~  ~  ~  ~  ~ h[ l3 m3 n3 o3 p3 q3 r3 s3 t3 u3 v3 M& z# w3 x3 y3 y3 y3 y3 y3 y3 y3 y3 y3 y3 y3 y3 y3 y3 y3 y3 y3 y3 y3 y3 y3 y3 z3 T<  ~  ~  ~  ~  ~  ~  ~  ~  ~  ~  ~  ~  ~  ~  ~  ~  ~  ~  ~  ~  ~  ~  ~  ~  ~  ~  ~  ~  ~  ~  ~  ~  ~  ~  ~  ~  ~  ~  ~  ~  ~  ~  ~  ~  ~  ~  ~  ~  ~  ~  ~  ~  ~  ~  ~  ~  ~  ~  ~  ~  ~  ~  ~  ~  ~  ~  ~  ~  ~  ~  ~  ~  ~  ~  ~  ~  ~  ~  ~  ~  ~  ~  ~  ~  ~  ~  ~  ~  ~  ~  ~  ~  ~ A3 A3 D: ^# /) k) k) k) k) k) k) k) L: y( x( Q{ Q{ X^ 0; h[  ~  ~  ~  ~  ~  ~  ~  ~  ~  ~  ~ @% @^ (_ y( 8) +~ +~ +~ +~ +~ 8]  & B3 C3 t- <; P- R- N2 g3 [! D$ _$ _$ _$ _$ _$ _$ _$ _$ _$ _$ _$ _$ _$ _$ _$ _$ P# /# 5@ *@ n+ N+ =+ K  c. c. B  Z. x  S] |{ 4] )) 4^ 5^ ]( V1 h- h- h- h- h- h- h- h- h- h- h- h- %3 U| `| t| s} s} s} s} s} s} s} =} =} .[ .[ %< %< %< %< O! #/ #/ #/ 2} P< P< P< P< P< P< P< P< P< P< P< P< D3 W_ W_ W_ W_ W_ W_ ",
"W_ W_ W_ W_ W_ 1/ m| [< U: U: U: 1/ W_ W_ W_ W_ W_ W_ W_ W_ W_ W_ W_ W_ W_ W_ D1 w. w. w. w. w. w. E3 G| G| G| G| G| G| G| @' F1 F1 F1 F1 F1 i3 9} 9} 9} 9} 9} F3 1] s] t] )) 4] u] +~ v  x  y  A  D  c. h+ =+ M+ N+ ^# =@ 5@ /# /# P# _$ _$ _$ _$ _$ _$ _$ _$ _$ _$ _$ _$ *% I' K> V- P- P- O- w- o= o& h% G3 H3 x! +~ +~ +~ +~ +~ L! r! r( I3 h[  ~  ~  ~  ~  ~  ~  ~  ~ @% @^ X^ Q{ Q{ Y] J3 1: :~ k) k) k) k) k) q! t# (( A3  ~  ~  ~  ~  ~  ~  ~  ~  ~  ~  ~  ~  ~  ~  ~  ~  ~  ~  ~  ~  ~  ~  ~  ~  ~  ~  ~  ~  ~  ~  ~  ~  ~  ~  ~  ~  ~  ~  ~  ~  ~  ~  ~  ~  ~  ~  ~  ~  ~  ~  ~  ~  ~  ~  ~  ~  ~  ~  ~  ~  ~  ~  ~  ~  ~  ~  ~  ~  ~  ~  ~  ~  ~  ~  ~  ~  ~  ~  ~  ~  ~  ~  ~  ~  ~  ~  ~  ~  ~  ~  ~  ~  ~  ~  ~ h[ l3 m3 h1 >3 K3 L3 73 M3 N3 O3 P3 d* D: l3 a}  ~  ~  ~  ~  ~  ~  ~  ~  ~  ~  ~  ~  ~  ~  ~  ~  ~  ~  ~  ~  ~  ~  ~  ~  ~  ~  ~  ~  ~  ~  ~  ~  ~  ~  ~  ~  ~  ~  ~  ~  ~  ~  ~  ~  ~  ~  ~ h[ T< T< T< T< T< T< T< T< T< T< T< T< T<  ~  ~  ~  ~  ~  ~  ~  ~  ~  ~  ~  ~  ~  ~  ~  ~  ~  ~  ~  ~  ~  ~  ~  ~  ~  ~  ~  ~  ~  ~  ~  ~  ~  ~  ~  ~  ~  ~  ~  ~  ~  ~  ~  ~  ~  ~  ~  ~  ~  ~  ~  ~  ~  ~  ~  ~  ~ A3 A3 Z$ *+ w] i^ k) k) k) k) k) 1( 2: e3 O{ (^ M_ i>  ~ 5]  ~  ~  ~  ~  ~  ~  ~  ~  ~  ~ O' *^ (_ y( 8) +~ +~ +~ +~ ]^ /|  & B3 #3 t- <; P- <; Q3 R3 V, W$ _$ _$ _$ _$ _$ _$ _$ _$ _$ _$ _$ _$ _$ _$ _$ _$ P# /# 5@ *@ n+ N+ =+ K  c. c. B  Z. x  S] |{ 4] )) 4^ 5^ ]( V1 h- h- h- h- h- h- h- h- h- h- h- h- h- U| W1 s| k| s} s} s} s} s} s} =} S3 .[ q[ %< %< %< %< p. #/ #/ W# F| %# P< P< P< P< P< P< P< P< P< P< P< Q< W_ W_ W_ W_ W_ W_ ",
"W_ W_ W_ W_ W_ W_ W_ W_ W_ 1/ W_ W_ W_ W_ W_ W_ W_ W_ W_ W_ W_ W_ W_ W_ W_ W_ L( w. w. w. w. w. w. +1 G| G| G| G| G| G| G| T3 F1 F1 F1 F1 F1 i3 9} 9} 9} 9} 9} F3 1] s] t] )) 4] u] +~ v  x  y  A  D  c. h+ =+ M+ N+ ^# =@ 5@ /# /# P# _$ _$ _$ _$ _$ _$ _$ _$ _$ _$ _$ _$ +% I' K> V- O- O- O- x- o= o& j% G3 [2 Y. +~ +~ +~ +~ +~ L! r! r( I3 h[  ~  ~  ~  ~  ~  ~  ~  ~  ~ i> X^ Q{ Q{ n^ ![ 5) () ,! k) k) i^ :~ u{ b%  ~  ~  ~  ~  ~  ~  ~  ~  ~  ~  ~  ~  ~  ~  ~  ~  ~  ~  ~  ~  ~  ~  ~  ~  ~  ~  ~  ~  ~  ~  ~  ~  ~  ~  ~  ~  ~  ~  ~  ~  ~  ~  ~  ~  ~  ~  ~  ~  ~  ~  ~  ~  ~  ~  ~  ~  ~  ~  ~  ~  ~  ~  ~  ~  ~  ~  ~  ~  ~  ~  ~  ~  ~  ~  ~  ~  ~  ~  ~  ~  ~  ~  ~  ~  ~  ~  ~  ~  ~  ~  ~  ~  ~  ~  ~  ~  ~ h[ l3 U3 V3 73 W3 X3 Y3 Z3 `3 O3 P3 <3 D: D: a}  ~  ~  ~  ~  ~  ~  ~  ~  ~  ~  ~  ~  ~  ~  ~  ~  ~  ~  ~  ~  ~  ~  ~  ~  ~  ~  ~  ~  ~  ~  ~  ~  ~  ~  ~  ~  ~  ~  ~  ~  ~  ~  ~  ~  ~  ~ T< 5' l^ l^ l^ l^ l^ l^ l^ l^ l^ l^ l^ l^ l^ D: T<  ~  ~  ~  ~  ~  ~  ~  ~  ~  ~  ~  ~  ~  ~  ~  ~  ~  ~  ~  ~  ~  ~  ~  ~  ~  ~  ~  ~  ~  ~  ~  ~  ~  ~  ~  ~  ~  ~  ~  ~  ~  ~  ~  ~  ~  ~  ~  ~  ~  ~  ~  ~  ~  ~  ~  ~ A3 =| I'  4 L: i^ k) k) /_ w] +~ .4 +4 O{ c/ +< V[  ~ 5]  ~  ~  ~  ~  ~  ~  ~  ~  ~ g} P' H: (_ y( 8) +~ +~ +~ +~ v  %} f} B3 #3 t- <; O- P- @4 g3 8; *% _$ _$ _$ _$ _$ _$ _$ _$ _$ _$ _$ _$ _$ _$ _$ _$ P# /# 5@ *@ n+ N+ =+ K  c. c. B  Z. x  S] |{ 4] )) 4^ 5^ ]( V1 h- h- h- h- h- h- h- h- h- h- h- h- h- z1 U| _/ -1 s} s} s} s} s} -| =} #4 .[ .[ %< %< %< %< #/ #/ #/ $4 B^ B^ 11 P< P< P< P< P< P< P< P< P< %# W_ W_ W_ W_ W_ W_ W_ ",
"W_ W_ W_ W_ W_ W_ W_ W_ W_ W_ W_ W_ W_ W_ W_ W_ W_ W_ W_ W_ W_ W_ W_ W_ W_ W_ w. w. w. w. w. w. w. 2} G| G| G| G| G| G| G| |3 F1 F1 F1 F1 F1 %4 9} 9} 9} 9} 9} X% 1] s] t] )) 4] u] +~ v  x  y  A  D  c. h+ =+ M+ N+ ^# =@ 5@ /# /# P# _$ _$ _$ _$ _$ _$ _$ _$ _$ _$ _$ A$ .% I' K> /; O- O- T; x- o= $* j%  ) U} 8] +~ +~ +~ +~ +~ L! r! r( I3 h[  ~  ~  ~  ~  ~  ~  ~ a} a} <~ M_ Q{ Q{ &4 F/ *4 Z. !) .~ i^ &} Y. =% T<  ~  ~  ~  ~  ~  ~  ~  ~  ~  ~  ~  ~  ~  ~  ~  ~  ~  ~  ~  ~  ~  ~  ~  ~  ~  ~  ~  ~  ~  ~  ~  ~  ~  ~  ~  ~  ~  ~  ~  ~  ~  ~  ~  ~  ~  ~  ~  ~  ~  ~  ~  ~  ~  ~  ~  ~  ~  ~  ~  ~  ~  ~  ~  ~  ~  ~  ~  ~  ~  ~  ~  ~  ~  ~  ~  ~  ~  ~  ~  ~  ~  ~  ~  ~  ~  ~  ~  ~  ~  ~  ~  ~  ~  ~  ~  ~  ~ h[ l3 U3 =4 -4 ;4 >4 ,4 '4 )4 !4 P3 t* [: D: a}  ~  ~  ~  ~  ~  ~  ~  ~  ~  ~  ~  ~  ~  ~  ~  ~  ~  ~  ~  ~  ~  ~  ~  ~  ~  ~  ~  ~  ~  ~  ~  ~  ~  ~  ~  ~  ~  ~  ~  ~  ~  ~  ~  ~  ~ U( ~4 {4 8' 8' 8' 8' 8' 8' 8' 8' 8' 8' 8' ]4 ^4 /4 (4 A3  ~  ~  ~  ~  ~  ~  ~  ~  ~  ~  ~  ~  ~  ~  ~  ~  ~  ~  ~  ~  ~  ~  ~  ~  ~  ~  ~  ~  ~  ~  ~  ~  ~  ~  ~  ~  ~  ~  ~  ~  ~  ~  ~  ~  ~  ~  ~  ~  ~  ~  ~  ~  ~  ~  ~ A3 A3 +% ($ :{ k) k) .~ 6~ g{ y| *+ _4 O{ Y] g[ #%  ~  ~  ~  ~  ~  ~  ~  ~  ~  ~  ~ g} S) M_ (_ y( 8) +~ +~ +~ +~ x! ~# f} :4 Q= H- P- O- <; @4 $3 N' ]% P# _$ _$ _$ _$ _$ _$ _$ _$ _$ _$ _$ _$ _$ _$ _$ P# /# 5@ *@ n+ N+ =+ K  c. c. B  Z. x  S] |{ 4] )) 4^ 5^ ]( V1 h- h- h- h- h- h- h- h- h- h- h- h- h- h- U| B+ <1 s} s} s} s} s} H} =} <4 .[ .[ [4 %< %< O2 #/ #/ a^ B^ B^ B^ B^ K< P< P< P< P< P< P< P< P< Z, W_ W_ W_ W_ W_ W_ W_ ",
"W_ W_ W_ W_ W_ W_ W_ W_ W_ W_ W_ W_ W_ W_ W_ W_ W_ W_ W_ W_ W_ W_ W_ W_ W_ W_ w. w. w. w. w. w. w. J} G| G| G| G| G| G| p/ }4 F1 F1 F1 F1 F1 |4 9} 9} 9} 9} 9} 14 1] s] t] )) 4] u] +~ v  x  y  A  D  c. h+ =+ M+ N+ ^# =@ 5@ /# /# P# _$ _$ _$ _$ _$ _$ _$ _$ _$ _$ _$ D$ $% I' K> /; O- T; T; x- 24 $* 34  ) m{ 8] a! +~ +~ +~ +~ L! r! r( I3 h[  ~  ~  ~  ~  ~  ~  ~  ~  ~ @% @^ X^ Q{ &4 1^ b$ E  44 r! ,! ]^ 6@ [:  ~  ~  ~  ~  ~  ~  ~  ~  ~  ~  ~  ~  ~  ~  ~  ~  ~  ~  ~  ~  ~  ~  ~  ~  ~  ~  ~  ~  ~  ~  ~  ~  ~  ~  ~  ~  ~  ~  ~  ~  ~  ~  ~  ~  ~  ~  ~  ~  ~  ~  ~  ~  ~  ~  ~  ~  ~  ~  ~  ~  ~  ~  ~  ~  ~  ~  ~  ~  ~  ~  ~  ~  ~  ~  ~  ~  ~  ~  ~  ~  ~  ~  ~  ~  ~  ~  ~  ~  ~  ~  ~  ~  ~  ~  ~  ~  ~  ~ h[ 5' 54 64 74 84 ;4 94 04 )4 u3 P3 t* [: D: a}  ~  ~  ~  ~  ~  ~  ~  ~  ~  ~  ~  ~  ~  ~  ~  ~  ~  ~  ~  ~  ~  ~  ~  ~  ~  ~  ~  ~  ~  ~  ~  ~  ~  ~  ~  ~  ~  ~  ~  ~  ~  ~  ~  ~ a4 b4 c4 v3 d4 d4 e4 e4 e4 e4 e4 e4 e4 e4 e4 f4 d4 g4 2= h4  ~  ~  ~  ~  ~  ~  ~  ~  ~  ~  ~  ~  ~  ~  ~  ~  ~  ~  ~  ~  ~  ~  ~  ~  ~  ~  ~  ~  ~  ~  ~  ~  ~  ~  ~  ~  ~  ~  ~  ~  ~  ~  ~  ~  ~  ~  ~  ~  ~  ~  ~  ~  ~  ~  ~  ~ A3 i4 V, f{ :~ `) r! a. y| j4 f{ _4 O{ x1 0; g}  ~  ~  ~  ~  ~  ~  ~  ~  ~  ~  ~ ^% ][ X^ (_ y( 8) +~ +~ +~ +~ x! 5) U} :4 Q= u- O- T; <; @4 $3 O' &% z# _$ _$ _$ _$ _$ _$ _$ _$ _$ _$ _$ _$ _$ _$ _$ P# /# 5@ *@ n+ N+ =+ K  c. c. B  Z. x  S] |{ 4] )) 4^ 5^ ]( V1 h- h- h- h- h- h- h- h- h- h- h- h- h- h- z1 U| _/ s} s} s} s} i} =} =} *< .[ .[  [ E| %< J] #/ #/ K< B^ B^ B^ B^ B^ P< P< P< P< P< P< P< P< W_ W_ W_ W_ W_ W_ W_ W_ ",
"W_ W_ W_ W_ W_ W_ W_ W_ W_ W_ W_ W_ W_ W_ W_ W_ W_ W_ W_ W_ W_ W_ W_ W_ W_ W_ D1 w. w. w. w. w. +1 G| G| G| G| G| G| p/ k4 l4 F1 F1 F1 F1 F1 m4 9} 9} 9} 9} 9} n4 1] s] t] )) 4] u] +~ v  x  y  A  D  c. h+ =+ M+ N+ ^# =@ 5@ /# /# P# _$ _$ _$ _$ _$ _$ _$ _$ _$ _$ _$ W$ (% d= K> /; T; T; N- x- o= O& k%  ) k{ o4 a! +~ +~ +~ +~ L! r! r( I3 h[  ~  ~  ~  ~  ~  ~  ~  ~  ~ h[ 0; X^ Q{ &4 1^ H3 h+ y| b. ') -@ 5'  ~  ~  ~  ~  ~  ~  ~  ~  ~  ~  ~  ~  ~  ~  ~  ~  ~  ~  ~  ~  ~  ~  ~  ~  ~  ~  ~  ~  ~  ~  ~  ~  ~  ~  ~  ~  ~  ~  ~  ~  ~  ~  ~  ~  ~  ~  ~  ~  ~  ~  ~  ~  ~  ~  ~  ~  ~  ~  ~  ~  ~  ~  ~  ~  ~  ~  ~  ~  ~  ~  ~  ~  ~  ~  ~  ~  ~  ~  ~  ~  ~  ~  ~  ~  ~  ~  ~  ~  ~  ~  ~  ~  ~  ~  ~  ~  ~  ~  ~ h[ 5' 54 p4 q4 r4 84 s4 t4 u4 !4 P3 t* [: D: a}  ~  ~  ~  ~  ~  ~  ~  ~  ~  ~  ~  ~  ~  ~  ~  ~  ~  ~  ~  ~  ~  ~  ~  ~  ~  ~  ~  ~  ~  ~  ~  ~  ~  ~  ~  ~  ~  ~  ~  ~  ~  ~  ~  ~ i4 v4 w4 x4 y4 z4 A4 B4 B4 B4 B4 B4 B4 B4 B4 A4 C4 D4 E4 F4 G4 U(  ~  ~  ~  ~  ~  ~  ~  ~  ~  ~  ~  ~  ~  ~  ~  ~  ~  ~  ~  ~  ~  ~  ~  ~  ~  ~  ~  ~  ~  ~  ~  ~  ~  ~  ~  ~  ~  ~  ~  ~  ~  ~  ~  ~  ~  ~  ~  ~  ~  ~  ~  ~  ~  ~  ~ A3  ~ D$ %+ g{ a. y| y| y| f{ D< O{ +< H4  ~  ~  ~  ~  ~  ~  ~  ~  ~  ~  ~  ~ @% *^ Q{ (_ y( 8) +~ +~ +~ +~ x! I4 U} :4 Q= u- O- T; P- J4 $3 @% c% _$ _$ _$ _$ _$ _$ _$ _$ _$ _$ _$ _$ _$ _$ _$ _$ P# /# 5@ *@ n+ N+ =+ K  c. c. B  Z. x  S] |{ 4] )) 4^ 5^ ]( V1 h- h- h- h- h- h- h- K4 h- h- h- h- h- h- h- B1 W1 s} s} s} s} H} =} L4 .[ .[ .[ .[ f@ %< M4 #/ #/ P: B^ B^ B^ B^ B^ =. P< P< P< P< P< P< D3 W_ W_ W_ W_ W_ W_ W_ W_ ",
"W_ W_ W_ W_ W_ W_ W_ W_ W_ W_ W_ W_ W_ W_ W_ W_ W_ W_ W_ W_ W_ W_ W_ W_ W_ W_ L( w. w. w. w. w. J} G| G| G| G| G| p/ k4 N4 k4 F1 F1 F1 F1 F1 F1 9} 9} 9} 9} 9} O4 1] s] t] )) 4] u] +~ v  x  y  A  D  c. h+ =+ M+ N+ ^# =@ 5@ /# /# P# _$ _$ _$ _$ _$ _$ _$ _$ _$ _$ _$ W$ (% d= P4 U- N- N- N- E- o= O& l% R' 3^ %} B( +~ +~ +~ +~ L! r! r( I3 h[  ~  ~  ~  ~  ~  ~  ~  ~  ~  ~ S) M_ Q{ &4 1^ Q4 h+ y| y| n+ :_ b[  ~  ~  ~  ~  ~  ~  ~  ~  ~  ~  ~  ~  ~  ~  ~  ~  ~  ~  ~  ~  ~  ~  ~  ~  ~  ~  ~  ~  ~  ~  ~  ~  ~  ~  ~  ~  ~  ~  ~  ~  ~  ~  ~  ~  ~  ~  ~  ~  ~  ~  ~  ~  ~  ~  ~  ~  ~  ~  ~  ~  ~  ~  ~  ~  ~  ~  ~  ~  ~  ~  ~  ~  ~  ~  ~  ~  ~  ~  ~  ~  ~  ~  ~  ~  ~  ~  ~  ~  ~  ~  ~  ~  ~  ~  ~  ~  ~  ~  ~ h[ 5' R4 S4 T4 U4 V4 W4 X4 Y4 !4 P3 t* [: D: a}  ~  ~  ~  ~  ~  ~  ~  ~  ~  ~  ~  ~  ~  ~  ~  ~  ~  ~  ~  ~  ~  ~  ~  ~  ~  ~  ~  ~  ~  ~  ~  ~  ~  ~  ~  ~  ~  ~  ~  ~  ~  ~  ~  ~ =| y, R3 Z4 P= `4  5  5  5  5  5  5  5  5  5  5  5 .5 +5 @5 #5 $5  ~  ~  ~  ~  ~  ~  ~  ~  ~  ~  ~  ~  ~  ~  ~  ~  ~  ~  ~  ~  ~  ~  ~  ~  ~  ~  ~  ~  ~  ~  ~  ~  ~  ~  ~  ~  ~  ~  ~  ~  ~  ~  ~  ~  ~  ~  ~  ~  ~  ~  ~  ~  ~  ~  ~ a4 %5 q( _$ i+ y| y| y| y| f{ D< O{ A[ B[ a}  ~  ~  ~  ~  ~  ~  ~  ~  ~  ~  ~ )[ B< Q{ (_ y( 8) +~ +~ +~ +~ ]^ H3 &5 :4 Q= u- T; T; O- J4 $3 Q' :% _$ _$ _$ _$ _$ _$ _$ _$ _$ _$ _$ _$ _$ _$ _$ _$ P# /# 5@ *@ n+ N+ =+ K  c. c. B  Z. x  S] |{ 4] )) 4^ 5^ ]( V1 h- h- h- h- h- h- K4 k* k* h- h- h- h- h- h- %3 U| q_ s} s} -| =} =} *5 :< .[ .[ .[ .[ >2 h3 #/ #/ B^ B^ B^ B^ B^ B^ $4 P< P< P< P< P< P< =. W_ W_ W_ W_ W_ W_ W_ W_ ",
"W_ W_ W_ W_ W_ W_ W_ W_ W_ W_ W_ W_ W_ W_ W_ W_ W_ W_ W_ W_ W_ W_ W_ W_ W_ W_ L( w. w. w. w. E3 G| G| G| G| =5 -5 k4 N4 N4 N4 }4 F1 F1 F1 F1 F1 '1 9} 9} 9} 9} ;5 1] s] t] )) 4] u] +~ v  x  y  A  D  c. h+ =+ M+ N+ ^# =@ 5@ /# /# P# _$ _$ _$ _$ _$ _$ _$ _$ _$ _$ P# Z$ :% e- P4 U- N- N- M- E- o= O& m% S' 3^ >5 +~ +~ +~ +~ +~ L! r! r( I3 h[  ~  ~  ~  ~  ~  ~  ~  ~  ~  ~ <~ B< Q{ &4 1^ Q4 h+ ,5 y| n+ W$ T<  ~  ~  ~  ~  ~  ~  ~  ~  ~  ~  ~  ~  ~  ~  ~  ~  ~  ~  ~  ~  ~  ~  ~  ~  ~  ~  ~  ~  ~  ~  ~  ~  ~  ~  ~  ~  ~  ~  ~  ~  ~  ~  ~  ~  ~  ~  ~  ~  ~  ~  ~  ~  ~  ~  ~  ~  ~  ~  ~  ~  ~  ~  ~  ~  ~  ~  ~  ~  ~  ~  ~  ~  ~  ~  ~  ~  ~  ~  ~  ~  ~  ~  ~  ~  ~  ~  ~  ~  ~  ~  ~  ~  ~  ~  ~  ~  ~  ~  ~ h[ 5' '5 )5 !5 ~5 {5 ]5 ^5 Y4 !4 P3 t* [: D: a}  ~  ~  ~  ~  ~  ~  ~  ~  ~  ~  ~  ~  ~  ~  ~  ~  ~  ~  ~  ~  ~  ~  ~  ~  ~  ~  ~  ~  ~  ~  ~  ~  ~  ~  ~  ~  ~  ~  ~  ~  ~  ~  ~  ~ =| y, R3 /5 (5 _5 :5 <5 <5 <5 <5 <5 <5 <5 <5 <5 <5 [5 }5 |5 15 25  ~  ~  ~  ~  ~  ~  ~  ~  ~  ~  ~  ~  ~  ~  ~  ~  ~  ~  ~  ~  ~  ~  ~  ~  ~  ~  ~  ~  ~  ~  ~  ~  ~  ~  ~  ~  ~  ~  ~  ~  ~  ~  ~  ~  ~  ~  ~  ~  ~  ~  ~  ~  ~  ~  ~ a4 A3 U< _$ =+ y| y| y| y| @+ D< G/ 0; h[ a}  ~  ~  ~  ~  ~  ~  ~  ~  ~  ~  ~ .) B< Q{ (_ y( 8) +~ +~ +~ +~ ]~ 2) 35 :4 P= u- T; N- P- J4 += R' U, C$ _$ _$ _$ _$ _$ _$ _$ _$ _$ _$ _$ _$ _$ _$ _$ P# /# 5@ *@ n+ N+ =+ K  c. c. B  Z. x  S] |{ 4] )) 4^ 5^ ]( V1 h- h- h- h- K4 k* k* k* k* k* T% h- h- h- h- h- -2 U| 45 s} -| =} =} 55 6( .[ .[ .[ .[  [ w. #/ #/ Z, B^ B^ B^ B^ B^ B^ P< P< P< P< P< P< =. W_ W_ W_ W_ W_ W_ W_ W_ ",
"W_ W_ W_ W_ W_ W_ W_ W_ W_ W_ W_ W_ W_ W_ W_ W_ W_ W_ W_ W_ W_ W_ W_ W_ W_ W_ %# w. w. w. +1 G| G| G| 65 75 85 95 N4 N4 N4 N4 #) F1 F1 F1 F1 F1 05 9} 9} 9} 9} a5 1] s] t] )) 4] u] +~ v  x  y  A  D  c. h+ =+ M+ N+ ^# =@ 5@ /# /# P# _$ _$ _$ _$ _$ _$ _$ _$ _$ _$ _$  % <% e- b5 _> N- M- M- E- o= O& m% |2 3^ U1 x! +~ +~ +~ +~ L! r! r( I3 h[  ~  ~  ~  ~  ~  ~  ~  ~ F} F} O' B< Q{ &4 1^ Q4 h+ ,5 y| ^# W$ U<  ~  ~  ~  ~  ~  ~  ~  ~  ~  ~  ~  ~  ~  ~  ~  ~  ~  ~  ~  ~  ~  ~  ~  ~  ~  ~  ~  ~  ~  ~  ~  ~  ~  ~  ~  ~  ~  ~  ~  ~  ~  ~  ~  ~  ~  ~  ~  ~  ~  ~  ~  ~  ~  ~  ~  ~  ~  ~  ~  ~  ~  ~  ~  ~  ~  ~  ~  ~  ~  ~  ~  ~  ~  ~  ~  ~  ~  ~  ~  ~  ~  ~  ~  ~  ~  ~  ~  ~  ~  ~  ~  ~  ~  ~  ~  ~  ~  ~ F} h[ (( c5 d5 e5 f5 g5 h5 i5 Y4 !4 P3 t* b= D: a}  ~  ~  ~  ~  ~  ~  ~  ~  ~  ~  ~  ~  ~  ~  ~  ~  ~  ~  ~  ~  ~  ~  ~  ~  ~  ~  ~  ~  ~  ~  ~  ~  ~  ~  ~  ~  ~  ~  ~  ~  ~  ~  ~  ~ =| y, R3 j5 k5 l5 N1 +2 +2 +2 +2 +2 +2 +2 +2 +2 +2 +2 +2 +2 m5 n5  ~  ~  ~  ~  ~  ~  ~  ~  ~  ~  ~  ~  ~  ~  ~  ~  ~  ~  ~  ~  ~  ~  ~  ~  ~  ~  ~  ~  ~  ~  ~  ~  ~  ~  ~  ~  ~  ~  ~  ~  ~  ~  ~  ~  ~  ~  ~  ~  ~  ~  ~  ~  ~  ~  ~ a4 A3 U< _$ =+ y| y| y| y| @+ +4 G/ j3 :| F}  ~  ~  ~  ~  ~  ~  ~  ~  ~  ~  ~ n2 *^ M^ (_ y( 8) +~ +~ +~ +~ x! L2 k{ r% P= u- T; N- O- J4 $3 R' <% E$ _$ _$ _$ _$ _$ _$ _$ _$ _$ _$ _$ _$ _$ _$ _$ P# /# 5@ *@ n+ N+ =+ K  c. c. B  Z. x  S] |{ 4] )) 4^ 5^ ]( V1 h- h- T% k* k* k* k* k* k* k* k* k* K4 h- h- h- h- B1 U| o5 -| =} =} p5 q5 .[ .[ .[ .[ .[ j# #/ #/ =. B^ B^ B^ B^ B^ B^ =. P< P< G[ P< P< r5 W_ W_ W_ W_ W_ W_ W_ W_ ",
"W_ W_ W_ W_ W_ W_ W_ W_ W_ W_ W_ W_ W_ W_ W_ W_ W_ W_ W_ W_ W_ W_ W_ W_ W_ Q< w. w. w. ,< G| G| W+ s5 85 85 85 t5 N4 N4 N4 u5 v5 v5 v5 v5 w5 F1 x5 y5 9} 9} 9} 65 1] s] t] )) 4] u] +~ v  x  y  A  D  c. h+ =+ M+ N+ ^# =@ 5@ /# /# P# _$ _$ _$ _$ _$ _$ _$ _$ _$ _$ _$ +% <% <> ', _> M- M- M- z- o= p& n% |2 3^ I4 x! +~ +~ +~ +~ L! r! 7~ +) g} F} F} F} F} F} F} F} F} F} F} P' M_ Q{ &4 1^ Q4 h+ ,5 y| ^# X$ U< F} F} F} F} F} F} F} F} F} F} F} F} F} F} F} F} F} F} F} F} F} F} F} F} F} F} F} F} F} F} F} F} F} F} F} F} F} F} F} F} F} F} F} F} F} F} F} F} F} F} F} F} F} F} F} F} F} F} F} F} F} F} F} F} F} F} F} F} F} F} F} F} F} F} F} F} F} F} F} F} F} F} F} F} F} F} F} F} F} F} F} F} F} F} F} F} F} F} F} g} (( z5 A5 B5 C5 D5 E5 F5 G5 !4 P3 t* b= (~ 5] F} F} F} F} F} F} F} F} F} F} F} F} F} F} F} F} F} F} F} F} F} F} F} F} F} F} F} F} F} F} F} F} F} F} F} F} F} F} F} F} F} F} F} F} D, H5 g3 j5 k5 I5 N1 +2 +2 +2 +2 +2 +2 +2 +2 +2 +2 +2 +2 +2 m5 J5 F} F} F} F} F} F} F} F} F} F} F} F} F} F} F} F} F} F} F} F} F} F} F} F} F} F} F} F} F} F} F} F} F} F} F} F} F} F} F} F} F} F} F} F} F} F} F} F} F} F} F} F} F} F} F} U( U( U< _$ =+ y| y| y| y| @+ f} }: ]% K5 F} F} F} F} F} F} F} F} F} F} F} F} ]% @^ X^ (_ y( 8) +~ +~ +~ +~ x! ~% P{ r% P= u- T; M- T; J4 $3 R' <% X$ _$ _$ _$ _$ _$ _$ _$ _$ _$ _$ _$ _$ _$ _$ _$ P# /# 5@ *@ n+ N+ =+ K  c. c. B  Z. x  S] |{ 4] )) 4^ 5^ ]( V1 h- h- k* k* k* k* k* k* k* k* k* k* k* k* h- h- h- g$ U| U| o5 =} C1 L5 M5 .[ .[ .[ .[ .[ N5 #/ #/ a^ B^ B^ B^ B^ B^ B^ P: P< P< g= O5 <, F| W_ W_ W_ W_ W_ W_ W_ W_ ",
"W_ W_ W_ W_ W_ W_ W_ W_ W_ W_ W_ W_ W_ W_ W_ W_ W_ W_ W_ W_ W_ W_ W_ W_ L( w. w. w. P| h$ w+ s5 85 85 85 s. P5 k4 N4 Q5 R5 v5 v5 v5 v5 S5 T5 F1 x5 x5 U5 9} 9} V5 1] s] t] )) 4] u] +~ v  x  y  A  D  c. h+ =+ M+ N+ ^# =@ 5@ /# /# P# _$ _$ _$ _$ _$ _$ _$ _$ _$ _$ p' @% <% V, J> T- M- M- M- z- o= W5 o% |2 3^ H3 Y. +~ +~ +~ +~ L! r! 7~ +) g} F} F} F} F} F} F} F} F} F} :| G} X^ Q{ &4 1^ Q4 h+ ,5 y| ^# X$ U< F} F} F} F} F} F} F} F} F} F} F} F} F} F} F} F} F} F} F} F} F} F} F} F} F} F} F} F} F} F} F} F} F} F} F} F} F} F} F} F} F} F} F} F} F} F} F} F} F} F} F} F} F} F} F} F} F} F} F} F} F} F} F} F} F} F} F} F} F} F} F} F} F} F} F} F} F} F} F} F} F} F} F} F} F} F} F} F} F} F} F} F} F} F} F} F} F} F} F} g} (( z5 X5 Y5 Z5 C5 g5 `5 G5 !4  6 t* b} (~ 5] F} F} F} F} F} F} F} F} F} F} F} F} F} F} F} F} F} F} F} F} F} F} F} F} F} F} F} F} F} F} F} F} F} F} F} F} F} F} F} F} F} F} F} F} D, H5 g3 j5 k5 I5 N1 +2 +2 +2 +2 +2 +2 +2 +2 +2 +2 +2 +2 +2 m5 J5 F} F} F} F} F} F} F} F} F} F} F} F} F} F} F} F} F} F} F} F} F} F} F} F} F} F} F} F} F} F} F} F} F} F} F} F} F} F} F} F} F} F} F} F} F} F} F} F} F} F} F} F} F} F} F} U( U( U< _$ =+ y| y| y| y| f{ .6 #^ $% F} F} F} F} F} F} F} F} F} F} F} F} F} ^% ][ X^ (_ y( 8) +~ +~ +~ +~ Y.  & P{ r% 6- F- T; M- T; J4 $3 R' <% X$ _$ _$ _$ _$ _$ _$ _$ _$ _$ _$ _$ _$ _$ _$ _$ P# /# 5@ *@ n+ N+ =+ K  c. c. B  Z. x  S] |{ 4] )) 4^ 5^ ]( V1 h- h- K4 k* k* k* k* k* k* k* k* k* k* k* K4 h- h- h- z1 U| U| =} L4 L5 +6 .[ .[ .[ .[ .[ #/ #/ #/ #/ B^ B^ B^ B^ B^ B^ B^ K< P< P< O5 s5 }/ W_ W_ W_ W_ W_ W_ W_ W_ ",
"W_ W_ W_ W_ W_ W_ W_ W_ W_ W_ W_ W_ W_ W_ W_ W_ W_ W_ W_ W_ W_ W_ Z, %# w. w. w. +1 @6 s. 85 85 85 85 #6 $# w. $6 %6 &6 v5 v5 v5 *6 =6 -6 ;6 F1 x5 x5 >6 9} 9} V5 1] s] t] )) 4] u] +~ v  x  y  A  D  c. h+ =+ M+ N+ ^# =@ 5@ /# /# P# _$ _$ _$ _$ _$ _$ _$ _$ _$ _$ C$ .% <% <> J> (; M- M- L- z- o= W5 o% |2 01 H3 Y. +~ +~ +~ +~ L! r! 7~ +) g} F} F} F} F} F} F} F} F} F} ^% ,6 X^ Q{ &4 1^ Q4 h+ ,5 y| ^# X$ U< F} F} F} F} F} F} F} F} F} F} F} F} F} F} F} F} F} F} F} F} F} F} F} F} F} F} F} F} F} F} F} F} F} F} F} F} F} F} F} F} F} F} F} F} F} F} F} F} F} F} F} F} F} F} F} F} F} F} F} F} F} F} F} F} F} F} F} F} F} F} F} F} F} F} F} F} F} F} F} F} F} F} F} F} F} F} F} F} F} F} F} F} F} F} F} F} F} F} F} g} (( '6 )6 !6 ~6 Z5 {6 ]6 ^6 !4  6 t* b} (~ 5] F} F} F} F} F} F} F} F} F} F} F} F} F} F} F} F} F} F} F} F} F} F} F} F} F} F} F} F} F} F} F} F} F} F} F} F} F} F} F} F} F} F} F} F} D, H5 g3 j5 /6 (6 s1 s1 s1 _6 _6 _6 _6 _6 _6 _6 s1 s1 {2 {2 :6 <6 F} F} F} F} F} F} F} F} F} F} F} F} F} F} F} F} F} F} F} F} F} F} F} F} F} F} F} F} F} F} F} F} F} F} F} F} F} F} F} F} F} F} F} F} F} F} F} F} F} F} F} F} F} F} F} U( U( U< _$ =+ y| y| y| y| f{ [6 X< ^% F} F} F} F} F} F} F} F} F} F} F} F} F} ^% ][ X^ (_ y( 8) +~ +~ +~ +~ Y. [2 }6 r% 6- v- M- M- M- {- g3 %% e% Z$ _$ _$ _$ _$ _$ _$ _$ _$ _$ _$ _$ _$ _$ _$ _$ P# /# 5@ *@ n+ N+ =+ @+ c. .+ B  Z. x  S] |{ 4] )) 4^ 5^ ]( V1 h- T% k* k* k* k* k* k* k* k* k* k* k* k* k* h- h- h- h- B1 U| =} L4 L5 L5 .[ .[ .[ .[ .[ #/ #/ #/ #/ j# B^ B^ B^ B^ B^ B^ B^ F| P< q. s5 s5 p. W_ W_ W_ W_ W_ W_ W_ ",
"W_ W_ W_ W_ W_ W_ W_ W_ W_ W_ W_ W_ W_ W_ W_ W_ W_ W_ W_ W_ W_ =. w. w. w. w. |6 s. 85 85 85 85 16 1# w. w. w. g# v5 v5 &6 =6 26 s: s: 36 ;6 F1 x5 x5 x5 9} 9} V5 1] s] t] )) 4] u] +~ v  x  y  A  D  c. h+ =+ M+ N+ ^# =@ 5@ /# /# P# _$ _$ _$ _$ _$ _$ _$ _$ _$ _$ C$ ]% <% <> J> (; L- L- j; z- o= W5 o% 46 H/ a$ e+ +~ +~ +~ +~ L! r! 7~ +) g} F} F} F} F} F} F} F} F} F} ]% ][ X^ Q{ &4 1^ Q4 h+ ,5 y| ^# X$ U< F} F} F} F} F} F} F} F} F} F} F} F} F} F} F} F} F} F} F} F} F} F} F} F} F} F} F} F} F} F} F} F} F} F} F} F} F} F} F} F} F} F} F} F} F} F} F} F} F} F} F} F} F} F} F} F} F} F} F} F} F} F} F} F} F} F} F} F} F} F} F} F} F} F} F} F} F} F} F} F} F} F} F} F} F} F} F} F} F} F} F} F} F} F} F} F} F} F} F} g} (( '6 56 66 76 86 96 06 ^6 a6 v3 t* b} (~ 5] F} F} F} F} F} F} F} F} F} F} F} F} F} F} F} F} F} F} F} F} F} F} F} F} F} F} F} F} F} F} F} F} F} F} F} F} F} F} F} F} F} F} F} F} D, H5 g3 j5 b6 c6 d6 y2 e6 >3 f6 f6 f6 f6 f6 f6 >3 e6 y2 y2 g6 h6 F} F} F} F} F} F} F} F} F} F} F} F} F} F} F} F} F} F} F} F} F} F} F} F} F} F} F} F} F} F} F} F} F} F} F} F} F} F} F} F} F} F} F} F} F} F} F} F} F} F} F} F} F} F} F} U( U( U< _$ =+ y| y| y| y| f{ &5 O' F} F} F} F} F} F} F} F} F} F} F} F} F} F} :| G} X^ (_ y( 8) +~ +~ +~ +~ 8]  & 3^ s% i6 v- M- L- N- J4 @= U' |% +% _$ _$ _$ _$ _$ _$ _$ _$ _$ _$ _$ _$ _$ _$ _$ P# /# 5@ *@ n+ N+ .4 .( 7+ c+ B  Z. x  S] |{ 4] )) 4^ 5^ ]( j6 k* k* k* k* k* k* k* k* k* k* k* k* k* k* k* K4 h- h- h- h- '@ =} C1 k6 l6 .[ .[ .[ .[ .[ g= #/ #/ #/ q. P: B^ B^ B^ B^ B^ B^ P: P< P< m6 s5 N~ W_ W_ W_ W_ W_ W_ W_ ",
"W_ W_ W_ W_ W_ W_ W_ W_ W_ W_ W_ W_ W_ W_ W_ W_ W_ W_ W_ 11 w. w. w. w. O! W& 85 85 85 n6 ^+ O! w. w. w. w. w. w. v5 o6 p6 s: s: s: s: q6 ;6 r6 x5 x5 x5 s6 9} 65 1] s] t] )) 4] u] +~ v  x  y  A  D  c. h+ =+ M+ N+ ^# =@ 5@ /# /# P# _$ _$ _$ _$ _$ _$ _$ _$ _$ _$ D$ ]% <% W, J> (; L- j; j; z- o= r& p% t6 H/ a$ 8] +~ +~ +~ +~ L! r! 7~ +) g} F} F} F} F} F} F} F} F} F} @% @^ b/ Q{ &4 1^ Q4 h+ ,5 y| ^# X$ U< F} F} F} F} F} F} F} F} F} F} F} F} F} F} F} F} F} F} F} F} F} F} F} F} F} F} F} F} F} F} F} F} F} F} F} F} F} F} F} F} F} F} F} F} F} F} F} F} F} F} F} F} F} F} F} F} F} F} F} F} F} F} F} F} F} F} F} F} F} F} F} F} F} F} F} F} F} F} F} F} F} F} F} F} F} F} F} F} F} F} F} F} F} F} F} F} F} F} F} g} 5' u6 v6 {6 w6 x6 y6 z6 A6 B6 C6 t* b} (~ 5] F} F} F} F} F} F} F} F} F} F} F} F} F} F} F} F} F} F} F} F} F} F} F} F} F} F} F} F} F} F} F} F} F} F} F} F} F} F} F} F} F} F} F} F} D, H5 g3 j5 D6 E6 F6 G6 H6 63 q3 q3 q3 q3 q3 q3 63 H6 G6 f6 I6 J6 F} F} F} F} F} F} F} F} F} F} F} F} F} F} F} F} F} F} F} F} F} F} F} F} F} F} F} F} F} F} F} F} F} F} F} F} F} F} F} F} F} F} F} F} F} F} F} F} F} F} F} F} F} F} F} U( U( U< _$ =+ y| y| y| y| u{ P{ ]% K5 F} F} F} F} F} F} F} F} F} F} F} F} F} :| K6 B< (_ y( 8) +~ +~ +~ x! /|  & 3^ L6 6- v- M- j; M- {- @= U' 4% .% _$ _$ _$ _$ _$ _$ _$ _$ _$ _$ _$ _$ _$ _$ _$ P# /# 5@ *@ n+ N+ M6 1@ |. 7+ W. Z. x  S] |{ 4] )) 4^ 5^ ]( N6 k* k* k* k* k* k* k* k* k* k* k* k* k* k* k* k* h- h- h- h- z| =} =} =} =} .[ .[ .[ .[ .[ b( i$ O6 #/ #/  > B^ B^ B^ B^ B^ B^ B^ K< P< }/ s5 s5 p. W_ W_ W_ W_ W_ W_ ",
"Q< W_ W_ W_ W_ W_ W_ W_ W_ W_ W_ W_ W_ W_ W_ W_ W_ W_ W_ w. w. w. w. w. w. O! 1# O! w. w. w. w. w. w. w. w. w. w. *6 s: s: s: s: s: s: s: P6 Q6 R6 x5 x5 S6 9} T6 1] s] t] )) 4] u] +~ v  x  y  A  D  c. h+ =+ M+ N+ ^# =@ 5@ /# /# P# _$ _$ _$ _$ _$ _$ _$ _$ _$ _$ E$ $% }% N' J> _; K- j; K- B- o= r& p% t6 H/  & 8] a! +~ +~ +~ L! r! 7~ +) g} F} F} F} F} F} F} F} F} F} O' B< Q{ Q{ &4 1^ Q4 h+ ,5 y| ^# X$ U< F} F} F} F} F} F} F} F} F} F} F} F} F} F} F} F} F} F} F} F} F} F} F} F} F} F} F} F} F} F} F} F} F} F} F} F} F} F} F} F} F} F} F} F} F} F} F} F} F} F} F} F} F} F} F} F} F} F} F} F} F} F} F} F} F} F} F} F} F} F} F} F} F} F} F} F} F} F} F} F} F} F} F} F} F} F} F} F} F} F} F} F} F} F} F} F} F} F} F} g} 5' U6 V6 W6 X6 w6 Y6 Z6 `6  7 P3 t* b} (~ 5] F} F} F} F} F} F} F} F} F} F} F} F} F} F} F} F} F} F} F} F} F} F} F} F} F} F} F} F} F} F} F} F} F} F} F} F} F} F} F} F} F} F} F} F} D, H5 g3 .7 +7 @7 p3 Y3 L3 #7 #7 #7 #7 #7 #7 #7 L3 p3 74 Y3 $7 %7 F} F} F} F} F} F} F} F} F} F} F} F} F} F} F} F} F} F} F} F} F} F} F} F} F} F} F} F} F} F} F} F} F} F} F} F} F} F} F} F} F} F} F} F} F} F} F} F} F} F} F} F} F} F} F} U( U( U< _$ =+ y| y| y| y| *+ )] ]% K5 F} F} F} F} F} F} F} F} F} F} F} F} F} :| j3 B< (_ y( 8) +~ +~ +~ x! /|  & 3^ L6 6- v- M- j; M- &7 @= U' 4% $% &$ _$ _$ _$ _$ _$ _$ _$ _$ _$ _$ _$ _$ _$ _$ P# /# 5@ *@ n+ N+ M6 1@ |. 6+ R. Z. x  S] |{ 4] )) 4^ 5^ ]( N6 k* k* k* k* k* k* k* k* k* k* k* k* k* k* k* k* T% h- h- 0' =} =} =} =} =} .[ .[ .[ .[ .[ <[ *7 *7 i$ ,< #/ =. B^ B^ B^ B^ B^ B^ B^ =. G[ m6 s5 N~ W_ W_ W_ W_ W_ W_ ",
"w. w. K< W_ W_ W_ W_ W_ W_ W_ W_ W_ W_ W_ W_ W_ W_ W_ 11 w. w. w. w. w. w. w. w. w. w. w. w. w. w. w. w. w. w. w. v5 =7 -7 -7 ;7 s: s: s: >7 Q6 E+ x5 x5 ,7 9} '7 1] s] t] )) 4] u] +~ v  x  y  A  D  c. h+ =+ M+ N+ ^# =@ 5@ /# /# P# _$ _$ _$ _$ _$ _$ _$ _$ _$ _$ F$ %% }% W, J> )7 j; K- K- B- o= r& t% t6 H/  & 8] a! +~ +~ +~ L! r! 7~ +) g} F} F} F} F} F} F} F} 5] 5] P' M_ Q{ Q{ &4 1^ Q4 h+ ,5 y| ^# X$ U< F} F} F} F} F} F} F} F} F} F} F} F} F} F} F} F} F} F} F} F} F} F} F} F} F} F} F} F} F} F} F} F} F} F} F} F} F} F} F} F} F} F} F} F} F} F} F} F} F} F} F} F} F} F} F} F} F} F} F} F} F} F} F} F} F} F} F} F} F} F} F} F} F} F} F} F} F} F} F} F} F} F} F} F} F} F} F} F} F} F} F} F} F} F} F} F} F} F} F} g} (( !7 ~7 {7 ]7 ^7 /7 (7 `6  7 P3 t* b} (~ 5] F} F} F} F} F} F} F} F} F} F} F} F} F} F} F} F} F} F} F} F} F} F} F} F} F} F} F} F} F} F} F} F} F} F} F} F} F} F} F} F} F} F} F} F} D, H5 g3 .7 _7 :7 <7 <7 >4 [7 [7 [7 [7 [7 [7 [7 >4 >4 X3 X3 }7 |7 5] F} F} F} F} F} F} F} F} F} F} F} F} F} F} F} F} F} F} F} F} F} F} F} F} F} F} F} F} F} F} F} F} F} F} F} F} F} F} F} F} F} F} F} F} F} F} F} F} F} F} F} F} F} F} U( U( U< _$ =+ y| y| y| y| *+ w^ $% 4| F} F} F} F} F} F} F} F} F} F} F} F} F} F} O' H: (_ y( 8) +~ +~ +~ g{ U1 f} 17 27 6- 37 L- K- M- &7 @= c% 4% $% &$ _$ _$ _$ _$ _$ _$ _$ _$ _$ _$ _$ _$ _$ _$ P# /# 5@ *@ n+ N+ .4  ( |. N. P. 47 x  S] |{ 4] )) 4^ 5^ ]( N6 k* k* k* k* k* k* k* k* k* k* k* k* k* k* k* k* K4 h- h- t+ =} =} =} =} -1 .[ .[ .[ .[ .[ .[ 57 *7 *7 *7 67 B^ B^ B^ B^ B^ B^ B^ B^ B^ F| }/ s5 s5 m* W_ W_ W_ W_ W_ ",
"w. w. w. %# W_ W_ W_ W_ W_ W_ W_ W_ W_ W_ W_ W_ W_ W_ W_ %# w. %# =. Q< 11 Q< %# w. w. w. w. w. w. w. w. w. w. w. v5 v5 v5 v5 &6 77 s: s: >7 Q6 x5 x5 x5 ,7 9} 87 1] s] t] )) 4] u] +~ v  x  y  A  D  c. h+ =+ M+ N+ ^# =@ 5@ /# /# P# _$ _$ _$ _$ _$ _$ _$ _$ _$ _$ W$ &% }% `$ J> i; K- K- K- B- o= N, t% t6 H/ 97 o4 a! +~ +~ +~ L! r! 7~ +) g} F} F} F} F} F} F} F} F} F} P' M_ Q{ Q{ &4 1^ Q4 h+ ,5 y| ^# X$ U< F} F} F} F} F} F} F} F} F} F} F} F} F} F} F} F} F} F} F} F} F} F} F} F} F} F} F} F} F} F} F} F} F} F} F} F} F} F} F} F} F} F} F} F} F} F} F} F} F} F} F} F} F} F} F} F} F} F} F} F} F} F} F} F} F} F} F} F} F} F} F} F} F} F} F} U< (~ D: (~ D: D: D: D: D: D: (( (( (( (( (( (( (( (( (( (( (( (( (( (~ b% c= c5 ~7 Y6 07 a7 b7 c7 d7 e7  6 t* b} (~ 5] F} F} F} F} F} F} F} F} F} F} F} F} F} F} F} F} F} F} F} F} F} F} F} F} F} F} F} F} F} F} F} F} F} F} F} F} F} F} F} F} F} F} F} F} D, H5 g3 .7 f7 g7 h7 ;4 84 84 84 i7 i7 i7 j7 84 84 ;4 ;4 [7 k7 l7 F} F} F} F} F} F} F} F} F} F} F} F} F} F} F} F} F} F} F} F} F} F} F} F} F} F} F} F} F} F} F} F} F} F} F} F} F} F} F} F} F} F} F} F} F} F} F} F} F} F} F} F} F} F} F} U( U( U< _$ =+ y| y| y| y| T  i* &% 4| F} F} F} F} F} F} F} F} F} F} F} F} F} F} @% @^ (_ y( 8) +~ +~ +~ x! }2 f} H/ 27 6- 2; j; K- s- r2 @= 6; 4% &% P# _$ _$ _$ _$ _$ _$ _$ _$ _$ _$ _$ _$ _$ _$ P# /# 5@ *@ n+ N+ $+ m7 |. g  7. R. x  S] |{ 4] )) 4^ 5^ ]( N6 k* k* k* k* k* k* k* k* k* k* k* k* k* k* k* k* k* h- %3 B| =} =} =} =} <4 .[ .[ .[ .[ .[ <[ n7 *7 *7 *7 *7 o7 p7 B^ B^ B^ B^ B^ B^ B^ P: G[ q7 s5 q7 Q< W_ W_ W_ W_ ",
"w. w. w. w. %# W_ W_ W_ W_ W_ W_ W_ W_ W_ W_ W_ W_ W_ W_ W_ W_ W_ W_ W_ W_ W_ Q< w. w. w. w. w. w. w. w. w. w. w. r7 v5 v5 v5 v5 s7 s: s: t7 Q6 x5 x5 x5 ,7 9} u7 1] s] t] )) 4] u] +~ v  x  y  A  D  c. h+ =+ M+ N+ ^# =@ 5@ /# /# P# _$ _$ _$ _$ _$ _$ _$ _$ _$ _$ X$ :> |% `$ J> i; K- K- K- C- o= t& t% v7 ._ &5 %} a! +~ +~ +~ L! r! 7~ +) g} F} F} F} F} F} F} F} F} F} j3 X^ Q{ Q{ &4 1^ Q4 h+ ,5 y| ^# X$ U< F} F} F} F} F} F} F} F} F} F} F} F} F} F} F} F} F} F} F} F} F} F} F} F} F} F} F} F} F} F} F} F} F} F} F} F} F} F} F} F} F} F} F} F} F} F} F} F} F} F} F} F} F} F} F} F} F} F} F} F} F} F} F} F} F} F} F} F} F} F} F} F} F} 4| w7 x7 y7 z7 A7 B7 C7 D7 E7 F7 F7 G7 G7 G7 G7 G7 H7 H7 H7 G7 G7 G7 G7 F7 I7 J7 B7 K7 L7 ^7 M7 N7 O7 P7 Q7 e7  6 t* b} (~ 5] F} F} F} F} F} F} F} F} F} F} F} F} F} F} F} F} F} F} F} F} F} F} F} F} F} F} F} F} F} F} F} F} F} F} F} F} F} F} F} F} F} F} F} F} D, H5 g3 R7 N3 S7 T7 i7 V4 {5 {5 {5 {5 {5 {5 {5 U7 V4 i7 V7 W7 X7 F} F} F} F} F} F} F} F} F} F} F} F} F} F} F} F} F} F} F} F} F} F} F} F} F} F} F} F} F} F} F} F} F} F} F} F} F} F} F} F} F} F} F} F} F} F} F} F} F} F} F} F} F} F} F} U( U( U< _$ =+ y| y| y| y| T  J' &% 4| F} F} F} F} F} F} F} F} F} F} F} F} F} F} ]% ][ %( y( 8) +~ +~ +~ x! I4 f} H/ 27 O= 2; j; K- s- &7 @= _% i% :> :$ _$ _$ _$ _$ _$ _$ _$ _$ _$ _$ _$ _$ _$ _$ P# /# 5@ *@ n+ N+ =+ m7 |. |. h  O. u  S] |{ 4] )) 4^ 5^ ]( N6 k* k* k* k* k* k* k* k* k* k* k* k* k* k* k* k* K4 h- t+ =} =} =} =} =} 1_ .[ .[ .[ .[ Y7 *7 *7 *7 *7 *7 *7 *7 *7 Z7 B^ B^ B^ B^ B^ B^ B^ %# q. s5 s5 m* W_ W_ W_ W_ ",
"w. w. w. w. w. %# D1 %# w. %# W_ W_ W_ W_ W_ W_ W_ W_ W_ W_ W_ W_ W_ W_ W_ Z, w. w. w. w. w. w. w. w. w. w. w. w. w. w. `, `7 v5 v5  8 s: .8 Q6 x5 x5 x5 +8 9} @8 {) s] t] )) 4] u] +~ v  x  y  A  D  c. h+ =+ M+ N+ ^# =@ 5@ /# /# P# _$ _$ _$ _$ _$ _$ _$ _$ _$ _$ Z$ _% }% `$ J> i; K- K- K- C- o= t& =' v7 $^ l{ U1 +~ +~ +~ +~ L! r! 7~ +) g} F} F} F} F} F} F} F} F} F} S) X^ Q{ Q{ &4 1^ Q4 h+ ,5 y| ^# X$ U< F} F} F} F} F} F} F} F} F} F} F} F} F} F} F} F} F} F} F} F} F} F} F} F} F} F} F} F} F} F} F} F} F} F} F} F} F} F} F} F} F} F} F} F} F} F} F} F} F} F} F} F} F} F} F} F} F} F} F} F} F} F} F} F} F} F} F} F} F} F} F} F} F} p( !7 #8 $8 %8 &8 *8 =8 y6 -8 Y6 /7 ;8 >8 b7 b7 b7 ,8 ,8 ,8 b7 b7 b7 ;8 ;8 '8 )8 -8 !8 ~8 {8 {8 ]8 ^8 /8 Q7 e7  6 t* b} (~ 5] F} F} F} F} F} F} F} F} F} F} F} F} F} F} F} F} F} F} F} F} F} F} F} F} F} F} F} F} F} F} F} F} F} F} F} F} F} F} F} F} F} F} F} F} D, H5 g3 R7 `3 (8 !6 !6 ~5 _8 :8 :8 D5 D5 :8 _8 _8 <8 [8 {5 }8 |8 K5 F} F} F} F} F} F} F} F} F} F} F} F} F} F} F} F} F} F} F} F} F} F} F} F} F} F} F} F} F} F} F} F} F} F} F} F} F} F} F} F} F} F} F} F} F} F} F} F} F} F} F} F} F} F} U( U( U< _$ =+ y| y| y| y| M+ e= g} 5] F} F} F} F} F} F} F} F} F} F} F} F} F} F} $% ][ %( y( 8) +~ +~ +~ x! p2 U} H/ 18 O= x- K- K- 28 &7 @= d% j% _% _$ _$ _$ _$ _$ _$ _$ _$ z# Y@ Y@ z# _$ _$ _$ P# /# 5@ *@ n+ N+ $+ @( |. |. h  4. n  |{ |{ 4] )) 4^ 5^ ]( N6 k* k* k* k* k* k* k* k* k* k* k* k* k* k* k* k* h- %3 B| =} =} =} =} 38 .[ .[ .[ .[ 48 58 68 *7 *7 *7 *7 *7 *7 *7 *7 78 B^ B^ B^ B^ B^ B^ K< P< 16 s5 88 2} P| *3 W_ ",
"w. w. w. w. w. w. w. w. w. w. 11 W_ W_ W_ W_ W_ W_ W_ W_ W_ W_ W_ W_ W_ L( w. w. w. w. w. w. w. w. w. w. w. w. w. w. w. w. w. #/ v5 v5 98 08 Q6 x5 x5 x5 a8 9} u_ ]( s] t] )) 4] u] +~ v  x  y  A  D  c. h+ =+ M+ N+ ^# =@ 5@ /# /# P# _$ _$ _$ _$ _$ _$ _$ _$ _$ _$ Z$ _% b8 O' ), i; K- K- K- C- o= t& u% v7 $^ k{ }2 +~ +~ +~ +~ L! r! 7~ +) g} F} F} F} F} F} F} F} F} F} G} X^ Q{ Q{ &4 1^ Q4 h+ ,5 y| ^# X$ U< F} F} F} F} F} F} F} F} F} F} F} F} F} F} F} F} F} F} F} F} F} F} F} F} F} F} F} F} F} F} F} F} F} F} F} F} F} F} F} F} F} F} F} F} F} F} F} F} F} F} F} F} F} F} F} F} F} F} F} F} F} F} F} F} F} F} F} F} F} F} F} F} F} p( c8 d8 e8 {8 f8 g8 h8 i8 j8 k8 l8 m8 n8 o8 p8 p8 p8 p8 p8 p8 p8 n8 m8 q8 r8 k8 s8 i8 h8 t8 u8 v8 w8 x8 y8 e7  6 t* b} (~ 5] F} F} F} F} F} F} F} F} F} F} F} F} F} F} F} F} F} F} F} F} F} F} F} F} F} F} F} F} F} F} F} F} F} F} F} F} F} F} F} F} F} F} F} F} D, H5 g3 Z4 z8 A8 f5 D5 C5 B8 W6 C8 C8 C8 W6 C5 C5 D8 f5 E8 F8 G8 D, F} F} F} F} F} F} F} F} F} F} F} F} F} F} F} F} F} F} F} F} F} F} F} F} F} F} F} F} F} F} F} F} F} F} F} F} F} F} F} F} F} F} F} F} F} F} F} F} F} F} F} F} F} F} U( U( U< _$ =+ y| y| y| y| H8 [! g} 5] F} F} F} F} F} F} F} F} F} F} F} F} F} F} $% ][ e3 y( 8) +~ +~ +~ x! L2 U} H/ 18 N= x- K- K- I8 r2 @= J8 j% :% p' _$ _$ _$ _$ _$ _$ _$ U$ q- z$ Y  x# _$ _$ P# /# 5@ *@ ^# M+ M6 1@ |. |. h  5. m  B( |{ 4] )) 4^ 5^ ]( N6 k* k* k* k* k* k* k* k* k* k* k* k* k* k* k* K4 h- t+ =} =} =} =} =} K8 .[ .[ .[ L8 M8 N8 w. O8 P8 Q8 *7 *7 *7 *7 *7 *7 78 B^ B^ B^ B^ B^ R8 P< q. q7 O5 42 42 42 42 ",
"w. w. w. w. w. w. w. w. w. w. =. W_ W_ W_ W_ W_ W_ W_ W_ W_ W_ Q< D1 w. w. w. w. w. w. w. w. w. w. w. w. w. w. w. w. w. w. w. w. S8 v5 v5 08 Q6 x5 x5 x5 T8 9} e@ 5^ s] t] )) 4] u] +~ v  x  y  A  D  c. h+ =+ M+ N+ ^# =@ 5@ /# /# P# _$ _$ _$ _$ _$ _$ _$ _$ _$ Q# Z$ _% 1% O' J> i; }; K- K- C- U8 u& u% v7 $^ k{ }2 x! +~ +~ +~ L! r! 7~ +) g} F} F} F} F} F} F} F} F} F} j3 X^ Q{ Q{ &4 1^ Q4 h+ ,5 y| ^# X$ U< F} F} F} F} F} F} F} F} F} F} F} F} F} F} F} F} F} F} F} F} F} F} F} F} F} F} F} F} F} F} F} F} F} F} F} F} F} F} F} F} F} F} F} F} F} F} F} F} F} F} F} F} F} F} F} F} F} F} F} F} F} F} F} F} F} F} F} F} F} F} F} F} F} p( c8 d8 V8 u8 W8 i8 X8 Y8 r8 Z8 n8 `8  9 .9 +9 @9 @9 @9 @9 @9 +9  9  9 o8 #9 Z8 r8 $9 X8 %9 g8 u8 &9 *9 =9 e7 v3 D& b} (~ 5] F} F} F} F} F} F} F} F} F} F} F} F} F} F} F} F} F} F} F} F} F} F} F} F} F} F} F} F} F} F} F} F} F} F} F} F} F} F} F} F} F} F} F} F} D, H5 g3 Z4 Y4 -9 ;9 ;9 >9 ,9 '9 '9 '9 '9 '9 ,9 >9 ;9 Z5 C5 )9 !9 D, F} F} F} F} F} F} F} F} F} F} F} F} F} F} F} F} F} F} F} F} F} F} F} F} F} F} F} F} F} F} F} F} F} F} F} F} F} F} F} F} F} F} F} F} F} F} F} F} F} F} F} F} F} F} U( U( U< _$ =+ y| y| y| y| H8 H$ U< 4| F} F} F} F} F} F} F} F} F} F} F} F} F} F} g} 0; e3 y( 8) +~ +~ +~ W. a$ U} ~9 {9 N= x- K- K- s- r2 @= E% ]9 <% C$ _$ _$ _$ _$ _$ x# U$ .* <  }  _  ~% U$ W@ V@ -@ K! U  }2 <)  ( e  |. |. h  4. ^9 +~ |{ 4] )) 4^ 5^ ]( N6 k* k* k* k* k* k* k* k* k* k* k* k* k* k* k* h- /9 B| =} =} =} =} =} (9 .[ .[ _9 M8 M8 M8 N8 w. P< P< :9 <9 *7 *7 *7 *7 *7 B^ B^ B^ B^ B^ =. P< G[ [9 s5 42 42 42 42 ",
"w. w. w. w. w. w. w. w. w. w. w. W_ W_ W_ W_ W_ W_ W_ W_ Q< w. w. w. w. w. w. w. w. w. w. w. w. w. w. w. w. w. w. w. w. w. w. w. }9 v5 v5 08 Q6 x5 x5 x5 x5 |9 e@ 5^ s] t] )) 4] u] +~ v  x  y  A  D  c. h+ =+ M+ N+ ^# =@ 5@ /# /# P# _$ _$ _$ _$ _$ _$ _$ _$ _$ %$ *% _% 2% O' 19 R- }; K- K- C- U8 N& u% 29 39 k{ }2 x! +~ +~ +~ L! r! 7~ +) g} F} F} F} F} F} F} F} F} F} P' M_ Q{ Q{ &4 1^ Q4 h+ ,5 y| ^# X$ U< F} F} F} F} F} F} F} F} F} F} F} F} F} F} F} F} F} F} F} F} F} F} F} F} F} F} F} F} F} F} F} F} F} F} F} F} F} F} F} F} F} F} F} F} F} F} F} F} F} F} F} F} F} F} F} F} F} F} F} F} F} F} F} F} F} F} F} F} F} F} F} F} F} p( 49 59 ~8 g8 i8 s8 k8 q8 #9 69  9 79 89 99 09 a9 b9 b9 b9 b9 09 09 79 c9 `8 69 Z8 d9 $9 e9 f9 g9 h9 i9 =9 e7 v3 D& b} (~ 5] F} F} F} F} F} F} F} F} F} F} F} F} F} F} F} F} F} F} F} F} F} F} F} F} F} F} F} F} F} F} F} F} F} F} F} F} F} F} F} F} F} F} F} F} D, H5 g3 Z4 j9 k9 x6 x6 l9 w6 m9 O7 O7 O7 O7 m9 w6 n9 o9 ,9 p9 q9 4| F} F} F} F} F} F} F} F} F} F} F} F} F} F} F} F} F} F} F} F} F} F} F} F} F} F} F} F} F} F} F} F} F} F} F} F} F} F} F} F} F} F} F} F} F} F} F} F} F} F} F} F} F} F} U( U( U< _$ =+ y| y| y| y| M+ H$ b= 4| F} F} F} F} F} F} F} F} F} F} F} F} F} F} g} S) e3 y( 8) +~ +~ +~ Y. T$ &5 $^ {9 N= x- K- K- K- !- @= E% m% <% D$ _$ _$ _$ _$ _$ :# r* <  <  <  <  <  _  .* 9$ 9$ >: 2( 3+ @@ 1@ e  |. |. h  4. o  S] |{ 4] )) 4^ 5^ ]( N6 k* k* k* k* k* k* k* k* k* k* k* k* k* k* K4 h- r9 =} =} =} =} =} =} F@ .[ .[ s9 M8 M8 M8 M8 N8 w. P< P< P< t9 u9 *7 *7 *7 v9 B^ B^ B^ P: P< P< G[ 42 q7 W# 42 42 42 ",
"w. w. w. w. w. w. w. w. w. w. w. =. W_ W_ W_ W_ W_ W_ Q< w. w. w. w. w. w. w. w. w. w. w. w. w. w. w. w. w. w. w. w. w. w. w. w. w9 v5 v5 x9 y9 x5 x5 x5 x5 _[ e@ 5^ s] t] )) 4] u] +~ v  x  y  A  D  c. h+ =+ M+ N+ ^# =@ 5@ /# /# P# _$ _$ _$ _$ _$ _$ _$ _$ _$ B$  % :% |% @% z9 Q- k; K- k; C- o= v& g* X' X< k{ H3 Y. +~ +~ +~ L! r! 7~ +) g} F} F} F} F} F} F} F} F} F} O' H: Q{ Q{ &4 1^ Q4 h+ ,5 y| ^# X$ U< F} F} F} F} F} F} F} F} F} F} F} F} F} F} F} F} F} F} F} F} F} F} F} F} F} F} F} F} F} F} F} F} F} F} F} F} F} F} F} F} F} F} F} F} F} F} F} F} F} F} F} F} F} F} F} F} F} F} F} F} F} F} F} F} F} F} F} F} F} F} F} F} F} p( 49 A9 N7 i8 s8 k8 l8 B9 C9 D9 E9 F9 G9 H9 H9 I9 I9 I9 I9 I9 I9 H9 G9 E9 D9 J9 K9 L9 M9 p8 N9 O9 P9 Q9 R9 e7 v3 D& b} (~ 5] F} F} F} F} F} F} F} F} F} F} F} F} F} F} F} F} F} F} F} F} F} F} F} F} F} F} F} F} F} F} F} F} F} F} F} F} F} F} F} F} F} F} F} F} D, H5 g3 Z4 S9 T9 X6 O7 ^7 U9 a7 a7 w8 V9 a7 a7 ^7 ^7 O7 w6 W9 X9 4| F} F} F} F} F} F} F} F} F} F} F} F} F} F} F} F} F} F} F} F} F} F} F} F} F} F} F} F} F} F} F} F} F} F} F} F} F} F} F} F} F} F} F} F} F} F} F} F} F} F} F} F} F} F} U( U( U< _$ =+ y| y| y| y| H8 %$ b= U( F} F} F} F} F} F} F} F} F} F} F} F} F} F} :| j3 3) y( 8) +~ +~ +~ Y. ~% &5 $^ {9 O= x- K- K- K- Y9 Z9 f% m% <% W$ _$ _$ _$ _$ =$ .* <  <  <  <  <  <  <  <  2  2  /. 3+ 7  @@ 1@ e  |. |. h  h  9. S] |{ 4] )) 4^ 5^ ]( N6 k* k* k* k* k* k* k* k* k* k* k* k* k* k* T% `9  0 =} =} =} =} =} =} .[ .[ .[ M8 M8 M8 M8 M8 M8 .0 P< P< P< P< O8 +0 *7 *7 @0 B^ B^ B^ $4 P< P< P< 42 W# )@ 42 42 42 ",
"j# w. w. w. w. w. w. w. w. w. w. w. %# 11 W_ W_ W_ W_ w. w. w. w. w. w. w. w. w. w. w. w. w. w. w. w. w. w. w. w. w. w. w. w. w. #0 $0 v5 x9 %0 x5 x5 x5 x5 &0 e@ 5^ s] t] )) 4] u] +~ v  x  y  A  D  c. h+ =+ M+ N+ ^# =@ 5@ /# /# P# _$ _$ _$ _$ _$ _$ _$ _$ _$ C$ @% d% 4% ]% z9 Q- K- k; k; C- *0 v& G% =0 X< k{ a$ ') -0 +~ +~ L! r! 7~ +) g} F} F} F} F} F} F} F} F} F} ^% 0; X^ Q{ &4 1^ Q4 h+ ,5 y| ^# X$ U< F} F} F} F} F} F} F} F} F} F} F} F} F} F} F} F} F} F} F} F} F} F} F} F} F} F} F} F} F} F} F} F} F} F} F} F} F} F} F} F} F} F} F} F} F} F} F} F} F} F} F} F} F} F} F} F} F} F} F} F} F} F} F} F} F} F} F} F} F} F} F} F} F} p( ;0 p9 >0 X8 k8 ,0 '0 )0 !0 ~0 {0 {0 {0 ]0 ^0 /0 /0 /0 /0 ^0 ]0 ]0 {0 ~0 (0 (0 (0 _0 :0 <0 [0 }0 |0 10 20 C4 30 d* b} (~ 5] F} F} F} F} F} F} F} F} F} F} F} F} F} F} F} F} F} F} F} F} F} F} F} F} F} F} F} F} F} F} F} F} F} F} F} F} F} F} F} F} F} F} F} F} D, H5 g3 Z4 40 50 ]7 a7 N7 ]8 60 60 60 60 60 ]8 ]8 N7 a7 ^7 70 X9 4| F} F} F} F} F} F} F} F} F} F} F} F} F} F} F} F} F} F} F} F} F} F} F} F} F} F} F} F} F} F} F} F} F} F} F} F} F} F} F} F} F} F} F} F} F} F} F} F} F} F} F} F} F} F} U( U( U< _$ =+ y| y| y| y| H8 %$ b= U( F} F} F} F} F} F} F} F} F} F} F} F} F} F} F} j3 3) y( 8) +~ +~ +~ ') ~% &5 $^ {9 O= x- K- k; K- Y9 Z9 f% m% e% X$ _$ _$ _$ y# z$ |+ <  <  <  <  <  <  <  <  2  2  /. 3+ 7  @@ 1@ e  |. |. 3. 6. u  S] |{ 4] )) 4^ 5^ ]( N6 k* k* k* k* k* k* k* k* k* k* k* k* k* k* h- 80  0 =} =} =} =} =} =} .[ .[ `< M8 M8 M8 M8 M8 M8 M8 K< P< P< P< P< P< 90 B^ B^ B^ B^ B^ P: P< P< P< 42 42 42 42 42 42 ",
"1# `, $# w. w. w. w. w.  > a^ w. w. w. w. %# L( 11 K< w. w. w. w. w. w. w. w. w. w. w. w. w. w. w. w. w. w. w. w. w. w. w. w. w. 00 n* v5 x9 X[ x5 x5 x5 x5 e@ e@ 5^ s] t] )) 4] u] +~ v  x  y  A  D  c. h+ =+ M+ N+ ^# =@ 5@ /# /# P# _$ _$ _$ _$ _$ _$ _$ _$ _$ C$ @% <% 4% $% z9 <; J- k; J- a0 24 w& G% X' X< P{ ~% 8] a! +~ +~ L! r! 7~ +) g} F} F} F} F} F} F} F} F} F} F} ]% *^ M^ &4 1^ Q4 h+ ,5 y| ^# X$ U< F} F} F} F} F} F} F} F} F} F} F} F} F} F} F} F} F} F} F} F} F} F} F} F} F} F} F} F} F} F} F} F} F} F} F} F} F} F} F} F} F} F} F} F} F} F} F} F} F} F} F} F} F} F} F} F} F} F} F} F} F} F} F} F} F} F} F} F} F} F} F} F} F} p( ;0 b0 c0 Y8 q8 d0 e0 f0 g0 h0 i0 i0 i0 i0 i0 i0 i0 i0 i0 i0 i0 i0 i0 i0 i0 i0 i0 i0 Y9 j0 j0 j0 j0 j0 k0 l0 m0 c* b} (~ 5] F} F} F} F} F} F} F} F} F} F} F} F} F} F} F} F} F} F} F} F} F} F} F} F} F} F} F} F} F} F} F} F} F} F} F} F} F} F} F} F} F} F} F} F} D, H5 R3 Z4 40 n0 o0 {8 p0 t8 t8 g8 g8 g8 t8 t8 p0 {8 60 ]8 q0 r0 F} F} F} F} F} F} F} F} F} F} F} F} F} F} F} F} F} F} F} F} F} F} F} F} F} F} F} F} F} F} F} F} F} F} F} F} F} F} F} F} F} F} F} F} F} F} F} F} F} F} F} F} F} F} F} U( U( U< _$ =+ y| y| y| y| H8 %$ b= U( F} F} F} F} F} F} F} F} F} F} F} F} F} F} F} P' K2 y( 8) +~ +~ +~ 8] ~% l{ $^ {9 N= x- K- k; K- !- Z9 1% m% [% b% _$ _$ x# ,) <  <  <  <  <  <  <  <  <  <  2  2  /. 3+ 7  @@ 1@ e  |. h  4. 7. v  S] |{ 4] )) 4^ 5^ ]( N6 k* k* k* k* k* k* k* k* k* k* k* k* k* k* H(  0  0 =} =} =} =} C1 s0 .[ .[ _9 M8 M8 M8 M8 M8 M8 M8 M8 %# P< P< P< P< P< K< B^ B^ B^ B^ B^ P< P< P< E3 42 42 42 42 42 ",
"1# 1# 1# 1# t0 a^ t0 1# 1# 1# w. w. w. w. w. w. w. w. w. w. w. w. w. w. w. w. w. w. w. w. w. w. w. w. w. w. w. w. w. w. w. w. w. u0 v0 %0 x9 w0 x0 x5 x5 x5 e@ e@ 5^ s] t] )) 4] u] +~ v  x  y  A  D  c. h+ =+ M+ N+ ^# =@ 5@ /# /# P# _$ _$ _$ _$ _$ _$ _$ _$ _$ C$ #% <% 4% &% z9 Q- J- J- J- a0 24 w& q' Y' X< }6  & M6 a! +~ +~ L! r! 7~ +) g} F} F} F} F} F} F} F} F} F} F} F} O' B< &4 1^ Q4 h+ ,5 y| ^# X$ q( F} F} F} F} F} F} F} F} F} F} F} F} F} F} F} F} F} F} F} F} F} F} F} F} F} F} F} F} F} F} F} F} F} F} F} F} F} F} F} F} F} F} F} F} F} F} F} F} F} F} F} F} F} F} F} F} F} F} F} F} F} F} F} F} F} F} F} F} F} F} F} F} F} p( ;0 W9 {8 r8 n8 y0 z0 A0 I2 B0 C0 D0 D0 E0 E0 E0 E0 E0 E0 E0 E0 E0 E0 E0 E0 E0 E0 E0 D0 D0 D0 D0 D0 F0 G0 H0 f4 I0 U< (~ F} F} F} F} F} F} F} F} F} F} F} F} F} F} F} F} F} F} F} F} F} F} F} F} F} F} F} F} F} F} F} F} F} F} F} F} F} F} F} F} F} F} F} F} F} D, H5 R3 Z4 J0 K0 L0 t8 h8 X8 s8 s8 s8 s8 s8 X8 i8 W8 t8 p0 M0 N0 F} F} F} F} F} F} F} F} F} F} F} F} F} F} F} F} F} F} F} F} F} F} F} F} F} F} F} F} F} F} F} F} F} F} F} F} F} F} F} F} F} F} F} F} F} F} F} F} F} F} F} F} F} F} F} U( U( U< _$ =+ y| y| y| y| H8 %$ b= U( F} F} F} F} F} F} F} F} F} F} F} F} F} F} F} P' K2 y( 8) +~ +~ +~ M6 ~% k{ 39 O0 N= x- K- J- K- !- ^= 1% m% }% Z$ _$ x# ($ |  2  <  <  <  <  <  _  _  _  G. <  <  2  3  /. L+ 3+ 7  :. @@ e  R. x  S] |{ 4] )) 4^ 5^ ]( N6 k* k* k* k* k* k* k* k* k* k* k* k* k* P0 V%  0  0 =} =} =} Q0 R0 #_ .[ .[ _9 M8 M8 M8 M8 M8 M8 M8 M8 N8 P< P< P< P< P< P< s[ 5_ B^ B^ B^ P< P< P< g# 42 42 42 42 42 ",
"1# 1# 1# 1# 1# 1# 1# 1# 1# 1# +1 w. w. w. w. w. w. w. w. w. w. w. w. w. w. w. w. w. w. w. w. w. w. w. w. w. w. w. w. w. w. w. w. u0 S0 %0 x9 w0 T0 x5 x5 U0 e@ e@ 5^ s] t] )) 4] u] +~ v  x  y  A  D  c. h+ =+ M+ N+ ^# =@ 5@ /# /# P# _$ _$ _$ _$ _$ _$ _$ _$ _$ E$ $% <% 4% U' z9 <; J- J- J- V0 *0 x& h& 3% X< }6  & /| a! +~ +~ L! r! 7~ I'  ~ 5] 5] 5] 5] 5] 5] 5] 5] 5] 5] 5] $% ][ C< Z( H3 h+ ,5 y| *@ b% q( 5] 5] 5] 5] 5] 5] 5] 5] 5] 5] 5] 5] 5] 5] 5] 5] 5] 5] 5] 5] 5] 5] 5] 5] 5] 5] 5] 5] 5] 5] 5] 5] 5] 5] 5] 5] 5] 5] 5] 5] 5] 5] 5] 5] 5] 5] 5] 5] 5] 5] 5] 5] 5] 5] 5] 5] 5] 5] 5] 5] 5] 5] 5] 5] 5] 5] 5] 5] 5] 5] 5] 5] 5] `! W0 X0 p0 m8 o8 Y0 Z0 `0  a .a +a :* _* _* _* _* _* _* _* _* _* _* _* _* _* _* _* _* _* _* _* _* _* 6* |* _* @a #a  ~  ~ 5] 5] 5] 5] 5] 5] 5] 5] 5] 5] 5] 5] 5] 5] 5] 5] 5] 5] 5] 5] 5] 5] 5] 5] 5] 5] 5] 5] 5] 5] 5] 5] 5] 5] 5] 5] 5] 5] 5] 5] 5] 5] 5] 5] 5] U( $a += %a `6 &a *a i8 Y8 k8 q8 Z8 n8 n8 m8 q8 k8 s8 i8 W8 =a -a 5] 5] 5] 5] 5] 5] 5] 5] 5] 5] 5] 5] 5] 5] 5] 5] 5] 5] 5] 5] 5] 5] 5] 5] 5] 5] 5] 5] 5] 5] 5] 5] 5] 5] 5] 5] 5] 5] 5] 5] 5] 5] 5] 5] 5] 5] 5] 5] 5] 5] 5] 5] 5] 5] 5] ;a ;a q( l2 =+ y| y| y| y| H8 _$ T< ;a 5] 5] 5] 5] 5] 5] 5] 5] 5] 5] 5] 5] 5] 5] 5] Q' +4 y( 8) +~ +~ ]^ M6 ~% k{ X< O0 N= >a k; J- k; Y9 ^= 2% n% }% Z$ C$ U' ,a 'a 'a )a !a ~a {a ]a ^a /a (a _a :a :a :a <a <a [a }a }a |a |a 1a t{ x  S] |{ 4] )) 4^ 5^ ]( N6 k* k* k* k* k* k* k* k* k* k* k* k* k* P0 V%  0  0 2a 3a 4a 5a 5a #_ .[ .[ _9 M8 M8 M8 M8 M8 M8 M8 M8 M8 K< P< P< P< P< P< P< w. K< B^ 11 P< P< P< G[ 42 42 42 42 42 ",
"1# 1# 1# 1# 1# 1# 1# 1# 1# 1#  > w. w. w. w. w. w. w. w. w. w. w. w. w. w. w. w. w. w. w. w. w. w. w. w. w. w. w. w. w. w. w. w. u0 6a %0 x9 7a T0 x5 x5 +8 e@ e@ 5^ s] t] )) 4] u] +~ v  x  y  A  D  c. h+ =+ M+ N+ ^# =@ 5@ /# /# P# _$ _$ _$ _$ _$ _$ _$ _$ _$ W$ &% <% 4% U' J> <; J- J- J- V0 U8 x& H% 8a G} 3^ 97 %} a! +~ +~ L! r! 7~ I'  ~ 5] 5] 5] 5] 5] 5] 5] 5] 5] 5] 5] 5] ]% .^ O{ b$ h+ ,5 y| *@ b% q( 5] 5] 5] 5] 5] 5] 5] 5] 5] 5] 5] 5] 5] 5] 5] 5] 5] 5] 5] 5] 5] 5] 5] 5] 5] 5] 5] 5] 5] 5] 5] 5] 5] 5] 5] 5] 5] 5] 5] 5] 5] 5] 5] 5] 5] 5] 5] 5] 5] 5] 5] 5] 5] 5] 5] 5] 5] 5] 5] 5] 5] 5] 5] 5] 5] 5] 5] 5] 5] 5] 5] 5] 5] `! 9a 0a t8 n8 aa ba ca da ea fa ga ha e_ e_ e_ e_ e_ e_ e_ e_ e_ e_ e_ e_ e_ e_ e_ e_ e_ e_ e_ e_ e_ e_ e_ G4 ,/ ;a 5] 5] 5] 5] 5] 5] 5] 5] 5] 5] 5] 5] 5] 5] 5] 5] 5] 5] 5] 5] 5] 5] 5] 5] 5] 5] 5] 5] 5] 5] 5] 5] 5] 5] 5] 5] 5] 5] 5] 5] 5] 5] 5] 5] 5] 5] 5] U( $a += %a ia ja k8 r8 m8 `8 +9 @9 ka ka @9 +9 `8 m8 r8 s8 la ma 0~ 5] 5] 5] 5] 5] 5] 5] 5] 5] 5] 5] 5] 5] 5] 5] 5] 5] 5] 5] 5] 5] 5] 5] 5] 5] 5] 5] 5] 5] 5] 5] 5] 5] 5] 5] 5] 5] 5] 5] 5] 5] 5] 5] 5] 5] 5] 5] 5] 5] 5] 5] 5] 5] 5] ;a ;a q( l2 =+ y| y| y| y| H8 _$ T< ;a 5] 5] 5] 5] 5] 5] 5] 5] 5] 5] 5] 5] 5] 5] 5] Q' +4 y( 8) +~ +~ x! M6 ~% k{ X< O0 na z- J- J- K- !- ^= 2% o% |% Z$ j% oa pa qa qa qa ra sa sa sa ta ua ua va wa va wa xa xa ya za Aa Ba Ca Da Ea u] S] |{ 4] )) 4^ 5^ ]( N6 k* k* k* k* k* k* k* k* k* k* k* k* k* Fa V% Ga 80 5a 5a 5a 5a 5a #_ .[ .[ .[ M8 M8 M8 M8 M8 M8 M8 M8 M8 M8 w. P< P< P< P< P< P< P< P< P< P< P< P< P< h$ 42 42 42 42 ",
"1# 1# 1# 1# 1# 1# 1# 1# 1# 1# p. w. w. w. w. w. w. w. w. w. w. w. w. w. w. w. w. w. w. w. w. w. w. w. w. w. w. w. w. w. w. w. w. u0 6a Ha Ia Ja Ka x5 x5 +8 e@ e@ 5^ s] t] )) 4] u] +~ v  x  y  A  D  c. h+ =+ M+ N+ ^# =@ 5@ /# /# P# _$ _$ _$ _$ _$ _$ _$ _$ _$ Y$ &% <% h% c% 19 <; J- J- l; V0 U8 M& H% 8a G} 3^ 97 5) +~ +~ +~ L! r! 7~ I'  ~ 5] 5] 5] 5] 5] 5] 5] 5] 5] 5] 5] 5] g} La {_ b$ h+ ,5 y| *@ b% q( 5] 5] 5] 5] 5] 5] 5] 5] 5] 5] 5] 5] 5] 5] 5] 5] 5] 5] 5] 5] 5] 5] 5] 5] 5] 5] 5] 5] 5] 5] 5] 5] 5] 5] 5] 5] 5] 5] 5] 5] 5] 5] 5] 5] 5] 5] 5] 5] 5] 5] 5] 5] 5] 5] 5] 5] 5] 5] 5] 5] 5] 5] 5] 5] 5] 5] 5] 5] 5] 5] 5] 5] 5] `! 9a Ma g8 p8 .9 Na Oa Pa Qa g3 Ra ;a 5] 5] 5] 5] 5] 5] 5] 5] 5] 5] 5] 5] 5] 5] 5] 5] 5] 5] 5] 5] 5] 5] 5] 5] 5] 5] 5] 5] 5] 5] 5] 5] 5] 5] 5] 5] 5] 5] 5] 5] 5] 5] 5] 5] 5] 5] 5] 5] 5] 5] 5] 5] 5] 5] 5] 5] 5] 5] 5] 5] 5] 5] 5] 5] 5] 5] 5] 5] 5] 5] 5] 5] 5] U( $a += Z4 Q7 Sa m8 o8 +9 Ta Ua Va Wa Wa Xa Ya Za .9 o8 q8 `a  b 5] a} 5] 5] 5] 5] 5] 5] 5] 5] 5] 5] 5] 5] 5] 5] 5] 5] 5] 5] 5] 5] 5] 5] 5] 5] 5] 5] 5] 5] 5] 5] 5] 5] 5] 5] 5] 5] 5] 5] 5] 5] 5] 5] 5] 5] 5] 5] 5] 5] 5] 5] 5] 5] 5] ;a ;a q( l2 =+ y| y| y| y| H8 _$ T< ;a 5] 5] 5] 5] 5] 5] 5] 5] 5] 5] 5] 5] 5] 5] 5] Q' +4 y( 8) +~ +~ x! /| ~% k{ X< .b na z- J- J- K- !- ^= 4% o% 4% &% +b @b #b $b %b %b &b &b *b *b &b =b &b &b &b -b ;b -b -b -b >b ,b 'b )b !b ~b B  S] |{ 4] )) 4^ 5^ ]( N6 k* k* k* k* k* k* k* k* k* k* k* k* k* {b V% ]b ^b 5a 5a 5a 5a 5a #_ .[ .[ .[ /b M8 M8 M8 M8 M8 M8 M8 M8 M8 O6 P< P< P< P< P< P< P< P< P< P< P< P< (b _b 42 42 42 42 ",
"1# 1# 1# 1# 1# 1# 1# 1# 1# 1# p. w. w. w. w. w. w. w. w. w. w. w. w. w. w. w. w. w. w. w. w. w. w. w. w. w. w. w. w. w. w. w. :b u0 6a v5 v5 <b [b x5 x5 }b e@ e@ ]( s] t] )) 4] u] +~ v  x  y  A  D  c. h+ =+ M+ N+ ^# =@ 5@ /# /# P# _$ _$ _$ _$ _$ _$ _$ _$ &$ Z$ &% [% i% c% J> <; J- l; l; V0 N> y& H% |b G} 3^ U} 5) +~ +~ +~ L! r! 7~ I'  ~ 5] 5] 5] 5] 5] 5] 5] 5] 5] 5] 5] 5] 5] S' }: b$ h+ ,5 y| *@ b% q( 5] 5] 5] 5] 5] 5] 5] 5] 5] 5] 5] 5] 5] 5] 5] 5] 5] 5] 5] 5] 5] 5] 5] 5] 5] 5] 5] 5] 5] 5] 5] 5] 5] 5] 5] 5] 5] 5] 5] 5] 5] 5] 5] 5] 5] 5] 5] 5] 5] 5] 5] 5] 5] 5] 5] 5] 5] 5] 5] 5] 5] 5] 5] 5] 5] 5] 5] 5] 5] 5] 5] 5] 5] `! 9a 1b W8 aa @9 Na 2b Pa Qa g3 Ra ;a 5] 5] 5] 5] 5] 5] 5] 5] 5] 5] 5] 5] 5] 5] 5] 5] 5] 5] 5] 5] 5] 5] 5] 5] 5] 5] 5] 5] 5] 5] 5] 5] 5] 5] 5] 5] 5] 5] 5] 5] 5] 5] 5] 5] 5] 5] 5] 5] 5] 5] 5] 5] 5] 5] 5] 5] 5] 5] 5] 5] 5] 5] 5] 5] 5] 5] 5] 5] 5] 5] 5] 5] 5] U( $a += Z4 f0 3b 4b @9 Ya Wa 5b 6b 7b 7b G9 5b Wa Ta @9 o8 8b 9b 5] a} 5] 5] 5] 5] 5] 5] 5] 5] 5] 5] 5] 5] 5] 5] 5] 5] 5] 5] 5] 5] 5] 5] 5] 5] 5] 5] 5] 5] 5] 5] 5] 5] 5] 5] 5] 5] 5] 5] 5] 5] 5] 5] 5] 5] 5] 5] 5] 5] 5] 5] 5] 5] 5] ;a ;a q( l2 =+ y| y| y| y| H8 _$ T< ;a 5] 5] 5] 5] 5] 5] 5] 5] 5] 5] 5] 5] 5] 5] 5] Q' +4 y( 8) +~ +~ x! /| ~% k{ _1 .b N= z- J- l; k; Y9 ^= 4% o% }% 0b ab bb cb cb cb db eb eb fb fb fb fb fb fb fb eb eb gb gb cb cb cb db hb ib jb kb x! |{ 4] )) 4^ 5^ ]( N6 k* k* k* k* k* k* k* k* k* k* k* k* k* {b V% lb mb nb 5a 5a 5a 5a #_ .[ .[ .[ s9 M8 M8 M8 M8 M8 M8 M8 M8 M8 M8 P< P< P< P< P< P< P< P< P< P< P< P< ob pb 42 42 42 42 ",
"1# 1# 1# 1# 1# 1# 1# 1# 1# 1# p. w. w. w. w. w. w. w. w. w. w. w. w. w. w. w. w. w. w. w. w. w. w. w. w. w. w. w. w. w. w. w. :b u0 qb v5 rb sb tb x5 x5 ub e@ vb 1] s] t] )) 4] u] +~ v  x  y  A  D  c. h+ =+ M+ N+ ^# =@ 5@ /# /# P# _$ _$ _$ _$ _$ _$ _$ _$ Q# Z$ &% }% k% _% z9 <; J- l; l; V0 N> y& H% |b G} 3^ U} U1 +~ +~ +~ L! r! 7~ I'  ~ 5] 5] 5] 5] 5] 5] 5] 5] 5] 5] 5] 5] ;a g} J' Q4 q~ ,5 y| *@ b% q( 5] 5] 5] 5] 5] 5] 5] 5] 5] 5] 5] 5] 5] 5] 5] 5] 5] 5] 5] 5] 5] 5] 5] 5] 5] 5] 5] 5] 5] 5] 5] 5] 5] 5] 5] 5] 5] 5] 5] 5] 5] 5] 5] 5] 5] 5] 5] 5] 5] 5] 5] 5] 5] 5] 5] 5] 5] 5] 5] 5] 5] 5] 5] 5] 5] 5] 5] 5] 5] 5] 5] 5] 5] `! 9a 1b %9 .9 wb 99 xb yb zb g3 Ra ;a 5] 5] 5] 5] 5] 5] 5] 5] 5] 5] 5] 5] 5] 5] 5] 5] 5] 5] 5] 5] 5] 5] 5] 5] 5] 5] 5] 5] 5] 5] 5] 5] 5] 5] 5] 5] 5] 5] 5] 5] 5] 5] 5] 5] 5] 5] 5] 5] 5] 5] 5] 5] 5] 5] 5] 5] 5] 5] 5] 5] 5] 5] 5] 5] 5] 5] 5] 5] 5] 5] 5] 5] 5] U( $a += Z4 Ab Z0 wb Ua Wa 7b Bb Bb Cb Cb Bb Db G9 Wa Ua @9 Eb Fb 5] a} 5] 5] 5] 5] 5] 5] 5] 5] 5] 5] 5] 5] 5] 5] 5] 5] 5] 5] 5] 5] 5] 5] 5] 5] 5] 5] 5] 5] 5] 5] 5] 5] 5] 5] 5] 5] 5] 5] 5] 5] 5] 5] 5] 5] 5] 5] 5] 5] 5] 5] 5] 5] 5] ;a ;a q( l2 =+ y| y| y| y| H8 _$ T< ;a 5] 5] 5] 5] 5] 5] 5] 5] 5] 5] 5] 5] 5] 5] F} P' K2 y( 8) +~ +~ x! %} ~% k{ _1 Gb N= z- J- l; J- Y9 fa 34 p% p% Hb Ib Jb Kb Lb Lb Lb Lb Mb Mb Mb Nb Kb Kb Kb Kb Kb Kb Kb Kb Kb Kb Kb Kb Mb Ob Pb Qb S] |{ 4] )) 4^ 5^ ]( N6 k* k* k* k* k* k* k* k* k* k* k* k* k* Rb V% Sb  0 80 nb 5a 5a 5a #_ .[ .[ .[ Tb M8 M8 M8 M8 M8 M8 M8 M8 Ub s[ P< P< P< P< P< P< P< P< P< P< P< Vb Wb Xb 42 42 42 42 ",
"1# 1# 1# 1# 1# 1# 1# 1# 1# 1# `, w. w. w. w. w. w. w. w. w. w. w. w. w. w. w. w. w. w. w. w. w. w. w. w. w. w. w. w. w. w. w. :b u0 u0 v5 rb Yb Zb x5 x5 &0 e@ `b 1] s] t] )) 4] u] +~ v  x  y  A  D  c. h+ =+ M+ N+ ^# =@ 5@ /# /# P# _$ _$ _$ _$ _$ _$ _$ _$ &$ `$ c% }% j% 6;  c O- J- l; t- V0 N> y& J% .c K6 z] U} U1 +~ +~ +~ L! r! 7~ I'  ~ 5] 5] 5] 5] 5] 5] 5] 5] 5] 5] 5] 5] ;a T< G$ x@ y| ,5 y| *@ b% q( 5] 5] 5] 5] 5] 5] 5] 5] 5] 5] 5] 5] 5] 5] 5] 5] 5] 5] 5] 5] 5] 5] 5] 5] 5] 5] 5] 5] 5] 5] 5] 5] 5] 5] 5] 5] 5] 5] 5] 5] 5] 5] 5] 5] 5] 5] 5] 5] 5] 5] 5] 5] 5] 5] 5] 5] 5] 5] 5] 5] 5] 5] 5] 5] 5] 5] 5] 5] 5] 5] 5] 5] 5] `! 9a 1b i8 .9 Ta 99 +c yb zb @= Ra ;a 5] 5] 5] 5] 5] 5] 5] 5] 5] 5] 5] 5] 5] 5] 5] 5] 5] 5] 5] 5] 5] 5] 5] 5] 5] 5] 5] 5] 5] 5] 5] 5] 5] 5] 5] 5] 5] 5] 5] 5] 5] 5] 5] 5] 5] 5] 5] 5] 5] 5] 5] 5] 5] 5] 5] 5] 5] 5] 5] 5] 5] 5] 5] 5] 5] 5] 5] 5] 5] 5] 5] 5] 5] U( $a += Z4 @c #c Xa Wa 7b Cb $c %c %c %c $c &c *c 7b Wa Ua =c -c 5] F} 5] 5] 5] 5] 5] 5] 5] 5] 5] 5] 5] 5] 5] 5] 5] 5] 5] 5] 5] 5] 5] 5] 5] 5] 5] 5] 5] 5] 5] 5] 5] 5] 5] 5] 5] 5] 5] 5] 5] 5] 5] 5] 5] 5] 5] 5] 5] 5] 5] 5] 5] 5] 5] ;a ;a q( l2 =+ y| y| y| y| H8 _$ T< ;a 5] 5] 5] 5] 5] 5] 5] 5] 5] 5] 5] 5] 5] 5] F} j3 3) y( 8) +~ +~ x! >5 [2 }6 G} Gb O= 1; l; l; J- ;c >c j% n% ,c ab 'c )c !c ~c {c ~c ~c ~c ]c ]c ^c !c !c !c !c !c !c !c ]c ]c ]c ]c ]c !c ~c /c (c f+ |{ 4] )) 4^ 5^ ]( N6 k* k* k* k* k* k* k* k* k* k* k* k* k* P0 V% _c  0  0 mb :c nb 5a #_ .[ .[ .[ `< M8 M8 M8 M8 M8 M8 $4 F| P< P< P< P< P< P< P< P< P< P< P< P< <c :c Wb [c 42 42 42 42 ",
"1# 1# 1# 1# 1# 1# 1# 1# 1# 1# a^ w. w. w. w. w. w. w. w. w. w. w. w. w. w. w. w. w. w. w. w. w. w. w. w. w. w. w. w. w. w. w. :b u0 $_ v5 rb Yb }c x5 x5 |c e@ V5 1] s] t] )) 4] u] +~ v  x  y  A  D  c. h+ =+ M+ N+ ^# =@ 5@ /# /# P# _$ _$ _$ _$ _$ _$ _$ _$ _$ +% c% }% ]9 d% z9 1c l; t- t- V0 N> z& J% 2c j3 17 &5 }2 x! +~ +~ L! r! 7~ I'  ~ 5] 5] 5] 5] 5] 5] 5] 5] 5] 5] 5] 5] ;a T< x# $+ y| ,5 y| *@ b% q( 5] 5] 5] 5] 5] 5] 5] 5] 5] 5] 5] 5] 5] 5] 5] 5] 5] 5] 5] 5] 5] 5] 5] 5] 5] 5] 5] 5] 5] 5] 5] 5] 5] 5] 5] 5] 5] 5] 5] 5] 5] 5] 5] 5] 5] 5] 5] 5] 5] 5] 5] 5] 5] 5] 5] 5] 5] 5] 5] 5] 5] 5] 5] 5] 5] 5] 5] 5] 5] 5] 5] 5] 5] `! 9a 1b i8 +9 Ta 3c 4c yb zb @= Ra ;a 5] 5] 5] 5] 5] 5] 5] 5] 5] 5] 5] 5] 5] 5] 5] 5] 5] 5] 5] 5] 5] 5] 5] 5] 5] 5] 5] 5] 5] 5] 5] 5] 5] 5] 5] 5] 5] 5] 5] 5] 5] 5] 5] 5] 5] 5] 5] 5] 5] 5] 5] 5] 5] 5] 5] 5] 5] 5] 5] 5] 5] 5] 5] 5] 5] 5] 5] 5] 5] 5] 5] 5] 5] U( $a += Z4 @c xb 5c 7b Cb %c 6c 7c 7c 7c 7c 8c 9c *c 7b Wa 0c ac 4| F} 5] 5] 5] 5] 5] 5] 5] 5] 5] 5] 5] 5] 5] 5] 5] 5] 5] 5] 5] 5] 5] 5] 5] 5] 5] 5] 5] 5] 5] 5] 5] 5] 5] 5] 5] 5] 5] 5] 5] 5] 5] 5] 5] 5] 5] 5] 5] 5] 5] 5] 5] 5] 5] ;a ;a q( l2 =+ y| y| y| y| H8 _$ T< ;a 5] 5] 5] 5] 5] 5] 5] 5] 5] 5] 5] 5] 5] 5] F} j3 3) y( 8) +~ +~ x! U1 [2 }6 ][ Gb na D- l; l; l; j0 fa j% o% bc cc dc ec fc gc hc hc hc hc hc hc hc hc ic ic gc gc gc gc jc kc kc lc kc mc nc oc pc qc v  4] )) 4^ 5^ ]( N6 k* k* k* k* k* k* k* k* k* k* k* k* k* P0 V% V% Ga  0  0  0  0 ^b rc .[ .[ .[ .[ /b M8 M8 M8 $4 F| P< P< P< P< P< P< P< G[ 42 h$ ~' J} E3 sc :c Wb tc 42 42 42 42 42 ",
"1# 1# 1# 1# 1# 1# 1# 1# 1# 1# a^ w. w. w. w. w. w. w. w. w. w. w. w. w. w. w. w. w. w. w. w. w. w. w. w. w. w. w. w. w. w. w. :b u0 6a v5 rb Yb ;} x5 uc e@ e@ V5 1] s] t] )) 4] u] +~ v  x  y  A  D  c. h+ =+ M+ N+ ^# =@ 5@ /# /# P# _$ _$ _$ _$ _$ _$ _$ _$ _$ +% _% }% k% d% z9 1c l; t- t- vc *0 z& J% 2c wc H/ &5 I4 x! +~ +~ L! r! 7~ I'  ~ 5] 5] 5] 5] 5] 5] 5] 5] 5] 5] 5] 5] ;a T< x# $+ y| ,5 y| *@ b% q( 5] 5] 5] 5] 5] 5] 5] 5] 5] 5] 5] 5] 5] 5] 5] 5] 5] 5] 5] 5] 5] 5] 5] 5] 5] 5] 5] 5] 5] 5] 5] 5] 5] 5] 5] 5] 5] 5] 5] 5] 5] 5] 5] 5] 5] 5] 5] 5] 5] 5] 5] 5] 5] 5] 5] 5] 5] 5] 5] 5] 5] 5] 5] 5] 5] 5] 5] 5] 5] 5] 5] 5] 5] `! 9a 1b i8 @9 Ta xc yc zc D4 @= Ra ;a 5] 5] 5] 5] 5] 5] 5] 5] 5] 5] 5] 5] 5] 5] 5] 5] 5] 5] 5] 5] 5] 5] 5] 5] 5] 5] 5] 5] 5] 5] 5] 5] 5] 5] 5] 5] 5] 5] 5] 5] 5] 5] 5] 5] 5] 5] 5] 5] 5] 5] 5] 5] 5] 5] 5] 5] 5] 5] 5] 5] 5] 5] 5] 5] 5] 5] 5] 5] 5] 5] 5] 5] 5] U( $a += Z4 Ac Bc G9 Db %c 7c Cc Dc Dc Dc Ec Fc 8c &c Db 5b Gc Hc 4| F} 5] 5] 5] 5] 5] 5] 5] 5] 5] 5] 5] 5] 5] 5] 5] 5] 5] 5] 5] 5] 5] 5] 5] 5] 5] 5] 5] 5] 5] 5] 5] 5] 5] 5] 5] 5] 5] 5] 5] 5] 5] 5] 5] 5] 5] 5] 5] 5] 5] 5] 5] 5] 5] ;a ;a q( l2 =+ y| y| y| y| H8 _$ T< ;a 5] 5] 5] 5] 5] 5] 5] 5] 5] 5] 5] 5] 5] 5] F} j3 3) y( 8) +~ +~ x! U1 [2 3^ G} Ic N= D- l; t- l; ;c fa j% 7' Jc Kc !c Lc Mc Nc Oc Oc Pc Qc Rc Sc Tc Uc Vc Wc Xc Xc Yc Zc `c  d .d +d .d @d #d Ob $d %d &d 4] )) 4^ 5^ ]( N6 k* k* k* k* k* k* k* k* k* k* k* k* k* !+ V% V% *d =d  0  0  0  0 l* .[ .[ .[ .[ s9 M8 M8 s[ P< P< P< P< P< P< P< 2} ~' 65 65 65 65 65 -d  8 Wb tc 42 42 42 42 42 42 ",
"1# 1# 1# 1# 1# 1# 1# 1# 1# 1# a^ w. w. w. w. w. w. w. w. w. w. w. w. w. w. w. w. w. w. w. w. w. w. w. w. w. w. w. w. w. w. w. :b u0 6a v5 rb Yb rb x5 ;d e@ >d V5 1] s] t] )) 4] u] +~ v  x  y  A  D  c. h+ =+ M+ N+ ^# =@ 5@ /# /# P# _$ _$ _$ _$ _$ _$ _$ _$ _$ +% _% }% l% <% z9 O- l; t- t- vc ,d a, j& 'd wc H/ l{ p2 Y. +~ +~ L! r! 7~ I'  ~ 5] 5] 5] 5] 5] 5] 5] 5] 5] 5] 5] 5] ;a T< x# $+ y| ,5 y| *@ b% q( 5] 5] 5] 5] 5] 5] 5] 5] 5] 5] 5] 5] 5] 5] 5] 5] 5] 5] 5] 5] 5] 5] 5] 5] 5] 5] 5] 5] 5] 5] 5] 5] 5] 5] 5] 5] 5] 5] 5] 5] 5] 5] 5] 5] 5] 5] 5] 5] 5] 5] 5] 5] 5] 5] 5] 5] 5] 5] 5] 5] 5] 5] 5] 5] 5] 5] 5] 5] 5] 5] 5] 5] 5] `! 9a 1b i8 +9 Ta xc yc zc D4 @= Ra ;a 5] 5] 5] 5] 5] 5] 5] 5] 5] 5] 5] 5] 5] 5] 5] 5] 5] 5] 5] 5] 5] 5] 5] 5] 5] 5] 5] 5] 5] 5] 5] 5] 5] 5] 5] 5] 5] 5] 5] 5] 5] 5] 5] 5] 5] 5] 5] 5] 5] 5] 5] 5] 5] 5] 5] 5] 5] 5] 5] ;a ;a ;a ;a ;a ;a ;a ;a ;a ;a ;a ;a ;a U( U( Ra R3 Z4 Ac )d I9 Cb !d Fc ~d {d ]d ]d {d Ec ^d /d (d _d Gc :d U( U( ;a ;a ;a ;a ;a ;a ;a ;a ;a ;a ;a 5] 5] 5] 5] 5] 5] 5] 5] 5] 5] 5] 5] 5] 5] 5] 5] 5] 5] 5] 5] 5] 5] 5] 5] 5] 5] 5] 5] 5] 5] 5] 5] 5] 5] 5] 5] 5] 5] 5] 5] 5] 5] ;a ;a q( l2 =+ y| y| y| y| H8 _$ T< ;a 5] 5] 5] 5] 5] 5] 5] 5] 5] 5] 5] 5] 5] 5] F} j3 3) y( 8) +~ +~ W. &d  & 3^ K6 <d N= D- l; t- J- Y9 ]= }% [d }d oc Kb |d u@ Oc Oc Oc 1d 2d 3d 4d 4d 5d 6d 6d 7d 4d 2d Rc Qc Oc Oc Oc Oc Oc 8d !c 9d 0d ad |{ )) 4^ 5^ ]( N6 k* k* k* k* k* k* k* k* T% A1 bd cd U_ $_ dd V% V% V% ed =d  0  0  0 G< .[ .[ .[ fd N8 w. P< P< P< P< P< P< 2} ~' 65 65 65 65 65 gd hd Wb Wb id 42 42 42 42 42 42 42 ",
"1# 1# 1# 1# 1# 1# 1# 1# 1# 1# a^ w. w. w. w. w. w. w. w. w. w. w. w. w. w. w. w. w. w. w. w. w. w. w. w. w. w. w. w. w. w. w. :b u0 6a v5 rb Yb rb jd |c e@ >d V5 1] s] t] )) 4] u] +~ v  x  y  A  D  c. h+ =+ M+ N+ ^# =@ 5@ /# /# P# _$ _$ _$ _$ _$ _$ _$ _$ p' .% _% |% l% e% J> O- l; t- t- vc N> kd L% ld wc H/ md H3 Y. +~ +~ L! r! 7~ I'  ~ 5] 5] 5] 5] 5] 5] 5] 5] 5] 5] 5] 5] ;a T< x# $+ y| ,5 y| *@ b% q( 5] 5] 5] 5] 5] 5] 5] 5] 5] 5] 5] 5] 5] 5] 5] 5] 5] 5] 5] 5] 5] 5] 5] 5] 5] 5] 5] 5] 5] 5] 5] 5] 5] 5] 5] 5] 5] 5] 5] 5] 5] 5] 5] 5] 5] 5] 5] 5] 5] 5] 5] 5] 5] 5] 5] 5] 5] 5] 5] 5] 5] 5] 5] 5] 5] 5] 5] 5] 5] 5] 5] 5] 5] `! 9a 1b i8 .9 Ta 99 4c yb zb @= Ra ;a 5] 5] 5] 5] 5] 5] 5] 5] 5] 5] 5] 5] 5] 5] 5] 5] 5] 5] 5] 5] 5] 5] 5] 5] 5] 5] 5] 5] 5] 5] 5] 5] 5] 5] 5] 5] 5] 5] 5] 5] 5] 5] 5] 5] 5] 5] 5] 5] 5] 5] 5] 5] 5] 5] 5] 5] 5] 5] q( A< l^ nd nd nd nd nd nd nd nd nd nd nd nd G~ od .= Z4 Ac )d pd qd rd sd td ud vd wd ud xd Fc /d (d _d yd ma l^ nd nd nd nd nd nd nd nd nd nd l^ h< q( 5] 5] 5] 5] 5] 5] 5] 5] 5] 5] 5] 5] 5] 5] 5] 5] 5] 5] 5] 5] 5] 5] 5] 5] 5] 5] 5] 5] 5] 5] 5] 5] 5] 5] 5] 5] 5] 5] 5] 5] 5] ;a ;a q( l2 =+ y| y| y| y| H8 _$ T< ;a 5] 5] 5] 5] 5] 5] 5] 5] 5] 5] 5] 5] 5] 5] F} S) 3) y( 8) +~ +~ W. I4  & 3^ j3 0b N= D- t- t- J- '- ^= @& zd Ad Bd Cd jc Dd Ed 2d 6d Fd Gd Hd Id Jd Jd Jd Jd Kd Hd Ld Md Nd Od 2d Pd Pc Oc Qd Rd Sd Td Ud M6 )) 4^ 5^ ]( N6 k* k* k* k* k* h- bd Vd Wd Wd Wd Wd Wd Wd Wd Wd V% V% V% V% ed =d  0 `| .[ .[ .[ y% w. P< P< P< P< P< G[ h$ 65 65 65 65 65 Xd s7 Wb Wb Yd c~ 42 42 42 42 42 42 42 42 ",
"1# 1# 1# 1# 1# 1# 1# 1# 1# 1#  > w. w. w. w. w. w. w. w. w. w. w. w. w. w. w. w. w. w. w. w. w. w. w. w. w. w. w. w. w. w. w. :b u0 S0 v5 rb Yb v5 Zd e@ e@ >d V5 1] s] t] )) 4] u] +~ v  x  y  A  D  c. h+ =+ M+ N+ ^# =@ 5@ /# /# P# _$ _$ _$ _$ _$ _$ _$ _$ C$ .% _% g% m% e% J> O- t- t- t- vc N> B& L% `d  e H/ &5 H3 Y. +~ +~ L! r! 7~ I'  ~ 5] 5] 5] 5] 5] 5] 5] 5] 5] 5] 5] 5] ;a T< x# $+ y| ,5 y| *@ b% q( 5] 5] 5] 5] 5] 5] 5] 5] 5] 5] 5] 5] 5] 5] 5] 5] 5] 5] 5] 5] 5] 5] 5] 5] 5] 5] 5] 5] 5] 5] 5] 5] 5] 5] 5] 5] 5] 5] 5] 5] 5] 5] 5] 5] 5] 5] 5] 5] 5] 5] 5] 5] 5] 5] 5] 5] 5] 5] 5] 5] 5] 5] 5] 5] 5] 5] 5] 5] 5] 5] 5] 5] 5] `! 9a 1b h8 .9 Za 99 +c yb zb g3 Ra ;a 5] 5] 5] 5] 5] 5] 5] 5] 5] 5] 5] 5] 5] 5] 5] 5] 5] 5] 5] 5] 5] 5] 5] 5] 5] 5] 5] 5] 5] 5] 5] 5] 5] 5] 5] 5] 5] 5] 5] 5] 5] 5] 5] 5] 5] 5] 5] 5] 5] 5] 5] 5] 5] 5] 5] 5] 5] 5] ;a e_ .e +e A3 U( U( U( U( U( U( U( U( U( U( U( Ra R3  a Ac )d I9 qd 8c sd @e #e $e $e #e %e Fc /d (d _d Gc Hc ;a U( U( U( U( U( U( U( U( 5] +e &e &e +{ 5] 5] 5] 5] 5] 5] 5] 5] 5] 5] 5] 5] 5] 5] 5] 5] 5] 5] 5] 5] 5] 5] 5] 5] 5] 5] 5] 5] 5] 5] 5] 5] 5] 5] 5] 5] 5] 5] 5] 5] 5] ;a ;a q( l2 =+ y| y| y| y| H8 _$ T< ;a 5] 5] 5] 5] 5] 5] 5] 5] 5] 5] 5] 5] 5] 5] g} G} e3 y( 8) +~ +~ Y. I4  & 3^ j3 0b N= C- t- t- l; ;c ^= *e =e ib -e ;e >e ,e 'e Ld )e !e ~e {e ]e ^e /e /e ^e (e {e _e :e <e Jd [e }e 3d Oc L# |e ]c 1e 2e 2) )) 4^ 5^ ]( N6 k* k* k* z1 Vd Wd Wd Wd Wd Wd Wd Wd Wd Wd Wd Wd V% V% V% V% V% V% ed N/ .[ .[ .[ .[ 3e P< P< P< g= h$ 65 65 65 65 65 *~ 5a Wb Wb 4e 5e 42 42 42 42 42 42 42 42 42 42 ",
"1# 1# 1# 1# 1# 1# 1# 1# 1# 1# 1# w. w. w. w. w. w. w. w. w. w. w. w. w. w. w. w. w. w. w. w. w. w. w. w. w. w. w. w. w. w. w. 6e u0 v0 v5 rb Yb v5 1> e@ e@ >d V5 1] s] t] )) 4] u] +~ v  x  y  A  D  c. h+ =+ M+ N+ ^# =@ 5@ /# /# P# _$ _$ _$ _$ _$ _$ _$ _$ C$ .% _% 4% n% f% J> T; t- t- t- vc 7e B& L% M2 X, w( &5 H3 Y. +~ +~ L! r! 7~ I'  ~ 5] 5] 5] 5] 5] 5] 5] 5] 5] 5] 5] 5] ;a T< x# $+ y| ,5 y| *@ b% q( 5] 5] 5] 5] 5] 5] 5] 5] 5] 5] 5] 5] 5] 5] 5] 5] 5] 5] 5] 5] 5] 5] 5] 5] 5] 5] 5] 5] 5] 5] 5] 5] 5] 5] 5] 5] 5] 5] 5] 5] 5] 5] 5] 5] 5] 5] 5] 5] 5] 5] 5] 5] 5] 5] 5] 5] 5] 5] 5] 5] 5] 5] 5] 5] 5] 5] 5] 5] 5] 5] 5] 5] 5] `! 9a 1b %9 .9 wb 89 +c 8e Qa g3 Ra ;a 5] 5] 5] 5] 5] 5] 5] 5] 5] 5] 5] 5] 5] 5] 5] 5] 5] 5] 5] 5] 5] 5] 5] 5] 5] 5] 5] 5] 5] 5] 5] 5] 5] 5] 5] 5] 5] 5] 5] 5] 5] 5] 5] 5] 5] 5] 5] 5] 5] 5] 5] 5] 5] 5] 5] 5] 5] 5] 9e 0e ae be ce 2= 2= 2= 2= de ee ee ee ee ee ee S* fe ge A0 )d I9 Cb %c Fc %e he ie je {d ke 7c /d le 5b me ne ee oe ee ee ee ee ee ee ee <2 pe D* @a qe 5] a} 5] 5] 5] 5] 5] 5] 5] 5] 5] 5] 5] 5] 5] 5] 5] 5] 5] 5] 5] 5] 5] 5] 5] 5] 5] 5] 5] 5] 5] 5] 5] 5] 5] 5] 5] 5] 5] 5] 5] ;a ;a q( l2 =+ y| y| y| y| H8 _$ T< ;a 5] 5] 5] 5] 5] 5] 5] 5] 5] 5] 5] 5] 5] 5] :| G} e3 y( 8) +~ +~ Y. H3 f} 3^ j3 re N= C- t- t- t- ;c se te ue Pb ve we xe ye :e ^e ze Ae Be Ce De Ee Fe Fe Ee Ge He Be Ie Je Ke Le Me [e 7d Ne Oe -e Pe Qe X< )) 4^ 5^ ]( N6 k* h- Vd Wd Wd Wd Wd Wd Wd Wd Wd Wd Wd Wd Wd V+ V% V% Re 00 }1 #0 Se Te .[ .[ .[ .[ Ue P< ~' 65 65 65 65 65 65 (' Ve Wb Wb tc p. 11 11 r5 g= 42 42 42 42 42 42 42 42 ",
"1# 1# 1# 1# 1# 1# 1# 1# 1# 1# 1# $# w. w. w. w. w. w. w. w. w. w. w. w. w. w. w. w. w. w. w. w. w. w. w. w. w. w. w. w. w. w. w. u0 We v5 <b Yb Xe e@ e@ e@ >d V5 1] s] t] )) 4] u] +~ v  x  y  A  D  c. h+ =+ M+ N+ ^# =@ 5@ /# /# P# _$ _$ _$ _$ _$ _$ _$ _$ E$ ]% _% 4% p% }% J> T; G- t- G- V; Ye C& M% B3 Ze $^ &5 2) 8] +~ +~ L! r! 7~ I'  ~ 5] 5] 5] 5] 5] 5] 5] 5] 5] 5] 5] 5] ;a T< x# $+ y| ,5 y| *@ b% q( 5] 5] 5] 5] 5] 5] 5] 5] 5] 5] 5] 5] 5] 5] 5] 5] 5] 5] 5] 5] 5] 5] 5] 5] 5] 5] 5] 5] 5] 5] 5] 5] 5] 5] 5] 5] 5] 5] 5] 5] 5] 5] 5] 5] 5] 5] 5] 5] 5] 5] 5] 5] 5] 5] 5] 5] 5] 5] 5] 5] 5] 5] 5] 5] 5] 5] 5] 5] 5] 5] 5] 5] 5] `! 9a 1b W8 aa +9 Na Oa Pa Qa g3 Ra ;a 5] 5] 5] 5] 5] 5] 5] 5] 5] 5] 5] 5] 5] 5] 5] 5] 5] 5] 5] 5] 5] 5] 5] 5] 5] 5] 5] 5] 5] 5] 5] 5] 5] 5] 5] 5] 5] 5] 5] 5] 5] 5] 5] 5] 5] 5] 5] 5] 5] 5] 5] 5] 5] 5] 5] 5] 5] q( `e  f .f +f @f #f $f $f $f $f %f %f %f %f %f $f &f *f V2 A0 =f 6b Db &c -f sd %e ;f >f %e ,f 'f &c 7b Wa )f !f ~f {f ]f %f %f %f %f %f $f ^f /f (f )* _f  ~ a} 5] 5] 5] 5] 5] 5] 5] 5] 5] 5] 5] 5] 5] 5] 5] 5] 5] 5] 5] 5] 5] 5] 5] 5] 5] 5] 5] 5] 5] 5] 5] 5] 5] 5] 5] 5] 5] 5] 5] ;a ;a q( l2 =+ y| y| y| y| H8 _$ T< ;a 5] 5] 5] 5] 5] 5] 5] 5] 5] 5] 5] 5] 5] 5] g} G} e3 y( 8) +~ +~ x! 2) f} 17 wc re N= C- t- G- t- h0 :f (c 'c ~c <f [f }f Ke Ie |f 1f 1f 2f 3f 4f 5f 6f 6f 7f 8f 9f 0f Fe af bf cf _e df Jd ef }a Kb Bd Jb ff v  4^ 5^ ]( N6 A1 Wd Wd Wd Wd Wd Wd Wd Wd Wd Wd Wd Wd Wd Wd gf V% `9 z1 z1 z1 z1 z1 k* .[ .[ .[ .[ <[ 9: 65 65 65 65 65 (' hf  8 Wb if tb P: P: P: P: P: P: P< 42 42 42 42 42 42 42 ",
"1# 1# 1# 1# 1# 1# 1# Vb N5 1# 1# p. w. w. w. w. w. w. w. w. w. w. w. w. w. w. w. w. w. w. w. w. w. w. w. w. w. w. w. w. w. w. w. u0 $0 v5 v5 Yb jf e@ e@ e@ vb  . 1] s] t] )) 4] u] +~ v  x  y  A  D  c. h+ =+ M+ N+ ^# =@ 5@ /# /# P# _$ _$ _$ _$ _$ _$ _$ _$ F$ ]% _% 4% o% |% H> M- G- G- G- V; c- D& M% kf Ze $^ k{ 2) 8] +~ +~ L! r! 7~ I'  ~ 5] 5] 5] 5] 5] 5] 5] 5] 5] 5] 5] 5] ;a T< x# $+ y| ,5 y| *@ b% q( 5] 5] 5] 5] 5] 5] 5] 5] 5] 5] 5] 5] 5] 5] 5] 5] 5] 5] 5] 5] 5] 5] 5] 5] 5] 5] 5] 5] 5] 5] 5] 5] 5] 5] 5] 5] 5] 5] 5] 5] 5] 5] 5] 5] 5] 5] 5] 5] 5] 5] 5] 5] 5] 5] 5] 5] 5] 5] 5] 5] 5] 5] 5] 5] 5] 5] 5] 5] 5] 5] 5] 5] 5] `! 9a 0a t8 o8 .9 lf #c Pa Qa g3 Ra ;a 5] 5] 5] 5] 5] 5] 5] 5] 5] 5] 5] 5] 5] 5] 5] 5] 5] 5] 5] 5] 5] 5] 5] 5] 5] 5] 5] 5] 5] 5] 5] 5] 5] 5] 5] 5] 5] 5] 5] 5] 5] 5] 5] 5] 5] 5] 5] 5] 5] 5] 5] 5] 5] 5] 5] 5] 5] 5] ;a Ra mf ]3 nf of pf pf qf rf sf tf uf vf wf xf yf zf yf Af Bf Wa _d (d Cf Df Ef Ff Ff sd -f /d Db 5b Ua Oa Gf Hf If yf wf Jf Kf tf Lf Lf Mf Nf Of Pf Qf Rf `e ;a 5] 5] 5] 5] 5] 5] 5] 5] 5] 5] 5] 5] 5] 5] 5] 5] 5] 5] 5] 5] 5] 5] 5] 5] 5] 5] 5] 5] 5] 5] 5] 5] 5] 5] 5] 5] 5] 5] ;a ;a q( l2 =+ y| y| y| y| H8 _$ T< ;a 5] 5] 5] 5] 5] 5] 5] 5] 5] 5] 5] 5] 5] 5] g} G} e3 y( 8) +~ +~ x! 2) 97 H/ Sf re na C- t- G- l; Tf Uf Sd Vf Kb Wf Xf Yf Zf `f  g .g +g @g #g $g %g &g &g *g =g -g ;g >g ,g 'g )g !g ~g _e {g ]g ^g Lb /g @~ ]^ 4^ 5^ ]( (g Wd Wd Wd Wd Wd Wd Wd Wd Wd Wd Wd Wd Wd Wd Wd _g |1 z1 z1 z1 z1 z1 z1 z1 .[ .[ .[ .[ .[ :g 65 65 65 V5 <g [g Wb Wb r. P: P: P: P: P: P: P: P: P: E3 42 42 42 42 42 42 ",
"1# 1# 1# N5 }g |g 1g 2g N5 1# N5 1# +1 w. w. w. w. w. w. w. w. w. w. w. w. w. w. w. w. w. w. w. w. w. w. w. w. w. w. w. w. w. w. w9 v5 v5 v5 Yb 3g e@ e@ e@ 4g 5g 1] s] t] )) 4] u] +~ v  x  y  A  D  c. h+ =+ M+ N+ ^# =@ 5@ /# /# P# _$ _$ _$ _$ _$ _$ _$ _$ F$ ]% d% 4% o% 2% H> M- G- G- G- V; c- D& N% B3 Ze $^ k{ a$ M6 +~ +~ L! r! 7~ I'  ~ 5] 5] 5] 5] 5] 5] 5] 5] 5] 5] 5] 5] ;a T< x# $+ y| ,5 y| *@ b% q( 5] 5] 5] 5] 5] 5] 5] 5] 5] 5] 5] 5] 5] 5] 5] 5] 5] 5] 5] 5] 5] 5] 5] 5] 5] 5] 5] 5] 5] 5] 5] 5] 5] 5] 5] 5] 5] 5] 5] 5] 5] 5] 5] 5] 5] 5] 5] 5] 5] 5] 5] 5] 5] 5] 5] 5] 5] 5] 5] 5] 5] 5] 5] 5] 5] 5] 5] 5] 5] 5] 5] 5] 5] `! 9a 0a 6g m8 `8 7g 8g Pa Qa g3 Ra ;a 5] 5] 5] 5] 5] 5] 5] 5] 5] 5] 5] 5] 5] 5] 5] 5] 5] 5] 5] 5] 5] 5] 5] 5] 5] 5] 5] 5] 5] 5] 5] 5] 5] 5] 5] 5] 5] 5] 5] 5] 5] 5] 5] 5] 5] 5] 5] 5] 5] 5] 5] 5] 5] 5] 5] 5] 5] 5] 5] ;a 9g 0g ag bg cg dg eg fg gg hg ig jg kg lg mg ng og pg C9 Ua Wa Db qg rg sg -f -f -f rg qd _d tg 09 J9 ug vg wg xg yg kg zg Ag Bg Cg Cg Dg Eg Fg $7 Gg /( 5] 5] 5] 5] 5] 5] 5] 5] 5] 5] 5] 5] 5] 5] 5] 5] 5] 5] 5] 5] 5] 5] 5] 5] 5] 5] 5] 5] 5] 5] 5] 5] 5] 5] 5] 5] 5] 5] 5] ;a ;a q( l2 =+ y| y| y| y| H8 _$ T< ;a 5] 5] 5] 5] 5] 5] 5] 5] 5] 5] 5] 5] 5] 5] g} G} e3 y( 8) +~ +~ W. 2) U} H/ X, K% na C- t- G- t- Hg Ig |d !c Mb Jg Kg Ie De Lg Mg Ng Og Pg Qg Rg Sg Tg Ug Vg Wg Xg Yg Zg `g  h .h +h @h _e #h $h gc Cd %h &h V. 4^ 5^ ]( l1 Wd Wd Wd Wd Wd Wd Wd Wd Wd Wd Wd Wd Wd Wd *h V% V+ z1 z1 z1 z1 z1 z1 =h .[ .[ .[ .[ .[ vb ~' 65 65 -h ;h >h ,h w. P: P: P: P: P: P: P: P: P: P: +1 42 42 42 42 42 42 ",
"1# 1# 'h )h 1g 1g )h Vb 1# 1# !h N5 `, w. w. w. w. w. w. w. w. w. w. w. w. w. w. w. w. w. w. w. w. w. w. w. w. w. w. w. w. w. w. ~h v5 v5 v5 Yb <4 e@ e@ e@ {h ]h ]( s] t] )) 4] u] +~ v  x  y  A  D  c. h+ =+ M+ N+ ^# =@ 5@ /# /# P# _$ _$ _$ _$ _$ _$ _$ _$ F$ ]% d% h% o% 2% H> M- G- G- G- V; c- D& N% B3 ^h 39 k{ a$ /| +~ +~ L! r! 7~ I'  ~ 5] 5] 5] 5] 5] 5] 5] 5] 5] 5] 5] 5] ;a T< x# $+ y| ,5 y| *@ b% q( 5] 5] 5] 5] 5] 5] 5] 5] 5] 5] 5] 5] 5] 5] 5] 5] 5] 5] 5] 5] 5] 5] 5] 5] 5] 5] 5] 5] 5] 5] 5] 5] 5] 5] 5] 5] 5] 5] 5] 5] 5] 5] 5] 5] 5] 5] 5] 5] 5] 5] 5] 5] 5] 5] 5] 5] 5] 5] 5] 5] 5] 5] 5] 5] 5] 5] 5] 5] 5] 5] 5] 5] 5] `! W0 /h v8 q8 o8 (h Z0 _h Qa g3 Ra ;a 5] 5] 5] 5] 5] 5] 5] 5] 5] 5] 5] 5] 5] 5] 5] 5] 5] 5] 5] 5] 5] 5] 5] 5] 5] 5] 5] 5] 5] 5] 5] 5] 5] 5] 5] 5] 5] 5] 5] 5] 5] 5] 5] 5] 5] 5] 5] 5] 5] 5] 5] 5] 5] 5] 5] 5] 5] 5] 5] 5] 5] :h <h [h }h |h i7 ~5 D5 1h 2h w6 ^7 3h 4h 5h s8 r8 `8 @9 Ua 5b Db qg 6h 7h 7h &c (d 8h 9h b9 @9 n8 0h ah bh c0 ]7 ^7 w6 '9 1h D5 [8 j7 ch H6 dh |7 +{  ~ 5] 5] 5] 5] 5] 5] 5] 5] 5] 5] 5] 5] 5] 5] 5] 5] 5] 5] 5] 5] 5] 5] 5] 5] 5] 5] 5] 5] 5] 5] 5] 5] 5] 5] 5] 5] 5] 5] ;a ;a q( l2 =+ y| y| y| y| H8 _$ T< ;a 5] 5] 5] 5] 5] 5] 5] 5] 5] 5] 5] 5] 5] 5] g} 0; e3 y( 8) +~ +~ Y. 2) U} H/ X, K% na a0 G- G- G- eh fh gh -e ;e hh ih jh kh lh mh nh oh ph qh rh sh th th uh vh wh xh yh zh Ah Bh Ch Dh Eh Fh Gh 8d Lb %h &h V. 4^ 5^ ]( T| Wd Wd Wd Wd Wd Wd Wd Wd Wd Wd Wd Wd Wd Wd _g ;| z1 z1 z1 z1 z1 z1 z1 Hh .[ .[ .[ .[ .[ .[ $< N@ Ih ;h ;h ;h Jh P: P: P: P: P: P: P: P: P: P: P: g= 42 42 42 42 42 42 ",
"1# Vb 1g 1g 1g Kh N5 1# 1# 1# n6 Lh N5 w. w. w. w. w. w. w. w. w. w. w. w. w. w. w. w. w. w. w. w. w. w. w. w. w. w. w. w. w. w. u+ v5 v5 v5 Yb <4 e@ e@ e@ Mh ]h ]( s] t] )) 4] u] +~ v  x  y  A  D  c. h+ =+ M+ N+ ^# =@ 5@ /# /# P# _$ _$ _$ _$ _$ _$ _$ _$ F$ ]% <% i% o% 4% Nh M- G- G- G- V; ,, E& O% r% 1{ 39 k{ [2 o4 a! +~ L! r! 7~ I'  ~ 5] 5] 5] 5] 5] 5] 5] 5] 5] 5] 5] 5] ;a T< x# $+ y| ,5 y| *@ b% q( 5] 5] 5] 5] 5] 5] 5] 5] 5] 5] 5] 5] 5] 5] 5] 5] 5] 5] 5] 5] 5] 5] 5] 5] 5] 5] 5] 5] 5] 5] 5] 5] 5] 5] 5] 5] 5] 5] 5] 5] 5] 5] 5] 5] 5] 5] 5] 5] 7] 7] 5] 5] 0~ 0~ 0~ 7] 7] 7] 7] 7] 7] 7] 7] 7] 7] 7] 7] 7] 7] 7] 7] 7] 5] Oh Ph Qh Rh k8 m8 Sh Th _h Qa g3 Ra ;a 5] 5] 5] 5] 5] 5] 5] 5] 5] 5] 5] 5] 5] 5] 5] 5] 5] 5] 5] 5] 5] 5] 5] 5] 5] 5] 5] 5] 5] 5] 5] 5] 5] 5] 5] 5] 5] 5] 5] 5] 5] 5] 5] 5] 5] 5] 5] 5] 5] 5] 5] 5] 5] 5] 5] 5] 5] 5] 5] 5] 5] A3 m3 Uh Vh r4 ]5 B5 !6 D5 C8 Y6 Wh ^7 N7 v8 W8 s8 Z8  9 09 tg Xh _d 8h Db Db Yh _d 9h Zh 99  9 r8 i8 t8 {8 `h X6 w6 Y6 {7 {6 !6 B5 r4 #7  i .i a[ 5] 5] 5] 5] 5] 5] 5] 5] 5] 5] 5] 5] 5] 5] 5] 5] 5] 5] 5] 5] 5] 5] 5] 5] 5] 5] 5] 5] 5] 5] 5] 5] 5] 5] 5] 5] 5] 5] 5] 5] ;a ;a q( l2 =+ y| y| y| y| H8 _$ T< ;a 5] 5] 5] 5] 5] 5] 5] 5] 5] 5] 5] 5] 5] 5] h[ 0; e3 y( 8) +~ +~ Y. 2) U} ~9 X, +i M= a0 G- G- G- eh @i gh #i $i %i &i jh *i lh =i -i ;i >i ,i 'i )i !i ~i {i ]i ^i /i (i _i :i <i [i }i |i df 1i 2i 3i %h &h V. 4^ 5^ ]( 4i Wd Wd Wd Wd Wd Wd Wd Wd Wd Wd Wd Wd Wd 5i V% }1 z1 z1 z1 z1 z1 z1 z1 `{ .[ .[ .[ .[ .[ .[ .[ .[ 6i ;h ;h ;h }/ P: P: P: P: P: P: P: P: P: P: $4 42 42 42 42 42 42 42 ",
"1# 1# 1# 1# 1# 1# 1# 1# 1# 1# 7i 8i Sb w. w. w. w. w. w. w. w. w. w. w. w. w. w. w. w. w. w. w. w. w. w. w. w. w. w. w. w. w. w. O! v5 v5 9i Yb 0i e@ e@ e@ Mh ]h ]( s] t] )) 4] u] +~ v  x  y  A  D  c. h+ =+ M+ N+ ^# =@ 5@ /# /# P# _$ _$ _$ _$ _$ _$ _$ _$ W$ ]% <% j% q% ai H> M- G- G- G- bi ,, F& 3& r% ci X< k{  & /| a! +~ L! r! 7~ I'  ~ 5] 5] 5] 5] 5] 5] 5] 5] 5] 5] 5] 5] ;a T< x# $+ y| ,5 y| *@ b% q( 5] 5] 5] 5] 5] 5] 5] 5] 5] 5] 5] 5] 5] 5] 5] 5] 5] 5] 5] 5] 5] 5] 5] 5] 5] 5] 5] 5] 5] 5] 5] 5] 5] 5] 5] 5] 5] 5] 5] 5] 5] 5] 5] 5] 5] 5] 5] q( di l^ l^ l^ b% b% b% ei _~ _~ _~ y3 y3 y3 ,' ,' ,' ,' ,' ,' ,' ,' D$ D$ D$ b% '6 fi ]8 j8 r8 gi hi ii Qa g3 Ra ;a 5] 5] 5] 5] 5] 5] 5] 5] 5] 5] 5] 5] 5] 5] 5] 5] 5] 5] 5] 5] 5] 5] 5] 5] 5] 5] 5] 5] 5] 5] 5] 5] 5] 5] 5] 5] 5] 5] 5] 5] 5] 5] 5] 5] 5] 5] 5] 5] 5] 5] 5] 5] 5] 5] 5] 5] 5] 5] 5] 5] 5] a} ji ki li p3 mi U7 {5 _8 C5 >9 ni O7 a7 oi g8 X8 d9 69 c9 09 Ua tg tg 9h 9h pi tg b9 89 ba Z8 $9 %9 u8 oi V8 O7 x6 ,9 C8 qi E5 {5 |h ri si .<  ~ a} 5] 5] 5] 5] 5] 5] 5] 5] 5] 5] 5] 5] 5] 5] 5] 5] 5] 5] 5] 5] 5] 5] 5] 5] 5] 5] 5] 5] 5] 5] 5] 5] 5] 5] 5] 5] 5] 5] 5] ;a ;a q( l2 =+ y| y| y| y| H8 _$ T< ;a 5] 5] 5] 5] 5] 5] 5] 5] 5] 5] 5] 5] 5] 5] h[ ][ e3 y( 8) +~ +~ Z. a$ ti w( ^h ui vi a0 G- G- t- h0 @i gh #i $i wi xi yi zi Ai Bi Ci Di Ei Fi Gi Hi Ii Ii Ji Ki Li Mi Ni Oi Pi Qi Ri Si Ti <e Ui 2i Kb %h &h V. 4^ 5^ :~ Vi Wd Wd Wd Wd Wd Wd Wd Wd Wd Wd Wd Wd bd Wi Re z1 z1 z1 z1 z1 z1 z1 z1 Xi .[ .[ .[ .[ .[ .[ .[ .[ 78 ;h ;h ;h }/ P: P: P: P: P: P: P: P: P: P: P< 42 42 42 42 42 42 42 ",
"1# 1# 1# 1# 1# 1# 1# 1# 1# 1# [9 8i 8i Yi w. w. w. w. w. w. w. w. w. w. w. w. w. w. w. w. w. w. w. w. w. w. w. w. w. w. w. w. w. w. Zi v5 rb Yb `i e@ e@ e@ ]h ]h ]( s] t] )) 4] u] +~ v  x  y  A  D  c. h+ =+ M+ N+ ^# =@ 5@ /# /# P# _$ _$ _$ _$ _$ _$ _$ _$ W$ ]% <% j% r% i% Nh s- u- G- G- V; ,, F& -' r% ci X< k{  & %} a! +~ L! r! 7~ I' F} U( U( U( U( U( U( U( U( U( U( U( U( ;a U< x# $+ y| ,5 y| *@ b% F} U( U( U( U( U( U( U( U( U( U( U( U( U( U( U( U( U( U( U( U( U( U( U( U( U( U( U( U( U( U( U( U( U( U( U( U( U( U( U( U( U( U( U( U( U( U( U( ,/ w1  j .j +j @j  j 81 p1 #j #j 71  < $j 71 %j %j %j &j U3 U3 U3 *j *j *j *j =j -j q0 ]8 i8 Y8 ;j >j ,j 'j g3 )j !j U( U( U( U( U( U( U( U( U( U( U( U( U( U( U( U( U( U( U( U( U( U( U( U( U( U( U( U( U( U( U( U( U( U( U( U( U( U( U( U( U( U( U( U( U( U( U( U( U( U( U( U( U( U( U( U( U( U( U( U( U( A3 5] +{ ~j {j q3 U4 {5 !6 {6 1h Y6 Wh ]j w8 ^j g9 /j k8 Z8 `8 +9 ka 09 09 09 09 ka c9 69 y0 ,0 i8 t8 {8 N7 (j Wh Y6 {7 {6 g5 _8 V4 _j :j ^^ 5] A3 U( U( U( U( U( U( U( U( U( U( U( U( U( U( U( U( U( U( U( U( U( U( U( U( U( U( U( U( U( U( U( U( U( U( U( U( U( U( U( U( ;a !j F} C$ H8 y| y| y| y| M+ A$ g} +e U( U( U( U( U( U( U( U( U( U( U( U( U( U( (% ][ %( y( 8) +~ +~ 8] a$ k{ $^ 1{ <j vi a0 G- G- G- h0 [j gh #i Lc }j |j {e Ce 1j 2j 3j 4j 5j 6j 7j 8j 9j 9j 0j aj bj cj dj ej fj gj hj ij jj kj lj mj Kb %h &h V. 4^ 5^ :~ Vi Wd Wd Wd Wd Wd Wd Wd Wd Wd Wd Wd )+ z1 V% nj z1 z1 z1 z1 z1 z1 z1 oj .[ .[ .[ .[ .[ .[ .[ .[ .[ pj ;h ;h ;h V# P: P: P: P: P: P: P: P: P: P: 42 42 42 42 42 42 42 42 ",
"1# 1# 1# 1# 1# 1# 1# 1# 1# 1# 1# 8i 8i qj w. w. w. w. w. w. w. w. w. w. w. w. w. w. w. w. w. w. w. w. w. w. w. w. w. w. w. w. w. w. Xe v5 rb Yb `i e@ e@ e@ ]h ]h ]( s] t] )) 4] u] +~ v  x  y  A  D  c. h+ =+ M+ N+ ^# =@ 5@ /# /# P# _$ _$ _$ _$ _$ _$ _$ _$ X$ %% <% j% s% i% H> I8 u- G- G- V; ,, J& && s% ci X< }6 f} %} +~ +~ L! r! 7~ I' F} U( U( U( U( U( U( U( U( U( U( U( U( !j g} %$ $+ y| ,5 y| *@ b% F} U( U( U( U( U( U( U( U( U( U( U( U( U( U( U( U( U( U( U( U( U( U( U( U( U( U( U( U( U( U( U( U( U( U( U( U( U( U( U( U( U( U( U( U( U( U( !j #j rj sj tj uj vj f1 =3 wj n3 xj V3 yj zj Aj  i )5 d5 Bj Cj )6 Dj Ej Fj Gj Hj Ij Jj Kj {8 5h X8 Lj Mj Nj 'j g3 )j !j U( U( U( U( U( U( U( U( U( U( U( U( U( U( U( U( U( U( U( U( U( U( U( U( U( U( U( U( U( U( U( U( U( U( U( U( U( U( U( U( U( U( U( U( U( U( U( U( U( U( U( U( U( U( U( U( U( U( U( U( U( U( U( =| C, Oj Pj X3 Qj ~5 <8 D8 ;9 x6 O7 a7 N7 60 Rj /j $9 r8 n8 n8 o8 `8 `8 `8 n8 Z8 d9 s8 /j t8 {8 N7 ^7 m9 o9 1h D8 :8 D5 V4 Sj Tj  j ;a U( U( U( U( U( U( U( U( U( U( U( U( U( U( U( U( U( U( U( U( U( U( U( U( U( U( U( U( U( U( U( U( U( U( U( U( U( U( U( U( U( U( p( !j F} D$ M+ y| y| y| y| M+ A$ g} !j U( U( U( U( U( U( U( U( U( U( U( U( U( U( &% ][ %( y( 8) +~ +~ 8] ~% k{ $^ 1{ <j M= a0 G- G- t- h0 [j gh #i Uj Vj Wj [e Be Xj Yj Zj `j  k .k  k +k @k #k $k %k &k *k =k -k ;k >k ,k Ld 'k )k !k mj Kb %h &h V. 4^ 5^ :~ Vi Wd Wd Wd Wd Wd Wd Wd Wd Wd Wd bd z1 z1 6| :} z1 z1 z1 z1 z1 z1 z1 /+ .[ .[ .[ .[ .[ .[ .[ .[ Xi ;h ;h ;h ~k pj P: P: P: P: P: P: P: P: P: r5 42 42 42 42 42 P< 42 42 ",
"1# 1# 1# 1# 1# 1# 1# 1# 1# 1# 1# 8i 8i i- w. w. w. w. w. w. w. w. w. w. w. w. w. w. w. w. w. w. w. w. w. w. w. w. w. w. w. w. w. w. {k v5 rb Yb ]k e@ e@ e@ Mh ]h ]( s] t] )) 4] u] +~ v  x  y  A  D  c. h+ =+ M+ N+ ^# =@ 5@ /# /# P# _$ _$ _$ _$ _$ _$ _$ _$ Y$ %% <% j% t% j%  c K- u- G- G- ^k ,, G& f* /k (k X< 3^ f} 5) +~ +~ L! r! 7~ I' F} U( U( U( U( U( U( U( U( U( U( U( U( !j g} %$ $+ y| ,5 y| *@ b% F} U( U( U( U( U( U( U( U( U( U( U( U( U( U( U( U( U( U( U( U( U( U( U( U( U( U( U( U( U( U( U( U( U( U( U( U( U( U( U( U( U( U( U( U( U( U( !j <6 _k :k <k [k }k |k 1k {2 2k y2 >3 ;3 3k 74 4k >4 5k 6k 7k U7 [8 g5 D5 W6 8k 9k Wh w8 {8 t8 %9 0k ak Nj 'j @= )j !j U( U( U( U( U( U( U( U( U( U( U( U( U( U( U( U( U( U( U( U( U( U( U( U( U( U( U( U( U( U( U( U( U( U( U( U( U( U( U( U( U( U( U( U( U( U( U( U( U( U( U( U( U( U( U( U( U( U( U( U( U( U( U( U( =| bk ck dk ;4 f5 <8 g5 W6 >9 x6 X6 ]7 07 60 Rj W8 X8 $9 ,0 ,0 ,0 ,0 ,0 ,0 s8 /j W8 Rj {8 N7 a7 O7 x6 >9 W6 :8 f5 ek -3 fk gk U( U( U( U( U( U( U( U( U( U( U( U( U( U( U( U( U( U( U( U( U( U( U( U( U( U( U( U( U( U( U( U( U( U( U( U( U( U( U( U( U( U( U( U( p( !j =| D$ M+ y| y| y| y| M+ A$ g} !j U( U( U( U( U( U( U( U( U( U( U( U( U( U( &% ][ %( y( 8) +~ +~ 8] ~% k{ 39 1{ hk M= a0 G- G- t- h0 [j gh #i Uj Vj ik 3d (e jk kk 6f lk mk nk 6f ok Ce pk qk rk sk tk uk vk wk xk yk zk Rc Oc Ak mj Kb %h &h V. 4^ 5^ :~ Vi Wd Wd Wd Wd Wd Wd Wd Wd Wd Wd A1 z1 z1 bd z1 z1 z1 z1 z1 z1 z1 Te  [ .[ .[ .[ .[ .[ .[ .[ .[ ./ ;h ;h id Bk Bk j# P: P: P: P: P: P: P: P: +1 42 42 42 P< Ck P8 42 42 ",
"1# 1# 1# 1# 1# 1# 1# 1# 1# 1# 1# Dk 8i 8i p. p.  > w. w. w. w. w. w. w. w. w. w. w. w. w. w. w. w. w. w. w. w. w. w. w. w. w. w. w. u+ v5 rb Yb Ek e@ e@ e@ ]1 ]h ]( s] t] )) 4] u] +~ v  x  y  A  D  c. h+ =+ M+ N+ ^# =@ 5@ /# /# P# _$ _$ _$ _$ _$ _$ _$ _$ Z$ %% <% j% s% k%  c K- u- G- G- ^k ,, H& f* 27 Fk _1 3^ 97 5) +~ +~ L! r! 7~ I' F} U( U( U( U( U( U( U( U( U( U( U( U( !j g} %$ $+ y| ,5 y| *@ b% F} U( U( U( U( U( U( U( U( U( U( U( U( U( U( U( U( U( U( U( U( U( U( U( U( U( U( U( U( U( U( U( U( U( U( U( U( U( U( U( U( U( U( U( U( U( U( Gk Hk 15 Ik Jk N1 s1 z2 Kk Lk F6 Mk Nk Ok [7 h7 r4 U4 ~5 E8 Pk Qk ~6 76 m9 Rk ]7 N7 o0 o0 {8 Rj Sk Tk ja Nj 'j @= )j !j U( U( U( U( U( U( U( U( U( U( U( U( U( U( U( U( U( U( U( U( U( U( U( U( U( U( U( U( U( U( U( U( U( U( U( U( U( U( U( U( U( U( U( U( U( U( U( U( U( U( U( U( U( U( U( U( U( U( U( U( U( U( U( U( U( U( &e Uk Vk ;4 D8 66 :8 Z5 86 l9 X6 a7 w8 Wk p0 Rj W8 i8 Xk 5h 5h i8 W8 W8 Rj p0 ]8 N7 ^7 O7 x6 >9 Yk Zk f5 E8 `k  l p1 U( =| U( U( U( U( U( U( U( U( U( U( U( U( U( U( U( U( U( U( U( U( U( U( U( U( U( U( U( U( U( U( U( U( U( U( U( U( U( U( U( U( U( U( U( p( !j =| D$ M+ y| y| y| y| M+ A$ g} !j U( U( U( U( U( U( U( U( U( U( U( U( U( U( &% *1 (_ y( 8) +~ +~ 8] [2 .l 39 (k hk M= a0 G- G- t- h0 +l @l #i Uj Vj ik Qc yk Xj 4f kk #l $l %l &l Ee *l =l -l ;l >l ,l 'l )l !l ~l {l ]l Oc Oc Ak mj Kb %h &h V. 4^ 5^ 5^ ^l bd Wd Wd bd /l (l T% Wd Wd Wd oj z1 z1 z1 z1 z1 z1 z1 z1 oj t_ .[ .[ .[ .[ .[ .[ .[ .[ .[ .[ l| _l _l Bk Bk Bk Bk $4 P: P: P: P: P: P: P: E3 42 42 11 67 67 P: 42 42 ",
"1# 1# 1# 1# 1# 1# 1# 1# 1# 1# 1# :l 8i 8i 1# 1# 1# K$ r$ <l Hh r$ $4 w. w. w. w. w. w. w. w. w. w. w. w. w. w. w. w. w. w. w. w. w. O! v5 rb Yb [l e@ e@ e@ d@ ]h ]( s] t] )) 4] u] +~ v  x  y  A  D  c. h+ =+ M+ N+ ^# =@ 5@ /# /# P# _$ _$ _$ _$ _$ _$ _$ _$ Z$ &% e% j% =' m% H> K- u- G- G- ^k O> H& *& 27 Fk V< 3^ 97 5) +~ +~ L! r! 7~ I' F} U( U( U( U( U( U( U( U( U( U( U( U( !j g} %$ $+ y| ,5 y| *@ b% F} U( U( U( U( U( U( U( U( U( U( U( U( U( U( U( U( U( U( U( U( U( U( U( U( U( U( U( U( U( U( U( U( U( U( U( U( U( U( U( U( U( U( U( U( U( U( Gk Hk }l Jk s1 |l N1 {2 1l _6 e6 2l 73 q3 #7 <7 [7 ]5 i7 {5 !6 _8 D8 Z5 ,9 3l Wh O7 U9 a7 ]8 60 4l 5l 6l 7l 'j @= )j !j U( U( U( U( U( U( U( U( U( U( U( U( U( U( U( U( U( U( U( U( U( U( U( U( U( U( U( U( U( U( U( U( U( U( U( U( U( U( U( U( U( U( U( U( U( U( U( U( U( U( U( U( U( U( U( U( U( U( U( U( U( U( U( U( U( U( =| &e 8l 9l ;4 C5 _8 f5 Z5 86 x6 0l ]j V9 ]8 ]8 {8 p0 p0 p0 p0 p0 p0 {8 ]8 N7 a7 ]j m9 x6 >9 Yk D8 D8 E8 al bl 33 cl U( U( U( U( U( U( U( U( U( U( U( U( U( U( U( U( U( U( U( U( U( U( U( U( U( U( U( U( U( U( U( U( U( U( U( U( U( U( U( U( U( U( U( U( U( p( !j =| D$ M+ y| y| y| y| M+ A$ g} !j U( U( U( U( U( U( U( U( U( U( U( U( U( U( %% @^ (_ y( 8) +~ +~ 8] [2 .l F: (k hk M= a0 G- G- t- h0 Ig @l #i Uj Vj ik )k dl el fl gl hl il jl kl ll ml nl ol pl ql rl sl tl ul vl wl xl Oc Oc Ak mj Kb %h &h V. 4^ 5^ 5^ yl zl Al Bl Cl Ue Ue Ue N< .[ .[ .[  [ 4g Dl `{ `{ `{ `{ Al .[ .[ .[ .[ .[ .[ .[ .[ .[ .[ .[ `< Bk Bk Bk Bk Bk Bk Bk $# P: P: P: P: P: P: P: D3 42 11 67 67 67 D3 42 42 ",
"1# 1# 1# 1# 1# 1# 1# 1# 1# 1# 1# N5 Lh 8i 1# 1# 1# El El El El El El s/ Fl w. w. w. w. w. w. w. w. w. w. w. w. w. w. w. w. w. w. w. w. Zi Gl Hl Yb e@ e@ e@ e@ ]1 ]( s] t] )) 4] u] +~ v  x  y  A  D  c. h+ =+ M+ N+ ^# =@ 5@ /# /# P# _$ _$ _$ _$ _$ _$ _$ &$ `$ &% e% k% u% m% H> K- u- G- G- ^k Il b* *& T& Fk V< 3^ U} 5) x! +~ L! r! 7~ I' F} U( U( U( U( U( U( U( U( U( U( U( U( !j g} %$ $+ y| ,5 y| *@ b% F} U( U( U( U( U( U( U( U( U( U( U( U( U( U( U( U( U( U( U( U( U( U( U( U( U( U( U( U( U( U( U( U( U( U( U( U( U( U( U( U( U( U( U( U( U( U( Gk Hk Jl ]2 N1 +2 +2 Kl Kl Ll Ml Nl Ol al Pl #7 Ql 5k W4 B5 T7 E5 g5 D5 Rl Sl Y6 /7 0l Tl ^8 Ul &9 Vl Wl 7l Xl @= )j !j U( U( U( U( U( U( U( U( U( U( U( U( U( U( U( U( U( U( U( U( U( U( U( U( U( U( U( U( U( U( U( U( U( U( U( U( U( U( U( U( U( U( U( U( U( U( U( U( U( U( U( U( U( U( U( U( U( U( U( U( U( U( U( U( U( U( U( =| G4 Yl Zl ;4 `l _8 D5 C8 >9  m n9 O7 ^8 a7 w8 N7 N7 07 07 N7 N7 a7 a7 ]j O7 n9  m >9 W6 :8 f5 _8 .m +m 33 @m =| U( U( U( U( U( U( U( U( U( U( U( U( U( U( U( U( U( U( U( U( U( U( U( U( U( U( U( U( U( U( U( U( U( U( U( U( U( U( U( U( U( U( U( U( U( p( !j =| D$ M+ y| y| y| y| M+ A$ g} !j U( U( U( U( U( U( U( U( U( U( U( U( U( U( R' @^ (_ y( 8) +~ ]^ }^  & -^ F: t6 #m M= a0 G- G- t- h0 Ig @l #i Uj Vj ik 4d $m %m &m *m =m -m ;m >m ,m 'm )m !m ~m {m ]m ^m /m (m _m :m <m Oc Oc Ak mj Kb %h &h V. 4^ 5^ 5^ yl zl zl zl [m }m Ue Ue _9 .[ .[ .[ .[ N< |m |m j- 1m 1m 1m 2m .[ .[ .[ .[ .[ .[ .[ .[ .[ .[ 3m Bk Bk Bk Bk Bk Bk Bk 4m P: P: P: P: P: P: P: P: 4_ 67 67 67 67 D3 42 42 ",
"1# 1# 1# 1# 1# 1# 1# 1# 1# 1# 1# 1# 1# N5 :1 Z7 5m e@ e@ e@ e@ e@ e@ e@ 5( 6m %# w. w. w. w. w. w. w. w. w. w. w. w. w. w. w. w. w. w. 7m e@ e@ b( e@ e@ e@ e@ e@ 5^ s] t] )) 4] u] +~ v  x  y  A  D  c. h+ =+ M+ N+ ^# =@ 5@ /# /# P# _$ _$ _$ _$ _$ _$ _$ _$ `$ &% e% k% u% m%  c K- u- G- G- ^k Il a* *& T& 8m G} 9m U} 5) x! +~ L! r! 7~ I' F} U( U( U( U( U( U( U( U( U( U( U( U( !j g} %$ $+ y| ,5 y| *@ b% F} U( U( U( U( U( U( U( U( U( U( U( U( U( U( U( U( U( U( U( U( U( U( U( U( U( U( U( U( U( U( U( U( U( U( U( U( U( U( U( U( U( U( U( U( U( U( Gk Hk Jl ]2 N1 +2 N1 0m am bm cm dm em fm gm hm im jm km lm mm nm (8 om A8 pm -9 qm rm sm tm um um vm wm xm 'j += Ra !j U( U( U( U( U( U( U( U( U( U( U( U( U( U( U( U( U( U( U( U( U( U( U( U( U( U( U( U( U( U( U( U( U( U( U( U( U( U( U( U( U( U( U( U( U( U( U( U( U( U( U( U( U( U( U( U( U( U( U( U( U( U( U( U( U( U( U( U( A3 bk ck k7 84 ym zm D5 W6 ;9 ,9 x6 Wh O7 Am ^7 ^7 ^7 ^7 ^7 Rk O7 w6 x6 o9 ,9 Sl C5 :8 Bm <8 Cm Dm 54 U( =| U( U( U( U( U( U( U( U( U( U( U( U( U( U( U( U( U( U( U( U( U( U( U( U( U( U( U( U( U( U( U( U( U( U( U( U( U( U( U( U( U( U( U( U( U( U( p( !j =| D$ M+ y| y| y| y| M+ A$ g} !j U( U( U( U( U( U( U( U( U( U( U( U( U( U( R' *^ (_ y( 8) +~ ]~ o4  & -^ X< Fk hk M= a0 G- G- G- h0 Ig @l #i Uj Vj Em 7d Fm Gm Hm Im Jm Km Lm Mm Nm Om Pm Qm Rm Sm Tm Sm Um Vm Wm Xm Oc Oc Oc Ak mj Kb %h &h V. 4^ 5^ 5^ yl zl zl zl zl Ym Ue Ue Ue Zm Ym 1> }m Ue `m `m  n C1 C1 C1 C1 C1 t+ ^] .[ .[ .[ .[ .[ .[ .[ .[ pj Bk Bk Bk Bk Bk Bk Bk .n P: P: P: P: P: P: +n 67 67 67 67 67 58 42 42 ",
"5( e@ e@ f' @n @n @n @n @n @n @n @n e@ e@ e@ e@ e@ e@ e@ e@ e@ e@ e@ e@ e@ e@ 5( #n 3e w. w. w. w. w. w. w. w. w. w. w. w. w. w. w. P: e@ e@ e@ e@ e@ e@ e@ e@ e@ 5^ s] t] )) 4] u] +~ v  x  y  A  D  c. h+ =+ M+ N+ ^# =@ 5@ /# /# P# _$ _$ _$ _$ _$ _$ _$ _$  % &% }% m% u% o% H> K- u- G- u- V; P> a* ;& {9 $n K6 H/ U} 5) x! +~ L! r! 7~ I' F} U( U( U( U( U( U( U( U( U( U( U( U( !j g} %$ $+ y| ,5 y| *@ b% F} U( U( U( U( U( U( U( U( U( U( U( U( U( U( U( U( U( U( U( U( U( U( U( U( U( U( U( U( U( U( U( U( U( U( U( U( U( U( U( U( U( U( U( U( U( U( Gk Hk Jl ]2 %n #2 &n *n =n J= -n ;n >n qf ,n 'n )n rf rf !n sf ~n uf uf vf {n ]n ]n ^n yf yf /n (n (n _n :n <n $= [n !j U( U( U( U( U( U( U( U( U( U( U( U( U( U( U( U( U( U( U( U( U( U( U( U( U( U( U( U( U( U( U( U( U( U( U( U( U( U( U( U( U( U( U( U( U( U( U( U( U( U( U( U( U( U( U( U( U( U( U( U( U( U( U( U( U( U( U( U( U( =| }n |n 1n i7 _8 !6 _8 D8 Z5 ;9 2n '9 76 3n 3n 3n 3n 3n 76 o9 86 2n 1h W6 D5 ek E8 E8 4k dh 4n 5n =| U( U( U( U( U( U( U( U( U( U( U( U( U( U( U( U( U( U( U( U( U( U( U( U( U( U( U( U( U( U( U( U( U( U( U( U( U( U( U( U( U( U( U( U( U( U( U( p( !j =| D$ M+ y| y| y| y| M+ A$ g} !j U( U( U( U( U( U( U( U( U( U( U( U( U( 5n R' H: (_ y( 8) +~ x! %}  & 3^ _1 8m 6n M= a0 G- G- G- h0 Ig @l #i Uj Vj Em Od 7n Gm 8n 9n 0n an bn cn dn en fn gn hn in jn kn ln mn nn on Oc Qc Oc Ak mj Kb %h &h V. 4^ 5^ 5^ yl zl N< pn qn Ue Ue Ue Ue Ue Ue rn sn sn sn sn tn C1 C1 C1 C1 C1 C1 C1 t} un .[ .[ .[ .[ .[ .[ `< M/ vn $4 .0 %# .n P: P: P: @0 wn xn yn $< y% `< 1_ zn An <9 67 Bn Bn ",
"e@ e@ e@ e@ e@ e@ e@ e@ e@ e@ e@ e@ e@ e@ e@ e@ e@ e@ e@ e@ e@ e@ e@ e@ e@ e@ e@ e@ e@ 1_ 67 .n w. w. w. w. w. w. w. w. w. w. %# 6m 5( e@ e@ e@ e@ e@ e@ e@ e@ e@ 5^ s] t] )) 4] u] +~ v  x  y  A  D  c. h+ =+ M+ N+ ^# =@ 5@ /# /# P# _$ _$ _$ _$ _$ _$ _$ _$  % &% }% m% u% p% H> k; v- u- G- ^k Cn v* ;& @& $n j3 H/ &5 &d x! +~ L! r! 7~ I' F} U( U( U( U( U( U( U( U( U( U( U( U( !j g} %$ $+ y| ,5 y| *@ b% F} U( U( U( U( U( U( U( U( U( U( U( U( U( U( U( U( U( U( U( U( U( U( U( U( U( U( U( U( U( U( U( U( U( U( U( U( U( U( U( U( U( U( U( U( U( U( Gk Hk Jl ]2 %n #2 0m Dn En Z2 Fn Gn Hn Hn Hn In In In Jn Jn Jn Jn Jn Jn Hn Hn Hn Jn Hn Hn Hn In In In Hn Kn Ln s> Mn !j U( U( U( U( U( U( U( U( U( U( U( U( U( U( U( U( U( U( U( U( U( U( U( U( U( U( U( U( U( U( U( U( U( U( U( U( U( U( U( U( U( U( U( U( U( U( U( U( U( U( U( U( U( U( U( U( U( U( U( U( U( U( U( U( U( U( U( U( U( U( =| Nn On Pn 84 ~5 {5 ~5 E8 f5 C5 Z5 1h ;9 >9 2n 2n ;9 ;9 1h Z5 W6 {6 _8 !6 Qn ek T4 Rn J6 cl =| U( U( U( U( U( U( U( U( U( U( U( U( U( U( U( U( U( U( U( U( U( U( U( U( U( U( U( U( U( U( U( U( U( U( U( U( U( U( U( U( U( U( U( U( U( U( U( U( p( !j =| D$ M+ y| y| y| y| M+ A$ g} !j U( U( U( U( U( U( U( U( U( U( U( U( U( U( P' H: (_ y( 8) +~ x! %} f} 3^ _1 8m Sn M= a0 G- u- G- h0 Ig @l #i Uj Vj Em Tn Un Vn Wn Xn Yn Zn `n  o .o +o @o #o $o %o &o *o =o -o ;o >o Oc Qc Oc Ak mj Kb %h &h V. 4^ 5^ 5^ ,o }m Ue Ue Ue Ue Ue Ue Ue Ue Ue Ue 'o sn sn sn )o !o !o !o D| -} C1 C1 C1 C1 ~o {o .[ .[ .[ .[ .[ .[ .[ .[ .[ .[ .[ .[ .[ .[ .[ .[ .[ .[ .[ .[ .[ .[ .[ .[ .[ .[ .[ `< ",
"e@ e@ e@ e@ e@ e@ e@ e@ e@ e@ e@ e@ e@ e@ e@ e@ e@ e@ e@ e@ e@ e@ e@ e@ e@ e@ e@ e@ e@ e@ e@ e@ 5( 3m #n ]o #n 3m 3m 3m 3m 3m e@ e@ e@ e@ e@ e@ e@ e@ e@ e@ e@ e@ 5^ s] t] )) 4] u] +~ v  x  y  A  D  c. h+ =+ M+ N+ ^# =@ 5@ /# /# P# _$ _$ _$ _$ _$ _$ _$ _$  % &% }% m% G% o% H> K- u- u- u- V; P> v* >& h& $n j3 H/ &5 I4 x! +~ L! r! 7~ I' F} U( U( U( U( U( U( U( U( U( U( U( U( !j g} %$ $+ y| ,5 y| *@ b% F} U( U( U( U( U( U( U( U( U( U( U( U( U( U( U( U( U( U( U( U( U( U( U( U( U( U( U( U( U( U( U( U( U( U( U( U( U( U( U( U( U( U( U( U( U( U( Gk Hk Jl ]2 %n #2 0m ^o /o (o _o :o <o <o <o <o <o <o <o [o [o [o [o [o <o <o [o [o <o <o <o <o w= <o [o }o |o 1o od !j U( U( U( U( U( U( U( U( U( U( U( U( U( U( U( U( U( U( U( U( U( U( U( U( U( U( U( U( U( U( U( U( U( U( U( U( U( U( U( U( U( U( U( U( U( U( U( U( U( U( U( U( U( U( U( U( U( U( U( U( U( U( U( U( U( U( U( U( U( U( U( F} &e 2o Pn 84 U4 {5 U4 ~5 _8 Bm f5 C5 C5 Pk Pk C5 C5 f5 f5 _8 !6 {5 {5 U4 q4 3o l7 !j F} U( U( U( U( U( U( U( U( U( U( U( U( U( U( U( U( U( U( U( U( U( U( U( U( U( U( U( U( U( U( U( U( U( U( U( U( U( U( U( U( U( U( U( U( U( U( U( U( U( p( !j =| D$ M+ y| y| y| y| M+ A$ g} !j U( U( U( U( U( U( U( U( U( U( U( U( U( D, P' B< (_ y( 8) +~ x! >5 f} 9m V< 8m 6n ,n a0 G- u- G- h0 Ig @l #i Uj Vj Em zk 4o 5o 6o 7o 8o 9o 0o ao bo co do eo fo go ho io jo ko lo mo Tn Oc Oc Ak mj Kb %h &h V. 4^ 5^ 5^ no Ue Ue Ue Ue Ue Ue Ue Ue Ue Ue Ue oo sn sn sn `i `i `i `i `i `i po qo C1 C1 C1 ro H] .[ .[ .[ .[ .[ .[ .[ .[ .[ .[ .[ .[ .[ .[ .[ .[ .[ .[ .[ .[ .[ .[ .[ .[ .[ .[ .[ ",
"so 5( e@ e@ e@ e@ e@ e@ e@ vb to uo uo to vb e@ e@ e@ e@ e@ e@ e@ e@ e@ e@ e@ e@ e@ e@ e@ e@ e@ e@ e@ e@ e@ e@ e@ e@ e@ e@ e@ e@ e@ e@ e@ e@ e@ e@ e@ e@ e@ e@ e@ 5^ s] t] )) 4] u] +~ v  x  y  A  D  c. h+ =+ M+ N+ ^# =@ 5@ /# /# P# _$ _$ _$ _$ _$ _$ _$ A$ +% (% }% m% G% t% H> k; v- u- u- V; R> ;* x, h& $n j3 H/ &5 I4 W. +~ L! r! 7~ I' F} U( U( U( U( U( U( U( U( U( U( U( U( !j g} %$ $+ y| ,5 y| *@ b% F} U( U( U( U( U( U( U( U( U( U( U( U( U( U( U( U( U( U( U( U( U( U( U( U( U( U( U( U( U( U( U( U( U( U( U( U( U( U( U( U( U( U( U( U( U( U( Gk Hk Jl ]2 %n #2 vo wo xo %f yo I0 zo Ao Ao Ao Ao Ao Ao Ao Ao Ao Ao Ao Ao Ao Ao Ao Ao Ao Ao Ao Ao Ao d* Bo Co $a bk U( U( U( U( U( U( U( U( U( U( U( U( U( U( U( U( U( U( U( U( U( U( U( U( U( U( U( U( U( U( U( U( U( U( U( U( U( U( U( U( U( U( U( U( U( U( U( U( U( U( U( U( U( U( U( U( U( U( U( U( U( U( U( U( U( U( U( U( U( U( U( U( U( F} &e Do Eo h7 r4 i7 V4 {5 {5 {5 ~5 ~5 ~5 ~5 ~5 ~5 U4 {5 V4 i7 T7 T7 74 Fo l7 +{ F} U( U( U( U( U( U( U( U( U( U( U( U( U( U( U( U( U( U( U( U( U( U( U( U( U( U( U( U( U( U( U( U( U( U( U( U( U( U( U( U( U( U( U( U( U( U( U( U( U( U( p( !j =| D$ M+ y| y| y| y| M+ A$ g} !j U( U( U( U( U( U( U( U( U( U( U( U( U( D, j3 B< (_ y( 8) +~ x! 5) f} 9m Go $n Ho M= a0 G- u- G- h0 Io Jo #i Uj Vj Ko Nd Lo Mo No Oo Po Qo Ro So To Uo Vo Wo Xo Yo Zo `o  p en .p +p @p Oc Oc Ak mj Kb %h &h V. 4^ 5^ ]( #p Ue Ue Ue Ue Ue Ue Ue Ue Ue Ue Ue h- sn sn $p `i `i `i `i `i `i `i `i %p po &p `i `i ~+ 7: .[ .[ .[ .[ .[ .[ e@ Z< Z< Z< Z< Z< Z< Z< Z< Z< Z< Z< d] .[ .[ .[ .[ .[ .[ ",
"b; *p *p *p *p *p =p =p =p -p ;p ;p ;p -p m| >p ,p 'p e@ e@ e@ e@ e@ e@ e@ e@ e@ e@ e@ e@ e@ e@ e@ e@ e@ e@ e@ e@ e@ e@ e@ e@ e@ e@ e@ e@ e@ e@ e@ e@ e@ e@ e@ e@ 5^ s] t] )) 4] u] +~ v  x  y  A  D  c. h+ =+ M+ N+ ^# =@ 5@ /# /# P# _$ _$ _$ _$ _$ _$ _$ B$ @% c% }% m% G% t%  c K- u- u- u- V; )p ;* '& Gb !p wc H/ l{ p2 Y. +~ L! r! 7~ I' F} U( U( U( U( U( U( U( U( U( U( U( U( !j g} %$ $+ y| ,5 y| *@ b% F} U( U( U( U( U( U( U( U( U( U( U( U( U( U( U( U( U( U( U( U( U( U( U( U( U( U( U( U( U( U( U( U( U( U( U( U( U( U( U( U( U( U( U( U( U( U( Gk Hk Jl ]2 %n #2 0m ~p {p ]p ^p /p (~ F} F} F} F} F} F} F} F} F} F} F} F} F} F} F} F} F} F} F} F} F} F} K5 F} F} U( U( U( U( U( U( U( U( U( U( U( U( U( U( U( U( U( U( U( U( U( U( U( U( U( U( U( U( U( U( U( U( U( U( U( U( U( U( U( U( U( U( U( U( U( U( U( U( U( U( U( U( U( U( U( U( U( U( U( U( U( U( U( U( U( U( U( U( U( U( U( U( U( U( =| =| (p _p :p h7 84 ;4 84 84 i7 i7 i7 i7 i7 i7 i7 V7 84 h7 h7 <p [p }p |p Gk F} U( U( U( U( U( U( U( U( U( U( U( U( U( U( U( U( U( U( U( U( U( U( U( U( U( U( U( U( U( U( U( U( U( U( U( U( U( U( U( U( U( U( U( U( U( U( U( U( U( U( U( p( !j =| D$ M+ y| y| y| y| M+ A$ g} !j U( U( U( U( U( U( U( U( U( U( U( U( U( D, j3 B< (_ y( 8) +~ X. &d f} 9m K6 1p 2p ,n V0 u- u- G- h0 Io Jo #i Uj Vj 3p 4p 5p 6p 7p #g 8p 9p 0p ap bp cp dp ep fp gp hp ip jp kp lp mp 4d Oc Oc Ak mj Kb %h &h V. 4^ 5^ ]( np op 6m Ue Ue Ue Ue Ue Ue Ue Ue Ue Ue pp sn $p `i `i `i `i `i `i `i `i `i `i `i `i `i `i _c qp rp sp tp tp tp tp tp tp tp tp tp tp tp tp tp tp tp tp tp tp tp tp tp tp ",
"up vp [c [c [c [c [c [c wp q/ q/ q/ q/ q/ q/ q/ q/ q/ xp x} yp zp e@ e@ e@ e@ e@ e@ e@ e@ e@ e@ e@ e@ e@ e@ e@ e@ e@ e@ e@ e@ e@ e@ e@ e@ e@ vb Ap Ap e@ e@ Bp Cp ]( s] t] )) 4] u] +~ v  x  y  A  D  c. h+ =+ M+ N+ ^# =@ 5@ /# /# P# _$ _$ _$ _$ _$ _$ _$ C$ @% c% |% n% G% s% z9 k; v- u- G- ^k Q> ;* )& 6' Dp wc H/ k{ H3 Y. +~ L! r! 7~ I' F} U( U( U( U( U( U( U( U( U( U( U( U( !j g} %$ $+ y| ,5 y| *@ b% F} U( U( U( U( U( U( U( U( U( U( U( U( U( U( U( U( U( U( U( U( U( U( U( U( U( U( U( U( U( U( U( U( U( U( U( U( U( U( U( U( U( U( U( U( U( U( Gk Hk Jl ]2 %n #2 0m ~p {p ]p ^p bk (( U< U< U< U< U< U< U< U< U< U< U< U< U< U< U< U< U< U< U< U< U< U< U< F} U( U( U( U( U( U( U( U( U( U( U( U( U( U( U( U( U( U( U( U( U( U( U( U( U( U( U( U( U( U( U( U( U( U( U( U( U( U( U( U( U( U( U( U( U( U( U( U( U( U( U( U( U( U( U( U( U( U( U( U( U( U( U( U( U( U( U( U( U( U( U( U( U( U( U( U( U( A3 (p Ep Fp X3 Gp Hp [7 Ip Ip ;4 W4 W4 Ip Ip [7 [7 Hp Hp 73 Jp |p !j F} U( U( U( U( U( U( U( U( U( U( U( U( U( U( U( U( U( U( U( U( U( U( U( U( U( U( U( U( U( U( U( U( U( U( U( U( U( U( U( U( U( U( U( U( U( U( U( U( U( U( U( U( p( !j =| D$ M+ y| y| y| y| M+ A$ g} !j U( U( U( U( U( U( U( U( U( U( U( U( U( =| S) M_ (_ y( 8) +~ X. Kp f} 9m j3 Dp 2p M= V0 u- u- G- h0 Lp Jo #i Uj Vj 3p Fd Mp Np Op Pp Qp Rp Sp Tp Up Vp Wp Xp Yp Zp Zp `p jp kp  q .q Oc Oc Oc Ak mj Kb %h &h V. 4^ 5^ ]( np +q +q @q Ue Ue Ue Ue Ue Ue Ue Ue Ue #q sn $q `i `i `i `i `i `i `i `i `i `i `i !o V% `i `i `i `i %q %q %q %q &q &q &q &q &q &q &q *q %q %q %q %q =q -q -q -q -q -q -q ",
"up up ;q [c [c [c [c [c >q q/ q/ q/ q/ q/ q/ q/ q/ q/ q/ q/ q/ ,q 'q 'q )q !q 87 ~q ~q ~q {q ;d ;d ;d ;d ;d e@ e@ e@ e@ e@ e@ ]q ^q /q (q >. >. >. >. >. >. _q :q p  s] t] )) 4] u] +~ v  x  y  A  D  c. h+ =+ M+ N+ ^# =@ 5@ /# /# P# _$ _$ _$ _$ _$ _$ _$ C$ @% _% g% o% G% s% z9 k; v- u- G- ^k R> ,* )& I% Dp wc ~9 k{ H3 ^( +~ L! r! 7~ I' F} U( U( U( U( U( U( U( U( U( U( U( U( !j g} %$ $+ y| ,5 y| *@ b% F} U( U( U( U( U( U( U( U( U( U( U( U( U( U( U( U( U( U( U( U( U( U( U( U( U( U( U( U( U( U( U( U( U( U( U( U( U( U( U( U( U( U( U( U( U( U( Gk Hk Jl ]2 %n #2 0m ~p {p <q +3 [q U< U( U( U( U( U( U( U( U( U( U( U( U( U( U( U( U( U( U( U( U( U( U( U( U( U( U( U( U( U( U( U( U( U( U( U( U( U( U( U( U( U( U( U( U( U( U( U( U( U( U( U( U( U( U( U( U( U( U( U( U( U( U( U( U( U( U( U( U( U( U( U( U( U( U( U( U( U( U( U( U( U( U( U( U( U( U( U( U( U( U( U( U( U( U( U( U( U( U( U( U( U( A3 =| }q |q 1q 2q X3 #7 X3 <7 <7 >4 >4 <7 <7 X3 X3 [7 2q 3q 4q j^ F} U( U( U( U( U( U( U( U( U( U( U( U( U( U( U( U( U( U( U( U( U( U( U( U( U( U( U( U( U( U( U( U( U( U( U( U( U( U( U( U( U( U( U( U( U( U( U( U( U( U( U( U( U( p( !j =| D$ M+ y| y| y| y| M+ A$ g} !j U( U( U( U( U( U( U( U( U( U( U( U( U( =| S) M_ (_ y( 8) +~ Y. I4 f} H/ j3 Dp 5q na V0 u- G- G- h0 Lp Jo #i Uj Vj 3p 6q 7q zh 8q 9q 0q aq bq cq dq tl eq fq gq hq iq Xo jq kq lq mq 1d Oc Oc Ak mj Kb %h &h V. 4^ 5^ ]( np +q +q nq Ue Ue Ue Ue Ue Ue Ue Ue Ue *h sn oq `i `i `i `i `i `i `i !o pq qq ~h ~h ~h b@ b@ b@ 3# rq rq rq rq rq rq rq rq rq rq rq rq rq rq rq rq rq rq rq sq tq uq +/ ",
"vq up up wq =7 xq Jh yq q/ q/ q/ q/ q/ q/ q/ q/ q/ q/ q/ q/ q/ -  'q 'q 'q 'q 'q 'q 'q 'q 'q 'q 'q 'q 'q 'q 'q 'q 'q 'q 'q zq Aq Bq Bq Bq Cq >. >. >. >. Dq Eq Fq r] s] t] )) 4] u] +~ v  x  y  A  D  c. h+ =+ M+ N+ ^# =@ 5@ /# /# P# _$ _$ _$ _$ _$ _$ _$ C$ @% _% 4% p% H% u% z9 k; v- u- u- ^k Gq ,* |& 0b Hq Sf w( k{ H3 8] +~ L! r! 7~ I' F} U( U( U( U( U( U( U( U( U( U( U( U( !j g} %$ $+ y| ,5 y| *@ b% F} U( U( U( U( U( U( U( U( U( U( U( U( U( U( U( U( U( U( U( U( U( U( U( U( U( U( U( U( U( U( U( U( U( U( U( U( U( U( U( U( U( U( U( U( U( U( Gk Hk Jl ]2 %n #2 0m ~p {p <q Iq &e g} U( U( U( U( U( U( U( U( U( U( U( U( U( U( U( U( U( U( U( U( U( U( U( U( U( U( U( U( U( U( U( U( U( U( U( U( U( U( U( U( U( U( U( U( U( U( U( U( U( U( U( U( U( U( U( U( U( U( U( U( U( U( U( U( U( U( U( U( U( U( U( U( U( U( U( U( U( U( U( U( U( U( U( U( U( U( U( U( U( U( U( U( U( U( U( U( U( U( U( U( U( U( =| =| Jq Kq 2k Ok #7 74 L3 L3 L3 L3 p3 p3 74 #7 L3 Lq Mq d1 D, U( U( U( U( U( U( U( U( U( U( U( U( U( U( U( U( U( U( U( U( U( U( U( U( U( U( U( U( U( U( U( U( U( U( U( U( U( U( U( U( U( U( U( U( U( U( U( U( U( U( U( U( U( U( p( !j =| D$ M+ y| y| y| y| M+ A$ g} !j U( U( U( U( U( U( U( U( U( U( U( U( U( =| S) M_ (_ y( 8) -0 W. I4 f} H/ j3 Dp 5q O= V0 G- G- G- h0 Lp Jo #i Uj Vj 3p 6q Nq Oq Pq Qq Rq Sq Tq Uq Vq Wq Xq Yq Zq `q  r .r +r sl @r #r 2d Oc Oc Ak mj Kb %h &h V. 4^ 5^ ]( np +q +q +q @q Ue Ue Ue Ue Ue Ue Ue Ue r$ $r %r `i `i `i `i !o 6| }9 ~h ~h ~h ~h ~h &r b@ b@ b@ +# rq rq rq rq rq rq rq rq rq rq rq rq rq rq rq rq rq rq rq rq rq rq rq ",
"*r =r <b up up up up vp [c G| q/ q/ q/ q/ q/ q/ q/ q/ q/ q/ q/ q/ q/ -r ;r >r ,r ,r ,r ,r 'r ;r ;r ;r ;r )r ,r ,q 'q !r $/ &{ ~r {r ]r ^r /r /r (r a1 >. >. >. >. 1] s] t] )) 4] u] +~ v  x  y  A  D  c. h+ =+ M+ N+ ^# =@ 5@ /# /# P# _$ _$ _$ _$ _$ _$ _$ D$ @% _% 4% p% H% T&  c k; v- u- u- ^k S> ,* ~& 0b Hq X, $^ k{ 2) e+ +~ L! r! 7~ I' F} U( U( U( U( U( U( U( U( U( U( U( U( !j g} %$ $+ y| ,5 y| *@ b% F} U( U( U( U( U( U( U( U( U( U( U( U( U( U( U( U( U( U( U( U( U( U( U( U( U( U( U( U( U( U( U( U( U( U( U( U( U( U( U( U( U( U( U( U( U( U( Gk Hk Jl ]2 %n #2 0m ~p {p <q +3 &e g} U( U( U( U( U( U( U( U( U( U( U( U( U( U( U( U( U( U( U( U( U( U( U( U( U( U( U( U( U( U( U( U( U( U( U( U( U( U( U( U( U( U( U( U( U( U( U( U( U( U( U( U( U( U( U( U( U( U( U( U( U( U( U( U( U( U( U( U( U( U( U( U( U( U( U( U( U( U( U( U( U( U( U( U( U( U( U( U( U( U( U( U( U( U( U( U( U( U( U( U( U( U( U( =| D, R4 _r t1 Mk H6 G6 F6 F6 F6 F6 ;3 3k :r <r [r gk U( U( U( U( U( U( U( U( U( U( U( U( U( U( U( U( U( U( U( U( U( U( U( U( U( U( U( U( U( U( U( U( U( U( U( U( U( U( U( U( U( U( U( U( U( U( U( U( U( U( U( U( U( U( U( U( p( !j =| D$ M+ y| y| y| y| M+ A$ g} !j U( U( U( U( U( U( U( U( U( U( U( U( U( =| 0; X^ (_ y( 8) -0 W. I4 f} H/ G3 Hq }r na V0 u- u- G- h0 |r Jo #i Uj Vj 3p 1r Nq 2r 3r 4r 5r 6r 7r 8r 9r 0r ar br cr dr er fr gr hr ir jr Oc Oc Oc Ak mj Kb %h &h V. 4^ 5^ ]( np +q +q +q X_ Ue Ue Ue Ue Ue Ue Ue (l kr lr mr nr or nr }9 ~h ~h ~h ~h ~h ~h ~h ~h Z& b@ b@ b@ pr rq rq rq rq rq rq rq rq rq rq rq rq rq rq rq rq rq rq rq rq rq rq rq ",
"s[ *r *r 42 qr up up up up up rr ;q sr (' q/ q/ q/ q/ q/ q/ q/ q/ q/ q/ q/ q/ q/ q/ q/ q/ q/ q/ q/ q/ q/ q/ q/ {' 3{ tr tr tr tr i! ur /r /r /r /r vr wr >. >. >. 1] s] t] )) 4] u] +~ v  x  y  A  D  c. h+ =+ M+ N+ ^# =@ 5@ /# /# P# _$ _$ _$ _$ _$ _$ _$ D$ ]% _% 4% p% H% T& z9 k; v- u- u- ^k S> '* }& s' xr X, $^ k{ 2) e+ +~ L! r! 7~ I' F} U( U( U( U( U( U( U( U( U( U( U( U( !j  ~ %$ $+ y| ,5 y| *@ b% F} U( U( U( U( U( U( U( U( U( U( U( U( U( U( U( U( U( U( U( U( U( U( U( U( U( U( U( U( U( U( U( U( U( U( U( U( U( U( U( U( U( U( U( U( U( U( Gk Hk Jl ]2 %n #2 0m ~p {p <q +3 &e g} U( U( U( U( U( U( U( U( U( U( U( U( U( U( U( U( U( U( U( U( U( U( U( U( U( U( U( U( U( U( U( U( U( U( U( U( U( U( U( U( U( U( U( U( U( U( U( U( U( U( U( U( U( U( U( U( U( U( U( U( U( U( U( U( U( U( U( U( U( U( U( U( U( U( U( U( U( U( U( U( U( U( U( U( U( U( U( U( U( U( U( U( U( U( U( U( U( U( U( U( U( U( U( U( U( !j yr uj zr S2 e6 y2 y2 y2 y2 >3 S2 Ar Br (p U( U( U( U( U( U( U( U( U( U( U( U( U( U( U( U( U( U( U( U( U( U( U( U( U( U( U( U( U( U( U( U( U( U( U( U( U( U( U( U( U( U( U( U( U( U( U( U( U( U( U( U( U( U( U( U( U( p( !j =| D$ M+ y| y| y| y| M+ A$ g} !j U( U( U( U( U( U( U( U( U( U( U( U( U( (% ][ X^ (_ y( 8) +~ X. I4 97 ~9 Sf Hq }r na V0 u- u- G- h0 |r Jo #i Uj Vj 3p Cr Dr 2r Er Fr Gr Hr Ir Jr 9r jp Kr Lr Mr Nr Or Pr Qr Rr Sr Tr Oc Oc Oc Ak mj Kb %h &h V. 4^ 5^ ]( np +q +q +q +q 9( Ue Ue Ue Ue Ue r$ Ur Vr Wr ~h ~h ~h ~h ~h ~h ~h ~h ~h ~h ~h ~h ~h &. b@ b@ b@ Xr rq rq rq rq rq rq rq rq rq rq rq rq rq n< Yr Zr `r  s rq rq rq rq `r ",
".s +s *r *r *r q. Y[ up up up up up up up up @s 8i #s -< q/ q/ q/ q/ q/ q/ q/ q/ q/ k: Xd 3{ tr 3{ 3{ 3{ 3{ tr tr tr tr tr tr tr p/ /r /r /r /r /r /r /r M( k: >. 1] s] t] )) 4] u] +~ v  x  y  A  D  c. h+ =+ M+ N+ ^# =@ 5@ /# /# P# _$ _$ _$ _$ _$ _$ _$ D$ ]% _% 4% p% H% G% z9 k; v- u- u- ^k S> '* {& +i $s Ze 39 P{ 2) 8] +~ L! r! 7~ I' F} ;a ;a ;a ;a ;a ;a ;a ;a ;a ;a ;a ;a +{  ~ %$ $+ y| ,5 y| *@ l^ 5] ;a ;a ;a ;a ;a ;a ;a ;a ;a ;a ;a ;a ;a ;a ;a ;a ;a ;a ;a ;a ;a ;a ;a ;a ;a ;a ;a ;a ;a ;a ;a ;a ;a ;a ;a ;a ;a ;a ;a ;a ;a ;a ;a ;a ;a U( ,/ ~j Jl ]2 %n #2 0m ~p {p <q Iq &e g} U( ;a ;a ;a ;a ;a ;a ;a ;a ;a ;a ;a ;a ;a ;a ;a ;a ;a ;a ;a ;a ;a ;a ;a ;a ;a ;a ;a ;a ;a ;a ;a ;a ;a ;a ;a ;a ;a ;a ;a ;a ;a ;a ;a ;a ;a ;a ;a ;a ;a ;a ;a ;a ;a ;a ;a ;a ;a ;a ;a ;a ;a ;a ;a ;a ;a ;a ;a ;a ;a ;a ;a ;a ;a ;a ;a ;a ;a ;a ;a ;a ;a ;a ;a ;a ;a ;a ;a ;a ;a ;a ;a ;a ;a ;a ;a ;a ;a ;a ;a ;a ;a ;a ;a ;a U( F} %s &s 02 S2 y2 1l s1 z2 *s =s #5 (p A3 U( ;a ;a ;a ;a ;a ;a ;a ;a ;a ;a ;a ;a ;a ;a ;a ;a ;a ;a ;a ;a ;a ;a ;a ;a ;a ;a ;a ;a ;a ;a ;a ;a ;a ;a ;a ;a ;a ;a ;a ;a ;a ;a ;a ;a ;a ;a ;a ;a ;a ;a ;a ;a ;a ;a ;a ;a p( +{ A3 D$ M+ y| y| y| y| M+ A$  ~ !j ;a ;a ;a ;a ;a ;a ;a ;a ;a ;a ;a ;a U( (% ][ X^ (_ y( 8) +~ Y. p2 97 ~9 X, xr }r N= V0 u- u- G- '- |r Jo #i Uj Vj 3p Cr Dr -s ;s >s ,s 's )s !s ~s {s Kr Lr ]s Or ^s /s Qr (s _s Tr Oc Oc Oc Ak mj Kb %h &h V. 4^ 5^ ]( np +q +q +q +q +q op :s <s Ue [s }s }s |s ~h ~h ~h ~h ~h ~h ~h ~h ~h ~h ~h ~h ~h 1s b@ b@ b@ b@ Xr rq rq rq rq rq rq rq rq rq rq rq rq rq 2s Yr Yr Yr Yr Zr rq rq Yr Yr ",
"3s 3s 4s 5s *r *r 6s 7s up up up up up 8s 9s 0s 0s 0s 0s as bs -< cs q/ q/ q/ =5 ds <g <g <g <g <g <g es tr tr tr tr tr tr tr tr y' /r /r /r /r /r /r /r /r /r /r 1] s] t] )) 4] u] +~ v  x  y  A  D  c. h+ =+ M+ N+ ^# =@ 5@ /# /# P# _$ _$ _$ _$ _$ _$ _$ D$ ]% _% 4% q% H% G% z9 k; v- u- u- ^k S> '* ]& ui $s ^h 39 P{ 2) 8] +~ L! r! 7~ I' 5] ;a ;a ;a ;a ;a ;a ;a ;a ;a ;a ;a ;a +{  ~ %$ $+ y| ,5 y| *@ l^ 5] ;a ;a ;a ;a ;a ;a ;a ;a ;a ;a ;a ;a ;a ;a ;a ;a ;a ;a ;a ;a ;a ;a ;a ;a ;a ;a ;a ;a ;a ;a ;a ;a ;a ;a ;a ;a ;a ;a ;a ;a ;a ;a ;a ;a ;a ;a ,/ ~j fs ]2 %n #2 0m ~p {p <q Iq %|  ~ ;a ;a ;a ;a ;a ;a ;a ;a ;a ;a ;a ;a ;a ;a ;a ;a ;a ;a ;a ;a ;a ;a ;a ;a ;a ;a ;a ;a ;a ;a ;a ;a ;a ;a ;a ;a ;a ;a ;a ;a ;a ;a ;a ;a ;a ;a ;a ;a ;a ;a ;a ;a ;a ;a ;a ;a ;a ;a ;a ;a ;a ;a ;a ;a ;a ;a ;a ;a ;a ;a ;a ;a ;a ;a ;a ;a ;a ;a ;a ;a ;a ;a ;a ;a ;a ;a ;a ;a ;a ;a ;a ;a ;a ;a ;a ;a ;a ;a ;a ;a ;a ;a ;a ;a ;a ;a 5] F} gs hs is z2 N1 N1 N1 js ks $5 ;a ;a ;a ;a ;a ;a ;a ;a ;a ;a ;a ;a ;a ;a ;a ;a ;a ;a ;a ;a ;a ;a ;a ;a ;a ;a ;a ;a ;a ;a ;a ;a ;a ;a ;a ;a ;a ;a ;a ;a ;a ;a ;a ;a ;a ;a ;a ;a ;a ;a ;a ;a ;a ;a ;a ;a ;a ;a ;a `! +{ A3 D$ M+ y| y| y| y| N+ c=  ~ +{ ;a ;a ;a ;a ;a ;a ;a ;a ;a ;a ;a ;a ;a &% *1 X^ (_ y( 8) +~ e+ 2) U} w( X, xr ls N= V0 u- u- G- '- ms Jo #i Uj Vj 3p Cr Dr -s ns >s os 's )s !s ps +o qs rs ss ts us vs ws xs ys zs Oc Oc Oc Ak mj Kb %h &h V. 4^ 5^ ]( np +q +q +q +q +q +q +q As Bs }s }s Cs ~h ~h ~h ~h ~h ~h ~h ~h ~h ~h ~h ~h ~h ~h Ds b@ b@ b@ b@ pr rq rq rq rq rq rq `r Yr Yr n< rq rq  s Yr Yr Yr Yr Yr Yr n< Yr Yr Yr ",
"3s 3s 3s 3s 2s +s *r *r 42 qr up up Ja E3 Es Fs 0s 0s 0s 0s 0s 0s 0s 0s Gs Hs Is Is Is Is Is Is Is Is Is Is Js Ks tr tr tr tr +' /r /r /r /r /r /r /r /r /r Ls wr 1] s] t] )) 4] u] +~ v  x  y  A  D  c. h+ =+ M+ N+ ^# =@ 5@ /# /# P# _$ _$ _$ _$ _$ _$ _$ V$ ]% _% h% t% #& H% z9 k; v- u- u- ^k S> u, l& <j 2c ^h F: P{ a$ M6 +~ L! r! 7~ I' 5] ;a ;a ;a ;a ;a ;a ;a ;a ;a ;a ;a ;a +{  ~ %$ $+ y| ,5 y| *@ l^ 5] ;a ;a ;a ;a ;a ;a ;a ;a ;a ;a ;a ;a ;a ;a ;a ;a ;a ;a ;a ;a ;a ;a ;a ;a ;a ;a ;a ;a ;a ;a ;a ;a ;a ;a ;a ;a ;a ;a ;a ;a ;a ;a ;a ;a ;a ;a ,/ ~j fs ]2 %n #2 0m ~p {p <q Iq %|  ~ ;a ;a ;a ;a ;a ;a ;a ;a ;a ;a ;a ;a ;a ;a ;a ;a ;a ;a ;a ;a ;a ;a ;a ;a ;a ;a ;a ;a ;a ;a ;a ;a ;a ;a ;a ;a ;a ;a ;a ;a ;a ;a ;a ;a ;a ;a ;a ;a ;a ;a ;a ;a ;a ;a ;a ;a ;a ;a ;a ;a ;a ;a ;a ;a ;a ;a ;a ;a ;a ;a ;a ;a ;a ;a ;a ;a ;a ;a ;a ;a ;a ;a ;a ;a ;a ;a ;a ;a ;a ;a ;a ;a ;a ;a ;a ;a ;a ;a ;a ;a ;a ;a ;a ;a ;a ;a ;a 5] +{ 25 uj js +2 N1 Ms Ns $5 ;a ;a ;a ;a ;a ;a ;a ;a ;a ;a ;a ;a ;a ;a ;a ;a ;a ;a ;a ;a ;a ;a ;a ;a ;a ;a ;a ;a ;a ;a ;a ;a ;a ;a ;a ;a ;a ;a ;a ;a ;a ;a ;a ;a ;a ;a ;a ;a ;a ;a ;a ;a ;a ;a ;a ;a ;a ;a ;a ;a `! +{ A3 D$ M+ y| y| y| y| N+ c=  ~ +{ ;a ;a ;a ;a ;a ;a ;a ;a ;a ;a ;a ;a ;a &% *1 X^ (_ y( 8) +~ e+ 2) U} $^ X, xr Os na V0 u- u- G- '- Ps Jo #i Uj Vj 3p Cr Dr 2r Qs Rs Ss 3r Ts Us Vs cp Ws co Xs Ys Zs `s  t .t +t @t Qc Oc Oc Ak mj Kb %h &h V. 4^ 5^ ]( np +q +q +q +q +q +q Fl i@ }s }s #t $t &r %t Z& Ds Ds Ds i= b@ b@ b@ b@ b@ b@ b@ b@ b@ b@ b@ b@ 2{ rq rq rq rq rq  s Yr Yr Yr Yr Zr  s `r Yr Yr Yr Yr Yr Yr Yr Yr Yr Yr ",
"3s 3s 3s 3s 3s 3s &t +s *r *r *t *t *r *r *r *r C# Es =t -t 0s 0s 0s 0s 0s 0s -t Hs Is Is Is Is Is Is ;t 4! es &{ p/ v' U{ >t /r /r /r /r /r /r /r /r /r /r /r Ls 1] s] t] )) 4] u] +~ v  x  y  A  D  c. h+ =+ M+ N+ ^# =@ 5@ /# /# P# _$ _$ _$ _$ _$ _$ _$ W$ ]% U, h% t% I% S% J> k; v- u- u- ^k T> !* :& <j 2c 1{ F: P{ ~% M6 +~ L! r! 7~ I' 5] ;a ;a ;a ;a ;a ;a ;a ;a ;a ;a ;a ;a +{  ~ %$ $+ y| ,5 y| *@ l^ 5] ;a ;a ;a ;a ;a ;a ;a ;a ;a ;a ;a ;a ;a ;a ;a ;a ;a ;a ;a ;a ;a ;a ;a ;a ;a ;a ;a ;a ;a ;a ;a ;a ;a ;a ;a ;a ;a ;a ;a ;a ;a ;a ;a ;a ;a ;a ,/ ~j fs ]2 %n #2 0m ~p {p <q Iq %|  ~ ;a ;a ;a ;a ;a ;a ;a ;a ;a ;a ;a ;a ;a ;a ;a ;a ;a ;a ;a ;a ;a ;a ;a ;a ;a ;a ;a ;a ;a ;a ;a ;a ;a ;a ;a ;a ;a ;a ;a ;a ;a ;a ;a ;a ;a ;a ;a ;a ;a ;a ;a ;a ;a ;a ;a ;a ;a ;a ;a ;a ;a ;a ;a ;a ;a ;a ;a ;a ;a ;a ;a ;a ;a ;a ;a ;a ;a ;a ;a ;a ;a ;a ;a ;a ;a ;a ;a ;a ;a ;a ;a ;a ;a ;a ;a ;a ;a ;a ;a ;a ;a ;a ;a ;a ;a ;a ;a ;a 5] ;a  < ks 3q ,t 't .j 0~ %5 ;a ;a ;a ;a ;a ;a ;a ;a ;a ;a ;a ;a ;a ;a ;a ;a ;a ;a ;a ;a ;a ;a ;a ;a ;a ;a ;a ;a ;a ;a ;a ;a ;a ;a ;a ;a ;a ;a ;a ;a ;a ;a ;a ;a ;a ;a ;a ;a ;a ;a ;a ;a ;a ;a ;a ;a ;a ;a ;a `! +{ A3 D$ M+ y| y| y| y| N+ c=  ~ +{ ;a ;a ;a ;a ;a ;a ;a ;a ;a ;a ;a ;a ;a %% @^ X^ (_ y( 8) +~ )t 2) U} $^ !t $s ,& N= V0 u- u- G- '- Ps Jo #i Uj Vj 3p Cr Dr 2r ~t {t Gr ]t ^t /t (t _t :t <t [t Xs }t |t 1t 2t 3t 4t Oc Oc Oc Ak mj Kb %h &h V. 4^ 5^ ]( np +q +q +q +q +q 5t }s Ur 6t 7t b@ b@ b@ b@ b@ b@ b@ b@ b@ b@ b@ b@ b@ b@ b@ b@ b@ b@ b@ b@ b@ +# rq rq rq rq rq Zr Yr Yr Yr Yr Yr Yr Yr Yr Yr [< 8t Yr Yr Yr Yr Yr Yr ",
"3s 3s 3s 3s 3s 3s 3s 3s &t O8 *r *r *r *r *r *r *r *r *r *r *r *r *r *r *r *r *r *r *r *r *r *r *r *r *r *r *r 9t 0t at /r /r /r /r /r /r /r /r /r /r /r /r /r /r 1] s] t] )) 4] u] +~ v  x  y  A  D  c. h+ =+ M+ N+ ^# =@ 5@ /# /# P# _$ _$ _$ _$ _$ _$ _$ W$ ]% <% i% t% J% H% J> k; v- u- u- ^k T> bt :& <j 2c 1{ X< }6 ~% o4 +~ L! r! 7~ I' 5] ;a ;a ;a ;a ;a ;a ;a ;a ;a ;a ;a ;a +{  ~ %$ $+ y| ,5 y| *@ l^ 5] ;a ;a ;a ;a ;a ;a ;a ;a ;a ;a ;a ;a ;a ;a ;a ;a ;a ;a ;a ;a ;a ;a ;a ;a ;a ;a ;a ;a ;a ;a ;a ;a ;a ;a ;a ;a ;a ;a ;a ;a ;a ;a ;a ;a ;a ;a ,/ ~j fs ]2 %n #2 0m ~p {p <q Iq %|  ~ ;a ;a ;a ;a ;a ;a ;a ;a ;a ;a ;a ;a ;a ;a ;a ;a ;a ;a ;a ;a ;a ;a ;a ;a ;a ;a ;a ;a ;a ;a ;a ;a ;a ;a ;a ;a ;a ;a ;a ;a ;a ;a ;a ;a ;a ;a ;a ;a ;a ;a ;a ;a ;a ;a ;a ;a ;a ;a ;a ;a ;a ;a ;a ;a ;a ;a ;a ;a ;a ;a ;a ;a ;a ;a ;a ;a ;a ;a ;a ;a ;a ;a ;a ;a ;a ;a ;a ;a ;a ;a ;a ;a ;a ;a ;a ;a ;a ;a ;a ;a ;a ;a ;a ;a ;a ;a ;a ;a ;a 5] q( $5 Gg ct dt 4| 5] ;a ;a ;a ;a ;a ;a ;a ;a ;a ;a ;a ;a ;a ;a ;a ;a ;a ;a ;a ;a ;a ;a ;a ;a ;a ;a ;a ;a ;a ;a ;a ;a ;a ;a ;a ;a ;a ;a ;a ;a ;a ;a ;a ;a ;a ;a ;a ;a ;a ;a ;a ;a ;a ;a ;a ;a ;a ;a ;a ;a `! +{ A3 D$ M+ y| y| y| y| N+ c=  ~ +{ ;a ;a ;a ;a ;a ;a ;a ;a ;a ;a ;a ;a ;a R' *^ X^ (_ y( 8) +~ )t 2) &5 $^ X, $s et N= V0 u- u- G- Y9 Ps Jo #i Uj Vj 3p Cr Nq ft gt ht it Pq jt kt lt mt nt 'm ot pt pt eq qt rt st Qc Oc Oc Oc Ak mj Kb %h &h V. 4^ 5^ Y^ tt ut ut ut u: vt wt mr b@ b@ b@ b@ b@ b@ xt 3# +# 2{ pr Xr Xr Xr Xr Xr Xr Xr 2{ +# 3# *. b@ b@ 3# rq rq rq rq rq 2s Yr Yr Yr Yr yt [< U: zt At At At Bt Yr Yr Yr Yr Yr ",
"3s 3s 3s 3s 3s 3s 3s 3s 3s 3s Ct *r *r *r *r *r *r *r *r *r *r *r *r *r *r *r *r *r *r *r *r *r *r *r *r *r *r *r *r *r /r /r /r /r /r /r /r /r /r /r /r /r /r /r 1] s] t] )) 4] u] +~ v  x  y  A  D  c. h+ =+ M+ N+ ^# =@ 5@ /# /# P# _$ _$ _$ _$ _$ _$ _$ W$ ]% <% i% t% J% #& J> k; v- u- u- ^k ]3 ~* Dt #m M2 ci X< }6 [2 /| -0 L! r! 7~ I' 5] ;a ;a ;a ;a ;a ;a ;a ;a ;a ;a ;a ;a +{  ~ %$ $+ y| ,5 y| *@ l^ 5] ;a ;a ;a ;a ;a ;a ;a ;a ;a ;a ;a ;a ;a ;a ;a ;a ;a ;a ;a ;a ;a ;a ;a ;a ;a ;a ;a ;a ;a ;a ;a ;a ;a ;a ;a ;a ;a ;a ;a ;a ;a ;a ;a ;a ;a ;a ,/ ~j fs ]2 %n #2 0m ~p {p <q Iq %|  ~ ;a ;a ;a ;a ;a ;a ;a ;a ;a ;a ;a ;a ;a ;a ;a ;a ;a ;a ;a ;a ;a ;a ;a ;a ;a ;a ;a ;a ;a ;a ;a ;a ;a ;a ;a ;a ;a ;a ;a ;a ;a ;a ;a ;a ;a ;a ;a ;a ;a ;a ;a ;a ;a ;a ;a ;a ;a ;a ;a ;a ;a ;a ;a ;a ;a ;a ;a ;a ;a ;a ;a ;a ;a ;a ;a ;a ;a ;a ;a ;a ;a ;a ;a ;a ;a ;a ;a ;a ;a ;a ;a ;a ;a ;a ;a ;a ;a ;a ;a ;a ;a ;a ;a ;a ;a ;a ;a ;a ;a ;a 5] 7] a[ &e 7] 7] ;a ;a ;a ;a ;a ;a ;a ;a ;a ;a ;a ;a ;a ;a ;a ;a ;a ;a ;a ;a ;a ;a ;a ;a ;a ;a ;a ;a ;a ;a ;a ;a ;a ;a ;a ;a ;a ;a ;a ;a ;a ;a ;a ;a ;a ;a ;a ;a ;a ;a ;a ;a ;a ;a ;a ;a ;a ;a ;a ;a ;a `! +{ A3 D$ M+ y| y| y| y| N+ c=  ~ +{ ;a ;a ;a ;a ;a ;a ;a ;a ;a ;a ;a ;a U(  ) H: Q{ (_ y( 8) +~ 8] 2) &5 $^ ^h Et et N= V0 u- u- G- Y9 Ft Jo #i Uj Vj 3p 6q 7q Gt Ht It Jt Kt Lt Mt Nt Id Ot Pt kp Qt Rt St co Tt 2d Oc Oc Oc Oc Ak mj Kb %h &h V. 4^ 5^ 1] tt vt vt vt Ut r7 b@ b@ b@ 3# Vt pr Xr rq rq rq n< `r Yr 2s rq rq rq rq rq rq rq rq rq rq rq pr 2{ rq rq rq rq rq Yr Yr Yr Yr At At At At At At At At At [< Yr Yr Yr Yr ",
"3s 3s 3s 3s 3s 3s 3s 3s 3s 3s &t *r *r *r *r *r *r *r *r *r *r *r *r *r *r *r *r *r *r *r *r *r *r *r *r *r *r *r *r *r Wt /r /r /r /r /r /r /r /r /r /r /r /r /r 1] s] t] )) 4] u] +~ v  x  y  A  D  c. h+ =+ M+ N+ ^# =@ 5@ /# /# P# _$ _$ _$ _$ _$ _$ _$ W$ ]% <% j% s% J% I% Xt k; v- u- u- ^k ]3 z* _& #m M2 (k _1 }6 [2 %} -0 L! r! 7~ I' 5] ;a ;a ;a ;a ;a ;a ;a ;a ;a ;a ;a ;a +{  ~ %$ $+ y| ,5 y| =@ l^ 5] ;a ;a ;a ;a ;a ;a ;a ;a ;a ;a ;a ;a ;a ;a ;a ;a ;a ;a ;a ;a ;a ;a ;a ;a ;a ;a ;a ;a ;a ;a ;a ;a ;a ;a ;a ;a ;a ;a ;a ;a ;a ;a ;a ;a ;a ;a ,/ ~j fs ]2 %n #2 0m ~p {p <q Iq %|  ~ ;a ;a ;a ;a ;a ;a ;a ;a ;a ;a ;a ;a ;a ;a ;a ;a ;a ;a ;a ;a ;a ;a ;a ;a ;a ;a ;a ;a ;a ;a ;a ;a ;a ;a ;a ;a ;a ;a ;a ;a ;a ;a ;a ;a ;a ;a ;a ;a ;a ;a ;a ;a ;a ;a ;a ;a ;a ;a ;a ;a ;a ;a ;a ;a ;a ;a ;a ;a ;a ;a ;a ;a ;a ;a ;a ;a ;a ;a ;a ;a ;a ;a ;a ;a ;a ;a ;a ;a ;a ;a ;a ;a ;a ;a ;a ;a ;a ;a ;a ;a ;a ;a ;a ;a ;a ;a ;a ;a ;a ;a ;a A3  ~ h[ 5] ;a ;a ;a ;a ;a ;a ;a ;a ;a ;a ;a ;a ;a ;a ;a ;a ;a ;a ;a ;a ;a ;a ;a ;a ;a ;a ;a ;a ;a ;a ;a ;a ;a ;a ;a ;a ;a ;a ;a ;a ;a ;a ;a ;a ;a ;a ;a ;a ;a ;a ;a ;a ;a ;a ;a ;a ;a ;a ;a ;a ;a ;a `! +{ A3 D$ M+ y| y| y| y| N+ c=  ~ +{ ;a ;a ;a ;a ;a ;a ;a ;a ;a ;a ;a ;a U(  ) B< Q{ (_ y( 8) +~ 8] 2) &5 39 1{ Yt Zt N= V0 u- u- G- `t Ps Jo #i Uj Vj 3p Fd Mp  u .u +u @u #u $u %u &u !e rt *u =u -u ;u >u lq rt ,u Oc Oc Oc Oc Ak mj Kb %h &h V. 4^ 5^ ]( 'u b@ b@ b@ b@ b@ b@ 3# rq rq rq `r Zr 2s Yr Yr Yr Yr Yr Yr Yr `r rq rq rq rq rq rq rq rq rq rq rq rq rq rq rq rq Yr Yr Yr Yr At At At At At At At At At At Yr Yr Yr Yr ",
"3s 3s 3s 3s 3s 3s 3s 3s 3s 3s  s *r *r *r *r *r *r *r *r *r *r *r *r *r *r *r *r *r *r *r *r *r *r *r *r *r *r *r *r *r )u /r /r /r /r /r /r /r /r /r /r /r /r /r 1] s] t] )) 4] u] +~ v  x  y  A  D  c. h+ =+ M+ N+ ^# =@ 5@ /# /# P# _$ _$ _$ _$ _$ _$ _$ W$ ]% <% j% v% j& J% Xt k; v- u- u- ^k ]3 P, Q& #m M2 (k _1 3^  & %} a! L! r! 7~ I' 5] ;a ;a ;a ;a ;a ;a ;a ;a ;a ;a ;a ;a +{  ~ %$ $+ y| ,5 c. V@ (( 5] ;a ;a ;a ;a ;a ;a ;a ;a ;a ;a ;a ;a ;a ;a ;a ;a ;a ;a ;a ;a ;a ;a ;a ;a ;a ;a ;a ;a ;a ;a ;a ;a ;a ;a ;a ;a ;a ;a ;a ;a ;a ;a ;a ;a ;a ;a ,/ ~j fs ]2 %n #2 0m ~p {p <q Iq %|  ~ ;a ;a ;a ;a ;a ;a ;a ;a ;a ;a ;a ;a ;a ;a ;a ;a ;a ;a ;a ;a ;a ;a ;a ;a ;a ;a ;a ;a ;a ;a ;a ;a ;a ;a ;a ;a ;a ;a ;a ;a ;a ;a ;a ;a ;a ;a ;a ;a ;a ;a ;a ;a ;a ;a ;a ;a ;a ;a ;a ;a ;a ;a ;a ;a ;a ;a ;a ;a ;a ;a ;a ;a ;a ;a ;a ;a ;a ;a ;a ;a ;a ;a ;a ;a ;a ;a ;a ;a ;a ;a ;a ;a ;a ;a ;a ;a ;a ;a ;a ;a ;a ;a ;a ;a ;a ;a ;a ;a ;a ;a ;a ;a ;a ;a ;a ;a ;a ;a ;a ;a ;a ;a ;a ;a ;a ;a ;a ;a ;a ;a ;a ;a ;a ;a ;a ;a ;a ;a ;a ;a ;a ;a ;a ;a ;a ;a ;a ;a ;a ;a ;a ;a ;a ;a ;a ;a ;a ;a ;a ;a ;a ;a ;a ;a ;a ;a ;a ;a ;a ;a ;a ;a ;a ;a ;a ;a ;a `! +{ A3 D$ M+ y| y| y| y| N+ c=  ~ +{ ;a ;a ;a ;a ;a ;a ;a ;a ;a ;a ;a ;a U(  ) B< Q{ (_ y( 8) +~ 8] 2) &5 !1 1{ Yt !u N= V0 u- u- u- `t ~u {u #i Uj Vj 3p Fd ]u ^u /u (u _u :u <u [u }u |u 1u 1t |t 2u 3u 4u 5u 6u 3t 4t Oc Oc Oc Ak mj Kb %h &h V. 4^ 5^ ]( 7u 8u b@ b@ b@ b@ b@ O6 rq  s Yr Yr Yr Yr Yr Yr Yr Yr Yr Yr Yr Yr Yr `r n< rq rq rq rq rq rq rq rq rq rq rq rq rq Yr Yr Yr Yr At At At At At At At At At At zt Yr Yr Yr ",
"3s 3s 3s 3s 3s 3s 3s 3s 3s 3s 5s *r *r *r *r 6s Wt at q: /r /r /r 6s *r *r *r *r *r *r *r *r *r *r *r *r *r *r *r *r *r )u /r /r /r /r /r /r /r /r /r /r /r /r /r 1] s] t] )) 4] u] +~ v  x  y  A  D  c. h+ =+ M+ N+ ^# =@ 5@ /# /# P# _$ _$ _$ _$ _$ _$ _$ W$ ]% <% j% u% L% L% ', J- v- u- G- ^k ]3 {* 8, 9u [3 Fk V< 3^  & >5 a! L! r! 7~ I' 5] ;a ;a ;a ;a ;a ;a ;a ;a ;a ;a ;a ;a +{  ~ %$ $+ y| 0u E  V@ `$ A3 ;a ;a ;a ;a ;a ;a ;a ;a ;a ;a ;a ;a ;a ;a ;a ;a ;a ;a ;a ;a ;a ;a ;a ;a ;a ;a ;a ;a ;a ;a ;a ;a ;a ;a ;a ;a ;a ;a ;a ;a ;a ;a ;a ;a ;a ;a ,/ ~j fs ]2 %n #2 0m ~p {p <q Iq %|  ~ ;a ;a ;a ;a ;a ;a ;a ;a ;a ;a ;a ;a ;a ;a ;a ;a ;a ;a ;a ;a ;a ;a ;a ;a ;a ;a ;a ;a ;a ;a ;a ;a ;a ;a ;a ;a ;a ;a ;a ;a ;a ;a ;a ;a ;a ;a ;a ;a ;a ;a ;a ;a ;a ;a ;a ;a ;a ;a ;a ;a ;a ;a ;a ;a ;a ;a ;a ;a ;a ;a ;a ;a ;a ;a ;a ;a ;a ;a ;a ;a ;a ;a ;a ;a ;a ;a ;a ;a ;a ;a ;a ;a ;a ;a ;a ;a ;a ;a ;a ;a ;a ;a ;a ;a ;a ;a ;a ;a ;a ;a ;a ;a ;a ;a ;a ;a ;a ;a ;a ;a ;a ;a ;a ;a ;a ;a ;a ;a ;a ;a ;a ;a ;a ;a ;a ;a ;a ;a ;a ;a ;a ;a ;a ;a ;a ;a ;a ;a ;a ;a ;a ;a ;a ;a ;a ;a ;a ;a ;a ;a ;a ;a ;a ;a ;a ;a ;a ;a ;a ;a ;a ;a ;a ;a ;a ;a ;a `! +{ A3 D$ M+ y| y| y| y| N+ c=  ~ +{ ;a ;a ;a ;a ;a ;a ;a ;a ;a ;a ;a ;a U(  ) B< Q{ (_ y( 8) +~ 8] 2) &5 X< au M2 bu N= V0 u- u- G- `t ~u {u #i Uj Vj Ko Nd Lo cu du eu fu gu hu iu ju Uo ku }t lu mu nu ou pu |t qu ru Pd Oc Oc Ak mj Kb %h &h V. 4^ 5^ ]( 7u +# b@ b@ b@ b@ (+ rq rq Yr Yr Yr Yr Yr Yr Yr Yr Yr Yr Yr Yr Yr Yr Yr Yr Yr Yr 2s `r `r `r n< n< n< n< n< n< `r Yr Yr Yr Yr zt At At At At At At At At At At zt su Yr ",
"3s 3s 3s 3s 3s 3s 3s 3s 3s &t *r *r *r )u at /r /r /r /r /r /r /r Wt *r *r *r *r *r *r *r *r *r *r *r *r *r )u tu )u *r )u /r /r /r /r /r /r /r /r /r /r /r /r /r 1] s] t] )) 4] u] +~ v  x  y  A  D  c. h+ =+ M+ N+ ^# =@ 5@ /# /# P# _$ _$ _$ _$ _$ _$ _$ X$ $% <% j% u% L% L% ', J- v- u- G- ^k V> 8* m& Ho uu Fk V< 3^  & U1 -0 L! r! 7~ I' 5] ;a ;a ;a ;a ;a ;a ;a ;a ;a ;a ;a ;a +{  ~ %$ $+ y| 0u E  o' 9; (% ;a ;a ;a ;a ;a ;a ;a ;a ;a ;a ;a ;a ;a ;a ;a ;a ;a ;a ;a ;a ;a ;a ;a ;a ;a ;a ;a ;a ;a ;a ;a ;a ;a ;a ;a ;a ;a ;a ;a ;a ;a ;a ;a ;a ;a ;a ,/ ~j fs ]2 %n #2 0m ~p {p <q Iq %|  ~ ;a ;a ;a ;a ;a ;a ;a ;a ;a ;a ;a ;a ;a ;a ;a ;a ;a ;a ;a ;a ;a ;a ;a ;a ;a ;a ;a ;a ;a ;a ;a ;a ;a ;a ;a ;a ;a ;a ;a ;a ;a ;a ;a ;a ;a ;a ;a ;a ;a ;a ;a ;a ;a ;a ;a ;a ;a ;a ;a ;a ;a ;a ;a ;a ;a ;a ;a ;a ;a ;a ;a ;a ;a ;a ;a ;a ;a ;a ;a ;a ;a ;a ;a ;a ;a ;a ;a ;a ;a ;a ;a ;a ;a ;a ;a ;a ;a ;a ;a ;a ;a ;a ;a ;a ;a ;a ;a ;a ;a ;a ;a ;a ;a ;a ;a ;a ;a ;a ;a ;a ;a ;a ;a ;a ;a ;a ;a ;a ;a ;a ;a ;a ;a ;a ;a ;a ;a ;a ;a ;a ;a ;a ;a ;a ;a ;a ;a ;a ;a ;a ;a ;a ;a ;a ;a ;a ;a ;a ;a ;a ;a ;a ;a ;a ;a ;a ;a ;a ;a ;a ;a ;a ;a ;a ;a ;a ;a `! +{ A3 D$ M+ y| y| y| y| N+ c=  ~ +{ ;a ;a ;a ;a ;a ;a ;a ;a ;a ;a ;a ;a U(  ) B< Q{ (_ y( 8) +~ 8] 2) l{ X< (k M2 bu O= V0 G- G- G- `t ~u vu #i Uj Vj Em 'e wu Mo xu yu zu Zg Au Bu Cu Du Eu Fu Gu Hu Hu Gu Iu Ju Ku Lu Oc Oc Oc Ak mj Kb %h &h V. 4^ 5^ ]( 7u rq 3# b@ b@ b@ O6 rq rq Yr Yr Yr Yr Yr Yr Yr Yr Yr Yr Yr Yr Yr Yr Yr Yr Yr Yr Yr Yr Yr Yr Yr Yr Yr Yr Yr Yr Yr Yr Yr Yr Yr 8t At At At At At At At At At At At At At ",
"3s 3s 3s 3s 3s 3s 3s 3s 3s  s *r *r *r /r /r /r /r /r /r /r /r /r q: *r *r *r *r *r *r *r *r *r *r *r *r at /r /r /r /r q: /r /r /r /r /r /r /r /r /r /r /r /r /r 1] s] t] )) 4] u] +~ v  x  y  A  D  c. h+ =+ M+ N+ ^# =@ 5@ /# /# P# _$ _$ _$ _$ _$ _$ _$ b% $% <% l% u% L% L% K> J- v- u- G- ^k V> ]* n& Mu :4 Fk V< 3^  & 5) +~ L! r! 7~ I' 5] ;a ;a ;a ;a ;a ;a ;a ;a ;a ;a ;a ;a +{  ~ %$ $+ y| Nu c. ,) z/ j3 =| ;a ;a ;a ;a ;a ;a ;a ;a ;a ;a ;a ;a ;a ;a ;a ;a ;a ;a ;a ;a ;a ;a ;a ;a ;a ;a ;a ;a ;a ;a ;a ;a ;a ;a ;a ;a ;a ;a ;a ;a ;a ;a ;a ;a ;a ,/ ~j fs ]2 %n #2 0m ~p {p <q Iq %|  ~ ;a ;a ;a ;a ;a ;a ;a ;a ;a ;a ;a ;a ;a ;a ;a ;a ;a ;a ;a ;a ;a ;a ;a ;a ;a ;a ;a ;a ;a ;a ;a ;a ;a ;a ;a ;a ;a ;a ;a ;a ;a ;a ;a ;a ;a ;a ;a ;a ;a ;a ;a ;a ;a ;a ;a ;a ;a ;a ;a ;a ;a ;a ;a ;a ;a ;a ;a ;a ;a ;a ;a ;a ;a ;a ;a ;a ;a ;a ;a ;a ;a ;a ;a ;a ;a ;a ;a ;a ;a ;a ;a ;a ;a ;a ;a ;a ;a ;a ;a ;a ;a ;a ;a ;a ;a ;a ;a ;a ;a ;a ;a ;a ;a ;a ;a ;a ;a ;a ;a ;a ;a ;a ;a ;a ;a ;a ;a ;a ;a ;a ;a ;a ;a ;a ;a ;a ;a ;a ;a ;a ;a ;a ;a ;a ;a ;a ;a ;a ;a ;a ;a ;a ;a ;a ;a ;a ;a ;a ;a ;a ;a ;a ;a ;a ;a ;a ;a ;a ;a ;a ;a ;a ;a ;a ;a ;a ;a `! +{ A3 D$ M+ y| y| y| y| N+ c=  ~ +{ ;a ;a ;a ;a ;a ;a ;a ;a ;a ;a ;a ;a U(  ) B< Q{ (_ y( 8) +~ 8] 2) l{ X< Fk uu bu O= Ou u- G- G- `t Pu vu #i Lc }j 3p Tn Un 5o Qu Ru Su Tu Uu ao ju Vu Wu =o Xu Yu Yu Zu #o -o `u  v Oc Oc Oc Ak mj Kb %h &h V. 4^ 5^ ]( 7u rq rq 3# *. }$ rq rq rq `r Yr Yr Yr Yr Yr Yr Yr Yr Yr Yr 2s 2s 2s Yr Yr Yr Yr Yr Yr Yr Yr Yr Yr Yr Yr Yr Yr Yr Yr Yr Yr Yr 8t At At At At At At At At At At At At At ",
"3s 3s 3s 3s 3s 3s 3s 3s 3s +s *r *r *r /r /r /r /r /r /r /r /r /r /r 6s *r *r *r *r *r *r *r *r *r *r .v /r /r /r /r /r /r /r /r /r /r /r /r /r /r /r /r /r /r /r 1] s] t] )) 4] u] +~ v  x  y  A  D  c. h+ =+ M+ N+ ^# =@ 5@ /# /# P# _$ _$ _$ _$ _$ _$ _$ Z$ %% e% l% u% L% R% K> J- v- u- u- +v V> ]* O& f* @v #v G} z] f} 5) ]^ L! r! 7~ +) 5] ;a ;a ;a ;a ;a ;a ;a ;a ;a ;a ;a ;a +{  ~ %$ $+ y| Nu h+ T$ <( *^ R' A3 ;a ;a ;a ;a ;a ;a ;a ;a ;a ;a ;a ;a ;a ;a ;a ;a ;a ;a ;a ;a ;a ;a ;a ;a ;a ;a ;a ;a ;a ;a ;a ;a ;a ;a ;a ;a ;a ;a ;a ;a ;a ;a ;a ;a ,/ ~j fs ]2 %n #2 0m ~p {p <q Iq %|  ~ ;a ;a ;a ;a ;a ;a ;a ;a ;a ;a ;a ;a ;a ;a ;a ;a ;a ;a ;a ;a ;a ;a ;a ;a ;a ;a ;a ;a ;a ;a ;a ;a ;a ;a ;a ;a ;a ;a ;a ;a ;a ;a ;a ;a ;a ;a ;a ;a ;a ;a ;a ;a ;a ;a ;a ;a ;a ;a ;a ;a ;a ;a ;a ;a ;a ;a ;a ;a ;a ;a ;a ;a ;a ;a ;a ;a ;a ;a ;a ;a ;a ;a ;a ;a ;a ;a ;a ;a ;a ;a ;a ;a ;a ;a ;a ;a ;a ;a ;a ;a ;a ;a ;a ;a ;a ;a ;a ;a ;a ;a ;a ;a ;a ;a ;a ;a ;a ;a ;a ;a ;a ;a ;a ;a ;a ;a ;a ;a ;a ;a ;a ;a ;a ;a ;a ;a ;a ;a ;a ;a ;a ;a ;a ;a ;a ;a ;a ;a ;a ;a ;a ;a ;a ;a ;a ;a ;a ;a ;a ;a ;a ;a ;a ;a ;a ;a ;a ;a ;a ;a ;a ;a ;a ;a ;a ;a ;a `! +{ A3 D$ M+ y| y| y| y| N+ c=  ~ +{ ;a ;a ;a ;a ;a ;a ;a ;a ;a ;a ;a ;a U(  ) B< Q{ (_ y( 8) ]^ M6 L2 k{ X< Fk uu $v 6- Ou G- u- G- `t Pu vu #i %v &v *v zk 7n Vn =v -v ;v >v ,v 'v !k )v !v ~v {v ]v ^v {v /v (v _v on Oc Oc Oc Ak mj Kb %h &h V. 4^ 5^ ]( 7u rq rq rq rq rq rq rq rq rq n< 2s Yr Yr Yr 2s Zr n<  s rq rq rq rq rq Zr Yr Yr Yr Yr Yr Yr Yr Yr Yr Yr Yr Yr Yr Yr Yr Yr Yr zt At At At At At At At At At At At At At ",
"3s 3s 3s 3s 3s 3s 3s 3s 3s 5s *r *r *r at /r /r /r /r /r /r /r /r /r q: at Wt *r *r *r 6s at 0t *r )u /r /r /r /r /r /r /r /r /r /r /r /r /r /r /r /r /r /r /r /r 1] s] t] )) 4] u] +~ v  x  y  A  D  c. h+ =+ M+ N+ ^# =@ 5@ /# /# P# _$ _$ _$ _$ _$ _$ _$ Z$ &% [% l% F% M% M% K> J- v- u- G- ^k ^3 /* O& 5q @v 8m K6 17 f} 5) x! L! r! r( I3 5] ;a ;a ;a ;a ;a ;a ;a ;a ;a ;a ;a ;a +{  ~ %$ $+ y| Nu c. :v <( b/ G} =| ;a ji ;a ;a ;a ;a ;a ;a ;a ;a ;a ;a ;a ;a ;a ;a ;a ;a ;a ;a ;a ;a ;a ;a ;a ;a ;a ;a ;a ;a ;a ;a ;a ;a ;a ;a ;a ;a ;a ;a ;a ;a ;a ;a ,/ ~j fs ]2 %n #2 0m ~p {p <q Iq %|  ~ ;a ;a ;a ;a ;a ;a ;a ;a ;a ;a ;a ;a ;a ;a ;a ;a ;a ;a ;a ;a ;a ;a ;a ;a ;a ;a ;a ;a ;a ;a ;a ;a ;a ;a ;a ;a ;a ;a ;a ;a ;a ;a ;a ;a ;a ;a ;a ;a ;a ;a ;a ;a ;a ;a ;a ;a ;a ;a ;a ;a ;a ;a ;a ;a ;a ;a ;a ;a ;a ;a ;a ;a ;a ;a ;a ;a ;a ;a ;a ;a ;a ;a ;a ;a ;a ;a ;a ;a ;a ;a ;a ;a ;a ;a ;a ;a ;a ;a ;a ;a ;a ;a ;a ;a ;a ;a ;a ;a ;a ;a ;a ;a ;a ;a ;a ;a ;a ;a ;a ;a ;a ;a ;a ;a ;a ;a ;a ;a ;a ;a ;a ;a ;a ;a ;a ;a ;a ;a ;a ;a ;a ;a ;a ;a ;a ;a ;a ;a ;a ;a ;a ;a ;a ;a ;a ;a ;a ;a ;a ;a ;a ;a ;a ;a ;a ;a ;a ;a ;a ;a ;a ;a ;a ;a ;a ;a ;a `! +{ A3 D$ M+ y| y| y| y| N+ c=  ~ +{ ;a ;a ;a ;a ;a ;a ;a ;a ;a ;a ;a ;a U(  ) <v M^ (_ y( 8) ]~ o4 a$ k{ X< Fk :4 [v 6- Ou u- u- G- !- Pu }v #i $i lc n^  d 7n Gm |v 1v 2v 3v 4v 5v 6v 7v 8v Um ;o 9v 0v ;o er av bv cv Oc Oc Oc dv 2i Kb %h &h V. 4^ 5^ ]( 7u rq rq rq rq rq rq rq rq rq rq rq rq rq rq rq rq rq rq rq rq rq rq rq rq Zr Yr Yr Yr Yr Yr Yr Yr Yr Yr [< At At At zt 8t [< At At At At At At At At At At At At At At ",
"3s 3s 3s 3s 3s 3s 3s 3s 3s *r *r *r *r 6s /r /r /r /r /r /r /r /r /r /r /r /r /r at .v /r /r /r *r q: /r /r /r /r /r /r /r /r /r /r /r /r /r /r /r /r /r /r /r /r 1] s] t] )) 4] u] +~ v  x  y  A  D  c. h+ =+ M+ N+ ^# =@ 5@ /# /# P# _$ _$ _$ _$ _$ _$ _$ Z$ &% }% l% G% O% P% K> J- v- u- G- ^k ^3 /* W5 M, r% $n j3 H/ f} 5) x! L! r! r( I3 5] ;a ;a ;a ;a ;a ;a ;a ;a ;a ;a ;a ;a +{  ~ %$ $+ y| 0u c. T$ <( Q{ B< P' A3 ji ;a ;a ;a ;a ;a ;a ;a ;a ;a ;a ;a ;a ;a ;a ;a ;a ;a ;a ;a ;a ;a ;a ;a ;a ;a ;a ;a ;a ;a ;a ;a ;a ;a ;a ;a ;a ;a ;a ;a ;a ;a ;a ,/ ~j fs ]2 %n #2 0m ~p {p <q Iq %|  ~ ;a ;a ;a ;a ;a ;a ;a ;a ;a ;a ;a ;a ;a ;a ;a ;a ;a ;a ;a ;a ;a ;a ;a ;a ;a ;a ;a ;a ;a ;a ;a ;a ;a ;a ;a ;a ;a ;a ;a ;a ;a ;a ;a ;a ;a ;a ;a ;a ;a ;a ;a ;a ;a ;a ;a ;a ;a ;a ;a ;a ;a ;a ;a ;a ;a ;a ;a ;a ;a ;a ;a ;a ;a ;a ;a ;a ;a ;a ;a ;a ;a ;a ;a ;a ;a ;a ;a ;a ;a ;a ;a ;a ;a ;a ;a ;a ;a ;a ;a ;a ;a ;a ;a ;a ;a ;a ;a ;a ;a ;a ;a ;a ;a ;a ;a ;a ;a ;a ;a ;a ;a ;a ;a ;a ;a ;a ;a ;a ;a ;a ;a ;a ;a ;a ;a ;a ;a ;a ;a ;a ;a ;a ;a ;a ;a ;a ;a ;a ;a ;a ;a ;a ;a ;a ;a ;a ;a ;a ;a ;a ;a ;a ;a ;a ;a ;a ;a ;a ;a ;a ;a ;a ;a ;a ;a ;a ;a `! +{ A3 D$ M+ y| y| y| y| N+ c=  ~ +{ ;a ;a ;a ;a ;a ;a ;a ;a ;a ;a ;a ;a U(  ) <v M^ (_ y( 8) x! /| a$ k{ _1 8m ev fv 6- Ou G- G- G- !- gv }v ve <f hv iv jv $m kv lv mv nv ov pv 5v qv rv sv tv Hu uv uv vv wv xv yv zv Oc Oc Oc Av Bv Mb %h &h V. 4^ 5^ ]( 7u rq rq rq rq rq rq rq rq rq rq rq rq rq rq rq rq rq rq rq rq rq rq rq rq rq Yr Yr Yr Yr Yr Yr Yr Yr Yr At At At At At At At At At At At At At At At At At At At At At ",
"3s 3s 3s 3s 3s 3s 3s 3s 3s +s *r *r *r *r Cv /r /r /r /r /r /r /r /r /r /r /r /r /r /r /r /r /r at /r /r /r /r /r /r /r /r /r /r /r /r /r /r /r /r /r /r /r /r /r 1] s] t] )) 4] u] +~ v  x  y  A  D  c. h+ =+ M+ N+ ^# =@ 5@ /# /# P# _$ _$ _$ _$ _$ _$ _$ Z$ &% }% m% G% N% P% K> J- v- G- G- ^k Dv c, r& M, L6 1p j3 H/ 97 5) x! L! r! r( I3 5] ;a ;a ;a ;a ;a ;a ;a ;a ;a ;a ;a ;a +{  ~ %$ $+ y| 0u c. T$ Ev Q{ Q{ *^ %% %5 ;a ;a ;a ;a ;a ;a ;a ;a ;a ;a ;a ;a ;a ;a ;a ;a ;a ;a ;a ;a ;a ;a ;a ;a ;a ;a ;a ;a ;a ;a ;a ;a ;a ;a ;a ;a ;a ;a ;a ;a ;a ;a ,/ ~j Fv Gv %n Hv Iv wo %a <q Iq %|  ~ ;a ;a ;a ;a ;a ;a ;a ;a ;a ;a ;a ;a ;a ;a ;a ;a ;a ;a ;a ;a ;a ;a ;a ;a ;a ;a ;a ;a ;a ;a ;a ;a ;a ;a ;a ;a ;a ;a ;a ;a ;a ;a ;a ;a ;a ;a ;a ;a ;a ;a ;a ;a ;a ;a ;a ;a ;a ;a ;a ;a ;a ;a ;a ;a ;a ;a ;a ;a ;a ;a ;a ;a ;a ;a ;a ;a ;a ;a ;a ;a ;a ;a ;a ;a ;a ;a ;a ;a ;a ;a ;a ;a ;a ;a ;a ;a ;a ;a ;a ;a ;a ;a ;a ;a ;a ;a ;a ;a ;a ;a ;a ;a ;a ;a ;a ;a ;a ;a ;a ;a ;a ;a ;a ;a ;a ;a ;a ;a ;a ;a ;a ;a ;a ;a ;a ;a ;a ;a ;a ;a ;a ;a ;a ;a ;a ;a ;a ;a ;a ;a ;a ;a ;a ;a ;a ;a ;a ;a ;a ;a ;a ;a ;a ;a ;a ;a ;a ;a ;a ;a ;a ;a ;a ;a ;a ;a ;a ;a +e g} H$ *+ y| y| y| y| N+ c=  ~ +{ ;a ;a ;a ;a ;a ;a ;a ;a ;a ;a ;a ;a U(  ) <v M^ (_ y( 8) x! /| a$ k{ G} 8m ev fv P= Jv G- G- G- !- gv }v ve -e Lc Oe ({ Kv Lv Mv Nv Ov Pv Qv Rv Sv Tv Uv Vv Wv Xv Yv Zv lq `v  w .w 2d Oc Oc 2@ +w 3i %h &h V. 4^ 5^ ]( 7u rq rq rq rq rq rq rq rq rq rq rq rq rq rq rq rq rq rq rq rq rq rq rq rq rq  s Yr Yr Yr Yr Yr Yr Yr Yr m| zt At At At At At At At At At At At At At At At At At At At ",
"3s 3s 3s 3s 3s 3s 3s 3s 3s &t s[ *r *r *r *r .v /r /r /r /r /r /r /r /r /r /r /r /r /r /r /r /r /r /r /r /r /r /r /r /r /r /r /r /r /r /r /r /r /r /r /r /r /r /r 1] s] t] )) 4] u] +~ v  x  y  A  D  c. h+ =+ M+ N+ ^# =@ 5@ /# /# P# _$ _$ _$ _$ _$ _$ _$ Z$ &% }% m% G% N% O% K> J- v- G- G- +v @w 6* s& Os #w 1p j3 H/ 97 5) x! L! r! r( I3 5] ;a ;a ;a ;a ;a ;a ;a ;a ;a ;a ;a ;a +{  ~ %$ $+ y| 0u c. T$ Ev Q{ W( b/ 0; i4 ;a ;a ;a ;a ;a ;a ;a ;a ;a ;a ;a ;a ;a ;a ;a ;a ;a ;a ;a ;a ;a ;a ;a ;a ;a ;a ;a ;a ;a ;a ;a ;a ;a ;a ;a ;a ;a ;a ;a ;a ;a ;a ,/ |7 $w Kk %w &w Gv Dn %a *w Iq %|  ~ ;a ;a ;a ;a ;a ;a ;a ;a ;a ;a ;a ;a ;a ;a ;a ;a ;a ;a ;a ;a ;a ;a ;a ;a ;a ;a ;a ;a ;a ;a ;a ;a ;a ;a ;a ;a ;a ;a ;a ;a ;a ;a ;a ;a ;a ;a ;a ;a ;a ;a ;a ;a ;a ;a ;a ;a ;a ;a ;a ;a ;a ;a ;a ;a ;a ;a ;a ;a ;a ;a ;a ;a ;a ;a ;a ;a ;a ;a ;a ;a ;a ;a ;a ;a ;a ;a ;a ;a ;a ;a ;a ;a ;a ;a ;a ;a ;a ;a ;a ;a ;a ;a ;a ;a ;a ;a ;a ;a ;a ;a ;a ;a ;a ;a ;a ;a ;a ;a ;a ;a ;a ;a ;a ;a ;a ;a ;a ;a ;a ;a ;a ;a ;a ;a ;a ;a ;a ;a ;a ;a ;a ;a ;a ;a ;a ;a ;a ;a ;a ;a ;a ;a ;a ;a ;a ;a ;a ;a ;a ;a ;a ;a ;a ;a ;a ;a ;a ;a ;a ;a ;a ;a ;a ;a ;a ;a ;a +e =w O' md @+ y| y| y| y| N+ c=  ~ +{ ;a ;a ;a ;a ;a ;a ;a ;a ;a ;a ;a ;a U( R' *^ M^ (_ y( 8) x! /| a$ k{ G} $n -w ;w P= C- G- G- G- !- :f Jo Kb !c ve >w Mc &i ,w 'w )w !w ~w {w ]w ^w /w (w <t 2u _w _w 2u :w Ws rt <w Qc Oc Oc [w hv Kb %h &h V. 4^ 5^ ]( 7u rq rq rq rq rq rq rq rq rq rq rq rq rq rq rq rq rq rq rq rq rq rq rq rq rq rq  s Yr Yr Yr Yr Yr Yr Yr Yr Yr zt At At At At At At At At At At At At At At At At At At ",
"3s 3s 3s 3s 3s 3s 3s 3s 3s 3s 3s O8 *r *r *r *r .v /r /r /r /r /r /r /r /r /r /r /r /r /r /r /r /r /r /r /r /r /r /r /r /r /r /r /r /r /r /r /r /r /r /r /r /r /r 1] s] t] )) 4] u] +~ v  x  y  A  D  c. h+ =+ M+ N+ ^# =@ 5@ /# /# P# _$ _$ _$ _$ _$ _$ _$ Z$ &% }% .& G% }w 7' |w J- v- G- G- +v @w 6* t& Os #w 1p wc H/ 97 5) x! L! r! r( I3 5] ;a ;a ;a ;a ;a ;a ;a ;a ;a ;a ;a ;a +{  ~ %$ $+ y| 0u c. T$ <( Q{ Q{ W( B< Q' A3 ;a ;a ;a ;a ;a ;a ;a ;a ;a ;a ;a ;a ;a ;a ;a ;a ;a ;a ;a ;a ;a ;a ;a ;a ;a ;a ;a ;a ;a ;a ;a ;a ;a ;a ;a ;a ;a ;a ;a ;a ;a +{ n5 f1 1w 2w 3w d2 4w 5w 6w r, %|  ~ ;a ;a ;a ;a ;a ;a ;a ;a ;a ;a ;a ;a ;a ;a ;a ;a ;a ;a ;a ;a ;a ;a ;a ;a ;a ;a ;a ;a ;a ;a ;a ;a ;a ;a ;a ;a ;a ;a ;a ;a ;a ;a ;a ;a ;a ;a ;a ;a ;a ;a ;a ;a ;a ;a ;a ;a ;a ;a ;a ;a ;a ;a ;a ;a ;a ;a ;a ;a ;a ;a ;a ;a ;a ;a ;a ;a ;a ;a ;a ;a ;a ;a ;a ;a ;a ;a ;a ;a ;a ;a ;a ;a ;a ;a ;a ;a ;a ;a ;a ;a ;a ;a ;a ;a ;a ;a ;a ;a ;a ;a ;a ;a ;a ;a ;a ;a ;a ;a ;a ;a ;a ;a ;a ;a ;a ;a ;a ;a ;a ;a ;a ;a ;a ;a ;a ;a ;a ;a ;a ;a ;a ;a ;a ;a ;a ;a ;a ;a ;a ;a ;a ;a ;a ;a ;a ;a ;a ;a ;a ;a ;a ;a ;a ;a ;a ;a ;a ;a ;a ;a ;a ;a ;a ;a ;a ;a ;a +e :% X< +4 H  y| y| y| y| N+ c=  ~ +{ ;a ;a ;a ;a ;a ;a ;a ;a ;a ;a ;a ;a ;a R' *^ X^ (_ y( 8) x! /| ~% k{ G} $n -w 7w P= 8w G- G- G- !- Pu 9w 0w -e )c aw bw Gh cw dw ok ew fw jk gw hw iw jw lq kw lw lw kw mw nw ow 2d Oc Oc pw qw rw Mb %h sw V. 4^ 5^ ]( 7u rq rq rq rq rq rq rq rq rq rq rq rq rq rq rq rq rq rq rq rq rq rq rq rq rq rq rq rq 2s Yr Yr Yr Yr Yr Yr Yr Yr At At At At At At At At At At At At At At At At At At ",
"3s 3s 3s 3s 3s 3s 3s 3s 3s 3s 3s .s *r *r *r *r *r .v /r /r /r /r /r /r /r /r /r /r /r /r /r /r /r /r /r /r /r /r /r /r /r /r /r /r /r /r /r /r /r /r /r /r /r /r 1] s] t] )) 4] u] +~ v  x  y  A  D  c. h+ =+ M+ N+ ^# =@ 5@ /# /# P# _$ _$ _$ _$ _$ _$ _$ Z$ &% }% o% G% N% 7' |w J- v- u- G- +v (3 _* t& ,& 27 Dp Sf H/ U} 5) W. L! r! r( f$ 5] ;a ;a ;a ;a ;a ;a ;a ;a ;a ;a ;a ;a +{  ~ %$ $+ y| 0u c. T$ <( Q{ Q{ W( b/ 0; i4 ;a ;a ;a ;a ;a ;a ;a ;a ;a ;a ;a ;a ;a ;a ;a ;a ;a ;a ;a ;a ;a ;a ;a ;a ;a ;a ;a ;a ;a ;a ;a ;a ;a ;a ;a ;a ;a ;a ;a ;a ;a ;a &e '5 tw uw vw ww H2 A4 xw q, (4  ~ ;a ;a ;a ;a ;a ;a ;a ;a ;a ;a ;a ;a ;a ;a ;a ;a ;a ;a ;a ;a ;a ;a ;a ;a ;a ;a ;a ;a ;a ;a ;a ;a ;a ;a ;a ;a ;a ;a ;a ;a ;a ;a ;a ;a ;a ;a ;a ;a ;a ;a ;a ;a ;a ;a ;a ;a ;a ;a ;a ;a ;a ;a ;a ;a ;a ;a ;a ;a ;a ;a ;a ;a ;a ;a ;a ;a ;a ;a ;a ;a ;a ;a ;a ;a ;a ;a ;a ;a ;a ;a ;a ;a ;a ;a ;a ;a ;a ;a ;a ;a ;a ;a ;a ;a ;a ;a ;a ;a ;a ;a ;a ;a ;a ;a ;a ;a ;a ;a ;a ;a ;a ;a ;a ;a ;a ;a ;a ;a ;a ;a ;a ;a ;a ;a ;a ;a ;a ;a ;a ;a ;a ;a ;a ;a ;a ;a ;a ;a ;a ;a ;a ;a ;a ;a ;a ;a ;a ;a ;a ;a ;a ;a ;a ;a ;a ;a ;a ;a ;a ;a ;a ;a ;a ;a ;a ;a p( +e S' }: +4 @+ yw y| y| y| N+ c=  ~ +{ ;a ;a ;a ;a ;a ;a ;a ;a ;a ;a ;a ;a ;a R' @^ X^ (_ y( 8) x! /| ~% P{ G} $n #w zw Q= Aw G- G- G- r2 Ps Bw Cw Cd Bd fb Dw Ew Fw Gw Gw Fe Gw Gw Hw <e 5d mq Iw Ws lp lp Ws nt iw ]l Oc Oc Oc Jw Kw -e Mb Lw Mw V. 4^ 5^ ]( 7u rq rq rq rq rq rq rq rq rq rq rq rq rq rq rq rq rq rq rq rq rq rq rq rq rq rq rq rq rq `r Yr Yr Yr Yr Yr Yr Yr yt At At At At At At At At At At At At At At At At At ",
"3s 3s 3s 3s 3s 3s 3s 3s 3s 3s 3s .s *r *r *r *r *r *r .v /r /r /r /r /r /r /r /r /r /r /r /r /r /r /r /r /r /r /r /r /r /r /r /r /r /r /r /r /r /r /r /r /r /r /r 1] s] t] )) 4] u] +~ v  x  y  A  D  c. h+ =+ M+ N+ ^# =@ 5@ /# /# P# _$ _$ _$ _$ _$ _$ _$ Z$ &% }% o% G% O% -' |w J- v- G- G- +v X> :* v& ,& Nw Dp Sf ~9 U} }2 Y. +~ r! r( R{ F} ;a ;a ;a ;a ;a ;a ;a ;a ;a ;a ;a ;a +{  ~ %$ $+ y| 0u c. T$ <( Q{ Q{ Q{ Q{ H: P' A3 `! p( p( p( `! `! `! `! ji ;a ;a ;a ;a ;a ;a ;a ;a ;a ;a ;a ;a ;a ;a ;a ;a ;a ;a ;a ;a ;a ;a ;a ;a ;a ;a ;a ;a ;a ;a ;a ;a  ~ D: Ow Pw Qw Rw Sw Z4 Tw c, ha  ~ ;a ;a ;a ;a ;a ;a ;a ;a ;a ;a ;a ;a ;a ;a ;a ;a ;a ;a ;a ;a ;a ;a ;a ;a ;a ;a ;a ;a ;a ;a ;a ;a ;a ;a ;a ;a ;a ;a ;a ;a ;a ;a ;a ;a ;a ;a ;a ;a ;a ;a ;a ;a ;a ;a ;a ;a ;a ;a ;a ;a ;a ;a ;a ;a ;a ;a ;a ;a ;a ;a ;a ;a ;a ;a ;a ;a ;a ;a ;a ;a ;a ;a ;a ;a ;a ;a ;a ;a ;a ;a ;a ;a ;a ;a ;a ;a ;a ;a ;a ;a ;a ;a ;a ;a ;a ;a ;a ;a ;a ;a ;a ;a ;a ;a ;a ;a ;a ;a ;a ;a ;a ;a ;a ;a ;a ;a ;a ;a ;a ;a ;a ;a ;a ;a ;a ;a ;a ;a ;a ;a ;a ;a ;a ;a ;a ;a ;a ;a ;a ;a ;a ;a ;a ;a ;a ;a ;a ;a ;a ;a ;a ;a ;a ;a ;a ;a ;a ;a ;a ;a ;a ;a ;a ;a ;a ;a ;a Uw La O{ +4 K  y| y| y| y| N+ c=  ~ +{ ;a ;a ;a ;a ;a ;a ;a ;a ;a ;a ;a ;a ;a &% *1 X^ (_ y( 8) x! %} ~% }6 G} !p Vw Ww Q= Aw G- G- G- r2 ], Xw Yw Zw -e -e `w  x .x gw gw gw gw gw +x @x Pc #x $x %x &x &x *x =x #x Oc Oc Oc Oc Mc vu ~c -x Dw s! ]^ 4^ 5^ ]( 7u rq rq rq rq rq rq rq rq rq rq rq rq rq rq rq rq rq rq rq rq rq rq rq rq rq rq rq rq rq rq  s Yr Yr Yr Yr Yr Yr Yr 8t At At At At At At At At At At At At At At At At ",
"3s 3s 3s 3s 3s 3s 3s 3s 3s 4s s[ *r *r *r *r *r *r *r *r .v /r /r /r /r /r /r /r /r /r /r /r /r /r /r /r /r /r /r /r /r /r /r /r /r /r /r /r /r /r /r /r /r /r /r 1] s] t] )) 4] u] +~ v  x  y  A  D  c. h+ =+ M+ N+ ^# =@ 5@ /# /# P# _$ _$ _$ _$ _$ _$ _$ Z$ &% }% o% 4, 7' ;x |w J- v- G- G- +v >x :* v& et Nw Dp X, ~9 U} I4 Y. +~ r! r( R{ F} ;a ;a ;a ;a ;a ;a ;a ;a ;a ;a ;a ;a +{  ~ %$ $+ y| 0u c. T$ <( Q{ Q{ Q{ Q{ Q{ @^ Q' =| =| :> =| A3 U( U( U( A3 ;a ji ji ;a ;a ;a ;a ;a ;a ;a ;a ;a ;a ;a ;a ;a ;a ;a ;a ;a ;a ;a ;a ;a ;a ;a ;a ;a ;a ;a ;a ;a ;a 5] ^4 ,x &= ~, 'x ], [= )x .< 5] ;a ;a ;a ;a ;a ;a ;a ;a ;a ;a ;a ;a ;a ;a ;a ;a ;a ;a ;a ;a ;a ;a ;a ;a ;a ;a ;a ;a ;a ;a ;a ;a ;a ;a ;a ;a ;a ;a ;a ;a ;a ;a ;a ;a ;a ;a ;a ;a ;a ;a ;a ;a ;a ;a ;a ;a ;a ;a ;a ;a ;a ;a ;a ;a ;a ;a ;a ;a ;a ;a ;a ;a ;a ;a ;a ;a ;a ;a ;a ;a ;a ;a ;a ;a ;a ;a ;a ;a ;a ;a ;a ;a ;a ;a ;a ;a ;a ;a ;a ;a ;a ;a ;a ;a ;a ;a ;a ;a ;a ;a ;a ;a ;a ;a ;a ;a ;a ;a ;a ;a ;a ;a ;a ;a ;a ;a ;a ;a ;a ;a ;a ;a ;a ;a ;a ;a ;a ;a ;a ;a ;a ;a ;a ;a ;a ;a ;a ;a ;a ;a ;a ;a ;a ;a ;a ;a ;a ;a ;a ;a ;a ;a ;a ;a ;a ;a ;a ;a ;a ;a ;a ;a ;a ;a ;a `! ;a S' !x 1^ +4 %+ y| y| y| y| N+ c=  ~ +{ ;a ;a ;a ;a ;a ;a ;a ;a ;a ;a ;a ;a ;a (% ][ X^ (_ y( 8) x! %} ~% }6 K6 !p Nw ~x Q= Aw G- G- G- &7 {x ]x Kw ^x /x -e (x _x :x <x [x }x ~s ~s |x |j 1x 1x 1x 2x 3x 3x Ko 1x 1x 1x 1x 4x !k 5x Cd Lb 6x 7x t{ 8x 4^ 5^ ]( 7u rq rq rq rq rq rq rq rq rq rq rq rq rq rq rq rq rq rq rq rq rq rq rq rq rq rq rq rq rq rq rq rq `r Yr Yr Yr Yr Yr Yr zt At At At At At At At At At At At At At At At ",
"3s 3s 3s 3s 3s 3s 3s 3s 3s +s *r *r *r *r *r *r *r *r *r *r /r /r /r /r /r /r /r /r /r /r /r /r /r /r /r /r /r /r /r /r /r /r /r /r /r /r /r /r /r /r /r /r /r /r 1] s] t] )) 4] u] +~ v  x  y  A  D  c. h+ =+ M+ N+ ^# =@ 5@ /# /# P# _$ _$ _$ _$ _$ _$ A$ `$ &% }% o% H% 3& ;x K> J- v- G- G- +v =, 9x w& k& 0x Hq X, $^ U} I4 Y. +~ r! r( R{ F} ;a ;a ;a ;a ;a ;a ;a ;a ;a ;a ;a ;a ,/ F} %$ $+ y| 0u c. T$ <( Q{ Q{ Q{ Q{ o^ Q{ B< @^ @^ @^ g[ ][ ][ ][ S) P' &% =| ;a `! `! p( p( ;a ;a ;a ;a ;a ;a ;a ;a ;a ;a ;a ;a ;a ;a ;a ;a ;a ;a ;a ;a ;a ;a ;a ;a ;a p( p( G4 ax bx cx cx dx ex 0/ `! ;a ;a ;a ;a ;a ;a ;a ;a ;a ;a ;a ;a ;a ;a ;a ;a ;a ;a ;a ;a ;a ;a ;a ;a ;a ;a ;a ;a ;a ;a ;a ;a ;a ;a ;a ;a ;a ;a ;a ;a ;a ;a ;a ;a ;a ;a ;a ;a ;a ;a ;a ;a ;a ;a ;a ;a ;a ;a ;a ;a ;a ;a ;a ;a ;a ;a ;a ;a ;a ;a ;a ;a ;a ;a ;a ;a ;a ;a ;a ;a ;a ;a ;a ;a ;a ;a ;a ;a ;a ;a ;a ;a ;a ;a ;a ;a ;a ;a ;a ;a ;a ;a ;a ;a ;a ;a ;a ;a ;a ;a ;a ;a ;a ;a ;a ;a ;a ;a ;a ;a ;a ;a ;a ;a ;a ;a ;a ;a ;a ;a ;a ;a ;a ;a ;a ;a ;a ;a ;a ;a ;a ;a ;a ;a ;a ;a ;a ;a ;a ;a ;a ;a ;a ;a ;a ;a ;a ;a ;a ;a ;a ;a ;a ;a ;a ;a ;a ;a ;a ;a ;a ;a ;a ;a ;a p( p( &% fx Y] 1^ o2 %+ y| y| y| y| N+ c=  ~ +{ ;a ;a ;a ;a ;a ;a ;a ;a ;a ;a ;a ;a ;a (% ][ X^ (_ y( 8) x! %} ~% }6 K6 !p Nw gx Q= Ou G- G- G- &7 w> <& hx Yw ix jx kx lx mx nx ox px ox qx rx sx p^ p^ p^ p^ p^ p^ p^ p^ p^ p^ p^ (  Mc tx ux ;e vx Vj e+ )) 4^ 5^ ]( 7u rq rq rq rq rq rq rq rq rq rq rq rq rq rq rq rq rq rq rq rq rq rq rq rq rq rq rq rq rq rq rq rq rq  s 2s Yr Yr Yr Yr su At At At At At At At At At At At At At At At ",
"3s 3s 3s 3s 3s 3s 3s 3s 3s O8 *r *r *r *r *r *r *r *r *r *r .v /r /r /r /r /r /r /r /r /r /r /r /r /r /r /r /r /r /r /r /r /r /r /r /r /r /r /r /r /r /r /r M( (r 1] s] t] )) 4] u] +~ v  x  y  A  D  c. h+ =+ M+ N+ ^# =@ 5@ /# /# P# _$ _$ _$ _$ _$ _$ A$ `$ c% g% wx #& 3& *& |w J- v- G- t- a0 =, [* x& xx yx Hq X, $^ U} N# e+ +~ r! r( -^ K5 p( p( p( p( p( p( p( p( p( p( p( p( ,/ F} %$ $+ y| 0u c. T$ <( Q{ Q{ Q{ Q{ Q{ Q{ W( zx zx zx zx zx zx W( Q{ M_ H: ][ R' =| p( Ax x] x] Ax p( p( p( p( p( p( p( p( p( p( p( p( p( p( p( p( p( p( p( p( p( p( p( p( p( 4| (~ Bx p' p' C$ nd r} p( p( p( p( p( p( p( p( p( p( p( p( p( p( p( p( p( p( p( p( p( p( p( p( p( p( p( p( p( p( p( p( p( p( p( p( p( p( p( p( p( p( p( p( p( p( p( p( p( p( p( p( p( p( p( p( p( p( p( p( p( p( p( p( p( p( p( p( p( p( p( p( p( p( p( p( p( p( p( p( p( p( p( p( p( p( p( p( p( p( p( p( p( p( p( p( p( p( p( p( p( p( p( p( p( p( p( p( p( p( p( p( p( p( p( p( p( p( p( p( p( p( p( p( p( p( p( p( p( p( p( p( p( p( p( p( p( p( p( p( p( p( p( p( p( p( p( p( p( p( p( p( p( p( p( p( p( p( p( p( p( p( p( p( p( p( p( p( p( p( p( p( p( p( p( p( 5n Cx ][ Y] (^ Z( o2 %+ Dx y| y| y| N+ C$ F} ,/ p( p( p( p( p( p( p( p( p( p( p( p( p( :> ][ X^ (_ y( 8) x! %} ~% }6 j3 Dp 0x gx Q= Jv G- G- G- &7 w> :& ;w gc Ex Fx Gx Hx Ix Jx Kx Lx Kx Jx Mx Nx ic ic ic ic ic ic ic ic ic ic ic Ox Px Qx Jb Rx Sx Tx ]^ )) 4^ 5^ ]( 7u rq rq rq rq rq rq rq rq rq rq rq rq rq rq rq rq rq rq rq rq rq rq rq rq rq rq rq rq rq rq rq rq rq rq rq `r Yr Yr Yr Yr su At At At At At At At At At At At At At At ",
"3s 3s 3s 3s 3s 3s 3s 3s 3s *r *r *r *r *r *r *r *r *r *r *r /r /r /r /r /r /r /r /r /r /r /r /r /r /r /r /r /r /r /r /r /r /r /r /r /r /r /r Ls wr Ux >. >. >. >. 1] s] t] )) 4] u] +~ v  x  y  A  D  c. h+ =+ M+ N+ ^# =@ 5@ /# /# P# _$ _$ _$ _$ _$ _$ B$  % c% 4% q% #& 3& *& L> J- v- G- t- a0 q= B* &* bu yx Hq X, $^ &5 H3 M6 +~ r! r( -^ K5 p( p( p( p( p( p( p( p( p( p( p( p( ,/ F} %$ $+ y| 0u c. T$ <( Q{ Q{ Q{ Q{ Q{ Q{ Q{ Q{ Q{ Q{ Q{ Q{ Q{ Q{ Q{ Q{ zx zx b/ g[ P' &% =| p( Ax p( p( x] x] `! p( p( p( p( p( p( p( p( p( p( p( p( p( p( p( p( p( p( p( p( p( p( p( p( p( p( p( p( p( p( p( p( p( p( p( p( p( p( p( p( p( p( p( p( p( p( p( p( p( p( p( p( p( p( p( p( p( p( p( p( p( p( p( p( p( p( p( p( p( p( p( p( p( p( p( p( p( p( p( p( p( p( p( p( p( p( p( p( p( p( p( p( p( p( p( p( p( p( p( p( p( p( p( p( p( p( p( p( p( p( p( p( p( p( p( p( p( p( p( p( p( p( p( p( p( p( p( p( p( p( p( p( p( p( p( p( p( p( p( p( p( p( p( p( p( p( p( p( p( p( p( p( p( p( p( p( p( p( p( p( p( p( p( p( p( p( p( p( p( p( p( p( p( p( p( p( p( p( p( p( p( p( p( p( p( p( p( p( p( p( p( p( p( p( p( p( p( p( p( p( p( p( 5n Vx  ) @^ Q{ Wx (^ O{ o2 %+ Dx y| y| y| N+ C$ F} ,/ p( p( p( p( p( p( p( p( p( p( p( p( p( :> 0; X^ (_ y( 8) x! %} ~% 3^ wc Dp 0x gx Q= Ou G- t- G- &7  2 :& fv Xx Yw Yx !c Zx `x  y .y +y .y  y .y @y #y #y #y #y #y #y #y $y #y #y #y %y eb &y ;e *y =y _} |{ )) 4^ 5^ ]( 7u rq rq rq rq rq rq rq rq rq rq rq rq rq rq rq rq rq rq rq rq rq rq rq rq rq rq rq rq rq rq rq rq rq rq rq rq n< Yr Yr Yr Yr su zt At At At At At At At At At At At At ",
"3s 3s 3s 3s 3s 3s 3s 3s .s *r *r *r *r *r *r *r *r *r *r Wt /r /r /r /r /r /r /r -y ;y >y >y .v /r /r /r /r /r /r /r /r /r /r /r /r /r /r ,y >. >. >. >. >. >. >. 1] s] t] )) 4] u] +~ v  x  y  A  D  c. h+ =+ M+ N+ ^# =@ 5@ /# /# P# _$ _$ _$ _$ _$ _$ C$ +% c% 4% q% #& && 'y )y J- v- G- t- a0 q= |* z& $v !y xr Ze $^ l{ H3 M6 +~ r! r( -^ K5 p( p( p( p( p( p( p( p( p( p( p( p( ,/ F} %$ $+ y| 0u c. T$ <( Q{ Q{ Q{ Q{ Q{ Q{ Q{ Q{ Q{ Q{ Q{ Q{ Q{ Q{ Q{ Q{ Q{ o^ W( W( Q{ H: ][ S)  ) &% =| U( p( p( p( p( p( p( p( p( p( p( p( p( p( p( p( p( p( p( p( p( p( p( p( p( p( p( p( p( p( p( p( p( p( p( p( p( p( p( p( p( p( p( p( p( p( p( p( p( p( p( p( p( p( p( p( p( p( p( p( p( p( p( p( p( p( p( p( p( p( p( p( p( p( p( p( p( p( p( p( p( p( p( p( p( p( p( p( p( p( p( p( p( p( p( p( p( p( p( p( p( p( p( p( p( p( p( p( p( p( p( p( p( p( p( p( p( p( p( p( p( p( p( p( p( p( p( p( p( p( p( p( p( p( p( p( p( p( p( p( p( p( p( p( p( p( p( p( p( p( p( p( p( p( p( p( p( p( p( p( p( p( p( p( p( p( p( p( p( p( p( p( p( p( p( p( p( p( p( p( p( p( p( p( p( p( p( p( p( p( p( p( p( p( p( p( p( p( p( p( p( p( p( p( 5n &% ,6 q} o^ Q{ (^ (^ O{ o2 %+ Dx y| y| y| N+ C$ F} ,/ p( p( p( p( p( p( p( p( p( p( p( p( p( =| G} X^ (_ y( 8) x! %} ~% 3^ wc Dp !y ~y Q= Jv G- t- t- &7 {y _& ]y ^y /y (y Kb _y :y <y [y }y |y 1y 2y 3y 4y 5y 6y 7y 8y 9y 0y ay by fb db cy dy ey 6x fy }a X. 4] )) 4^ 5^ ]( 7u rq rq rq rq rq rq rq rq rq rq rq rq rq rq rq rq rq rq rq rq rq rq rq rq rq rq rq rq rq rq rq rq rq rq rq rq  s Yr Yr Yr Yr Yr Yr yt Bt At At At At At At At At At At ",
"3s 3s 3s 3s 3s 4s `r &t +s *r *r *r *r *r *r *r *r *r *r /r /r /r /r /r /r gy hy hy hy hy hy hy at /r /r /r /r /r /r /r /r /r /r /r /r /r Ux >. >. /' iy >. >. >. 1] s] t] )) 4] u] +~ v  x  y  A  D  c. h+ =+ M+ N+ ^# =@ 5@ /# /# P# _$ _$ _$ _$ _$ _$ D$ +% c% 4% t% H% && ;& )y J- v- G- t- a0 r= q, z& $v .b xr Ze $^ l{ H3 8] +~ r! r( -^ K5 p( p( p( p( p( p( p( p( p( p( p( p( ,/ F} %$ $+ y| 0u c. T$ <( Q{ Q{ Q{ Q{ Q{ Q{ Q{ Q{ Q{ Q{ Q{ Q{ Q{ Q{ Q{ Q{ Q{ Q{ Q{ Q{ Q{ Q{ o^ o^ X^ H: ][ S) R' (% D, 5n p( p( p( p( p( p( p( p( p( p( p( p( p( p( p( p( p( p( p( p( p( p( p( p( p( p( p( p( p( p( p( p( p( p( p( p( p( p( p( p( p( p( p( p( p( p( p( p( p( p( p( p( p( p( p( p( p( p( p( p( p( p( p( p( p( p( p( p( p( p( p( p( p( p( p( p( p( p( p( p( p( p( p( p( p( p( p( p( p( p( p( p( p( p( p( p( p( p( p( p( p( p( p( p( p( p( p( p( p( p( p( p( p( p( p( p( p( p( p( p( p( p( p( p( p( p( p( p( p( p( p( p( p( p( p( p( p( p( p( p( p( p( p( p( p( p( p( p( p( p( p( p( p( p( p( p( p( p( p( ;a `! `! p( p( p( p( p( p( p( p( p( p( p( p( p( p( p( p( p( p( p( p( p( p( p( p( p( p( p( p( p( p( p( p( p( p( p( p( D,  ) @^ Q{ W( o^ Q{ (^ (^ O{ o2 %+ Dx y| y| y| N+ C$ F} ,/ p( p( p( p( p( p( p( p( p( p( p( p( p( =| S) X^ (_ y( 8) x! %} ~% 3^ wc Hq .b jy Q= C- t- t- t- ky {y Q& l& 5q ly my we jx ny oy py qy ny ry sy ty Jb Ob uy uy Pe vy wy xy jx jx jx Bd ~c Kb yy 5x t{ |{ 4] )) 4^ 5^ ]( 7u rq rq rq rq rq rq rq rq rq rq rq rq rq rq rq rq rq rq rq rq rq rq rq rq rq rq rq rq rq rq rq rq rq rq rq rq Zr Yr Yr Yr Yr Yr Yr Yr Yr Yr zy At At At At At At At At ",
"3s 3s 3s  s *r *r *r *r *r *r *r *r *r *r *r *r *r *r -y /r /r /r /r at >y hy hy hy hy hy hy hy )u /r /r /r /r /r /r /r /r /r /r /r /r >t >. p/ Ay Ay Ay p/ >. >. 1] s] t] )) 4] u] +~ v  x  y  A  D  c. h+ =+ M+ N+ ^# =@ 5@ /# /# P# _$ _$ _$ _$ _$ _$ D$ +% c% 4% t% i& 7, >& )y J- v- G- t- C- u= 2* L& $v .b xr ^h 39 k{ H3 M6 +~ r! r( -^ K5 p( p( p( p( p( p( p( p( p( p( p( p( ,/ F} %$ $+ y| 0u c. T$ <( Q{ Q{ Q{ Q{ Q{ Q{ Q{ Q{ Q{ Q{ Q{ Q{ Q{ Q{ Q{ Q{ Q{ Q{ Q{ Q{ Q{ Q{ Q{ o^ Q{ Q{ i_ i_ X^ y[ 0; P' %% (% =| D, p( `! `! p( p( p( p( p( p( p( p( p( p( p( p( p( p( p( p( p( p( p( p( p( p( p( p( p( p( p( p( p( p( p( p( p( p( p( p( p( p( p( p( p( p( p( p( p( p( p( p( p( p( p( p( p( p( p( p( p( p( p( p( p( p( p( p( p( p( p( p( p( p( p( p( p( p( p( p( p( p( p( p( p( p( p( p( p( p( p( p( p( p( p( p( p( p( p( p( p( p( p( p( p( p( p( p( p( p( p( p( p( p( p( p( p( p( p( p( p( p( p( p( p( p( p( p( p( p( p( p( p( p( p( p( p( p( p( p( p( p( p( p( p( p( p( p( p( p( p( p( `! ;a =| R' P' R' &% :> =| U( p( p( p( p( p( p( p( p( p( p( p( p( p( p( p( p( p( p( p( p( p( p( p( p( p( p( p( p( p( p( p( p( :> j3 B< Q{ Q{ Q{ Q{ Q{ (^ (^ O{ o2 %+ Dx y| y| y| N+ C$ F} ,/ p( p( p( p( p( p( p( p( p( p( p( p( p( U( S) M_ (_ y( 8) x! %} ~% 3^ wc By .b jy C3 C- t- t- l; Cy Dy #* {& 3& Ey Fy vx Lb -e Gy Fx Hy Fx Gy Gy !c !c Iy -e -e -e -e Fx Hy !c !c !c !c !c ;e Jy |a X. |{ 4] )) 4^ 5^ ]( 7u rq rq rq rq rq rq rq rq rq rq rq rq rq rq rq rq rq rq rq rq rq rq rq rq rq rq rq rq rq rq rq rq rq rq  s Yr Yr Yr Yr Yr Yr Yr Yr Yr Yr Yr Yr Yr su U: zt At At At At ",
"3s 3s Ct *r *r *r *r *r *r *r *r *r *r *r *r *r *r 6s /r /r /r /r at hy hy hy hy hy hy hy hy hy >y /r /r /r /r /r /r /r /r /r /r /r /r k: iy Ay Ay Ay Ay Ay iy >. 1] s] t] )) 4] u] +~ v  x  y  A  D  c. h+ =+ M+ N+ ^# =@ 5@ /# /# P# _$ _$ _$ _$ _$ _$ D$ +% c% 4% t% J% *& '& )y J- v- G- t- Jv u= 2* B& fv Ky $s 1{ F: k{ 2) M6 +~ r! r( I3 4| p( p( p( p( p( p( p( p( p( p( p( p( ,/ F} %$ $+ y| 0u c. T$ <( Q{ Q{ Q{ Q{ Q{ Q{ Q{ Q{ Q{ Q{ Q{ Q{ Q{ Q{ Q{ Q{ Q{ Q{ Q{ Q{ Q{ Q{ Q{ Q{ Q{ Q{ W( W( o^ Q{ Q{ b/ M_ @^ G} j3 R' &% :> =| D, U( p( `! `! p( p( p( p( p( p( p( p( p( p( p( p( p( p( p( p( p( p( p( p( p( p( p( p( p( p( p( p( p( p( p( p( p( p( p( p( p( p( p( p( p( p( p( p( p( p( p( p( p( p( p( p( p( p( p( p( p( p( p( p( p( p( p( p( p( p( p( p( p( p( p( p( p( p( p( p( p( p( p( p( p( p( p( p( p( p( p( p( p( p( p( p( p( p( p( p( p( p( p( p( p( p( p( p( p( p( p( p( p( p( p( p( p( p( p( p( p( p( p( p( p( p( p( p( p( p( p( p( p( p( p( p( p( p( p( p( p( p( p( p( p( p( D, R' ][ X^ Q{ X^ B< H: ][ S) R' %% &% :> =| U( U( ;a `! `! p( p( p( p( p( p( p( p( p( p( p( p( p( p( p( p( p( p( p( p( U( (% G} M_ W( Q{ Q{ Q{ Q{ Q{ (^ (^ O{ o2 %+ Dx y| y| y| N+ C$ F} ,/ p( p( p( p( p( p( p( p( p( p( p( p( p( U( j3 M_ (_ y( 8) W. >5 [2 17 wc xr Ky P& 5- C- t- t- t- {- Ly m& ^& 7' Ky ly My Ny Dw Dw Dw Dw Dw Dw Dw Dw Dw Dw Dw Dw Dw Dw Dw Dw Dw Dw Dw Dw Dw Oy Py Qy v  |{ 4] )) 4^ 5^ ]( 7u rq rq rq rq rq rq rq rq rq rq rq rq rq rq rq rq rq rq rq rq rq rq rq rq rq rq rq rq rq rq rq rq rq `r Yr Yr Yr Yr Yr Yr Yr Yr Yr Yr Yr Yr Yr Yr Yr Yr Yr Yr su yt yt ",
"3s  s *r *r *r *r *r *r *r 6s tu .v Wt *r *r *r *r .v /r /r /r -y hy hy hy hy hy hy hy hy hy hy hy /r /r /r /r /r /r /r /r /r /r /r /r a1 Ry Ay Ay Ay Ay Ay p/ >. 1] s] t] )) 4] u] +~ v  x  y  A  D  c. h+ =+ M+ N+ ^# =@ 5@ /# /# P# _$ _$ _$ _$ _$ _$ C$ +% c% 4% t% J% *& '& )y J- v- t- t- Jv u= 3* B& fv <d $s 1{ F: &5 2) /| -0 r! r( I3 4| p( p( p( p( p( p( p( p( p( p( p( p( ,/ F} %$ $+ y| 0u c. T$ <( Q{ Q{ Q{ Q{ Q{ Q{ Q{ Q{ Q{ Q{ Q{ Q{ Q{ Q{ Q{ Q{ Q{ Q{ Q{ Q{ Q{ Q{ Q{ Q{ Q{ Q{ Q{ Q{ Q{ Q{ W( W( Q{ Q{ M^ b/ X^ B< *^ ,6 K6  ) %% (% =| U( p( p( p( p( p( p( p( p( p( p( p( p( p( p( p( p( p( p( p( p( p( p( p( p( p( p( p( p( p( p( p( p( p( p( p( p( p( p( p( p( p( p( p( p( p( p( p( p( p( p( p( p( p( p( p( p( p( p( p( p( p( p( p( p( p( p( p( p( p( p( p( p( p( p( p( p( p( p( p( p( p( p( p( p( p( p( p( p( p( p( p( p( p( p( p( p( p( p( p( p( p( p( p( p( p( p( p( p( p( p( p( p( p( p( p( p( p( p( p( p( p( p( p( p( p( p( p( p( p( p( p( p( p( p( p( p( p( p( p( p( :> G} B< M^ o^ W( W( o^ Q{ Q{ Q{ b/ X( H: @^ ][ S) P' R' Sy (% =| =| U( U( p( p( p( p( `! x] x] x] x] x] x] x] x] p( ;a =| R' g[ X^ Q{ Q{ Q{ Q{ Q{ Q{ Q{ (^ (^ O{ o2 %+ Dx y| y| y| N+ C$ F} ,/ p( p( p( p( p( p( p( p( p( p( p( p( p( U( j3 M_ (_ y( 8) Y. U1 [2 17 Sf xr Ky Ty 5- C- t- t- t- J4 Ly m& :& 7' g* qc Uy Vy Wy Xy Yy Yy Xy Xy Xy Yy Yy Yy Yy Yy Xy Xy Xy Xy Xy Xy Xy Xy Wy Zy `y  z v  |{ 4] )) 4^ 5^ ]( 7u rq rq rq rq rq rq rq rq rq rq rq rq rq rq rq rq rq rq rq rq rq rq rq rq rq rq rq rq rq rq rq  s Yr Yr Yr Yr Yr Yr Yr Yr Yr Yr Yr Yr Yr Yr Yr Yr Yr Yr Yr Yr Yr Yr Yr ",
"&t *r *r *r *r .z Z+ 21 q/ q/ q/ q/ q/ xp *r *r *r /r /r /r gy hy hy hy hy hy hy hy hy hy hy hy hy at /r /r /r /r /r /r /r /r /r /r /r >. tr Ay Ay Ay Ay Ay +z >. 1] s] t] )) 4] u] +~ v  x  y  A  D  c. h+ =+ M+ N+ ^# =@ 5@ /# /# P# _$ _$ _$ _$ _$ _$ D$ +% c% 4% t% J% R& d- )y J- u- t- l; Jv @z D* C& #z <d $z 1{ X< &5 2) /| -0 r! r( +) 4| p( p( p( p( p( p( p( p( p( p( p( p( ,/ F} %$ $+ y| 0u c. T$ <( Q{ Q{ Q{ Q{ Q{ Q{ Q{ Q{ Q{ Q{ Q{ Q{ Q{ Q{ Q{ Q{ Q{ Q{ Q{ Q{ Q{ Q{ Q{ Q{ Q{ Q{ Q{ Q{ Q{ Q{ Q{ Q{ Q{ Q{ Q{ W( W( W( o^ M^ X^ X^ M_ H: 0; Q' :> U( p( p( p( p( p( p( p( p( p( p( p( p( p( p( p( p( p( p( p( p( p( p( p( p( p( p( p( p( p( p( p( p( p( p( p( p( p( p( p( p( p( p( p( p( p( p( p( p( p( p( p( p( p( p( p( p( p( p( p( p( p( p( p( p( p( p( p( p( p( p( p( p( p( p( p( p( p( p( p( p( p( p( p( p( p( p( p( p( p( p( p( p( p( p( p( p( p( p( p( p( p( p( p( p( p( p( p( p( p( p( p( p( p( p( p( p( p( p( p( p( p( p( p( p( p( p( p( p( p( p( p( p( p( p( p( p( p( :> G} X^ o^ Q{ Q{ Q{ Q{ Q{ Q{ Q{ W( W( W( i_ Q{ Q{ b/ X^ X^ M_ +< @^ ][ S) P' /% Cx :> :> =| D, D, U( U( U( D, D, D, :> R' ][ M_ Q{ Q{ Q{ Q{ Q{ Q{ Q{ Q{ Q{ (^ (^ O{ o2 %+ Dx y| y| y| N+ C$ F} ,/ p( p( p( p( p( p( p( p( p( p( p( p( p( ;a P' B< (_ y( 8) Y. U1 [2 17 X, xr <d %z #3 Jv t- t- l; &z z> $* :& && T& kf *z {a =z =z =z =z =z =z =z =z =z =z =z =z -z -z Tx Tx ;z ;z )a )a >z ,z 'z X. S] |{ 4] )) 4^ 5^ ]( 7u rq rq rq rq rq rq rq rq rq rq rq rq rq rq rq rq rq rq rq rq rq rq rq rq rq rq rq rq rq rq n< Yr Yr Yr Yr Yr Yr Yr Yr Yr Yr Yr Yr Yr Yr Yr Yr Yr Yr Yr Yr Yr Yr Yr Yr ",
"s[ *r *r *r >y q/ q/ q/ q/ q/ q/ q/ (' 5e *r *r tu /r -y >y hy )z Zr Yr !z )z hy hy hy hy hy hy hy .v /r /r /r /r /r /r /r /r /r /r M( >. Ay Ay Ay Ay Ay Ay p/ >. 1] s] t] )) 4] u] +~ v  x  y  A  D  c. h+ =+ M+ N+ ^# =@ 5@ /# /# P# _$ _$ _$ _$ _$ _$ W$ @% c% 4% t% 5& R& )& o= J- u- t- l; Jv p= ~z D& zw {z Et ci X< &5 2) /| a! r! 7~ +) 4| p( p( p( p( p( p( p( p( p( p( p( p( ,/ F} %$ $+ y| 0u c. T$ <( Q{ Q{ Q{ Q{ Q{ Q{ Q{ Q{ Q{ Q{ Q{ Q{ Q{ Q{ Q{ Q{ Q{ Q{ Q{ Q{ Q{ Q{ Q{ Q{ Q{ Q{ Q{ Q{ Q{ Q{ Q{ Q{ Q{ Q{ Q{ Q{ Q{ Q{ Q{ Q{ o^ W( zx W( b/ M_ @^ S) &% =| U( 5n p( p( p( p( p( p( p( p( p( p( p( p( p( p( p( p( p( p( p( p( p( p( p( p( p( p( p( p( p( p( p( p( p( p( p( p( p( p( p( p( p( p( p( p( p( p( p( p( p( p( p( p( p( p( p( p( p( p( p( p( p( p( p( p( p( p( p( p( p( p( p( p( p( p( p( p( p( p( p( p( p( p( p( p( p( p( p( p( p( p( p( p( p( p( p( p( p( p( p( p( p( p( p( p( 5n 5n U( U( U( U( U( U( p( p( p( p( p( p( p( p( p( p( p( p( p( p( p( p( p( p( p( U( (% G} X^ Q{ Q{ Q{ Q{ Q{ Q{ Q{ Q{ Q{ Q{ Q{ Q{ Q{ Q{ Q{ W( W( ]z ]z W( Q{ Q{ Q{ X^ B< B< *^ @^ @^ *1 ][ ][ ][ ][ ][ ][ *1 *^ M_ Q{ W( o^ Q{ Q{ Q{ Q{ Q{ Q{ Q{ Q{ (^ (^ O{ o2 %+ Dx y| y| y| N+ C$ F} ,/ p( p( p( p( p( p( p( p( p( p( p( p( p( ;a R' H: (_ y( 8) Y. 5)  & H/ Ze xr <d %* 5- C- t- l; l; &z z> $* :& 3& g* j% X' ^z S) x[ x[ x[ x[ x[ x[ x[ x[ x[ x[ M' Y; 9; w( W/ w^ 3^ P{ l{ &5 f} I4 S] S] |{ 4] )) 4^ 5^ ]( 7u rq rq rq rq rq rq rq rq rq rq rq rq rq rq rq rq rq rq rq rq rq rq rq rq rq rq rq rq rq `r Yr Yr Yr Yr Yr Yr Yr Yr Yr Yr Yr Yr Yr Yr Yr Yr Yr Yr Yr Yr Yr Yr Yr Yr Yr ",
"*r *r *r *r /z q/ q/ q/ q/ q/ q/ (' 5e wp (z Yr Yr _z :z :z Zr su su su su su Yr :z hy hy hy hy hy gy /r /r /r /r /r /r /r /r /r /r <z iy Ay Ay Ay Ay Ay Ay @' >. 1] s] t] )) 4] u] +~ v  x  y  A  D  c. h+ =+ M+ N+ ^# =@ 5@ /# /# P# _$ _$ _$ _$ _$ _$ W$ ]% _% i% u% 5& -& |& o= |; u- t- l; D- p= E* E& [z }z Yt ci X< &5 2) %} a! r! 7~ +) 4| p( p( p( p( p( p( p( p( p( p( p( p( ,/ F} %$ $+ y| 0u c. T$ Ev Q{ Q{ Q{ Q{ Q{ Q{ Q{ Q{ Q{ Q{ Q{ Q{ Q{ Q{ Q{ Q{ Q{ Q{ Q{ Q{ Q{ Q{ Q{ Q{ Q{ Q{ Q{ Q{ Q{ Q{ Q{ Q{ Q{ Q{ Q{ Q{ Q{ Q{ Q{ Q{ Q{ Q{ Q{ Q{ Q{ W( W( b/ H: *1 j3 %% :> =| U( p( p( p( p( p( p( p( p( p( p( p( p( p( p( p( p( p( p( p( p( p( p( p( p( p( p( p( p( p( p( p( p( p( p( p( p( p( p( p( p( p( p( p( p( p( p( p( p( p( p( p( p( p( p( p( p( p( p( p( p( p( p( p( p( p( p( p( p( p( p( p( p( p( p( p( p( p( p( p( p( p( p( p( p( p( p( p( p( p( 5n U( U( D, D, =| =| =| i4 :> &% &% &% R' R' Q' P' P' P' Q' %% &% :> =| D, U( U( p( p( p( p( p( p( p( p( p( p( p( A3 %% g[ X^ Q{ Q{ Q{ Q{ Q{ Q{ Q{ Q{ Q{ Q{ Q{ Q{ Q{ Q{ Q{ Q{ Q{ Q{ Q{ Q{ Q{ Q{ Q{ o^ W( zx zx zx W( W( W( o^ i_ i_ i_ i_ i_ W( W( W( W( Q{ Q{ Q{ Q{ Q{ Q{ Q{ Q{ Q{ Q{ (^ (^ O{ o2 %+ Dx y| y| y| N+ C$ F} ,/ p( p( p( p( p( p( p( p( p( p( p( p( p( p( /% *^ (_ y( 8) Y. 5)  & H/ Ze $s }z |z 5- C- l; l; l; Q3 1z O& (& f* G% l% _% Z$ _$ _$ _$ _$ _$ _$ _$ _$ _$ _$ _$ P# /# 5@ *@ n+ N+ =+ K  c. B  Z. b. x  S] |{ 4] )) 4^ 5^ ]( 7u rq rq rq rq rq rq rq rq rq rq rq rq rq rq rq rq rq rq rq rq rq rq rq rq rq rq rq rq Zr Yr Yr Yr Yr Yr Yr Yr Yr Yr Yr 2z 3z 4z 5z 5z 6z (z Yr Yr Yr Yr Yr Yr Yr Yr Yr ",
"*r *r *r *r 21 q/ q/ q/ q/ q/ (' 5e 5e .v 7z 7z (z su su su su su su su su su su su Zr hy hy hy hy >y /r /r /r /r /r /r /r /r /r /r Ls /' Ay Ay Ay Ay Ay 8z >. >. 1] s] t] )) 4] u] +~ v  x  y  A  D  c. h+ =+ M+ N+ ^# =@ 5@ /# /# P# _$ _$ _$ _$ _$ _$ W$ ]% _% i% u% L% ;& |& 24 k; 9z t- l; D- *, 4= F& (& +i Yt (k X< l{ 2) %} a! r! 7~ +) 4| p( p( p( p( p( p( p( p( p( p( p( p( ,/ F} %$ $+ y| Nu c. T$ <( 1^ 1^ 1^ 1^ 1^ 1^ 1^ 1^ 1^ 1^ 1^ 1^ 1^ 1^ 1^ 1^ 1^ 1^ 1^ 1^ 1^ 1^ 1^ 1^ 1^ 1^ 1^ 1^ 1^ 1^ 1^ 1^ 1^ 1^ 1^ 1^ 1^ 1^ 1^ 1^ 1^ 1^ 1^ 1^ 1^ 1^ 1^ 1^ _^ [w O{ u( *: X< )[ $%  ~ F} 4| 4| 4| 4| 7] 7] 7] 7] 4| 4| 4| 4| 4| 4| 4| 4| 4| 4| 4| 4| 4| 4| 4| 4| 4| 4| 4| 4| 4| 4| 4| 4| 4| 4| 4| 4| 4| 4| 4| 4| 4| 4| 4| 4| 4| 4| 4| 4| 4| 4| 4| 4| 4| 4| 4| 4| 4| 4| 4| 4| 4| 4| 4| 4| 4| 4| 4| 4| 4| 4| 4| 4| 4| 4| 4| 4| 4| 4| 4| 4| 4| 4| 4| 4| 4| :| ^% $% @% )[ x[ e< |: E: *: }: }: }: }: v( u( u( {_ {_ {_ u( V( }: #^ |: x[ O' $%  ~ 5] 4| 4| 4| 4| 4| 4| 4| 4| g} )[ V( F/ 0z F/ 1^ 1^ 1^ 1^ 1^ 1^ 1^ 1^ 1^ 1^ 1^ 1^ 1^ 1^ 1^ 1^ 1^ 1^ 1^ 1^ 1^ 1^ 1^ 1^ 1^ 1^ 1^ 1^ 1^ 1^ 1^ 1^ 1^ 1^ 1^ 1^ 1^ 1^ 1^ 1^ 1^ 1^ 1^ 1^ 1^ 1^ 1^ 1^ 1^ 1^ W( W( <( +4 %+ Dx y| y| y| N+ C$ F} ,/ p( p( p( p( p( p( p( p( p( p( p( p( p( 5n &% @^ (_ y( 8) Y. 5)  & H/ Ze $s +i |z 5- C- l; l; l; Q3 {, r& az *& G% l% _% Z$ A$ _$ _$ _$ _$ _$ _$ _$ _$ _$ _$ P# /# 5@ *@ n+ N+ =+ K  c. c. B  Z. x  S] |{ 4] )) 4^ 5^ ]( 7u rq rq rq rq rq rq rq rq rq rq rq rq rq rq rq rq rq rq rq rq rq rq rq rq rq rq rq Yr Yr Yr Yr Yr Yr Yr Yr Yr Yr Yr bz 5z 5z 5z 5z 5z 5z 5z 5z (z Yr Yr Yr Yr Yr Yr Yr ",
"*r *r *r *r q/ q/ q/ q/ q/ &~ 5e 5e 5e )z 7z 7z 7z cz su su su su su su su su su su su _z hy hy hy hy -y /r /r /r /r /r /r /r /r /r wr /' Ay Ay Ay Ay Ay /' >. >. 1] s] t] )) 4] u] +~ v  x  y  A  D  c. h+ =+ M+ N+ ^# =@ 5@ /# /# P# _$ _$ _$ _$ _$ _$ W$ ]% _% j% u% L% ;& ~& 24 k; u- t- J- 1; y= H* J& ~x +i M2 (k _1 k{ 2) /| a! r! 7~ +) 4| p( p( p( p( p( p( p( p( p( p( p( p( ,/ F} %$ $+ y| Nu q~ D< Y] dz dz dz dz dz dz dz dz dz dz dz dz dz dz dz dz dz dz dz dz dz dz dz dz dz dz dz dz dz dz dz dz dz dz dz dz dz dz dz dz dz dz dz dz dz dz dz dz dz dz ez fz fz dz `] gz hz iz Fk v7 }% }% g% jz jz jz kz kz kz kz kz kz kz kz kz kz kz kz kz kz kz kz kz kz kz kz kz kz kz kz kz kz kz kz kz kz kz kz kz kz kz kz kz kz kz kz kz kz kz kz kz kz kz kz kz kz kz kz kz kz kz kz kz kz kz kz kz kz kz kz kz kz kz kz kz kz kz kz kz kz kz kz ai 3% Y' $n 8m lz s! mz nz oz pz pz oz oz oz oz oz qz oz oz pz pz pz rz sz tz J$ nz s! ad $n X' 3% 3% 3% 3% 1% 1% =0 lz pz uz uz uz uz vz vz wz wz wz wz wz wz wz wz wz wz wz wz xz xz xz xz xz ]g ]g ]g xz xz ]g yz yz yz yz yz wz xz xz xz xz xz xz xz xz xz xz xz xz xz xz xz xz xz xz xz xz ]g 3: zz x@ y| y| y| y| N+ C$ F} ,/ p( p( p( p( p( p( p( p( p( p( p( p( p( p( &% ][ %( y( 8) Y. 5)  & H/ Ze $z +i Az 4- C- l; J- f> Q3 ~, r& Q& *& G% l% _% `$ A$ _$ _$ _$ _$ _$ _$ _$ _$ _$ _$ P# /# 5@ *@ n+ N+ =+ K  c. c. B  Z. x  S] |{ 4] )) 4^ 5^ ]( 7u rq rq rq rq rq rq rq rq rq rq rq rq rq rq rq rq rq rq rq rq rq rq rq rq rq rq Yr Yr Yr Yr Yr Yr Yr Yr Yr Yr Yr Yr 3z 5z 5z 5z 5z 5z 5z 5z 5z 5z Bz Yr Yr Yr Yr Yr Yr ",
"*r *r *r tu q/ q/ G| *~ sr 5e 5e 5e 5e Cz 7z 7z 7z 7z Dz Dz 7z 7z 7z Ez su su su su su su hy hy hy hy hy /r /r /r /r /r /r /r /r /r Ls iy Ay Ay Ay Ay Fz >. >. >. Y^ s] t] )) 4] u] +~ v  x  y  A  D  c. h+ =+ M+ N+ ^# =@ 5@ /# /# P# _$ _$ _$ _$ _$ _$ W$ ]% _% j% u% L% >& ~& 24 k; u- t- J- 1; y= 3= Gz ~x +i M2 (k _1 P{ 2) >5 +~ r! 7~ +) 4| p( p( p( p( p( p( p( p( p( p( p( p( ,/ F} %$ $+ y| z  @+ Hz Iz Jz Kz Lz Lz Lz Lz Lz Kz Mz Nz Oz Oz Jz Jz Jz Jz Pz Pz Nz Nz Qz Lz Rz Rz Rz Rz Rz Rz Rz Rz Rz Rz Rz Rz Rz Rz Rz Rz Rz Rz Rz Rz Sz Rz Tz Uz Pz Pz Nz Nz Nz Nz Nz Nz Nz Vz Wz Nz Xz Yz Zz `z  A .A +A @A #A $A $A $A $A $A $A $A %A &A &A &A &A &A &A &A &A &A &A &A &A &A &A &A &A &A &A &A &A &A &A &A %A *A *A *A *A *A *A *A *A *A *A *A *A *A *A *A *A *A *A *A *A *A *A *A *A *A *A *A *A $A =A -A -A -A -A -A -A -A -A -A -A -A -A -A %A %A %A %A -A -A -A ;A ;A >A ,A *A *A *A 'A )A )A )A !A !A ~A ~A ~A ~A ~A ~A ~A {A {A ]A ^A ^A ]A ]A ]A ]A {A /A (A _A :A :A _A _A _A _A (A _A (A <A <A <A <A <A <A <A <A <A <A [A }A |A 1A 1A 1A 1A 1A 1A 1A 1A 1A 1A 1A 1A 2A 1A 2A 3A 3A 3A 4A 4A 5A 5A 5A 5A 6A 7A 8A 8A 8A 8A 8A 8A 9A 0A 6A Jz aA bA 0u y| y| y| N+ C$ F} ,/ p( p( p( p( p( p( p( p( p( p( p( p( p( p( :> ][ %( y( 8) Y. 5) f} H/ ^h Et ui cA 4- C- l; J- J- Q3 ~, s& Q& *& G% l% :% `$ C$ _$ _$ _$ _$ _$ _$ _$ _$ _$ _$ P# /# 5@ *@ n+ N+ =+ K  M{ c. B  Z. x  S] |{ 4] )) 4^ 5^ ]( 7u rq rq rq rq rq rq rq rq rq rq rq rq rq rq rq rq rq rq rq rq rq rq rq rq rq Yr Yr Yr Yr Yr Yr Yr Yr Yr Yr Yr Yr Yr dA 5z 5z 5z 5z 5z 5z 5z 5z 5z 5z zt Yr Yr Yr Yr Yr ",
"*r *r *r .v q/ =5 sr 5e 5e 5e 5e 5e 5e 7z 7z 7z 7z 7z 7z 7z 7z 7z 7z 7z Dz su su su su su hy hy hy hy hy Wt /r /r /r /r /r /r /r /r /r /r /r -y !z !z /r /r ,y p/ 2] s] t] )) 4] u] +~ v  x  y  A  D  c. h+ =+ M+ N+ ^# =@ 5@ /# /# P# _$ _$ _$ _$ _$ _$ X$ ]% _% j% u% 4& '& [& M> k; u- l; J- 1; eA 3= H& gx fA uu (k _1 P{ 2) U1 +~ r! 7~ +) 4| p( p( p( p( p( p( p( p( p( p( p( p( ,/ F} %$ $+ q~ gA $+ hA iA jA kA lA lA lA lA mA nA oA oA oA pA qA rA sA tA uA vA vA vA wA xA lA yA yA yA yA yA yA yA yA yA yA yA yA yA yA yA yA yA yA mA mA mA mA zA AA pA vA vA vA vA vA vA vA vA vA vA wA BA CA DA EA xA FA GA HA IA IA IA IA IA IA JA IA KA LA LA LA LA LA LA LA LA LA LA LA LA LA LA LA LA LA LA LA KA LA KA MA JA NA OA NA NA NA NA NA NA NA NA NA NA NA NA NA NA NA NA NA NA NA NA NA NA OA NA NA IA PA KA KA KA KA KA KA KA KA KA KA KA KA KA QA QA QA QA QA QA QA QA QA IA NA RA RA SA SA SA SA SA SA SA SA SA SA SA SA OA TA IA IA RA UA UA VA SA RA NA IA WA XA YA ZA ZA XA XA ZA ZA ZA ZA YA YA YA YA YA XA XA ZA XA YA YA `A  B RA NA NA RA .B +B TA OA @B #B #B $B $B %B MA MA &B &B &B &B *B *B =B -B ;B >B ,B ,B ,B ,B ,B 'B 'B )B tA rA !B ~B {B ]B 0u y| y| N+ C$ F} ,/ p( p( p( p( p( p( p( p( p( p( p( p( p( p( D, G} e3 y( 8) Y. ^B f} H/ ^h Yt fA cA 4- C- J- J- J- /B C> 9, #* 7, (B i% c% {% P# u# u# u# _B _B _B $$ $$ $$ u# u# :B <B {# 4@ =+ #+ y| B  b. [B S] u] }B }B 4] )) 4^ 5^ ]( 7u rq rq rq rq rq rq rq rq rq rq rq rq rq rq rq rq rq rq rq rq rq rq rq rq Yr Yr Yr Yr Yr Yr Yr Yr Yr Yr Yr Yr Yr Yr dA 5z 5z 5z 5z 5z 5z 5z 5z 5z 5z 5z U: Yr Yr Yr Yr ",
"*r *r *r Z+ G| 5e 5e 5e 5e 5e 5e 5e 5e 7z 7z 7z 7z 7z 7z 7z 7z 7z 7z 7z 7z |B su su su Yr hy hy hy hy hy >y /r /r /r /r /r /r /r /r /r 1B 2B 3B 3B 3B 4B 1B ,y 5B p  s] t] )) 4] u] +~ v  x  y  A  D  c. h+ =+ M+ N+ ^# =@ 5@ /# /# P# _$ _$ _$ _$ _$ _$ X$ ]% _% j% T& N% '& <& M> 8> G- l; J- z- A= K* I& #* 6B uu Fk V< P{ 2) U1 +~ r! 7~ +) 4| p( p( p( p( p( p( p( p( p( p( p( p( ,/ F} %$ $+ h+ 7B 8B 9B 0B aB bB cB dB dB dB dB eB fB gB hB iB jB kB lB mB nB oB pB qB rB sB tB uB uB vB vB vB vB vB vB vB vB vB vB vB vB vB vB vB vB wB uB uB xB yB pB zB pB pB pB pB pB pB pB pB pB pB pB AB BB CB DB EB EB FB GB HB HB HB HB HB HB IB JB KB LB MB MB MB MB MB MB MB MB MB MB MB MB MB MB MB MB MB LB MB MB NB OB EB PB BB QB QB QB QB QB QB QB QB QB QB QB QB QB QB QB QB QB QB QB QB QB QB RB SB BB TB UB VB WB WB XB XB XB XB XB XB XB XB XB XB XB XB XB XB XB XB XB XB YB OB yB ZB BB QB QB QB QB QB QB QB QB QB QB QB QB `B  C .C dB +C @C nB #C BB BB $C dB %C &C *C =C -C ;C ;C ;C -C -C -C ;C ;C ;C ;C ;C ;C ;C -C -C >C >C ,C 'C )C !C ~C ~C {C ]C ]C ^C ^C `B DB /C yB (C _C :C <C [C <C <C gB gB :C }C |C aB 1C >C 2C >C >C >C >C >C 3C 4C 5C 6C 7C 8C ,5 y| y| N+ C$ F} ,/ p( p( p( p( p( p( p( p( p( p( p( p( p( p( D, K6 e3 y( 8) Y. ^B f} H/ 1{ Yt 6B 9C S= C- J- J- J- 0C D> t& %* aC bC cC dC eC eC fC fC fC gC gC hC hC hC iC jC jC kC lC mC nC oC pC qC rC Mw sC ad s! mz .# 47 )) 4^ 5^ ]( 7u rq rq rq rq rq rq rq rq rq rq rq rq rq rq rq rq rq rq rq rq rq rq rq rq `r `r `r `r n< `r Yr Yr Yr Yr Yr Yr Yr Yr dA 5z 5z 5z 5z 5z 5z 5z 5z 5z 5z 5z 5z 2z Yr Yr Yr ",
"*r *r *r Z+ ~: 5e 5e 5e 5e 5e 5e 5e %{ 7z 7z 7z 7z 7z 7z 7z 7z 7z 7z 7z 7z tC su su su Yr hy hy hy hy hy hy /r /r /r /r /r /r /r -y uC 3B 3B 3B 3B 3B 3B 3B &~ vC p  s] t] )) 4] u] +~ v  x  y  A  D  c. h+ =+ M+ N+ ^# =@ 5@ /# /# P# _$ _$ _$ _$ _$ _$ Y$ ]% _% j% T& M% '& wC M> 8> G- l; J- z- B= K* a* xC 6B uu Fk V< P{ 2) U1 +~ r! 7~ I' 4| p( p( p( p( p( p( p( p( p( p( p( p( ,/ F} %$ $+ q~ yC (1 zC AC BC CC DC EC FC GC HC IC JC KC LC MC NC OC PC QC RC SC TC UC VC WC XC YC YC ZC ZC ZC ZC ZC ZC ZC ZC ZC ZC ZC ZC ZC ZC ZC ZC ZC ZC XC `C  D .D +D TC TC TC TC TC TC TC TC TC TC TC @D #D $D %D &D *D *D *D =D =D =D =D *D -D ;D >D ,D 'D 'D 'D 'D 'D 'D 'D 'D 'D 'D 'D 'D 'D 'D 'D 'D 'D )D !D ~D {D ]D ^D /D (D TC _D _D _D _D _D _D _D _D _D _D _D _D _D _D _D _D _D _D _D _D _D :D <D <D [D }D *g |D 1D 2D 2D 2D 2D 2D 2D 2D 2D 2D 2D 2D 2D 2D 2D 2D 2D 2D 2D |D -g 3D 4D TC 5D _D _D _D _D _D _D _D _D _D _D _D 6D 7D 8D 9D 0D aD bD cD dD eD UC fD gD hD iD jD {D kD ~D lD lD lD lD lD mD mD lD ~D ~D ~D kD nD nD nD oD pD qD rD sD tD uD vD wD xD yD zD AD BD CD DD ED FD aD LC GD HD ID JD KD LD MD KC ND YC )D OD 'D )D )D )D )D !D kD PD QD RD j4 y| y| y| N+ C$ F} ,/ p( p( p( p( p( p( p( p( p( p( p( p( p( p( D, j3 3) y( 8) Y. }2 f} ~9 1{ Yt hk 9C S= A- J- J- J- SD E> s& TD UD VD WD XD YD ZD `D  E .E +E @E #E $E %E &E &E Da *E =E VD -E ;E >E ,E 'E 9y ib )E !E ~E {E hz 4] 4^ 5^ ]( 7u rq rq rq rq rq rq rq rq rq rq rq rq rq rq rq rq rq rq rq rq rq rq rq rq rq rq rq rq rq n< Yr Yr Yr Yr Yr Yr Yr Yr 3z 5z 5z 5z 5z 5z 5z 5z 5z 5z 5z 5z 5z 5z 2z Yr Yr ",
"5s *r *r J} 5e 5e 5e 5e 5e 5e 5e 5e %{ 7z 7z 7z 7z 7z 7z 7z 7z 7z 7z 7z 7z 7z su su su su hy hy hy hy hy hy /r /r /r /r /r /r /r ]E 3B 3B 3B 3B 3B 3B 3B 4B ^E vC p  s] t] )) 4] u] +~ v  x  y  A  D  c. h+ =+ M+ N+ ^# =@ 5@ /# /# P# _$ _$ _$ _$ _$ _$ Y$ ]% _% j% T& M% d- wC 24 k; G- J- K- z- C= 1o a* jy hk @v #v V< k{ L2 5) +~ r! 7~ I' 4| p( p( p( p( p( p( p( p( p( p( p( p( ,/ F} %$ =+ q~ /E %+ (E _E vD :E <E [E EC }E |E 1E 2E 3E 4E 5E 6E 7E 8E 9E 0E aE bE cE dE eE fE gE gE gE gE gE gE gE gE gE gE gE gE gE gE gE gE gE hE hE iE jE kE tD lE mE mE mE mE mE mE mE mE mE mE mE mE mE mE yD nE oE pE pE pE pE pE pE pE qE rE sE tE uE uE vE vE vE vE vE vE vE vE vE vE vE uE ok dw wE xE yE zE AE 1v BE CE uD DE mE mE mE mE mE mE mE mE mE mE mE mE mE mE mE mE mE mE mE mE mE mE tD EE FE GE HE IE JE KE gE gE gE gE gE gE gE gE gE gE gE gE gE gE gE gE gE tE LE ME NE UC :E mE mE mE mE mE mE mE mE mE mE mE mE OE tD PE QE RE SE TE UE VE WE XE YE ZE KE `E  F  F  F gE .F .F JE +F +F JE @F #F gE $F  F %F %F &F gl *F =F -F EE tD OE OE OE OE mE DE tD DE mE mE mE :E ;F UC tD >F ,F CD 'F )F !F ~F {F ]F ^F jk vE /F vE vE vE vE vE vE (F _F :F j4 y| y| y| N+ C$ F} ,/ p( p( p( p( p( p( p( p( p( p( p( p( p( p( 5n  ) K2 y( 8) e+ I4 f} ~9 1{ M2 hk <F ww 1; J- J- J- [F F> N& }F Gy qy ey |F 1F db fb 2F 3F 2F 2F 2F 2F 2F 4F 5F 6F 6F 6F 6F 7F 6F 7F 8F !E ay !E ay ay 9F 0F hz 4] 4^ 5^ ]( 7u rq rq rq rq rq rq rq rq rq rq rq rq rq rq rq rq rq rq rq rq rq rq rq rq rq rq rq rq rq  s Yr Yr Yr Yr Yr Yr Yr Yr 4z 5z 5z 5z 5z 5z 5z 5z 5z 5z 5z 5z 5z 5z 5z Bz Yr ",
"6z *r *r %{ 5e 5e 5e 5e 5e 5e 5e 5e %{ 7z 7z 7z 7z 7z 7z 7z 7z 7z 7z 7z 7z 7z su su su su )z hy hy hy hy hy .v /r /r /r /r /r %{ aF bF cF dF dF eF fF gF Ih vC vC p  s] t] )) 4] u] +~ v  x  y  A  D  c. h+ =+ M+ N+ ^# =@ 5@ /# /# P# _$ _$ _$ _$ _$ _$ Y$ ]% _% j% +& N% d- :& ,d k; G- J- K- hF C= 2= -* P& iF @v 8m G} k{ L2 5) ]^ r! 7~ J' U( +{ +{ +{ +{ +{ +{ +{ +{ +{ +{ +{ +{ e_ A3 A$ =+ h+ /E %+ jF kF lF mF nF oF pF qF rF sF nF tF UC aE tD mE rF WE :E zD uF vF wF xF yF zF zF zF zF zF zF zF zF zF zF zF zF zF zF zF zF yF zF AF pD BF mE CF :E :E :E :E :E :E :E :E :E :E :E :E :E :E :E :E qF DF EF FF GF GF GF HF IF JF KF LF MF xE xE xE xE xE xE xE xE xE xE xE NF OF PF QF 5f 3f RF tE SF TF UF CD nF VF :E :E :E :E :E :E :E :E :E :E :E :E :E :E :E :E :E :E :E :E :E VF VF tD WF GE XF %F `E zF zF zF zF zF zF zF zF zF zF zF zF zF zF zF zF zF zF YF ZF WC `F  G mF :E :E :E :E :E :E :E :E :E :E :E :E :E :E :E :E .G +G @G #G $G %G &G *G =G zF zF zF zF zF zF zF zF zF zF zF zF zF zF zF zF zF zF zF tE -G jE ;G yD lE UC :E :E :E :E :E :E :E :E :E :E :E >G UC UC UC UC UC ;F ;F .D mE ,G 'G )G !G QF QF PF OF OF xE xE xE xE xE ~G {G :F j4 y| y| y| N+ ,' %5 e_ +{ +{ +{ +{ +{ +{ +{ +{ +{ +{ +{ +{ +{ +{ !j |2 D< y( 8) e+ I4 f} $^ 1{ oC iF ]G T= 1; J- K- k; SD F> N& ^G /G -e Lb <f (G ~c jx _G _G _G jx jx jx jx jx jx jx jx jx jx jx jx :G :G xy jx jx jx ~c <G [G T{ 4] 4^ 5^ ]( 7u rq rq rq rq rq rq rq rq rq rq rq rq rq rq rq rq rq rq rq rq rq rq rq rq rq rq rq rq rq rq Zr Yr Yr Yr Yr Yr Yr Yr 5z 5z 5z 5z 5z 5z 5z 5z 5z 5z 5z 5z 5z 5z 5z 5z 5z ",
"}G m| *r h$ 5e 5e 5e 5e |G 5e 5e 5e %{ 7z 7z 7z 7z 7z 7z 7z 7z 7z 7z 7z 7z 1G su su su su |[ hy hy hy hy hy .v /r /r /r /r 2G aF aF 3G 4G 4G 4G 4G 4G 5G vC vC vC 2] s] t] )) 4] u] +~ v  x  y  A  D  c. h+ =+ M+ N+ ^# =@ 5@ /# /# P# _$ _$ _$ _$ _$ _$ Y$ ]% :% k% +& N% k& (& ,d k; 6G J- K- x- %, 7G 9= %* Sn @v 8m G} k{ L2 U1 0< r! 7~ e= ;a +{ +{ +{ +{ +{ +{ +{ +{ +{ +{ +{ +{ e_ A3 A$ =+ h+ /E %+ 8G 9G 0G VF VF .D lE mF mF mF aG CF CF bG bG mF mF VF /D cG dG eG %F zF zF zF zF zF zF zF zF zF zF zF zF zF zF zF zF zF tE zF LE fG gG VF mF hG :E :E :E :E :E :E :E :E :E :E :E :E :E :E :E :E :E qF iG JD FF GF GF IF jG 9n JE wE `f xE xE xE xE xE xE xE xE xE OF PF kG 4f tE lG lG zF tE mG nG oG AD VF VF :E :E :E :E :E :E :E :E :E :E :E :E :E :E :E :E :E :E :E :E :E UC lE mE &G fG pG qG %F Ai zF zF zF zF zF zF zF zF zF zF zF zF zF zF zF zF zF rG sG tG uG lE VF :E :E :E :E :E :E :E :E :E :E :E :E :E :E :E :E WE BD vG wG xG  G yG zG AG yF zF zF zF zF zF zF zF zF zF zF zF zF zF zF zF zF zF yF gE BG CG  D DG .D UC :E :E :E :E :E :E :E :E :E :E :E :E :E :E :E :E :E :E VF mF wD EG FG *m GG GG qG tE tE gE HG yE IG xE xE xE Xj {G :F j4 y| y| y| N+ ,' %5 e_ +{ +{ +{ +{ +{ +{ +{ +{ +{ +{ +{ +{ +{ +{ +{ c% .6 s  8) e+ I4 f} $^ ci oC Sn JG T= 1; J- K- K- SD F> w& KG LG Kb MG NG OG PG QG QG QG QG QG QG QG QG QG QG QG QG QG QG QG QG QG QG RG SG TG -e -e UG VG @~ 4] 4^ 5^ ]( WG Yr Yr 2s Zr `r  s rq rq rq rq rq rq rq rq rq rq rq rq rq rq rq rq rq rq rq rq rq rq rq rq rq n< 2s Yr Yr Yr Yr su 5z 5z 5z 5z 5z 5z 5z 5z 5z 5z 5z 5z 5z 5z 5z 5z 5z ",
"}G }G Zr 6s 5e 5e |G XG YG >q 5e 5e y' 7z 7z 7z 7z 7z 7z 7z 7z 7z 7z 7z 7z cz su su su su su hy hy hy hy hy gy /r /r /r /r >q aF aF ZG `G  H .H .H +H @H #H $H %H // s] t] )) 4] u] +~ v  x  y  A  D  c. h+ =+ M+ N+ ^# =@ 5@ /# /# P# _$ _$ _$ _$ _$ _$ Y$ ]% :% k% +& N% |& _& ,d k; 6G J- K- x- %, n, ;* %* Sn r% $n G} .l a$ U1 0< r! 7~ e= ;a +{ +{ +{ +{ +{ +{ +{ +{ +{ +{ +{ +{ e_ A3 A$ =+ h+ /E %+ 8G 9G 0G .D UC :E :E :E :E :E :E :E :E :E :E VF VF DF &H |D zF gE yF zF zF zF zF zF zF zF zF zF zF zF zF zF zF zF zF tE yF *H =H -H lE CF UC :E :E :E :E :E :E :E :E :E :E :E :E :E :E :E :E :E :E :E wD ;H >H GF qE ,H 9n 'H wE xE xE xE xE xE xE xE NF IG OF )w )H  F tE yF zF !H zF ]F ~H {H ]H AD ^H VF :E :E :E :E :E :E :E :E :E :E :E :E :E :E :E :E :E :E :E :E :E UC bG /H vG (H _H hE xF zF zF zF zF zF zF zF zF zF zF zF zF zF zF zF zF zF yF YF :H <H ,F CF lE :E :E :E :E :E :E :E :E :E :E :E :E :E :E :E :E WE [H -H DF pF yD ]H {H ~H tE zF zF zF zF zF zF zF zF zF zF zF zF zF zF zF zF zF Ai }H |H 1H 2H >F lE >G :E :E :E :E :E :E :E :E :E :E :E :E :E :E :E :E :E :E >G .D 3H 4H 5H |H gE tE zF zF zF !H zF tE AE +F 6H xE xE Xj {G :F j4 y| y| y| N+ ,' %5 e_ +{ +{ +{ +{ +{ +{ +{ +{ +{ +{ +{ +{ +{ +{ +{ :% &5 $( r! Y. I4 f} $^ ci uu Sn JG T= 1; k; K- K- SD 7H w& KG LG Kb MG vu dz Nc Oc Oc Oc Oc Oc Oc Oc Oc Oc Oc Oc Oc Oc Oc Oc Oc Oc Oc Oc =^ 8H -e -e UG VG ,a 4] 4^ 5^ ]( WG Yr Yr Yr Yr Yr Yr Yr Zr n< rq rq rq rq  s `r Zr 2s 2s 2s `r n< rq rq rq rq rq rq rq rq rq rq rq 2s Yr Yr Yr Yr 2z 5z 5z 5z 5z 5z 5z 5z 5z 5z 5z 5z 5z 5z 5z 5z 5z 5z ",
"}G }G }G Zr &~ wp YG YG YG YG K~ 5e 5e 7z 7z 7z 7z 7z 7z 7z 7z 7z 7z 7z Ez su su su su su su _z hy hy hy hy ;y /r /r /r /r 9H aF aF aF aF ]' 8z 8z 8z 8z 8z 8z 8z // s] t] )) 4] u] +~ v  x  y  A  D  c. h+ =+ M+ N+ ^# =@ 5@ /# /# P# _$ _$ _$ _$ _$ _$ Y$ ]% U, l% G% N% |& _& ,d k; t- }; 0H aH bH m, ;* %* cH L6 $n K6 3^ a$ U1 0< r! 7~ e- ;a +{ +{ +{ +{ +{ +{ +{ +{ +{ +{ +{ +{ e_ A3 A$ =+ h+ /E %+ 8G 9G 0G .D UC :E :E :E :E :E :E :E :E :E sD dH eH fH ZF %F  F zF zF zF zF zF zF zF zF zF zF zF zF zF zF zF zF zF ]F gH hH iH <E mF CF :E :E :E :E :E :E :E :E :E :E :E :E :E :E :E :E :E :E :E :E :E WE jH kH lH 9q mH QF wE IG IG xE nH OF PF oH QF HG @F KE pH qG zF zF zF zF yF ]F qH rH sH zD VF UC :E :E :E :E :E :E :E :E :E :E :E :E :E :E :E :E :E :E :E :E :E :E UC vD tH uH vH hE  F !H zF zF zF zF zF zF zF zF zF zF zF zF zF zF zF zF zF YF wH xH uG CF VF :E :E :E :E :E :E :E :E :E :E :E :E :E :E :E :E :E qF yH /D yH zH xH AH  g zF zF zF zF zF zF zF zF zF zF zF zF zF zF zF zF zF zF zF lG BH CH tH wD VF :E :E :E :E :E :E :E :E :E :E :E :E :E :E :E :E :E :E >G UC >G DH ]H EH YF @F tE zF zF zF zF zF zF zF zF xF FH IG GH Xj {G :F j4 y| y| y| N+ ,' %5 e_ +{ +{ +{ +{ +{ +{ +{ +{ +{ +{ +{ +{ +{ +{ +{ =w &5 2: r! Y. I4 f} $^ (k uu Sn HH T= z- K- K- K- IH H> M& JH KH LH MG }v MH NH Oc Oc Oc Oc Oc Oc Oc Oc Oc Oc Oc Oc Oc Oc Oc Oc Oc Oc Oc `] 8H -e -e UG VG ,a 4] 4^ 5^ ]( WG Yr Yr Yr Yr Yr Yr Yr Yr Yr Yr Yr Zr 2s Yr Yr Yr Yr Yr Yr Yr Yr Yr `r rq rq rq rq rq rq rq rq  s Yr Yr Yr Yr Yr Bz 5z 5z 5z 5z 5z 5z 5z 5z 5z 5z 5z 5z 5z 5z 5z 5z 5z ",
"}G }G }G }G +s ,y YG YG YG YG YG OH 5e PH 7z 7z 7z 7z 7z 7z 7z 7z 7z Dz su su su su su su su su )z hy hy hy hy /r /r /r /r QH aF aF aF aF aF RH 8z 8z 8z 8z 8z 8z // s] t] )) 4] u] +~ v  x  y  A  D  c. h+ =+ M+ N+ ^# =@ 5@ /# /# P# _$ _$ _$ _$ _$ _$ Y$ ]% <% l% G% N% !& _& ,d k; t- K- L- aH E= N* ,* r& Ho L6 $n j3 3^ a$ 5) 0< r! 7~ e- ;a +{ +{ +{ +{ +{ +{ +{ +{ +{ +{ +{ +{ e_ A3 A$ =+ h+ /E %+ 8G 9G 0G .D UC :E :E :E :E :E :E :E UC mF dH SH TH UH  F  F zF zF zF zF zF zF zF zF zF zF zF zF zF zF zF zF zF yF VH WH ^D XH lE mF :E :E :E :E :E :E :E :E :E :E :E :E :E :E :E :E :E :E :E :E :E :E :E YH ZH `H  I .I +I @I #I $I IE %I &I AE AE  F tE zF ~H ~H zF zF zF zF yF yF )G (H *I =I lE VF :E :E :E :E :E :E :E :E :E :E :E :E :E :E :E :E :E :E :E :E :E UC tF uG -I ;I >I %F %F zF zF zF zF zF zF zF zF zF zF zF zF zF zF %F `E `E tE ,I 'I oG AD lE VF :E :E :E :E :E :E :E :E :E :E :E :E :E :E :E :E :E :E WE qF )I 2H !I ~I zF yF zF zF zF zF zF zF zF zF zF zF zF zF zF zF zF zF zF yF zF {I 9D ]I dH .D >G :E :E :E :E :E :E :E :E :E :E :E :E :E :E :E :E :E :E lE >G ^I /I {H (I  F zF zF zF zF zF zF zF zF zF zF LF _I @I NF Xj {G :F j4 y| y| y| N+ ,' %5 e_ +{ +{ +{ +{ +{ +{ +{ +{ +{ +{ +{ +{ +{ +{ +{ @m k{ 2: r! Y. I4 f} $^ (k uu cH :I <I E- K- L- j; IH H> y& JH [I LH <f }v ]g Em Oc Oc Oc Oc Oc Oc Oc Oc Oc Oc Oc Oc Oc Oc Oc Oc Oc Oc Oc `] 8H -e -e UG VG ,a 4] 4^ 5^ ]( WG Yr Yr Yr Yr Yr Yr Yr Yr Yr Yr Yr Yr Yr Yr Yr Yr Yr Yr Yr Yr Yr Yr Yr Yr rq rq rq rq rq rq rq `r Yr Yr Yr Yr Yr 4z 5z 5z 5z 5z 5z 5z 5z 5z 5z 5z 5z 5z 5z 5z 5z 5z 5z ",
"}G }G }G }G }G YG YG YG YG YG YG YG sr .v 7z 7z 7z 7z 7z 7z 7z 7z 7z (z su su su su su su su su _z hy hy hy hy .v /r /r /r 2G aF aF aF aF aF aF }I 8z 8z 8z 8z 8z // s] t] )) 4] u] +~ v  x  y  A  D  c. h+ =+ M+ N+ ^# =@ 5@ /# /# P# _$ _$ _$ _$ _$ _$ Y$ ]% <% m% G% O% !& 8, ,d k; t- K- L- 37 E= |= ,* Az Mu #w 1p j3 3^ ~% 5) ]~ r! 7~ e- ;a +{ +{ +{ +{ +{ +{ +{ +{ +{ +{ +{ +{ e_ A3 A$ =+ h+ /E %+ 8G 9G 0G .D UC :E :E :E :E :E :E :E lE WE tH |I 1I }H yF zF zF zF zF zF zF zF zF zF zF zF zF zF zF zF zF zF tE ]F 2I 3I BD bG lE :E :E :E :E :E :E :E :E :E :E :E :E :E :E :E :E :E :E :E :E :E :E :E >F tH uH BG fE 'w gE xF pH tE LF ~H ~H ~H !H zF zF zF zF zF zF zF zF yF yF UH 4I 5I qF lE UC :E :E :E :E :E :E :E :E :E :E :E :E :E :E :E :E :E :E :E :E :E UC lE 6I 7I 8I 9I hE yF zF zF zF zF zF zF zF zF zF zF zF zF zF yF }H 5f 0I )H aI bI cI mE dI VF :E :E :E :E :E :E :E :E :E :E :E :E :E :E :E :E :E :E :E :E AD ZH eI 1I  F zF zF zF zF zF zF zF zF zF zF zF zF zF zF zF zF zF zF yF zF fI gI hI :E VF :E :E :E :E :E :E :E :E :E :E :E :E :E :E :E :E :E :E :E .D VF <E iI jI 4f gE zF zF zF zF zF zF zF zF zF zF zF !H LF @F kI MF lI :F j4 y| y| y| N+ ,' %5 e_ +{ +{ +{ +{ +{ +{ +{ +{ +{ +{ +{ +{ +{ +{ +{ @m k{ 2: r! Y. I4 f} $^ (k :4 2p :I <I z- K- L- K- IH I> z& mI nI -e <f }v ]g Em Oc Oc Oc Oc Oc Oc Oc Oc Oc Oc Oc Oc Oc Oc Oc Oc Oc Oc Oc `] 8H -e -e UG VG ,a 4] 4^ 5^ ]( WG Yr Yr Yr Yr Yr Yr Yr Yr Yr Yr Yr Yr Yr Yr Yr Yr Yr Yr Yr Yr Yr Yr Yr Yr Yr  s 2s 2s n< rq  s Yr Yr Yr Yr Yr Yr 5z 5z 5z 5z 5z 5z 5z 5z 5z 5z 5z 5z 5z 5z 5z 5z 5z 5z ",
"}G }G }G }G }G *r YG YG YG YG YG YG oI &~ 7z 7z 7z 7z 7z 7z 7z 7z tC su su su su su su su su su _z hy hy hy hy hy /r /r /r /r y' aF aF aF aF aF pI 8z 8z 8z 8z 8z // s] t] )) 4] u] +~ v  x  y  A  D  c. h+ =+ M+ N+ ^# =@ 5@ /# /# P# _$ _$ _$ _$ _$ _$ Y$ $% <% m% @& 7' {& 8, 7e K- t- K- M- v- qI O* y* Az 2p #w 1p j3 z] ~% 5) ]~ r! 7~ e- ;a +{ +{ +{ +{ +{ +{ +{ +{ +{ +{ +{ +{ e_ A3 A$ =+ h+ /E %+ 8G 9G 0G .D UC :E :E :E :E :E UC UC ,F rI sI ZE }H yF zF zF zF zF zF zF zF zF zF zF zF zF zF zF zF zF zF ]F tI Xn 3I uI mF lE :E :E :E :E :E :E :E :E :E :E :E :E :E :E :E :E :E :E :E :E :E :E :E vD vI wI )G  F zF ~H zF zF zF zF zF zF zF zF zF zF zF zF zF zF zF zF yF Lg >I uH 5I dH VF :E :E :E :E :E :E :E /H mE :E :E :E :E :E :E :E :E :E :E :E :E :E VF :E $D xI yI zF `E zF zF zF zF zF zF zF zF zF zF zF zF zF zF ]F hE QF OF QF 1I zI ;G qF CF :E :E :E :E :E :E :E :E :E :E :E :E :E :E :E :E :E :E :E :E :E AD uF AI BI gE zF zF zF zF zF zF zF zF zF zF zF zF zF zF zF zF zF zF yF yF {I BE CI .D lE :E :E :E :E :E :E :E :E :E :E :E :E :E :E :E :E :E :E :E VF WE DI iI mH tE xF zF zF zF zF zF zF zF zF zF zF zF zF zF zF  F +F EI FI :F j4 y| y| y| N+ ,' %5 e_ +{ +{ +{ +{ +{ +{ +{ +{ +{ +{ +{ +{ +{ +{ +{ +e k{ 2: r! e+ 2) f} $^ Fk :4 2p a, <I y- K- M- M- GI J> L& mI nI -e <f }v ]g Em Oc Oc Oc Oc Oc Oc Oc Oc Oc Oc Oc Oc Oc Oc Oc Oc Oc Oc Oc `] 8H -e -e UG VG ,a 4] 4^ 5^ ]( WG Yr Yr Yr Yr Yr Yr Yr Yr Yr Yr Yr Yr Yr Yr Yr Yr Yr Yr Yr Yr Yr Yr Yr Yr Yr Yr Yr Yr Yr Zr Yr Yr Yr Yr Yr Yr Yr 5z 5z 5z 5z 5z 5z 5z 5z 5z 5z 5z 5z 5z 5z 5z 5z 5z 5z ",
"}G }G }G }G }G U: HI YG YG YG YG YG YG K~ ;r 7z 7z 7z 7z Dz Ez (z su su su su su su su su su su _z hy hy hy hy hy >y /r /r /r <z aF aF aF aF aF aF 8z 8z 8z 8z 8z // s] t] )) 4] u] +~ v  x  y  A  D  c. h+ =+ M+ N+ ^# =@ 5@ /# /# P# _$ _$ _$ _$ _$ _$ Y$ %% <% m% @& 7' {& n& ,, K- l; K- M- v- G= }= u, II 5q Vw 1p j3 z] ~% 5) ]~ r! 7~ f- ;a +{ +{ +{ +{ +{ +{ +{ +{ +{ +{ +{ +{ e_ A3 A$ =+ h+ /E %+ 8G 9G 0G .D UC :E :E :E :E VF VF uG ]H JI KI gE yF zF zF zF zF zF zF zF zF zF zF zF zF zF zF zF zF zF qG aI LI UF MI CF VF :E :E :E :E :E :E :E :E :E :E :E :E :E :E :E :E :E :E :E :E :E :E mE BD NI uH OI tE tE zF zF zF zF zF zF zF zF zF zF zF zF zF zF zF zF zF yF  g {I PI tH wD :E :E :E :E :E :E :E :E wD XH QI .G jH RI mE :E :E :E :E :E :E :E :E VF WE SI TI UI  F  F zF zF zF zF zF zF zF zF zF zF zF zF zF tE xF 'w yE GH 6H VI WI XI ;F YI hG :E :E :E :E :E :E :E :E :E :E :E :E :E :E :E :E :E :E :E dH 4D ]H =g ZI  F zF zF zF zF zF zF zF zF zF zF zF zF zF zF zF zF zF zF tE YF WH `I CE mE UC :E :E :E :E :E :E :E :E :E :E :E :E :E :E :E :E :E :E :E VF wD tH CH  J  F  F zF zF zF zF zF zF zF zF zF zF zF zF zF zF zF zF gE .J {G o4 y| y| y| y| N+ ,' %5 e_ +{ +{ +{ +{ +{ +{ +{ +{ +{ +{ +{ +{ +{ +{ +{ !j k{ 2: r! e+ 2) 97 $^ Fk ev +J kd U= E- L- M- M- @J J> B& }F nI -e <f }v ]g Em Oc Oc Oc Oc Oc Oc Oc Oc Oc Oc Oc Oc Oc Oc Oc Oc Oc Oc Oc `] 8H -e -e UG VG ,a 4] 4^ 5^ ]( WG Yr Yr Yr Yr Yr Yr Yr Yr Yr Yr Yr Yr Yr Yr Yr Yr Yr Yr Yr Yr Yr Yr Yr Yr Yr Yr Yr Yr Yr Yr Yr Yr Yr Yr Yr Yr Yr 5z 5z 5z 5z 5z 5z 5z 5z 5z 5z 5z 5z 5z 5z 5z 5z 5z 5z ",
"}G }G }G }G }G 3z su _z YG YG YG YG YG YG XG Cv !z cz su su su su su su su su su su su su su su _z hy hy hy hy hy >y /r /r /r /r y' aF aF aF aF aF 8z 8z 8z 8z 8z // s] t] )) 4] u] +~ v  x  y  A  D  c. h+ =+ M+ N+ ^# =@ 5@ /# /# P# _$ _$ _$ _$ _$ _$ Y$ %% <% n% S% 7' ]& n& ,, K- l; K- N- v- #J P* u, t& }r Nw !p j3 3^ ~% 5) ]~ r! 7~ J' ;a +{ +{ +{ +{ +{ +{ +{ +{ +{ +{ +{ +{ e_ A3 A$ =+ h+ /E %+ $J %J 0G .D UC :E :E :E VF lE BD &J *J  g  F zF zF zF zF zF zF zF zF zF zF zF zF zF zF zF zF zF zF tE gl =J =F vD dI lE :E :E :E :E :E :E :E :E :E :E :E :E :E :E :E :E :E :E :E :E :E :E mE yH -J ;J  g  F zF zF zF zF zF zF zF zF zF zF zF zF zF zF zF zF zF zF tE zF hH >J CE tD UC :E :E :E :E :E :E lE mE ,J 'J )J !J 0G lF mE :E :E :E :E :E :E UC lE mE VC ~J OI $F GG zF zF zF zF zF zF zF zF zF zF zF zF zF tE )H {J IG wE xE ]J ^J /J lE TC :E :E :E :E :E :E :E :E :E :E :E :E :E :E :E :E :E :E :E :E mE <E `I (J lG  F zF zF zF zF zF zF zF zF zF zF zF zF zF zF zF zF zF zF tE _J =J :J BD UC UC UC :E :E :E :E :E :E :E :E :E :E :E :E :E :E :E :E :E UC lE mE <J AI AG  F zF zF zF zF zF zF zF zF zF zF zF zF zF zF zF zF zF zF yF [J }J :F y| y| y| y| N+ ,' %5 e_ +{ +{ +{ +{ +{ +{ +{ +{ +{ +{ +{ +{ +{ +{ +{ !j .l W< 8) e+ 2) U} 39 Fk ev }r |J 1J x- L- M- M- @J J> B& }F nI -e 2J }v ]g Em Oc Oc Oc Oc Oc Oc Oc Oc Oc Oc Oc Oc Oc Oc Oc Oc Oc Oc Oc `] 8H -e -e UG VG ,a 4] 4^ 5^ ]( 3J Yr Yr Yr Yr Yr Yr Yr Yr Yr Yr Yr Yr Yr Yr Yr Yr Yr Yr Yr Yr Yr Yr Yr Zr Zr _z 4J 4J _z Zr Yr Yr Yr Yr Yr Yr Yr 6z 5z 5z 5z 5z 5z 5z 5z 5z 5z 5z 5z 5z 5z 5z 5z 5z 5z ",
"}G }G }G }G }G }G 3z su Yr 6s YG YG YG YG YG YG YG HI su su su su su su su su su su su su su su _z hy hy hy hy hy hy /r /r /r /r QH aF aF aF aF 5J 8z 8z 8z 8z 8z // s] t] )) 4] u] +~ v  x  y  A  D  c. h+ =+ M+ N+ ^# =@ 5@ /# /# P# _$ _$ _$ _$ _$ _$ Z$ %% <% n% S% 3& ]& $* ,, K- J- j; N- F- I= Q* ~* <F }r Nw !p wc 3^ ~% 5) x! r! 7~ e= ;a +{ +{ +{ +{ +{ +{ +{ +{ +{ +{ +{ +{ e_ A3 A$ =+ h+ /E @+ $J %J lF 6D ^H UC UC lE bG 6J 3I |D zF xF zF zF zF zF zF zF zF zF zF zF zF zF zF zF zF zF zF zF lG AG LI QE 7J 8J lE UC UC UC UC UC UC UC UC UC UC UC UC UC UC UC UC UC UC UC UC UC UC tD uG uF 9J ~H tE zF zF zF zF zF zF zF zF zF zF zF zF zF zF zF zF zF zF zF tE ~I 0J aJ :E UC UC UC UC UC UC UC ^H dI 7D CC bJ cJ dJ eJ VF :E UC UC UC UC UC UC bG mE fJ uH gJ KE tE !H zF zF zF zF zF zF zF zF zF zF zF tE KE fE OF xE xE IG ]J YE hJ lE dI UC UC UC UC UC UC UC UC UC UC UC UC UC UC UC UC UC UC UC UC tD XH iJ jJ kJ ]F zF zF zF zF zF zF zF zF zF zF zF zF zF zF zF zF zF zF tE SF sG lJ mJ ^H ^H UC UC UC UC UC UC UC UC UC UC UC UC UC UC UC UC UC UC UC lE >F SH nJ iE tE zF zF zF zF zF zF zF zF zF zF zF zF zF zF zF zF zF zF zF gl oJ pJ qJ Nu y| y| y| N+ ,' %5 e_ +{ +{ +{ +{ +{ +{ +{ +{ +{ +{ +{ +{ +{ +{ +{ !j -^ W< 8) 8] 2) U} !1 Fk -w Os rJ 1J x- M- N- M- r- J> C& sJ nI -e 2J }v ]g 3p Oc Oc Oc Oc Oc Oc Oc Oc Oc Oc Oc Oc Oc Oc Oc Oc Oc Oc Oc `] 8H -e -e UG VG ,a 4] 4^ 5^ ]( tJ 4J Zr Yr Yr Yr Yr Yr Yr Yr Yr Yr Yr Yr Yr Yr Yr Yr Yr Yr Yr Yr Zr 4J 4J 4J 4J 4J 4J 4J 4J 4J Yr Yr Yr Yr Yr Yr U: 5z 5z 5z 5z 5z 5z 5z 5z 5z 5z 5z 5z 5z 5z 5z 5z 5z ",
"}G }G }G }G }G }G }G }G (z su uJ 0t YG YG YG YG YG YG HI su su su su su su su su su su su su su _z hy hy hy hy hy hy at /r /r /r vJ aF aF aF aF $~ 8z 8z 8z 8z 8z // s] t] )) 4] u] +~ v  x  y  A  D  c. h+ =+ M+ N+ ^# =@ 5@ /# /# P# _$ _$ _$ _$ _$ _$ Z$ %% <% o% H% 3& ]& p& P> K- J- M- T; F- I= wJ ~* <F }r Nw Dp wc 3^ ~% 5) x! r! 7~ J' ;a +{ +{ +{ +{ +{ +{ +{ +{ +{ +{ +{ +{ e_ A3 A$ =+ h+ /E @+ $J %J lF 6D ^H UC lE CF /D TI ZF xJ %F zF zF zF zF zF zF zF zF zF zF zF zF zF zF zF zF zF ]F GG yJ zG zJ mE dI UC UC UC UC UC UC UC UC UC UC UC UC UC UC UC UC UC UC UC UC UC UC UC tD /D AJ nG _J zF zF zF zF zF zF zF zF zF zF zF zF zF zF zF zF zF zF zF yF zF {I BJ CJ DJ ^H UC UC UC UC UC UC UC bG ^H EJ FJ GJ HJ IJ bG UC UC UC UC UC UC UC CF :E XI JJ iE xF tE zF zF zF zF zF zF zF zF zF zF zF tE gE +F KJ xE xE `f `f LJ WI MJ bG TC UC UC UC UC UC UC UC UC UC UC UC UC UC UC UC UC UC UC UC UC mE WF NJ OJ Ai yF zF zF zF zF zF zF zF zF zF zF zF zF zF zF zF zF zF zF tE  g PJ QJ 6J ^H ^H UC UC UC UC UC UC UC UC UC UC UC UC UC UC UC UC UC UC lE bG rD RJ 9J YF %F zF zF zF zF zF zF zF zF zF zF zF zF zF zF zF zF zF zF yF SF SJ TJ UJ VJ WJ 0u y| y| N+ ,' %5 e_ +{ +{ +{ +{ +{ +{ +{ +{ +{ +{ +{ +{ +{ +{ +{ +{ -^ W< 8) 8] 2) U} X< ad -w Os rJ 3- x- M- N- M- r- K> t* XJ Qx -e -x }v ]g YJ Oc Oc Oc Oc Oc Oc Oc Oc Oc Oc Oc Oc Oc Oc Oc Oc Oc Oc Oc `] 8H -e -e UG VG ,a 4] 4^ 5^ ]( tJ 4J 4J Zr Yr Yr Yr Yr Yr Yr Yr Yr Yr Yr Yr Yr Yr Yr Yr Yr Yr Yr 4J 4J 4J 4J 4J 4J 4J 4J 4J 4J Yr Yr Yr Yr Yr Yr su 5z 5z 5z 5z 5z 5z 5z 5z 5z 5z 5z 5z 5z 5z 5z 5z 5z ",
"}G }G }G }G }G }G }G }G }G (z su su Cv YG YG YG YG YG YG HI su su su su su su su su su su su su Yr hy hy hy hy hy hy Wt /r /r /r /r 9H aF aF aF aF ZJ 8z 8z 8z 8z // s] t] )) 4] u] +~ v  x  y  A  D  c. h+ =+ M+ N+ ^# =@ 5@ /# /# P# _$ _$ _$ _$ _$ _$ Z$ %% <% o% H% 3& ^& q& P> K- J- M- O- u- I= `J  K .K Os Nw Dp Sf 9m ~% 5) x! r! 7~ J' ;a +{ +{ +{ +{ +{ +{ +{ +{ +{ +{ +{ +{ e_ A3 A$ =+ h+ /E @+ $J %J lF 6D ^H lE bG CD BE +K  g yF zF zF zF zF zF zF zF zF zF zF zF zF zF zF zF zF zF zF tE YF @K #K $K 8J ^H UC UC UC UC UC UC UC UC UC UC UC UC UC UC UC UC UC UC UC UC UC UC tD /D tG %K &K zF zF zF zF zF zF zF zF zF zF zF zF zF zF zF zF zF zF zF zF tE {I *K PE tD UC UC UC UC UC UC UC UC UC dI DE NI =K -K ;K >K lE UC UC UC UC UC UC bG :E ,K WI =G yF yF zF zF zF zF zF zF zF zF zF zF zF yF @F yE xE xE xE xE xE 'K )K  D bG <D UC UC UC UC UC UC UC UC UC UC UC UC UC UC UC UC UC UC UC UC mE !K |E BH zF zF zF zF zF zF zF zF zF zF zF zF zF zF zF zF zF zF zF zF tE (I {H ~K BD sD ^H UC UC UC UC UC UC UC UC UC UC UC UC UC UC UC UC UC UC UC bG >F {K 9J (I  F zF zF zF zF zF zF zF zF zF zF zF zF zF zF zF zF zF zF tE &K jI ]K ^K /K (K ]B 0u y| y| N+ ,' %5 e_ +{ +{ +{ +{ +{ +{ +{ +{ +{ +{ +{ +{ +{ +{ +{ +{ -^ W< 8) 8] 2) U} X< 8m -w Os rJ 3- x- N- T; N- _K K> D& XJ Qx -e -x }v ]g YJ Oc Oc Oc Oc Oc Oc Oc Oc Oc Oc Oc Oc Oc Oc Oc Oc Oc Oc Oc Mc 8H -e -e UG VG ,a 4] 4^ 5^ ]( tJ 4J 4J 4J Yr Yr Yr Yr Yr Yr Yr Yr Yr Yr Yr Yr Yr Yr Zr Zr Yr Yr _z 4J 4J 4J 4J 4J 4J 4J 4J _z Yr Yr Yr Yr Yr Yr Yr 4z 5z 5z 5z 5z 5z 5z 5z 5z 5z 5z 5z 5z 5z 5z 5z 5z ",
"}G }G }G }G }G }G }G }G }G }G (z su uJ YG YG YG YG YG YG Cv su su su su su su su su su su su su su hy hy hy hy hy hy >y /r /r /r /r :K aF aF aF aF pI ZJ 8z 8z 8z // s] t] )) 4] u] +~ v  x  y  A  D  c. h+ =+ M+ N+ ^# =@ 5@ /# /# P# _$ _$ _$ _$ _$ _$ Z$ %% <% o% H% && ^& %* <K K- J- M- P- H- [K S* {* JG ls 0x Dp Sf 17 ~% 5) x! r! 7~ J' ;a +{ +{ +{ +{ +{ +{ +{ +{ +{ +{ +{ +{ e_ A3 A$ =+ h+ /E @+ $J %J lF 6D }K UC SI |K {I mG zF zF zF zF zF zF zF zF zF zF zF zF zF zF zF zF zF zF yF tE AG 1K QE MI bG ^H UC UC UC UC UC UC UC UC UC UC UC UC UC UC UC UC UC UC UC UC UC UC tD CI tG -v ]F zF zF zF zF zF zF zF zF zF zF zF zF zF zF zF zF zF zF zF zF zF 2K 3K CE DE UC UC UC UC UC UC UC UC UC lE CF 6J 4K 5K !J 6K 7K UC UC UC UC UC UC bG wD uF AI -G tE yF zF zF zF zF zF zF zF zF zF zF zF yF 4f yE xE xE xE MF nH eE 8K 9K tD bG UC UC UC UC UC UC UC UC UC UC UC UC UC UC UC UC UC UC UC UC wD ]I !I 0K zF zF zF zF zF zF zF zF zF zF zF zF zF zF zF zF zF zF zF zF tE gl LI CC aK :E UC UC UC UC UC UC UC UC UC UC UC UC UC vD rD VF YI lE UC lE bG zD oG zG aI tE zF zF zF zF zF zF zF zF zF zF zF zF zF zF zF zF zF zF tE !H bK cK dK aK eK fK ]B 0u y| y| N+ ,' %5 e_ +{ +{ +{ +{ +{ +{ +{ +{ +{ +{ +{ +{ +{ +{ +{ +{ -^ W< 8) 8] 2) U} X< 8m L6 gK hK 3- 2; N- O- T; _K iK F& jK Qx -e -x }v kK lK Xc Zc Zc Zc Zc Zc Zc Zc Zc Zc Zc Zc Zc Zc Zc Zc Zc Zc mK nK 8H -e -e UG VG ,a 4] 4^ 5^ ]( tJ 4J 4J 4J Yr Yr Yr Yr Yr Yr Yr Yr Yr Yr Yr Yr Zr 4J 4J 4J 4J Zr Yr 4J 4J 4J 4J 4J 4J 4J 4J Zr Yr Yr Yr Yr Yr Yr Yr [< 5z 5z 5z 5z 5z 5z 5z 5z 5z 5z 5z 5z 5z 5z 5z 5z ",
"}G }G }G }G }G }G }G }G }G }G }G su su *r YG YG YG YG YG _z su su su su su su su su su su su su su )z hy hy hy hy hy hy at /r /r /r ,y aF aF aF aF aF w~ oK 8z 8z // s] t] )) 4] u] +~ v  x  y  A  D  c. h+ =+ M+ N+ ^# =@ 5@ /# /# P# _$ _$ _$ _$ _$ _$ `$ %% <% o% H% 2& :& q& pK K- }; N- <; H- K= [= Q, &* gK yx Dp X, H/ ~% 5) x! r! 7~ J' ;a +{ +{ +{ +{ +{ +{ +{ +{ +{ +{ +{ +{ e_ A3 A$ =+ h+ /E @+ $J %J lF TC UC XI qK OI  g zF zF zF zF zF zF zF zF zF zF zF zF zF zF zF zF zF ~H tE }H rK sK tK mE uK UC UC UC UC UC UC UC UC UC UC UC UC UC UC UC UC UC UC UC UC UC UC UC mE fD vK {I ~H zF zF zF zF zF zF zF zF zF zF zF zF zF zF zF zF zF zF zF zF zF fI wK NE DE UC UC UC UC UC UC UC UC UC UC CF VF  D TI xK yK zK AK UC UC UC UC lE dI MI BK dG AG ]F zF zF zF zF zF zF zF zF zF zF zF zF yF 4f yE xE xE xE wE xE CK DK CE UC lE UC UC UC UC UC UC UC UC UC UC UC UC UC UC UC UC UC UC UC UC yD tK EK )G  g zF zF zF zF zF zF zF zF zF zF zF zF zF zF zF zF zF zF zF %F YF zG FK AD UC UC UC UC UC UC UC UC UC UC UC UC ^H bG OE <J GK HK IK eJ dI lE <E JK KK (I yF zF zF zF zF zF zF zF zF zF zF zF zF zF zF zF zF zF zF tE  g LK ^D DH <D MK NK OK gA 0u y| y| N+ ,' %5 e_ +{ +{ +{ +{ +{ +{ +{ +{ +{ +{ +{ +{ +{ +{ +{ +{ I3 W< 8) 8] 2) U} X< 8m PK et hK W= 2; T; P- O- QK L> G& RK `w -e -x %h SK TK UK UK UK UK UK UK UK UK UK UK UK UK UK UK UK UK UK UK VK 7x 0w -e -e UG VG ,a 4] 4^ 5^ ]( tJ 4J 4J 4J Yr Yr Yr Yr Yr Yr Yr Yr Yr Yr Yr Yr _z 4J 4J 4J 4J 4J Yr _z 4J 4J 4J 4J 4J 4J _z Yr Yr Yr Yr Yr Yr Yr Yr Yr 4z 5z 5z 5z 5z 5z 5z 5z 5z 5z 5z 5z 5z 5z 5z 5z ",
"}G }G }G }G }G }G }G }G }G }G }G WK su Yr YG YG YG YG 0t su su su su su su su su su su su su su su !z hy hy hy hy hy hy -y /r /r /r ,y aF aF aF aF aF aF aF oK 8z // s] t] )) 4] u] +~ v  x  y  A  D  c. h+ =+ M+ N+ ^# =@ 5@ /# /# P# _$ _$ _$ _$ _$ A$ `$ &% e% o% H% 2& :& N, P> K- }; N- <; t- XK [= t, HH gK YK Hq X, H/ ~% ^B W. r! 7~ J' ;a +{ +{ +{ +{ +{ +{ +{ +{ +{ +{ +{ +{ e_ A3 A$ =+ h+ /E @+ $J %J WE TC vI JJ =G zF zF zF zF zF zF zF zF zF zF zF zF zF zF zF zF zF zF ~H tE }H BG ZK `K EE bG UC UC UC UC UC UC UC UC UC UC UC UC UC UC UC UC UC UC UC UC UC ^H lE dH tH  L )G LF zF zF zF zF zF zF zF zF zF zF zF zF zF zF zF zF zF zF zF zF zF @K oG uG tD UC UC UC UC UC UC UC UC UC UC UC 5D mE oG .L +L @L #L lE :E UC UC UC 8J xD :J *J BI tE zF zF zF zF zF zF zF zF zF zF zF zF tE hE $L xE MF xE `f %L gl CG &L bG bG UC UC UC UC UC UC UC UC UC UC UC UC UC UC UC UC UC UC UC UC MI 4H EH AG zF zF zF zF zF zF zF zF zF zF zF zF zF zF zF zF zF zF zF zF xF _J AI *L mJ UC UC UC UC UC UC UC UC UC UC UC UC lE bG vD =L -L ;L >L ,L 'L )L WF >J mH yF  F zF zF zF zF zF zF zF zF zF zF zF zF zF zF zF zF zF zF GG &K %K !L -F bG <D ~L {L OK gA 0u y| y| N+ ,' %5 e_ +{ +{ +{ +{ +{ +{ +{ +{ +{ +{ +{ +{ +{ +{ +{ +{ I3 W< 8) 8] 2) U} X< $n Vw et ]L W= 2; O- <; O- QK 23 H& ^L `w -e Mb Fx /L 0F (L _L _L _L _L _L _L _L _L _L _L _L _L _L _L _L _L _L :L <L |F Kb -e UG VG ,a 4] 4^ 5^ ]( tJ 4J 4J 4J Yr Yr Yr Zr _z 4J 4J 4J 4J Zr Yr Yr _z 4J 4J 4J 4J 4J Zr 4J 4J 4J 4J 4J 4J 4J Zr Yr Yr Yr Yr Yr Yr Yr Yr Yr [< 5z 5z 5z 5z 5z 5z 5z 5z 5z 5z 5z 5z 5z 5z 5z ",
"}G }G }G }G }G }G }G }G }G }G }G }G Bz su Zr YG YG YG Yr su su su su su su su su su su su su su su Yr hy hy hy hy hy hy ;y /r /r /r ,y aF aF aF aF aF aF aF aF ZJ // s] t] )) 4] u] +~ v  x  y  A  D  c. h+ =+ M+ N+ ^# =@ 5@ /# /# P# _$ _$ _$ _$ _$ A$ `$ &% e% o% H% ;x (& N, P> K- K- T; <; t- L= U* ^* :I Zt .b Hq X, H/ ~% ^B W. r! 7~ J' ;a +{ +{ +{ +{ +{ +{ +{ +{ +{ +{ +{ +{ e_ A3 A$ =+ h+ /E @+ [L }L aK |L 1L BG zF zF zF zF zF zF zF zF zF zF zF zF zF zF zF zF zF zF ~H tE hE >I 2L fJ tD bG ^H UC UC UC UC UC UC UC UC UC UC UC UC UC UC UC UC UC UC UC UC ^H }K aE vI 3L AF  F zF zF zF zF zF zF zF zF zF zF zF zF zF zF zF zF zF zF zF tE !H hD 4L 6J EE UC UC UC UC UC UC lE CF dI <D <D dI ^H CE 3K 5L 6L 3C zK UC tD UC bG 7L 8L 3D PJ KI tE zF zF zF zF zF zF zF zF zF zF zF tE &I 9L 0L nH xE xE ok ok rG aL bL sD bG UC UC UC UC UC UC UC UC UC UC UC UC UC UC UC UC UC UC UC ^H cL 8D bI _J tE zF zF zF zF zF zF zF zF zF zF zF zF zF zF zF zF zF zF zF gE dL eL ;G zD UC UC UC UC UC UC UC UC tF uK CF dI dI sD fL gL hL {F iL jL kL lL DI mL mH zF tE zF zF zF zF zF zF zF zF zF zF zF zF zF zF zF zF zF zF tE _J nL oL zD lE bG <D ~L {L OK gA 0u y| y| N+ ,' %5 e_ +{ +{ +{ +{ +{ +{ +{ +{ +{ +{ +{ +{ +{ +{ +{ +{ I3 W< 8) 8] 2) U} X< $n Vw Zt pL W= 37 P- <; 1c QK 23 I& qL `w #i Lb -x Cd !c jx jx jx jx jx jx jx jx jx jx jx jx jx jx jx jx jx jx jx ~c !c -e -e UG VG ,a 4] 4^ 5^ ]( tJ 4J 4J 4J Zr _z 4J 4J 4J 4J 4J 4J 4J 4J Zr Yr Zr 4J 4J 4J 4J _z 4J 4J 4J 4J 4J 4J 4J 4J 4J Zr Yr Yr Yr Yr Yr Yr Yr Yr Yr 4z 5z 5z 5z 5z 5z 5z 5z 5z 5z 5z 5z 5z 5z 5z ",
"}G }G }G }G }G }G }G }G }G }G }G }G }G (z su su _z su su su su su su su su su su su su su su su su !z hy hy hy hy hy hy >y /r /r /r ,y aF aF aF aF aF aF aF aF ZJ // s] t] )) 4] u] +~ v  x  y  A  D  c. h+ =+ M+ N+ ^# =@ 5@ /# /# P# _$ _$ _$ _$ _$ A$  % &% e% o% H% ;x rL t& P> K- K- T; <; 3; #, := /* :I Zt .b Hq X, H/ ~% ^B W. r! 7~ 01 ;a +{ +{ +{ +{ +{ +{ +{ +{ +{ +{ +{ +{ e_ A3 A$ =+ h+ sL tL [L uL NJ 9J AG zF zF zF zF zF zF zF zF zF zF zF zF zF zF zF zF zF zF  g tE #F _H !I vI DE lE UC ^H dI 8J dI 7L vL 8J dI CF lE UC UC UC UC UC UC UC UC UC UC lE VF aK zJ wL xL zF yF zF zF zF zF zF zF zF zF zF zF zF zF zF zF zF zF zF zF yF ,I yL ;G zL DE UC UC UC bG dI ^H AL BL 2H }D =F #K CL ^D DL EL ;D FL GL HL aE tD bG :D &L IL hH ~H tE zF zF zF zF zF zF zF zF zF &K xF JE JL kI OF xE xE xE KL xE UH >J aJ ^H 7L }K UC OE LL ,F yH ML NL 8E 8E NL aK bE OE OL PL ^H UC UC EE PE ~K 9J AG yF zF zF zF zF zF zF zF zF zF zF zF zF zF zF zF zF zF zF zF tE QL DK RL zD UC UC UC ^H bG 8J SL ;F MI aJ TL UL 4H 4K VL WL XL YL ZL -L `L hG  M ^J .M ~H yF zF zF zF zF zF zF zF zF zF zF zF zF zF zF zF zF zF yF  F AG EH {K rD ^H ^H lE <D ~L {L OK gA 0u y| y| N+ ,' %5 e_ +{ +{ +{ +{ +{ +{ +{ +{ +{ +{ +{ +{ +{ +{ +{ +{ I3 W< 8) 8] 2) &5 X< $n +M !u @M W= v- P- Q- O- QK o= b* #M 2J #i Lb MG $M -x Kb Kb Kb Kb Kb Kb Kb Kb Kb Kb Kb Kb Kb Kb Kb Kb Kb Kb Kb Kb -e -e -e UG VG ,a 4] 4^ 5^ ]( tJ 4J 4J 4J 4J 4J 4J 4J 4J 4J 4J 4J 4J 4J 4J _z Yr 4J 4J 4J 4J 4J 4J 4J 4J 4J 4J 4J %M 4J 4J 4J Zr Yr Yr Yr Yr Yr Yr Yr Yr su 5z 5z 5z 5z 5z 5z 5z 5z 5z 5z 5z 5z 5z 5z ",
"}G }G }G }G }G }G }G }G }G }G }G }G }G 5z su su su su su su su su su su su su su su su su su su Zr hy hy hy hy hy hy hy hy /r /r /r ,y aF aF aF aF aF aF aF Ry 8z // s] t] )) 4] u] +~ v  x  y  A  D  c. h+ =+ M+ N+ ^# =@ 5@ /# /# P# _$ _$ _$ _$ _$ A$ `$ &% [% p% 6' ;x &M u& P> K- K- O- R- I- M= i, (* a, xx Ky xr X, H/ ~% }2 W. r! 7~ 01 U( +{ +{ +{ +{ +{ +{ +{ +{ +{ +{ +{ +{ e_ U( A$ =+ E  *M (1 =M -M ;M lG @F gE hE hE hE hE hE hE hE hE hE hE hE hE hE hE hE hE gE IE #F KK >M ,M eD 'M AK tD BD ,G )M !M =F ~M )M 2H VC XH 7J aG {M ]M ]M ]M ]M ]M ]M ]M ^M AD tG :H tE 'w gE gE hE hE hE hE hE hE hE hE hE hE hE hE hE hE hE hE hE gE iE WI /M 6D ^M ]M ]M 5D qF <E tK -J (M JK -L _M YL zI :M :M 2E %D <M [M }M |M 1M 2M TC hJ 3M 4M &I @F #F hE hE hE hE hE hE gE @F !G 6H `f vE jk kh kh kh kh Fe kI 5M AJ yH pF 0G 6M iG 7M 8M `L 9M 0M aM bM cM dM bM 0M `L 8M ED yH xD VF lE CE eM UI `E @F gE hE hE hE hE hE hE hE hE hE hE hE hE hE hE hE hE hE hE )H fM gM hM TC {M {M iM lE 3H SI jM zJ 4K kM lM mM nM oM pM qM qM rM sM tM nM uM vM wM rG @F @F hE hE hE hE hE hE hE hE hE hE hE hE hE hE hE hE hE @F )H aI ;I 5I xM 7K {M {M lL yM RI zM AM ]B 0u y| y| N+ ,' ;a e_ +{ +{ +{ +{ +{ +{ +{ +{ +{ +{ +{ +{ +{ +{ +{ +{ I3 W< 8) 8] 2) &5 X< $n 0x !u H& BM v- P- Q- P- CM 24 DM #M 2J #i Lb MG Rd EM FM Gy GM /G <f HM -e -e -e -e -e -e -e ;e Rd ix nI FM ;e Kb -e -e -e UG VG ,a 4] 4^ 5^ ]( tJ 4J 4J 4J 4J 4J 4J 4J 4J 4J 4J 4J 4J 4J 4J 4J 4J 4J 4J 4J 4J 4J 4J 4J 4J IM JM JM JM 5s 4J 4J 4J _z 4J 4J 4J Zr Yr Yr Yr Yr Bz 5z 5z 4z Bz 3z 5z 5z 5z 5z 5z 5z 5z 5z ",
"}G }G }G }G }G }G }G }G }G }G }G }G }G }G 6z su su su su su su su su su su su su su su su su !z hy hy hy hy hy hy hy hy hy /r /r /r ,y aF aF aF aF aF aF w~ ZJ 8z // s] t] )) 4] u] +~ v  x  y  A  D  c. h+ =+ M+ N+ ^# =@ 5@ /# /# P# _$ _$ _$ _$ _$ A$ `$ &% }% p% 6' *& _& u& Cn 0H K- <; R- J- N= yo (* KM xx Ky $s Ze H/ [2 }2 p~ r! 7~ 01 U( ,/ ,/ ,/ ,/ ,/ ,/ ,/ ,/ ,/ ,/ ,/ ,/ G4 U( A$ =+ yw LM q~ MM NM OM %K KK KK KK KK KK KK KK KK KK KK KK KK KK KK KK KK KK KK KK PM QM :M RM SM TM  M UM ~M 6E =H oM 1L rM VM _M 'G iI (M AJ WM *I XM YM YM YM YM YM XM ZM `M  N .N +N KK KK KK KK KK KK KK KK KK KK KK KK KK KK KK KK KK KK KK KK KK @N !I sH *I YM YM YM #N ]H DC ND $N %N rM 1L 1L rM rM sM YL &N *N =N -N ;N *I XE RL ;G |K ;J OJ OM KK KK KK KK KK KK KK KK KK PM UI >N *H *H *H *H *H *H *H *H PM EL <H BF ,N 'N )N !N ~N ~N ~N {N {N {N {N {N {N {N {N !N !N !N ]N ^N uF WM gM bI fI KK KK KK KK KK KK KK KK KK KK KK KK KK KK KK KK KK KK KK KK KK /N sE (N |L  M *I *I rI _N :N JK GC *G rM rM rM 1L 1L rM 1L pM pM pM 1L 1L &g <N bI [N OM KK KK KK KK KK KK KK KK KK KK KK KK KK KK KK KK KK KK KK KK KK *J GC 'J RL ;N *I *I ;N hJ }N |N 1N 2N y| y| y| y@ F$ ;a e_ ,/ ,/ ,/ ,/ ,/ ,/ ,/ ,/ ,/ ,/ ,/ ,/ ,/ ,/ ,/ ,/ I3 W< 8) 8] 2) &5 X< $n 0x bu 3N BM 9z <; R- <; 4N *0 =* #M 5N !c Lb 6N 7N 8N ux <G 9N 0N aN Cd Kb -e -e -e -e -e Wf bN Gy cN UG dN 9F eN Lb -e -e UG VG ,a 4] 4^ 5^ ]( tJ 4J 4J 4J 4J 4J 4J 4J 4J 5s fN gN 5s +s 4J 4J 4J 4J 4J 4J 4J 4J 4J *r JM JM JM JM JM fN 4J 4J 4J 4J 4J 4J 4J 4J Yr Yr Yr Yr Yr 3z su Yr Yr Yr Yr U: 5z 5z 5z 5z 5z 5z ",
"}G }G }G }G }G }G }G }G }G }G }G }G }G }G }G dA su su su su su su su su su su su su su su :z hy hy hy hy hy hy hy hy hy hy /r /r /r ,y aF aF aF aF aF aF }I 8z 8z // s] t] )) 4] u] +~ v  x  y  A  D  c. h+ =+ M+ N+ ^# =@ 5@ /# /# P# _$ _$ _$ _$ _$ A$ `$ &% }% p% I% R& #* v& hN 0H s- <; i; |; N= iN jN ** xx Ky $s Ze H/ [2 }2 Y. r! 7~ 01 5n ,/ ,/ ,/ ,/ ,/ ,/ ,/ ,/ ,/ ,/ ,/ ,/ G4 U( A$ =+ yw *M q~ kN lN :M mN 1L 1L 1L 1L 1L 1L 1L 1L 1L 1L 1L 1L 1L 1L 1L 1L 1L 1L 1L AI AI nN eI EK EK *G ;I 1L 1L mN mN mN ;I ;I nN oN  N  N  N  N  N  N  N  N  N  N  N  N  N oN 1L =g pN 1L 1L 1L 1L 1L 1L 1L 1L 1L 1L 1L 1L 1L 1L 1L 1L 1L 1L 1L 1L 1L ;I  N  N  N  N  N  N *G oN oN oN ;I mN mN mN mN mN mN mN  N qN RE EK eI eI  N  N eI  N rN AI AI 1L 1L 1L 1L 1L 1L 1L 1L 1L 1L =g sN tN tN tN tN tN tN tN 5H sN =g *G *g *g *g eI uN uN uN uN uN uN uN uN uN uN uN uN uN uN uN uN uN *g *g vN oN mN AI 1L 1L 1L 1L 1L 1L 1L 1L 1L 1L 1L 1L 1L 1L 1L 1L 1L 1L 1L 1L 1L 1L nN  N *g  N  N  N ;I mN 1L ;I mN mN mN mN mN mN mN mN ;I nN nN nN nN oN oN nN mN AI 1L 1L 1L 1L 1L 1L 1L 1L 1L 1L 1L 1L 1L 1L 1L 1L 1L 1L 1L 1L 1L 1L mN  N JJ EK  N  N  N *g qN qM wN xN LM y| y| y| y@ F$ ;a G4 ,/ ,/ ,/ ,/ ,/ ,/ ,/ ,/ ,/ ,/ ,/ ,/ ,/ ,/ ,/ ,/ -^ W< 8) M6 2) &5 ][ sC {9 bu yN BM v- <; i; f3 zN ,d v* AN 5N -e BN CN DN EN Hy FN UG GN HN IN Gx Kb -e -e Kb Rd JN LG #i %y KN cb LN 8y MN Lb -e UG VG ,a 4] 4^ 5^ ]( tJ 4J 4J 4J 4J 4J 4J 4J 4J fN JM JM JM JM JM fN fN *r 5s %M %M IM JM JM JM JM JM JM JM JM 4J 4J 4J 4J 4J 4J 4J 4J Zr Yr Yr Yr Yr Yr Yr Zr 4J 4J 4J _z Zr 4z 5z 5z 5z 5z ",
"}G }G }G }G }G }G }G }G }G }G }G }G }G }G }G {: NN su su su su su su su su su su su su Zr hy hy hy hy hy hy hy hy hy hy gy /r /r /r ,y aF aF aF aF aF 5J 8z 8z 8z // s] t] )) 4] u] +~ v  x  y  A  D  c. h+ =+ M+ N+ ^# =@ 5@ /# /# P# _$ _$ _$ _$ _$ A$ `$ &% }% p% J% R& Q& w& R> M- s- <; _; 4; O= ON _* ** xx Ky $s Ze H/ [2 }2 Y. r! 7~ 01 5n ,/ ,/ ,/ ,/ ,/ ,/ ,/ ,/ ,/ ,/ ,/ ,/ G4 U( A$ =+ yw *M q~ PN QN RN sM sM sM sM sM sM sM sM sM sM sM sM sM sM sM sM sM sM sM sM sM sM SN SN TN TN TN UN UN TN TN TN TN TN SN SN SN SN SN TN TN TN TN TN TN qM qM qM qM qM qM VN %N %N %N %N %N %N %N %N %N sM sM sM sM sM sM sM sM sM sM sM sM sM sM sM sM TN TN TN TN TN TN TN TN SN SN TN TN TN TN TN TN SN SN sM TN TN TN TN TN TN TN TN qM sM rM %N %N %N %N %N %N WN %N %N %N %N XN XN XN XN XN XN XN XN XN XN %N %N sM qM sM sM sM sM sM sM sM sM sM sM sM sM sM sM sM sM sM sM sM sM sM qM VN XN %N %N %N %N %N %N %N %N %N %N %N %N %N %N %N %N %N %N %N %N %N %N %N %N %N VN qM VN VN YN YN VN VN XN XN XN XN XN XN XN XN XN %N %N %N %N %N ZN %N %N %N %N %N %N %N %N %N %N %N %N %N %N %N %N %N %N %N %N %N %N %N %N %N %N %N qM qM qM qM qM %N `N  O .O o2 +O y| y| y| y@ F$ ;a G4 ,/ ,/ ,/ ,/ ,/ ,/ ,/ ,/ ,/ ,/ ,/ ,/ ,/ ,/ ,/ Gk -^ W< 8) M6 2) l{ ][ !p !y $v yN BM F- R- i; R- zN 7e -* @O `w Lc vu #O $O %O &O *O =O -O ;O >O ,O UG -e Kb 0w 'O #O )O !O ~O {O ]O ^O /O (O _O -e UG VG ,a 4] 4^ 5^ ]( tJ 4J 4J 4J 4J 4J 4J 4J 4J JM JM JM JM JM JM JM JM JM JM JM JM JM JM JM JM JM JM JM JM JM 5s 4J 4J 4J 4J 4J 4J 4J 4J Yr Yr Yr Yr Yr Zr 4J 4J 4J 4J 4J 4J 4J 4z 5z 5z 5z ",
"}G }G }G }G }G }G }G }G }G }G }G }G }G }G fd :O :O fd <O {: [O 1> }O |O Zm np 1O <O 5z Yr hy hy hy hy hy hy hy hy hy >y /r /r /r /r M( aF aF aF aF ]' 8z 8z 8z 8z // s] t] )) 4] u] +~ v  x  y  A  D  c. h+ =+ M+ N+ ^# =@ 5@ /# /# P# _$ _$ _$ _$ _$ A$ `$ &% }% t% J% ;& m& x& Gq M- M- R- (; j; 2O Y* [* ** bu <d kb Ze ~9 [2 }2 Y. r! 7~ 01 5n ,/ ,/ ,/ ,/ ,/ ,/ ,/ ,/ ,/ ,/ ,/ ,/ G4 U( A$ =+ yw ,5 h+ <v 3O 4O 5O 5O 5O 5O 5O 5O 5O 5O 5O 5O 5O 5O 5O 5O 5O 6O 6O 7O 7O 7O 7O 7O 7O 7O 7O 7O 7O 7O 7O 7O 7O 7O 7O 7O 8O 8O 7O 7O 6O 6O 6O 6O 9O 9O 9O 0O 9O 9O 9O aO aO bO bO cO cO dO dO eO aO 0O 6O 9O 5O 5O 5O 5O 5O 5O 5O 5O 5O 5O 5O 5O 5O 5O 5O 5O 5O 5O 5O 5O 5O 5O 5O 5O 5O 5O 5O 5O 5O 5O 5O 5O 5O 5O 5O 5O 5O 5O 5O 5O 5O 5O 9O 9O 0O fO bO bO gO gO cO cO cO gO cO bO bO bO bO bO bO bO bO bO bO bO cO cO gO gO gO gO gO gO gO gO gO gO gO gO gO gO gO gO gO gO gO gO gO gO gO hO bO bO cO gO gO gO gO gO gO gO gO gO gO gO gO gO gO gO gO gO gO gO gO gO gO cO cO bO hO bO bO bO bO bO bO bO bO bO bO bO bO bO bO bO cO gO gO gO gO cO cO gO gO gO gO gO gO gO gO gO gO gO gO gO gO gO gO gO gO gO gO gO gO gO gO gO hO hO hO hO hO hO bO iO jO kO lO 0u y| y| y| y@ F$ ;a G4 ,/ ,/ ,/ ,/ ,/ ,/ ,/ ,/ ,/ ,/ ,/ ,/ ,/ ,/ ,/ Gk .l W< q! M6 2) l{ ,6 !p !y mO nO Y= H- i; S- i; zN ,, ;* oO LG 6N ix pO qO rO sO tO uO vO wO xO yO zO Kb 2J Ex #O AO BO CO DO EO FO GO q5 by zO Kb UG VG ,a 4] 4^ 5^ ]( tJ 4J 4J 4J 4J 4J 4J 4J 4J JM JM JM JM JM JM JM JM JM JM JM JM JM JM JM JM JM JM JM JM JM 6s 4J 4J 4J 4J 4J 4J 4J 4J Yr Yr Yr Yr Zr 4J 4J }G {: 5z 5z Bz 5z 5z 5z 5z 5z ",
"}G }G <O HO IO IO IO JO }G }G }G }G }G np :O :O :O :O :O :O :O :O :O :O :O :O :O :O :O :O :O :O :O :O :O :O :O :O :O 3m 6m [< Zr Wt /r aF aF aF ]' 8z 8z 8z 8z 8z // s] t] )) 4] u] +~ v  x  y  A  D  c. h+ =+ M+ N+ ^# =@ 5@ /# /# P# _$ _$ _$ _$ _$ A$ `$ &% }% t% J% ;& n& x& R> s- M- i; (; j; Q= Z* [* KO bu <d kb Ze ~9 [2 I4 Y. r! 7~ 01 5n ,/ ,/ ,/ ,/ ,/ ,/ ,/ ,/ ,/ ,/ ,/ ,/ G4 U( A$ =+ yw ,5 yw n{ b} C, g% g% LO g% g% g% g% g% MO MO MO MO MO MO b8 b8 b8 b8 b8 b8 b8 g% g% g% b8 b8 b8 b8 }% }% }% Z' E% E% v7 v7 v7 NO Fk Fk (k (k ci OO PO PO PO iz iz OO QO RO RO RO Ze Ze ^h ci Fk v7 }% g% SO jz jz jz jz jz jz jz jz jz jz jz jz jz jz jz jz jz jz jz jz jz jz jz jz jz jz jz jz jz jz jz jz jz jz jz jz jz jz jz jz g% g% }% Z' v7 (k OO RO QO TO UO UO VO VO WO WO  ^  ^ XO =^ =^ =^ XO  ^  ^  ^  ^  ^  ^  ^  ^  ^  ^  ^  ^  ^  ^  ^  ^  ^  ^  ^  ^  ^  ^  ^  ^  ^  ^  ^  ^  ^  ^  ^  ^  ^  ^  ^  ^  ^  ^  ^  ^  ^  ^  ^  ^  ^  ^  ^  ^  ^  ^  ^  ^  ^  ^  ^  ^  ^  ^  ^  ^  ^  ^  ^  ^  ^  ^  ^  ^  ^  ^  ^  ^  ^  ^  ^  ^  ^  ^  ^  ^  ^  ^  ^  ^  ^  ^  ^  ^  ^  ^  ^  ^  ^  ^  ^  ^  ^  ^  ^  ^  ^  ^  ^  ^  ^  ^  ^  ^  ^  ^ `] YO ZO l{ x@ Dx y| y| y| y@ F$ ;a G4 ,/ ,/ ,/ ,/ ,/ ,/ ,/ ,/ ,/ ,/ ,/ ,/ ,/ ,/ ,/ !j .l W< q! M6 2) l{ ,6 !p .b mO nO Y= G- i; (; i; 5; ,, O, `O FM  P .P +P @P #P $P %P &P *P =P -P ;P wa Kb ;e Jy >P ,P 'P )P !P ~P {P ]P ^P Hy 4y ~c UG VG ,a 4] 4^ 5^ ]( tJ 4J 4J 4J 4J 4J 4J 4J 4J JM JM JM JM JM JM JM JM JM JM JM JM JM JM JM JM JM JM JM JM JM JM 4J 4J 4J 4J 4J 4J 4J 4J _z Yr Yr _z 4J dA }m /P /P /P /P /P (P <s _P 5z 5z ",
":P <P [P [P [P [P [P [P <P _P }G }G NN Ym :O :O :O :O :O :O :O :O :O :O :O :O :O :O :O :O :O :O :O :O :O :O :O :O :O :O :O :O :O :O :O :O :O :O n7 }P %{ 8z 8z 8z // s] t] )) 4] u] +~ v  x  y  A  D  c. h+ =+ M+ N+ ^# =@ 5@ /# /# P# _$ _$ _$ _$ _$ A$ `$ &% }% t% J% ;& P& y& Gq M- M- i; (; j; |P 1P }* KO 2P <d 2c ^h ~9  & I4 Y. r! 7~ 01 5n ,/ ,/ ,/ ,/ ,/ ,/ ,/ ,/ ,/ ,/ ,/ ,/ G4 U( A$ =+ yw ,5 yw 5@ Z$ g} Cx /% /% R' R' R'  )  )  ) j3 j3 j3 K6 G} G} ][ ][ ][ @^ @^ @^ @^ H: y[ y[ H: B< B< B< H: H: H: H: B< M_ M_ M_ M_ M_ M_ X^ X^ M_ M_ B< *^ @^ 0; i> <~ <~  ) %% (% =| U( U( U( !j !j ,/ ,/ ,/ ,/ ,/ ,/ ,/ ,/ ,/ ,/ ,/ ,/ ,/ ,/ ,/ ,/ ,/ ,/ ,/ ,/ ,/ ,/ ,/ ,/ ,/ ,/ ,/ ,/ ,/ ,/ ,/ ,/ ,/ ,/ ,/ ,/ ,/ ,/ ,/ ,/ ,/ ,/ ,/ ,/ ,/ ,/ +{ !j +e @m U( U( U( U( D, :> R' P' G} 0; g[ H: M_ b/ b/ O{ O{ O{ 1^ 1^ O{ O{ O{ O{ O{ O{ O{ O{ O{ O{ O{ O{ O{ O{ O{ O{ O{ O{ O{ O{ O{ O{ O{ O{ O{ O{ O{ O{ O{ O{ O{ O{ Z( Z( Z( Z( 1^ 1^ 1^ 1^ 1^ 1^ 1^ 1^ 1^ 1^ 1^ 1^ Z( Z( O{ O{ O{ O{ O{ O{ O{ O{ O{ O{ O{ O{ O{ O{ O{ O{ O{ O{ O{ O{ O{ O{ O{ O{ O{ O{ O{ O{ O{ O{ O{ O{ O{ O{ O{ O{ O{ O{ O{ O{ O{ O{ Z( 1^ 1^ Z( O{ O{ O{ O{ O{ O{ O{ O{ O{ O{ O{ Q{ O{ o2 %+ Dx y| y| y| y@ F$ ;a G4 ,/ ,/ ,/ ,/ ,/ ,/ ,/ ,/ ,/ ,/ ,/ ,/ ,/ ,/ ,/ !j .l W< q! 8] L2 l{ ,6 1p .b [v -* 1- H- i; (; _; 3P ,, ,* @O 4P Rx 5P 6P 7P 8P 9P 0P aP bP cP dP eP fP UG $M tx gP hP iP jP kP lP mP nP oP pP qP rP sP VG ,a 4] 4^ 5^ ]( tJ 4J 4J 4J 4J 4J 4J 4J 4J JM JM JM JM JM JM JM JM JM JM JM JM JM JM JM JM JM JM JM JM JM JM fN JM JM JM +s 4J 4J 4J 4J 4J 4J 52 tP /P /P /P /P /P /P /P /P /P /P uP tP ",
"[P [P [P [P [P [P [P [P [P vP }G }G fd :O :O :O :O :O :O :O :O :O :O :O :O :O :O :O :O :O :O :O :O :O :O :O :O :O :O :O :O :O :O :O :O :O :O :O :O :O `{ wP xP yP ]( s] t] )) 4] u] +~ v  x  y  A  D  c. h+ =+ M+ N+ ^# =@ 5@ /# /# P# _$ _$ _$ _$ _$ A$ `$ &% }% t% J% ;& n& y& Tw M- N- i; T- s- zP (= |* F& [v re $s ^h w(  & I4 Y. r! 7~ 01 5n ,/ ,/ ,/ ,/ ,/ ,/ ,/ ,/ ,/ ,/ ,/ ,/ G4 U( A$ =+ yw ,5 j4 =@ L^ u( X^ q} B< B< B< B< B< B< B< M_ M_ M_ X^ X^ b/ b/ Q{ Q{ Q{ Q{ Q{ Q{ Q{ Q{ Q{ Q{ b/ H: 0; P' /% Cx _% :% :% :% c% c% V' Cx Cx /% &% _% AP U, U, cl !j @m @m @m !j ,/ ,/ ,/ ,/ ,/ ,/ ,/ ,/ ,/ ,/ ,/ ,/ ,/ ,/ ,/ ,/ ,/ ,/ ,/ ,/ ,/ ,/ ,/ ,/ ,/ ,/ ,/ ,/ ,/ ,/ ,/ ,/ ,/ ,/ ,/ ,/ ,/ ,/ ,/ ,/ ,/ ,/ ,/ ,/ ,/ ,/ ,/ ,/ ,/ ,/ ,/ ,/ ,/ ,/ ,/ ,/ ,/ ,/ ,/ ,/ ,/ ,/ ,/ !j @m @m !j !j cl @m AP V' wc g[ M_ Q{ i_ Q{ b/ b/ Q{ Q{ Q{ Q{ Q{ Q{ Q{ Q{ Q{ Q{ Q{ Q{ Q{ Q{ Q{ Q{ Q{ Q{ Q{ Q{ b/ b/ b/ X^ X^ X^ M^ M^ BP o^ o^ o^ Q{ o^ W( W( W( W( W( W( W( W( W( W( W( o^ BP M^ X^ X^ b/ Q{ Q{ Q{ Q{ Q{ Q{ Q{ Q{ Q{ Q{ Q{ Q{ Q{ b/ Q{ Q{ Q{ Q{ Q{ Q{ Q{ Q{ Q{ Q{ Q{ Q{ Q{ Q{ Q{ Q{ Q{ Q{ Q{ Q{ Q{ Q{ M^ Q{ Q{ i_ W( o^ Q{ Q{ Q{ Q{ Q{ Q{ Q{ Q{ Q{ Q{ (^ (^ O{ o2 %+ Dx y| y| y| y@ F$ ;a G4 ,/ ,/ ,/ ,/ ,/ ,/ ,/ ,/ ,/ ,/ ,/ ,/ ,/ ,/ ,/ !j -^ W< q! 82 L2 l{ G} Dp .b CP -* 1- H- S- T- _; *> P> y* @O 4P rw DP EP FP GP HP IP JP KP LP MP NP OP ib PP QP RP SP TP UP VP WP XP YP ZP `P  Q 4y .Q VG ,a 4] 4^ 5^ ]( tJ 4J 4J 4J 4J 4J 4J 4J IM JM JM JM JM JM JM JM JM JM JM JM JM JM JM JM JM JM JM JM JM JM JM JM JM JM JM JM 4J 4J 4J 4J 4J [< }m /P /P /P /P /P /P /P /P /P /P /P /P /P ",
"[P [P [P [P [P [P [P [P [P [P }G [O :O :O :O :O +Q `< f@ {o {o {o {o {o {o {o Al Al Al Al Al Al Al `< 7: 7: 7: 7: 7: 7: 7: 7: `< Al Al Al Al {o {o <[ <[ <[ <[ <[ 5^ s] t] )) 4] u] +~ v  x  y  A  D  c. h+ =+ M+ N+ ^# =@ 5@ /# /# P# _$ _$ _$ _$ _$ B$ `$ &% }% t% J% >& o& z& Gq M- T; _; => @Q #Q `* 5= $Q [v }z $z ^h $^  & I4 Y. r! 7~ 01 5n ,/ ,/ ,/ ,/ ,/ ,/ ,/ ,/ ,/ ,/ ,/ ,/ G4 U( A$ =+ yw ,5 j4 t# %Q X] Q{ Q{ Q{ Q{ Q{ Q{ Q{ Q{ Q{ Q{ Q{ Q{ Q{ Q{ Q{ Q{ Q{ Q{ Q{ Q{ Q{ Q{ Q{ X^ *1  ) _% :% @m cl Gk ,/ ,/ ,/ ,/ ,/ ,/ ,/ ,/ ,/ ,/ ,/ ,/ ,/ ,/ ,/ ,/ ,/ ,/ ,/ ,/ ,/ ,/ ,/ ,/ ,/ ,/ ,/ ,/ ,/ ,/ ,/ ,/ ,/ ,/ ,/ ,/ ,/ ,/ ,/ ,/ ,/ ,/ ,/ ,/ ,/ ,/ ,/ ,/ ,/ ,/ ,/ ,/ ,/ ,/ ,/ ,/ ,/ ,/ ,/ ,/ ,/ ,/ ,/ ,/ ,/ ,/ ,/ ,/ ,/ ,/ ,/ ,/ ,/ ,/ ,/ ,/ ,/ ,/ ,/ ,/ ,/ ,/ ,/ ,/ ,/ ,/ ,/ ,/ ,/ ,/ ,/ ,/ ,/ ,/ !j @m AP V' X, S) 0; @^ H: B< q} X^ X^ b/ Q{ Q{ Q{ M^ X^ X^ M_ B< H: H: H: H: H: y[ @^ @^ @^ ][ ][ 0; G} G} G} G} G} K6 j3 j3  ) P'  ) R' R' R' R' R' R'  )  ) j3 K6 G} 0; 0; ][ @^ H: M_ X^ Q{ Q{ Q{ Q{ b/ M_ M_ H: @^ @^ @^ H: X^ Q{ Q{ Q{ Q{ Q{ Q{ Q{ Q{ Q{ Q{ Q{ Q{ Q{ Q{ Q{ o^ Q{ M_ @^ 0; S)  ) R'  ) G3 ,6 y[ b/ o^ Q{ Q{ Q{ Q{ Q{ Q{ (^ (^ O{ o2 %+ Dx y| y| y| y@ F$ ;a G4 ,/ ,/ ,/ ,/ ,/ ,/ ,/ ,/ ,/ ,/ ,/ ,/ ,/ ,/ ,/ !j R{ W< q! @! a$ l{ G} Dp &Q CP *Q `= H- S- T- (; *> P> =Q oO PP rw DP -Q ;Q >Q ,Q 'Q )Q !Q ~Q {Q ]Q pa 7F $M tx RP ^Q /Q (Q _Q :Q <Q [Q }Q |Q Pb 5y ux VG ,a 4] 4^ 5^ ]( tJ 4J 4J 4J 4J 4J +s gN JM JM JM JM JM JM JM JM JM JM JM JM JM JM JM JM JM JM JM JM JM JM JM JM JM JM JM JM gN 4J 4J 4J [< uP /P /P /P /P /P /P /P /P /P /P /P /P /P /P ",
"[P [P [P [P [P [P [P [P [P [P |O :O _9 1Q |m 2Q <[ <[ <[ <[ <[ <[ <[ <[ <[ <[ <[ <[ <[ <[ <[ <[ <[ <[ <[ <[ <[ <[ <[ <[ <[ <[ <[ <[ <[ <[ <[ <[ <[ <[ <[ <[ <[ <[ 5^ s] t] )) 4] u] +~ v  x  y  A  D  c. h+ =+ M+ N+ ^# =@ 5@ /# /# P# _$ _$ _$ _$ _$ B$ `$ &% }% t% J% >& o& A& S> T; T; _; /; N- 3Q /= ae $Q [v }z $z ^h $^  & I4 Y. r! 7~ 9m 5n ,/ ,/ ,/ ,/ ,/ ,/ ,/ ,/ ,/ ,/ ,/ ,/ G4 U( A$ =+ y| ,5 j4 t# %Q X] Q{ Q{ Q{ Q{ Q{ Q{ Q{ Q{ Q{ Q{ Q{ Q{ Q{ Q{ Q{ Q{ Q{ Q{ Q{ Q{ o^ o^ ZO X, U, !j ,/ ,/ ,/ ,/ ,/ ,/ ,/ ,/ ,/ ,/ ,/ ,/ ,/ ,/ ,/ ,/ ,/ ,/ ,/ ,/ ,/ ,/ ,/ ,/ ,/ ,/ ,/ ,/ ,/ ,/ ,/ ,/ ,/ ,/ ,/ ,/ ,/ ,/ ,/ ,/ ,/ ,/ ,/ ,/ ,/ ,/ ,/ ,/ ,/ ,/ ,/ ,/ ,/ ,/ ,/ ,/ ,/ ,/ ,/ ,/ ,/ ,/ ,/ ,/ ,/ ,/ ,/ ,/ ,/ ,/ ,/ ,/ ,/ ,/ ,/ ,/ ,/ ,/ ,/ ,/ ,/ ,/ ,/ ,/ ,/ ,/ ,/ ,/ ,/ ,/ ,/ ,/ ,/ ,/ ,/ ,/ ,/ ,/ ,/ ,/ ,/ ,/ ,/ !j cl @m @m U, U, AP _% _% _% _% _% _% _% _% _% AP U, U, U, U, U, U, @m @m @m @m @m @m @m @m @m @m @m @m @m cl !j Gk Gk Gk ,/ ,/ ,/ ,/ ,/ Gk Gk Gk !j @m @m @m @m @m U, U, U, _% _% _% _% c% c% _% U, U, @m @m @m U, S' H: Q{ Q{ Q{ Q{ Q{ Q{ Q{ Q{ Q{ Q{ Q{ o^ W( X^ 4Q U' _% U, @m @m !j ,/ Gk !j cl AP wc C< o^ Q{ Q{ Q{ Q{ Q{ (^ (^ O{ o2 %+ Dx y| y| y| y@ F$ ;a G4 ,/ ,/ ,/ ,/ ,/ ,/ ,/ ,/ ,/ ,/ ,/ ,/ ,/ ,/ ,/ !j R{ W< q! @! a$ l{ G} Dp <d 7w 5Q 1- t- S- /; T- *> P> )* 6Q LG BN gP 7Q 8Q 9Q 0Q aQ bQ cQ dQ eQ fQ gQ xy ;e tx hQ iQ jQ kQ lQ mQ bQ nQ oQ pQ qQ rP sP VG ,a 4] 4^ 5^ ]( tJ 4J 4J 4J *r JM JM JM JM JM JM JM JM JM JM JM JM JM JM JM JM JM JM JM JM JM JM JM JM JM JM JM JM JM JM JM JM +s 4J [< uP /P /P /P /P /P /P /P /P /P /P /P /P /P /P /P ",
"rQ sQ sQ tQ tQ zp |m |m e@ <[ <[ <[ <[ <[ <[ <[ <[ <[ <[ <[ <[ <[ <[ <[ <[ <[ <[ <[ <[ <[ <[ <[ <[ <[ <[ <[ <[ <[ <[ <[ <[ <[ <[ <[ <[ <[ <[ <[ <[ <[ <[ <[ <[ <[ 5^ s] t] )) 4] u] +~ v  x  y  A  D  c. h+ =+ M+ N+ ^# =@ 5@ /# /# P# _$ _$ _$ _$ _$ C$  % &% }% t% J% x, O& zo T> T; O- (; /; N- U= .= uQ H& 7w +i Yt ci $^  & I4 Y. r! r( 3^ 5n ,/ ,/ ,/ ,/ ,/ ,/ ,/ ,/ ,/ ,/ ,/ ,/ bk g} %$ =+ y| ,5 j4 t# %Q X] Q{ Q{ Q{ Q{ W( W( W( o^ o^ o^ W( ]z ]z ]z ]z ]z ]z ]z ]z ]z Q{ .^ |2 cl ,/ ,/ ,/ ,/ ,/ ,/ ,/ ,/ ,/ ,/ ,/ ,/ ,/ ,/ ,/ ,/ ,/ ,/ ,/ ,/ ,/ ,/ ,/ ,/ ,/ ,/ ,/ ,/ ,/ ,/ ,/ ,/ ,/ ,/ ,/ ,/ ,/ ,/ ,/ ,/ ,/ ,/ ,/ ,/ ,/ ,/ ,/ ,/ ,/ ,/ ,/ ,/ ,/ ,/ ,/ ,/ ,/ ,/ ,/ ,/ ,/ ,/ ,/ ,/ ,/ ,/ ,/ ,/ ,/ ,/ ,/ ,/ ,/ ,/ ,/ ,/ ,/ ,/ ,/ ,/ ,/ ,/ ,/ ,/ ,/ ,/ ,/ ,/ ,/ ,/ ,/ ,/ ,/ ,/ ,/ ,/ ,/ ,/ ,/ ,/ ,/ ,/ ,/ ,/ ,/ ,/ ,/ ,/ ,/ ,/ ,/ ,/ ,/ ,/ ,/ ,/ ,/ ,/ ,/ ,/ ,/ ,/ ,/ ,/ ,/ ,/ ,/ ,/ ,/ ,/ ,/ ,/ ,/ ,/ ,/ ,/ ,/ ,/ ,/ ,/ ,/ ,/ ,/ ,/ ,/ ,/ ,/ ,/ ,/ ,/ ,/ ,/ ,/ ,/ ,/ ,/ ,/ ,/ ,/ ,/ ,/ ,/ ,/ ,/ ,/ ,/ ,/ ,/ ,/ ,/ ,/ ,/ ,/ ,/ ,/ ,/ @m i> b/ Q{ Q{ Q{ Q{ Q{ Q{ Q{ o^ W( M^ +^  e c% @m !j ,/ ,/ ,/ ,/ ,/ ,/ ,/ ,/ ,/ ,/ @m Sf C< o^ o^ Q{ Q{ Q{ (^ (^ O{ o2 %+ Dx y| y| y| y@ F$ ;a G4 ,/ ,/ ,/ ,/ ,/ ,/ ,/ ,/ ,/ ,/ ,/ ,/ ,/ ,/ ,/ cl k{ s  /) o4 L2 k{ G} Dp <d 7w w* `= t- (; /; T- vQ R> )* wQ Lc  P ;e xQ yQ zQ AQ BQ CQ DQ EQ FQ 4F GQ Kb MG ^x <f HQ IQ JQ KQ cQ LQ MQ NQ _G =E !c UG VG ,a 4] 4^ 5^ ]( tJ 4J 4J fN JM JM JM JM JM JM JM JM JM JM JM JM JM JM JM JM JM JM JM JM JM JM JM JM JM JM JM JM JM JM JM JM JM fN [< uP /P /P /P /P sQ OQ OQ OQ OQ OQ OQ OQ OQ OQ OQ OQ ",
"<[ <[ <[ <[ <[ <[ <[ <[ <[ <[ <[ <[ <[ <[ <[ <[ <[ <[ <[ <[ <[ <[ <[ <[ <[ <[ <[ <[ <[ <[ <[ <[ <[ <[ <[ <[ <[ <[ <[ <[ <[ <[ <[ <[ <[ <[ <[ <[ 2# PQ PQ PQ PQ PQ ]( s] t] )) 4] u] +~ v  x  y  A  D  c. h+ =+ M+ N+ ^# =@ 5@ /# /# P# _$ _$ _$ _$ _$ C$  % &% }% t% j& '& $* C& &2 T; <; T- m; QQ U= RQ D* H& 7w +i Yt ci $^  & I4 Y. r! r( 3^ 5n ,/ ,/ ,/ ,/ ,/ ,/ ,/ ,/ ,/ ,/ ,/ SQ TQ .) =$ $+ y| ,5 j4 t# %Q X] Q{ Q{ Q{ Q{ B< La UQ S' S' S' S' UQ  e  e <~ <~ <~ <~  e S' |2 AP !j ,/ ,/ ,/ ,/ ,/ ,/ ,/ ,/ ,/ ,/ ,/ ,/ ,/ ,/ ,/ ,/ ,/ ,/ ,/ ,/ ,/ ,/ ,/ ,/ ,/ ,/ ,/ ,/ ,/ ,/ ,/ ,/ ,/ ,/ ,/ ,/ ,/ ,/ ,/ ,/ ,/ ,/ ,/ ,/ ,/ ,/ ,/ ,/ ,/ ,/ ,/ ,/ ,/ ,/ ,/ ,/ ,/ ,/ ,/ ,/ ,/ ,/ ,/ ,/ ,/ ,/ ,/ ,/ ,/ ,/ ,/ ,/ ,/ ,/ ,/ ,/ ,/ ,/ ,/ ,/ ,/ ,/ ,/ ,/ ,/ ,/ ,/ ,/ ,/ ,/ ,/ ,/ ,/ ,/ ,/ ,/ ,/ ,/ ,/ ,/ ,/ ,/ ,/ ,/ ,/ ,/ ,/ ,/ ,/ ,/ ,/ ,/ ,/ ,/ ,/ ,/ ,/ ,/ ,/ ,/ ,/ ,/ ,/ ,/ ,/ ,/ ,/ ,/ ,/ ,/ ,/ ,/ ,/ ,/ ,/ ,/ ,/ ,/ ,/ ,/ ,/ ,/ ,/ ,/ ,/ ,/ ,/ ,/ ,/ ,/ ,/ ,/ ,/ ,/ ,/ ,/ ,/ ,/ ,/ ,/ ,/ ,/ ,/ ,/ ,/ ,/ ,/ ,/ ,/ ,/ ,/ ,/ ,/ ,/ ,/ ,/ ,/ ,/ :% g[ Q{ o^ Q{ Q{ Q{ o^ o^ M_ La T' U, !j Gk ,/ ,/ ,/ ,/ ,/ ,/ ,/ ,/ ,/ ,/ ,/ ,/ ,/ cl |2 +^ W( ]z ]z zx i| (^ O{ o2 %+ Dx y| y| y| y@ F$ ;a G4 ,/ ,/ ,/ ,/ ,/ ,/ ,/ ,/ ,/ ,/ ,/ ,/ ,/ ,/ ,/ @m k{ W< q! o4 L2 k{ G} By <d 7w w* `= I- (; m; U- VQ WQ u, XQ `w YQ 6N ZQ `Q  R .R +R @R #R $R %R &R *R -e Cd EM Lw ZQ =R -R ;R >R ,R 'R )R 4F 5y -e UG VG ,a 4] 4^ 5^ ]( tJ 4J %M JM JM JM JM JM s[ 3e @0 !R ./ ./ ./ ./ ./ ./ ./ !R @0 @0 !R ./ ~R 68 68 68 ./ ./ ./ !R @0 @0 @0 @0 @0 ./ }m /P /P /P sQ {R {R {R {R {R {R {R {R {R {R {R {R {R ",
"<[ <[ <[ <[ <[ <[ <[ <[ <[ <[ <[ <[ <[ <[ <[ <[ <[ <[ <[ <[ <[ <[ <[ <[ <[ <[ <[ <[ <[ <[ <[ <[ <[ <[ <[ <[ <[ <[ <[ <[ <[ <[ 4g  ] ]R ^R /R (R (R (R _R :R :R :R {) s] t] )) 4] u] +~ v  x  y  A  D  c. h+ =+ M+ N+ ^# =@ 5@ /# /# P# _$ _$ _$ _$ _$ C$  % &% }% t% j& '& <R C& &2 T; O- T- W- QQ U= += D* H& 7w ui Yt ci $^  & I4 e+ r! r( 3^ 5n ,/ ,/ ,/ ,/ ,/ ,/ ,/ ,/ ,/ ,/ ,/ SQ _% !1 U$ $+ y| ,5 j4 t# %Q X] Q{ W( Q{ +^ X, U, !j !j !j !j !j !j !j !j !j !j !j !j !j !j !j ,/ ,/ ,/ ,/ ,/ ,/ ,/ ,/ ,/ ,/ ,/ ,/ ,/ ,/ ,/ ,/ ,/ ,/ ,/ ,/ ,/ ,/ ,/ ,/ ,/ ,/ ,/ ,/ ,/ ,/ ,/ ,/ ,/ ,/ ,/ ,/ ,/ ,/ ,/ ,/ ,/ ,/ ,/ ,/ ,/ ,/ ,/ ,/ ,/ ,/ ,/ ,/ ,/ ,/ ,/ ,/ ,/ ,/ ,/ ,/ ,/ ,/ ,/ ,/ ,/ ,/ ,/ ,/ ,/ ,/ ,/ ,/ ,/ ,/ ,/ ,/ ,/ ,/ ,/ ,/ ,/ ,/ ,/ ,/ ,/ ,/ ,/ ,/ ,/ ,/ ,/ ,/ ,/ ,/ ,/ ,/ ,/ ,/ ,/ ,/ ,/ ,/ ,/ ,/ ,/ ,/ ,/ ,/ ,/ ,/ ,/ ,/ ,/ ,/ ,/ ,/ ,/ ,/ ,/ ,/ ,/ ,/ ,/ ,/ ,/ ,/ ,/ ,/ ,/ ,/ ,/ ,/ ,/ ,/ ,/ ,/ ,/ ,/ ,/ ,/ ,/ ,/ ,/ ,/ ,/ ,/ ,/ ,/ ,/ ,/ ,/ ,/ ,/ ,/ ,/ ,/ ,/ ,/ ,/ ,/ ,/ ,/ ,/ ,/ ,/ ,/ ,/ ,/ ,/ ,/ ,/ ,/ ,/ ,/ ,/ ,/ ,/ ,/ ,/ ,/ +{ S' B< W( zx [R i| __ 4Q U' @m !j ,/ ,/ ,/ ,/ ,/ ,/ ,/ ,/ ,/ ,/ ,/ ,/ ,/ ,/ ,/ ,/ ,/ !j _% X, 4Q fx !x (^ i| Z( o2 %+ Dx y| y| y| y@ F$ ;a G4 ,/ ,/ ,/ ,/ ,/ ,/ ,/ ,/ ,/ ,/ ,/ ,/ ,/ ,/ ,/ @m l{ W< q! /| a$ k{ K6 By <d [z }R |R I- => m; U- VQ 1R bt wQ /x 2R {u 6N 3R 4R 5R 6R 7R 8R aw 9R 3y !c -e -e /G Jy /g RP 0R aR bR cR dR eR fR wy -e UG VG ,a 4] 4^ 5^ ]( tJ 4J %M JM JM fN gN L< 68 68 68 68 68 68 68 68 68 68 68 68 68 68 68 68 68 68 68 68 68 68 68 68 68 68 68 68 68 Q8 /P /P /P /P /P gR {R {R {R {R {R {R {R {R {R {R {R {R ",
"<[ <[ <[ <[ <[ <[ <[ <[ <[ <[ <[ <[ <[ <[ <[ <[ <[ <[ <[ <[ <[ <[ <[ <[ <[ <[ <[ <[ <[ <[ <[ <[ <[ <[ <[ <[ <[ <[ <[ <[ <[ <[ hR iR jR 6t kR %r lR mR mR mR mR mR p  s] t] )) 4] u] +~ v  x  y  A  D  c. h+ =+ M+ N+ ^# =@ 5@ /# /# P# _$ _$ _$ _$ _$ C$  % &% g% s% L% '& O& d* T> O- P- U- W- <; nR oR pR a* zw ui Yt ci $^  & I4 e+ r! r( 3^ 5n ,/ ,/ ,/ ,/ ,/ ,/ ,/ ,/ ,/ ,/ j^ !j  e }: T1 $+ y| ,5 j4 t# %Q X] Q{ i_ !x S' cl ,/ ,/ ,/ ,/ ,/ ,/ ,/ ,/ ,/ ,/ ,/ ,/ ,/ ,/ ,/ ,/ ,/ ,/ ,/ ,/ ,/ ,/ ,/ ,/ ,/ ,/ ,/ ,/ ,/ ,/ ,/ ,/ ,/ ,/ ,/ ,/ ,/ ,/ ,/ ,/ ,/ ,/ ,/ ,/ ,/ ,/ ,/ ,/ ,/ ,/ ,/ ,/ ,/ ,/ ,/ ,/ ,/ ,/ ,/ ,/ ,/ ,/ ,/ ,/ ,/ ,/ ,/ ,/ ,/ ,/ ,/ ,/ ,/ ,/ ,/ ,/ ,/ ,/ ,/ ,/ ,/ ,/ ,/ ,/ ,/ ,/ ,/ ,/ ,/ ,/ ,/ ,/ ,/ ,/ ,/ ,/ ,/ ,/ ,/ ,/ ,/ ,/ ,/ ,/ ,/ ,/ ,/ ,/ ,/ ,/ ,/ ,/ ,/ ,/ ,/ ,/ ,/ ,/ ,/ ,/ ,/ ,/ ,/ ,/ ,/ ,/ ,/ ,/ ,/ ,/ ,/ ,/ ,/ ,/ ,/ ,/ ,/ ,/ ,/ ,/ ,/ ,/ ,/ ,/ ,/ ,/ ,/ ,/ ,/ ,/ ,/ ,/ ,/ ,/ ,/ ,/ ,/ ,/ ,/ ,/ ,/ ,/ ,/ ,/ ,/ ,/ ,/ ,/ ,/ ,/ ,/ ,/ ,/ ,/ ,/ ,/ ,/ ,/ ,/ ,/ ,/ ,/ ,/ ,/ ,/ ,/ ,/ ,/ ,/ ,/ ,/ ,/ ,/ ,/ ,/ ,/ .< @m  ) @^ !x qR rR U' @m !j ,/ ,/ ,/ ,/ ,/ ,/ ,/ ,/ ,/ ,/ ,/ ,/ ,/ ,/ ,/ ,/ ,/ ,/ ,/ ,/ ,/ !j cl @m c% La c/ 1^ +4 %+ Dx y| y| y| y@ F$ ;a G4 ,/ ,/ ,/ ,/ ,/ ,/ ,/ ,/ ,/ ,/ ,/ ,/ ,/ ,/ ,/ U, &5 s  q! /| a$ k{ K6 By 0b Ww sR |R J- U- W- /; tR S> ~* uR 3i ]c LG }v vR Kb wR FN :G xR HN 5F uy Kb -e -e yR zR AR BR eN CR DR .Q 3y aN ~c Kb -e UG VG ,a 4] 4^ 5^ ]( tJ 4J 4J 4J 4J 4J 4J ~R 68 68 68 68 P/ ER ER J< 68 68 68 FR ]o 68 68 68 68 FR FR FR FR FR ]o 68 68 68 ]o xn }m /P /P /P /P /P /P GR gR {R {R {R {R {R {R {R {R {R {R {R ",
"<[ <[ <[ <[ <[ <[ <[ <[ <[ <[ <[ <[ <[ <[ <[ <[ <[ <[ <[ <[ <[ <[ <[ <[ <[ <[ <[ <[ <[ <[ <[ <[ <[ <[ <[ <[ <[ <[ <[ <[ <[ HR IR IR IR IR IR IR IR JR KR O< mR mR p  s] t] )) 4] u] +~ v  x  y  A  D  c. h+ =+ M+ N+ ^# =@ 5@ /# /# P# _$ _$ _$ _$ _$ C$  % c% g% =' L% d- O& D& -, O- Q- /; X- U; W= oR F* a* zw ui Yt ci $^  & I4 e+ r! r( )] ;a ,/ ,/ ,/ ,/ ,/ ,/ ,/ ,/ ,/ ,/ ,/ :> +^ u( T1 $+ y| ,5 j4 t# %Q O{ W( X^ LR @m ,/ ,/ ,/ ,/ ,/ ,/ ,/ ,/ ,/ ,/ ,/ ,/ ,/ ,/ ,/ ,/ ,/ ,/ ,/ ,/ ,/ ,/ ,/ ,/ ,/ ,/ ,/ ,/ ,/ ,/ ,/ ,/ ,/ ,/ ,/ ,/ ,/ ,/ ,/ ,/ ,/ ,/ ,/ ,/ ,/ ,/ ,/ ,/ ,/ ,/ ,/ ,/ ,/ ,/ ,/ ,/ ,/ ,/ ,/ ,/ ,/ ,/ ,/ ,/ ,/ ,/ ,/ ,/ ,/ ,/ ,/ ,/ ,/ ,/ ,/ ,/ ,/ ,/ ,/ ,/ ,/ ,/ ,/ ,/ ,/ ,/ ,/ ,/ ,/ ,/ ,/ ,/ ,/ ,/ ,/ ,/ ,/ ,/ ,/ ,/ ,/ ,/ ,/ ,/ ,/ ,/ ,/ ,/ ,/ ,/ ,/ ,/ ,/ ,/ ,/ ,/ ,/ ,/ ,/ ,/ ,/ ,/ ,/ ,/ ,/ ,/ ,/ ,/ ,/ ,/ ,/ ,/ ,/ ,/ ,/ ,/ ,/ ,/ ,/ ,/ ,/ ,/ ,/ ,/ ,/ ,/ ,/ ,/ ,/ ,/ ,/ ,/ ,/ ,/ ,/ ,/ ,/ ,/ ,/ ,/ ,/ ,/ ,/ ,/ ,/ ,/ ,/ ,/ ,/ ,/ ,/ ,/ ,/ ,/ ,/ ,/ ,/ ,/ ,/ ,/ ,/ ,/ ,/ ,/ ,/ ,/ ,/ ,/ ,/ ,/ ,/ ,/ ,/ ,/ ,/ ,/ ,/ ,/ ,/ @m c% _% U, cl Gk ,/ ,/ ,/ ,/ ,/ ,/ ,/ ,/ ,/ ,/ ,/ ,/ ,/ ,/ ,/ ,/ ,/ ,/ ,/ ,/ ,/ ,/ ,/ ,/ ,/ j^ ,/ c% @^ O{ +4 %+ Dx y| y| y| y@ F$ ;a G4 ,/ ,/ ,/ ,/ ,/ ,/ ,/ ,/ ,/ ,/ ,/ ,/ ,/ ,/ ,/ :% &5 s  q! o4 a$ k{ K6 By 0b Ww sR  - J- U- X- V- 7> S> z* MR 3i ]c 3i NR vR OR Mb PR <G ~E cy !c Kb -e -e -e -e -e Yx QR 5N |F MN 4F RR wy Lb -e -e UG VG ,a 4] 4^ 5^ ]( tJ 4J 4J 4J 4J 4J 4J _z m| m| m| SR SR SR SR TR 68 <9 /P /P /P /P /P /P /P /P /P /P /P /P /P /P /P /P /P /P <9 UR VR WR XR YR YR YR ZR `R  S .S +S {R {R {R {R {R {R {R ",
"3_ 3_ 3_ 3_ 3_ 3_ 3_ 3_ 3_ 3_ 3_ @S <[ <[ <[ <[ <[ <[ <[ <[ <[ <[ <[ <[ <[ <[ <[ p[ s/ s/ s/ p[ <[ <[ <[ <[ <[ <[ <[ <[ <[ HR IR IR IR IR IR IR IR IR IR jR mR mR p  s] t] )) 4] u] +~ v  x  y  A  D  c. h+ =+ M+ N+ ^# =@ 5@ /# /# P# _$ _$ _$ _$ _$ C$  % c% g% =' L% d- p& t* ]3 O- R- /; S; U; #S #= d, 0= [z ui Yt ci $^ f} I4 8] r! r( )] p( ,/ ,/ ,/ ,/ ,/ ,/ ,/ ,/ ,/ ,/ !j P' x1 G/ T1 $+ y| ,5 j4 t# t{ o^ 2^ 4Q _% ,/ ,/ ,/ ,/ ,/ ,/ ,/ ,/ ,/ ,/ ,/ ,/ ,/ ,/ ,/ ,/ ,/ ,/ ,/ ,/ ,/ ,/ ,/ ,/ ,/ ,/ ,/ ,/ ,/ ,/ ,/ ,/ ,/ ,/ ,/ ,/ ,/ ,/ ,/ ,/ ,/ ,/ ,/ ,/ ,/ ,/ ,/ ,/ ,/ ,/ ,/ ,/ ,/ ,/ ,/ ,/ ,/ ,/ ,/ ,/ ,/ ,/ ,/ ,/ ,/ ,/ ,/ ,/ ,/ ,/ ,/ ,/ ,/ ,/ ,/ ,/ ,/ ,/ ,/ ,/ ,/ ,/ ,/ ,/ ,/ ,/ ,/ ,/ ,/ ,/ ,/ ,/ ,/ ,/ ,/ ,/ ,/ ,/ ,/ ,/ ,/ ,/ ,/ ,/ ,/ ,/ ,/ ,/ ,/ ,/ ,/ ,/ ,/ ,/ ,/ ,/ ,/ ,/ ,/ ,/ ,/ ,/ ,/ ,/ ,/ ,/ ,/ ,/ ,/ ,/ ,/ ,/ ,/ ,/ ,/ ,/ ,/ ,/ ,/ ,/ ,/ ,/ ,/ ,/ ,/ ,/ ,/ ,/ ,/ ,/ ,/ ,/ ,/ ,/ ,/ ,/ ,/ ,/ ,/ ,/ ,/ ,/ ,/ ,/ ,/ ,/ ,/ ,/ ,/ ,/ ,/ ,/ ,/ ,/ ,/ ,/ ,/ ,/ ,/ ,/ ,/ ,/ ,/ ,/ ,/ ,/ ,/ ,/ ,/ ,/ ,/ ,/ ,/ ,/ ,/ ,/ ,/ ,/ ,/ ,/ ,/ !j ,/ ,/ ,/ ,/ ,/ ,/ ,/ ,/ ,/ ,/ ,/ ,/ ,/ ,/ ,/ ,/ ,/ ,/ ,/ ,/ ,/ ,/ ,/ ,/ ,/ ,/ ,/ ,/ ,/ ,/ ,/ @m j3 G/ o2 %+ Dx y| y| y| y@ F$ ;a G4 ,/ ,/ ,/ ,/ ,/ ,/ ,/ ,/ ,/ ,/ ,/ ,/ ,/ ,/ ,/ _% .6 y< q! o4 L2 k{ K6 By 0b Ww sR  - J- /; X- V- $S T> {* %S #y ]c Kb <f Yx &S (G *S ~c Mb Lb -e -e -e -e -e -e -e -e ;e `w _G ty wy Kb Nb -e -e -e UG VG ,a 4] 4^ 5^ ]( tJ 4J 4J 4J 4J =S =S =S =S =S =S SR SR SR SR -S ;S sQ /P /P /P sQ >S >S >S >S ,S ,S ,S u_ J( J( J( J( 'S )S !S ~S ~S ~S {S ]S ^S /S (S !: .S .S _S {R {R {R {R {R :S }m ",
"<S <S <S <S <S <S <S <S <S <S <S <S <S <S <S [S }S {@ |S 1S OQ 2S 2S 2S 2S 2S 3S 4S 5S 6S 7S 7S 7S 8S 9S <[ <[ <[ <[ <[ <[ Dl IR IR IR IR IR IR IR IR IR IR mR mR r( s] t] )) 4] u] +~ v  x  y  A  D  c. h+ =+ M+ N+ ^# =@ 5@ /# /# P# _$ _$ _$ _$ _$ D$  % c% 4% =' L% )& 0S t* ]3 O- R- V- S; i; Y= ]= d, -* Ww fA oC ci $^ f} I4 8] r! r( )] p( ,/ ,/ ,/ ,/ ,/ ,/ ,/ ,/ ,/ ,/ :> @^ c/ u( T1 $+ y| ,5 j4 t# t{ o^ .^ U' Gk ,/ ,/ ,/ ,/ ,/ ,/ ,/ ,/ ,/ ,/ ,/ ,/ ,/ ,/ ,/ ,/ ,/ ,/ ,/ ,/ ,/ ,/ ,/ ,/ ,/ ,/ ,/ ,/ ,/ ,/ ,/ ,/ ,/ ,/ ,/ ,/ ,/ ,/ ,/ ,/ ,/ ,/ ,/ ,/ ,/ ,/ ,/ ,/ ,/ ,/ ,/ ,/ ,/ ,/ ,/ ,/ ,/ ,/ ,/ ,/ ,/ ,/ ,/ ,/ ,/ ,/ ,/ ,/ ,/ ,/ ,/ ,/ ,/ ,/ ,/ ,/ ,/ ,/ ,/ ,/ ,/ ,/ ,/ ,/ ,/ ,/ ,/ ,/ ,/ ,/ ,/ ,/ ,/ ,/ ,/ ,/ ,/ ,/ ,/ ,/ ,/ ,/ ,/ ,/ ,/ ,/ ,/ ,/ ,/ ,/ ,/ ,/ ,/ ,/ ,/ ,/ ,/ ,/ ,/ ,/ ,/ ,/ ,/ ,/ ,/ ,/ ,/ ,/ ,/ ,/ ,/ ,/ ,/ ,/ ,/ ,/ ,/ ,/ ,/ ,/ ,/ ,/ ,/ ,/ ,/ ,/ ,/ ,/ ,/ ,/ ,/ ,/ ,/ ,/ ,/ ,/ ,/ ,/ ,/ ,/ ,/ ,/ ,/ ,/ ,/ ,/ ,/ ,/ ,/ ,/ ,/ ,/ ,/ ,/ ,/ ,/ ,/ ,/ ,/ ,/ ,/ ,/ ,/ ,/ ,/ ,/ ,/ ,/ ,/ ,/ ,/ ,/ ,/ ,/ ,/ ,/ ,/ ,/ ,/ ,/ ,/ ,/ ,/ ,/ ,/ ,/ ,/ ,/ ,/ ,/ ,/ ,/ ,/ ,/ ,/ ,/ ,/ ,/ ,/ ,/ ,/ ,/ ,/ ,/ ,/ ,/ ,/ ,/ ,/ ,/ ,/ ,/ ,/ cl R' v( +4 %+ j4 y| y| y| y@ F$ ;a G4 ,/ ,/ ,/ ,/ ,/ ,/ ,/ ,/ ,/ ,/ ,/ ,/ ,/ ,/ ,/ V' D< y< q! o4 L2 }6 rR By }z ~x aS bS |; V- S; W- cS T> Q, %S #y ]c Kb MG ;e BN |d NG /g Uj Kb -e -e -e -e -e -e -e -e -e ;e dS eS fS Cd -e -e -e -e UG VG ,a 4] 4^ 5^ ]( gS hS u_ .S .S .S .S .S .S .S .S .S .S .S .S .S .S .S .S .S .S .S .S .S .S .S .S .S .S .S .S .S .S .S .S iS ~S ~S ~S !S jS kS .S .S .S .S .S .S +S }m 67 .n lS *q 'h 'h ",
"<S <S <S <S <S <S <S <S <S <S <S <S <S <S <S <S <S <S z% 2S 2S 2S 2S 2S 2S 2S 2S 2S 2S 2S 78 mS nS 7S 7S oS s/ <[ <[ <[ <[ PQ pS IR IR IR IR IR IR IR IR IR mR mR 1] s] t] )) 4] u] +~ v  x  y  A  D  c. h+ =+ M+ N+ ^# =@ 5@ /# /# P# _$ _$ _$ _$ _$ D$  % c% 4% =' L% |& r& F& qS O- i; V- ]; _; rS $= 3= -* Ww 6B oC ci $^ f} I4 8] r! r( )] p( ,/ ,/ ,/ ,/ ,/ ,/ ,/ ,/ ,/ Gk R' B< (^ u( T1 $+ y| ,5 j4 m+ t{ q} wc @m ,/ ,/ ,/ ,/ ,/ ,/ ,/ ,/ ,/ ,/ ,/ ,/ ,/ ,/ ,/ ,/ ,/ ,/ ,/ ,/ ,/ ,/ ,/ ,/ ,/ ,/ ,/ ,/ ,/ ,/ ,/ ,/ ,/ ,/ ,/ ,/ ,/ ,/ ,/ ,/ ,/ ,/ ,/ ,/ ,/ ,/ ,/ ,/ ,/ ,/ ,/ ,/ ,/ ,/ ,/ ,/ ,/ ,/ ,/ ,/ ,/ ,/ ,/ ,/ ,/ ,/ ,/ ,/ ,/ ,/ ,/ ,/ ,/ ,/ ,/ ,/ ,/ ,/ ,/ ,/ ,/ ,/ ,/ ,/ ,/ ,/ ,/ ,/ ,/ ,/ ,/ ,/ ,/ ,/ ,/ ,/ ,/ ,/ ,/ ,/ ,/ ,/ ,/ ,/ ,/ ,/ ,/ ,/ ,/ ,/ ,/ ,/ ,/ ,/ ,/ ,/ ,/ ,/ ,/ ,/ ,/ ,/ ,/ ,/ ,/ ,/ ,/ ,/ ,/ ,/ ,/ ,/ ,/ ,/ ,/ ,/ ,/ ,/ ,/ ,/ ,/ ,/ ,/ ,/ ,/ ,/ ,/ ,/ ,/ ,/ ,/ ,/ ,/ ,/ ,/ ,/ ,/ ,/ ,/ ,/ ,/ ,/ ,/ ,/ ,/ ,/ ,/ ,/ ,/ ,/ ,/ ,/ ,/ ,/ ,/ ,/ ,/ ,/ ,/ ,/ ,/ ,/ ,/ ,/ ,/ ,/ ,/ ,/ ,/ ,/ ,/ ,/ ,/ ,/ ,/ ,/ ,/ ,/ ,/ ,/ ,/ ,/ ,/ ,/ ,/ ,/ ,/ ,/ ,/ ,/ ,/ ,/ ,/ ,/ ,/ ,/ ,/ ,/ ,/ ,/ ,/ ,/ ,/ ,/ ,/ ,/ ,/ ,/ ,/ ,/ ,/ ,/ ,/ ,/ Gk V' #^ +4 %+ j4 y| y| y| y@ F$ ;a G4 ,/ ,/ ,/ ,/ ,/ ,/ ,/ ,/ ,/ ,/ ,/ ,/ ,/ ,/ Gk |2 D< y< q! o4 L2 }6 rR xr }z ~y sS tS }; V- ]; X- cS U> ]* uS #y ]c Kb PP 6N yy ix 5N eN vS <G Fx Kb -e -e -e -e -e ;e 4P zR /G Cd eN wS eN -x -e -e UG VG ,a 4] 4^ 5^ 5^ xS .S .S .S .S .S .S .S .S .S .S .S .S .S .S .S .S .S .S .S .S .S .S .S .S .S .S .S .S .S .S .S .S .S .S PQ yS ~S zS AS .S .S .S .S .S .S .S .S BS 'h 'h 'h 'h qj 7i 7i ",
"P< CS  '  ' W) C^ f) DS <S <S <S <S <S <S <S <S <S <S <S [P 2S 2S 2S 2S 2S 2S 2S 2S 2S 2S 2S 2S 2S ES FS 7S 7S GS <[ <[ d@ HS V_ IR IR IR IR IR IR IR IR IR mR IS 1] s] t] )) 4] u] +~ v  x  y  A  D  c. h+ =+ M+ N+ ^# =@ 5@ /# /# P# _$ _$ _$ _$ _$ D$  % c% 4% =' L% |& r& J& ]3 O- i; W- Z- )7 `= JS 3= KS ~x 6B uu (k $^ f} I4 8] r! r( )] `! .< ,/ ,/ ,/ ,/ ,/ ,/ ,/ ,/ cl j3 X^ (^ u( T1 $+ y| ,5 j4 m+ LS ][ _% ,/ ,/ ,/ ,/ ,/ ,/ ,/ ,/ ,/ ,/ ,/ ,/ ,/ ,/ ,/ ,/ ,/ ,/ ,/ ,/ ,/ ,/ ,/ ,/ ,/ ,/ ,/ ,/ ,/ ,/ ,/ ,/ ,/ ,/ ,/ ,/ ,/ ,/ ,/ ,/ ,/ ,/ ,/ ,/ ,/ ,/ ,/ ,/ ,/ ,/ ,/ ,/ ,/ ,/ ,/ ,/ ,/ ,/ ,/ ,/ ,/ ,/ ,/ ,/ ,/ ,/ ,/ ,/ ,/ ,/ ,/ ,/ ,/ ,/ ,/ ,/ ,/ ,/ ,/ ,/ ,/ ,/ ,/ ,/ ,/ ,/ ,/ ,/ ,/ ,/ ,/ ,/ ,/ ,/ ,/ ,/ ,/ ,/ ,/ ,/ ,/ ,/ ,/ ,/ ,/ ,/ ,/ ,/ ,/ ,/ ,/ ,/ ,/ ,/ ,/ ,/ ,/ ,/ ,/ ,/ ,/ ,/ ,/ ,/ ,/ ,/ ,/ ,/ ,/ ,/ ,/ ,/ ,/ ,/ ,/ ,/ ,/ ,/ ,/ ,/ ,/ ,/ ,/ ,/ ,/ ,/ ,/ ,/ ,/ ,/ ,/ ,/ ,/ ,/ ,/ ,/ ,/ ,/ ,/ ,/ ,/ ,/ ,/ ,/ ,/ ,/ ,/ ,/ ,/ ,/ ,/ ,/ ,/ ,/ ,/ ,/ ,/ ,/ ,/ ,/ ,/ ,/ ,/ ,/ ,/ ,/ ,/ ,/ ,/ ,/ ,/ ,/ ,/ ,/ ,/ ,/ ,/ ,/ ,/ ,/ ,/ ,/ ,/ ,/ ,/ ,/ ,/ ,/ ,/ ,/ ,/ ,/ ,/ ,/ ,/ ,/ ,/ ,/ ,/ ,/ ,/ ,/ ,/ ,/ ,/ ,/ ,/ ,/ ,/ ,/ ,/ ,/ ,/ ,/ j^ SQ U, X< +4 %+ j4 y| y| y| y@ F$ ;a G4 .< ,/ ,/ ,/ ,/ ,/ ,/ ,/ ,/ ,/ ,/ ,/ ,/ ,/ ,/ |2 MS y< :{ o4 ~% }6 wc $s }z ~y sS {p }; W- Z- X- cS V> ]* uS #y ]c <f %h NS Zw OS ;O PS QS IN ay uy -e -e -e Kb DN RS SS Lc TS US VS _O 7F vS Kb -e UG VG ,a 4] 4^ 5^ 5^ xS .S .S .S .S .S .S .S .S .S .S .S .S .S .S .S .S .S .S .S .S .S .S .S .S .S .S .S .S .S .S .S .S .S .S .S .S .S .S .S .S .S .S .S .S .S .S WS 6e 'h 'h XS $# $# $# $# ",
"P< P< P< P< P< P< P< P< P<  ' W) f) YS ZS <S <S <S <S <S _' `S 2S 2S 2S 2S 2S 2S 2S 2S 2S 2S 2S 2S 2S 3S mS 7S 7S  T 5( HS HS .T IR IR IR IR IR IR IR IR IR mR +T 1] s] t] )) 4] u] +~ v  x  y  A  D  c. h+ =+ M+ N+ ^# =@ 5@ /# /# P# _$ _$ _$ _$ _$ D$  % c% 4% u% L% |& r& J& V> <; i; X- 0> @T #T &= K* 5Q gx hk uu (k 39 97 I4 M6 r! r( )] ji .< .< .< .< .< .< .< .< .< @m S) X^ (^ u( T1 $+ y| ,5 h+ m+ W/ Q' +e .< .< .< .< .< .< .< .< .< .< .< .< .< .< .< .< .< .< .< .< .< .< .< .< .< .< .< .< .< .< .< .< .< .< .< .< .< .< .< .< .< .< .< .< .< .< .< .< .< .< .< .< .< .< .< .< .< .< .< .< .< .< .< .< .< .< .< .< .< .< .< .< .< .< .< .< .< .< .< .< .< .< .< .< .< .< .< .< .< .< .< .< .< .< .< .< .< .< .< .< .< .< .< .< .< .< .< .< .< .< .< .< .< .< .< .< .< .< .< .< .< .< .< .< .< .< .< .< .< .< .< .< .< .< .< .< .< .< .< .< .< .< .< .< .< .< .< .< .< .< .< .< .< .< .< .< .< .< .< .< .< .< .< .< .< .< .< .< .< .< .< .< .< .< .< .< .< .< .< .< .< .< .< .< .< .< .< .< .< .< .< .< .< .< .< .< .< .< .< .< .< .< .< .< .< .< .< .< .< .< .< .< .< .< .< .< .< .< .< .< .< .< .< .< .< .< .< .< .< .< .< .< .< .< $T %T !j x[ f} @+ y| y| y| y| y@ F$ ji a[ .< .< .< .< .< .< .< .< .< .< .< .< .< .< ,/ S' K2 y< :{ %} ~% }6 Sf $s +i ~y bt }- j; X- Z- X- &T V> ]* *T ve HM /g =T -T ;T >T ,T 'T )T !T 9R ,O Kb -e -e ;e ~T yy {T ]T ^T /T (T _T 7F :T <G -e UG VG ,a 4] 4^ 5^ :~ <T [T }T |T .S .S .S .S .S .S .S .S .S .S .S 1T 2T 3T 4T b_ |T .S .S .S .S .S .S .S .S .S .S .S .S .S .S .S .S .S .S .S .S .S .S .S .S .S 2_ }P 5T 'h 'h u+ $# $# $# $# ",
"P< P< P< P< P< P< P< P< P< P< P< P< 6T 7T 8T ZJ 9T <S <S <S 0T -y aT 2S 2S 2S 2S 2S 2S 2S 2S 2S 2S 2S 2S 2S bT cT dT HS HS HS HS eT IR IR IR IR IR IR IR fT mR gT 1] s] t] )) 4] u] +~ v  x  y  A  D  c. h+ =+ M+ N+ ^# =@ 5@ /# /# P# _$ _$ _$ _$ _$ D$  % c% 4% u% L% |& s& G& V> Q- _; X- {; _> #T hT K* >* gx hk uu (k F: U} I4 M6 r! r( P{ p( .< .< .< .< .< .< .< .< .< +e <~ M_ (^ u( T1 $+ y| ,5 Dx t# {% A3 +{ .< .< .< .< .< .< .< .< .< .< .< .< .< .< .< .< .< .< .< .< .< .< .< .< .< .< .< .< .< .< .< .< .< .< .< .< .< .< .< .< .< .< .< .< .< .< .< .< .< .< .< .< .< .< .< .< .< .< .< .< .< .< .< .< .< .< .< .< .< .< .< .< .< .< .< .< .< .< .< .< .< .< .< .< .< .< .< .< .< .< .< .< .< .< .< .< .< .< .< .< .< .< .< .< .< .< .< .< .< .< .< .< .< .< .< .< .< .< .< .< .< .< .< .< .< .< .< .< .< .< .< .< .< .< .< .< .< .< .< .< .< .< .< .< .< .< .< .< .< .< .< .< .< .< .< .< .< .< .< .< .< .< .< .< .< .< .< .< .< .< .< .< .< .< .< .< .< .< .< .< .< .< .< .< .< .< .< .< .< .< .< .< .< .< .< .< .< .< .< .< .< .< .< .< .< .< .< .< .< .< .< .< .< .< .< .< .< .< .< .< .< .< .< .< .< .< .< .< .< .< .< .< .< .< $T $T iT @% U} @+ y| y| y| y| y@ F$ ji a[ .< .< .< .< .< .< .< .< .< .< .< .< .< .< !j R' K2 y< :{ %} ~% }6 Sf $s +i jy bt }- j; S; 0> ]; vc V> ^* jT Kb kT AR OR 3! lT mT nT oT pT qT rT sT UG -e Lb =T Cw tT uT vT wT xT yT zT jS 2F AT -e UG VG ,a 4] 4^ 5^ 1] BT CT DT ET FT GT HT IT JT KT .S .S .S .S .S LT MT NT OT OT PT QT RT ST .S .S .S .S .S .S .S .S .S .S .S .S .S .S .S .S .S .S .S .S TT An At At P5 'h qj $# $# $# $# $# ",
"P< P< P< P< P< P< P< P< P< P< P< P< 6T 7T 7T 7T 7T UT VT WT XT <S <S <S z% YT ZT ZT `T  U vp .U $# 11 $# X& +U ZT @U HS HS HS HS #U IR IR IR IR IR IR IR $U mR %U 1] s] t] )) 4] u] +~ v  x  y  A  D  c. h+ =+ M+ N+ ^# =@ 5@ /# /# P# _$ _$ _$ _$ _$ D$  % c% 4% u% L% |& N, S, ^3 <; _; S; {; _> +- *= o, >* gx hk uu Fk F: U} I4 M6 r! t( P{ ;a .< .< .< .< .< .< .< .< .< +{ c% *^ Y] u( T1 $+ y| ,5 y| :B D: `! .< .< .< .< .< .< .< .< .< .< .< .< .< .< .< .< .< .< .< .< .< .< .< .< .< .< .< .< .< .< .< .< .< .< .< .< .< .< .< .< .< .< .< .< .< .< .< .< .< .< .< .< .< .< .< .< .< .< .< .< .< .< .< .< .< .< .< .< .< .< .< .< .< .< .< .< .< .< .< .< .< .< .< .< .< .< .< .< .< .< .< .< .< .< .< .< .< .< .< .< .< .< .< .< .< .< .< .< .< .< .< .< .< .< .< .< .< .< .< .< .< .< .< .< .< .< .< .< .< .< .< .< .< .< .< .< .< .< .< .< .< .< .< .< .< .< .< .< .< .< .< .< .< .< .< .< .< .< .< .< .< .< .< .< .< .< .< .< .< .< .< .< .< .< .< .< .< .< .< .< .< .< .< .< .< .< .< .< .< .< .< .< .< .< .< .< .< .< .< .< .< .< .< .< .< .< .< .< .< .< .< .< .< .< .< .< .< .< .< .< .< .< .< .< .< .< .< .< .< .< .< .< .< .< .< .< .< +{ $% A] u{ y| y| y| y| y@ F$ ji a[ .< .< .< .< .< .< .< .< .< .< .< .< .< .< !j  ) K2 y< :{ %} ~% }6 Sf $s ui jy &U @- j; *U {; ]; vc =U /* jT Cd Yx Rd -U ;U >U ,U bP 'U )U !U ~U eb zO -e MG 'O $M {U ]U ^U /U (U _U :U <U [U XD uy sP VG ,a 4] 4^ 5^ 1] BT CT }U ET ET ET ET ET ET ET ET ET ET ET |U 1U 1U 1U 1U 1U 1U 1U 1U 1U 1U 2U 3U 4U .S .S .S .S .S .S .S .S .S .S .S .S .S .S .S 5U }P At At 90 'h 'h 6U $# $# $# $# $# ",
"P< P< P< P< P< P< P< P< P< P< P< g# 7T 7T 7T 7T 7T 7T 7T 7T 7T 4m ZJ WT 7U `T ZT ZT ZT ZT ZT ZT ZT ZT ZT ZT ZT ZT I] HS HS HS HS 8U IR IR IR IR IR IR IR 9U 1| fT 1] s] t] )) 4] u] +~ v  x  y  A  D  c. h+ =+ M+ N+ ^# =@ 5@ /# /# P# _$ _$ _$ _$ _$ D$  % c% 4% u% 4& !& t& I& ^3 Q- S- ];  ; /; 0U -= 2= w* xC aU bU Fk F: U} I4 M6 r! r( P{ ;a .< .< .< .< .< .< .< .< .< $T =w G} x1 u( T1 $+ y| ,5 y| :B A< `! .< .< .< .< .< .< .< .< .< .< .< .< .< .< .< .< .< .< .< .< .< .< .< .< .< .< .< .< .< .< .< .< .< .< .< .< .< .< .< .< .< .< .< .< .< .< .< .< .< .< .< .< .< .< .< .< .< .< .< .< .< .< .< .< .< .< .< .< .< .< .< .< .< .< .< .< .< .< .< .< .< .< .< .< .< .< .< .< .< .< .< .< .< .< .< .< .< .< .< .< .< .< .< .< .< .< .< .< .< .< .< .< .< .< .< .< .< .< .< .< .< .< .< .< .< .< .< .< .< .< .< .< .< .< .< .< .< .< .< .< .< .< .< .< .< .< .< .< .< .< .< .< .< .< .< .< .< .< .< .< .< .< .< .< .< .< .< .< .< .< .< .< .< .< .< .< .< .< .< .< .< .< .< .< .< .< .< .< .< .< .< .< .< .< .< .< .< .< .< .< .< .< .< .< .< .< .< .< .< .< .< .< .< .< .< .< .< .< .< .< .< .< .< .< .< .< .< .< .< .< .< .< .< .< .< .< e_ e_ i4 H' *+ y| y| y| y| y@ F$ ji a[ .< .< .< .< .< .< .< .< .< .< .< .< .< .< !j P' 3) y< :{ %} ~% 3^ wc $s ui cU z* @- s- ]; (> ]; V0 @w 6* dU <f fS <f +P eU fU gU mP hU iU jU kU !T HN -x ;e Cw lU mU nU oU pU qU aP rU sU tU uU XD sP VG ,a 4] 4^ 5^ 1] BT CT vU ET ET ET ET ET ET ET ET ET ET wU xU 1U 1U 1U yU zU 1U 1U 1U 1U 1U 1U 1U 1U AU BU CU .S .S .S .S .S .S .S .S .S .S TT An At At At At Yi 'h 'h O! $# $# $# $# $# ",
"P< P< P< P< P< P< P< P< P< P< P< 7T 7T 7T 7T 7T 7T 7T 7T 7T 7T 7T 7T 7T 7T &r DU DU DU EU <b FU GU HU IU IU JU ZT I] HS HS HS HS HS IR IR IR IR IR IR IR KU 6t fT 1] s] t] )) 4] u] +~ v  x  y  A  D  c. h+ =+ M+ N+ ^# =@ 5@ /# /# P# _$ _$ _$ _$ _$ D$  % c% 4% u% M% ~& t& b* LU Q- (; ]; ~; ^; @- MU n, x* xC Sn -w Fk F: U} I4 M6 r! t( P{ ;a .< .< .< .< .< .< .< .< $T $T =| ][ Y] u( T1 $+ y| ,5 y| :B A< `! .< .< .< .< .< .< .< .< .< .< .< .< .< .< .< .< .< .< .< .< .< .< .< .< .< .< .< .< .< .< .< .< .< .< .< .< .< .< .< .< .< .< .< .< .< .< .< .< .< .< .< .< .< .< .< .< .< .< .< .< .< .< .< .< .< .< .< .< .< .< .< .< .< .< .< .< .< .< .< .< .< .< .< .< .< .< .< .< .< .< .< .< .< .< .< .< .< .< .< .< .< .< .< .< .< .< .< .< .< .< .< .< .< .< .< .< .< .< .< .< .< .< .< .< .< .< .< .< .< .< .< .< .< .< .< .< .< .< .< .< .< .< .< .< .< .< .< .< .< .< .< .< .< .< .< .< .< .< .< .< .< .< .< .< .< .< .< .< .< .< .< .< .< .< .< .< .< .< .< .< .< .< .< .< .< .< .< .< .< .< .< .< .< .< .< .< .< .< .< %T %T $T $T .< .< .< .< .< .< .< .< j^ %T NU NU NU $T %T .< .< .< .< .< .< .< .< .< .< .< .< .< .< .< .< .< .< a[ a[ %5 d= *+ <! y| y| y| y@ F$ ji a[ .< .< .< .< .< .< .< .< .< .< .< .< .< .< !j j3 e3 y< :{ %} ~% 3^ wc $z fA OU z* @- N- PU ~; 0> V0 @w _* dU .P ix QU RU SU TU UU WP VU WU XU YU ZU `U MG ;e  V .V +V @V #V $V %V &V *V =V -V vy HN .Q VG ,a 4] 4^ 5^ 1] BT CT CT ;V ET ET ET ET ET ET ET ET ET >V 1U 1U ,V 'V )V !V ~V ~V ~V {V 1U 1U 1U 1U 1U 1U ]V .S .S .S .S .S .S .S .S .S ^V }P At At At At 90 'h 'h 7i $# $# $# $# $# $# ",
"P< P< P< P< P< P< P< P< P< P< <, 7T 7T 7T 7T 7T 7T 7T 7T 7T 7T 7T 7T 7T 7T 7T 7T 7T 7T 7T 7T 7T 7T 7T *6 IU ZT ZT I] HS HS HS HS HS eT IR IR IR IR IR /V (V _V fT 1] s] t] )) 4] u] +~ v  x  y  A  D  c. h+ =+ M+ N+ ^# =@ 5@ /# /# P# _$ _$ _$ _$ _$ D$  % c% 4% u% M% ~& t& b* LU Q- (; Z- R; ^; :V MU n, x* xC Sn -w Fk F: U} I4 M6 r! t( P{ ;a .< .< .< .< .< .< .< .< %T +{ R' B< (^ u( T1 $+ y| ,5 y| :B A< `! .< .< .< .< .< .< .< .< .< .< .< .< .< .< .< .< .< .< .< .< .< .< .< .< .< .< .< .< .< .< .< .< .< .< .< .< .< .< .< .< .< .< .< .< .< .< .< .< .< .< .< .< .< .< .< .< .< .< .< .< .< .< .< .< .< .< .< .< .< .< .< .< .< .< .< .< .< .< .< .< .< .< .< .< .< .< .< .< .< .< .< .< .< .< .< .< .< .< .< .< .< .< .< .< .< .< .< .< .< .< .< .< .< .< .< .< .< .< .< .< .< .< .< .< .< .< .< .< .< .< .< .< .< .< .< .< .< .< .< .< .< .< .< .< .< .< .< .< .< .< .< .< .< .< .< .< .< .< .< .< .< .< .< .< .< .< .< .< .< .< .< .< .< .< .< .< .< .< .< .< .< .< .< .< .< .< .< .< .< .< .< .< .< .< .< .< .< .< %T ,/ ;a A3 o~ $T %T .< .< $T %T %T NU <V x] D, &% %% c% +{ %T %T .< .< .< .< .< .< .< .< .< .< .< .< .< .< .< .< a[ a[ ;a D$ *+ <! y| y| y| y@ F$ ji a[ .< .< .< .< .< .< .< .< .< .< .< .< .< .< @m j3 e3 y< :{ %} ~% 3^ wc Et fA OU A* @- N- `- .; `- Jv [V _* dU }V ix QU RU |V 1V 2V 3V 4V #V 5V 6V 7V xR <f ;e AR 5P 8V 9V bQ )Q 0V aV bV cV dV PR eV .Q VG ,a 4] 4^ 5^ 1] BT CT CT fV gV gV gV gV gV gV hV hV iV jV 'V CT CT CT kV lV mV nV nV nV oV pV 1U 1U 1U xU 4U .S .S .S .S .S J( ^V o7 W_ qV 3e L< At At At `  'h 'h >$ $# $# $# $# $# $# ",
"P< P< P< P< P< P< P< P< P< G[ 7T 7T 7T 7T 7T 7T 7T 7T 7T 7T 7T 7T 7T 7T 7T 7T 7T 7T 7T 7T 7T 7T 7T 7T 7T wt ZT ZT K] HS HS HS HS HS rV IR IR IR IR sV tV uV fT fT 1] s] t] )) 4] u] +~ v  x  y  A  D  c. h+ =+ M+ N+ ^# =@ 5@ /# /# P# _$ _$ _$ _$ _$ D$  % c% 4% T& N% ~& t& b* LU Q- (; PU R; vV wV ,= 1= sR jy Sn -w ad X< U} I4 M6 r! t( xV ;a .< .< .< .< .< .< .< j^ j^ =| g[ b/ (^ u( T1 $+ y| ,5 y| :B A< `! .< .< .< .< .< .< .< .< .< .< .< .< .< .< .< .< .< .< .< .< .< .< .< .< .< .< .< .< .< .< .< .< .< .< .< .< .< .< .< .< .< .< .< .< .< .< .< .< .< .< .< .< .< .< .< .< .< .< .< .< .< .< .< .< .< .< .< .< .< .< .< .< .< .< .< .< .< .< .< .< .< .< .< .< .< .< .< .< .< .< .< .< .< .< .< .< .< .< .< .< .< .< .< .< .< .< .< .< .< .< .< .< .< .< .< .< .< .< .< .< .< .< .< .< .< .< .< .< .< .< .< .< .< .< .< .< .< .< .< .< .< .< .< .< .< .< .< .< .< .< .< .< .< .< .< .< .< .< .< .< .< .< .< .< .< .< .< .< .< .< .< .< .< .< .< .< .< .< .< .< .< .< .< .< .< .< .< .< .< .< .< .< .< .< .< .< .< .< .< A3 i> g[ <~ i4 +{ $T NU NU Oh `! U( Cx j3 @^ M_ X( H: UQ +{ %T %T .< .< .< .< .< .< .< .< .< .< .< .< .< .< .< a[ a[ ;a D$ $+ B  y| y| y| y@ F$ ji a[ .< .< .< .< .< .< .< .< .< .< .< .< .< .< @m j3 e3 y< :{ %} ~% 3^  e Et fA %z 8* yV T; `- R; `- zV =, :* AV 2J 6x <f BV CV fU DV EV FV GV HV IV !T HN -x ;e 'O JV KV jQ LV MV _Q NV OV wT PV QV xR .Q VG ,a 4] 4^ 5^ ]( RV SV CT CT TV UV VV gV WV XV YV CT CT CT CT CT CT CT ZV `V `V  W .W nV nV +W 1U 1U @W #W .S .S .S .S {q Z, 1# 1# 1# 1# 1# 1# 1# $W 4_ At %W 'h qj $# $# $# $# $# $# $# ",
"P< P< P< P< P< P< P< P< P< 6T 7T 7T 7T 7T 7T 7T 7T 7T 7T 7T 7T 7T 7T 7T 7T 7T 7T UT &W *W *W =W =W *W &W -W ZT ZT }g HS HS HS HS HS ;W IR IR IR >W tV (V ,W fT fT 1] s] t] )) 4] u] +~ v  x  y  A  D  c. h+ =+ M+ N+ ^# =@ 5@ /# /# P# _$ _$ _$ _$ _$ D$  % _% 4% T& N% }& u& =* @w R- T- `- !; S; <- )= m, sR jy Sn -w ad X< U} I4 M6 r! t( 'W U( .< .< .< .< .< .< .< .< U( S) M_ Q{ (^ u( T1 $+ y| ,5 y| :B A< .< a[ a[ a[ )W )W )W )W $T $T .< .< .< .< .< .< .< .< .< .< .< .< .< .< .< .< .< .< .< .< .< .< .< .< .< .< .< .< .< .< .< .< .< .< .< .< .< .< .< .< .< .< .< .< .< .< .< .< .< .< .< .< .< .< .< .< .< .< .< .< .< .< .< .< .< .< .< .< .< .< .< .< .< .< .< .< .< .< .< .< .< .< .< .< .< .< .< .< .< .< .< .< .< .< .< .< .< .< .< .< .< .< .< .< .< .< .< .< .< .< .< .< .< .< .< .< .< .< .< .< .< .< .< .< .< .< .< .< .< .< .< .< .< .< .< .< .< .< .< .< .< .< .< .< .< .< .< .< .< .< .< .< .< .< .< .< .< .< .< .< .< .< .< .< .< .< .< .< .< .< .< .< .< .< .< .< .< .< .< .< .< .< .< .< .< .< .< .< $T .< (% H: Q{ X^ *^ S) %% (% (% %% S) ][ B< X^ b/ Q{ o^ Q{ H: T' +{ $T $T .< .< .< .< .< .< .< .< .< .< .< .< .< .< a[ a[ `! F$ H8 y| y| y| y| y@ F$ ji a[ .< .< .< .< .< .< .< .< .< .< .< .< .< .< @m j3 e3 y< :{ %} ~% 3^ X, Et 6B %z 8* yV T; `- R; !W zV Y> <* ~W /x PP fS {W ]W ^W /W (W oU ~Q _W :W dy xR <W <f [W >P m@ }W |W 1W 2W 3W 4W 5W 6W 7W 4F sP VG ,a 4] 4^ 5^ ]( 8W 9W 0W aW CT CT CT CT CT CT CT CT CT CT CT CT CT CT bW cW dW eW fW .W nV nV 1U @W nV gW .S .S .S wn 1# 1# 1# 1# 1# 1# 1# 1# 1# 1# p. At hW 'h 6U $# $# $# $# $# $# $# ",
"P< P< P< P< P< P< P< P< 8u 7T 7T 7T 7T 7T 7T 7T 7T 7T 7T 7T 7T 7T 7T UT l| iW &r =W =W =W =W =W =W =W =W jW ZT ZT [, HS HS HS HS HS kW IR IR lW (V tV kr fT fT fT 1] s] t] )) 4] u] +~ v  x  y  A  D  c. h+ =+ M+ N+ ^# =@ 5@ /# /# P# _$ _$ _$ _$ _$ D$  % _% 4% T& N% ~& N& v* X> i; => !W +; S; mW != nW '* jy Ho L6 ad X< U} I4 M6 r! t( 'W =| .< .< .< .< .< .< j^ !j P' B< Q{ Q{ (^ u( T1 $+ y| ,5 y| 5@ A< x] x] Ax p( p( `! `! o~ Oh Oh ,/ .< .< .< e_ )W a[ a[ a[ a[ a[ a[ )W )W )W oW )W )W )W )W )W $T a[ a[ $T .< .< .< .< .< .< .< .< .< .< .< .< .< .< .< .< .< .< .< .< .< .< .< .< .< .< .< .< .< .< .< .< .< .< .< .< .< .< .< .< .< .< .< .< .< .< .< .< .< .< .< .< .< .< .< .< .< .< .< .< .< .< .< .< .< .< .< .< .< .< .< .< .< .< .< .< .< .< .< .< .< .< .< .< .< .< .< .< .< .< .< .< .< .< .< .< .< .< .< .< .< .< .< .< .< .< .< .< .< .< .< .< .< .< .< .< .< .< .< .< .< .< .< .< .< .< .< .< .< .< .< .< .< .< .< .< .< .< .< .< .< .< .< .< .< .< .< .< .< .< .< .< .< .< .< .< .< .< .< .< .< .< $T %T +{ Q' B< o^ Q{ Q{ Q{ X^ B< B< M_ X^ Q{ Q{ Q{ Q{ (^ (^ i| 2^ fx d% a[ Z! )/ a[ )/ a[ a[ a[ a[ a[ a[ a[ a[ a[ a[ a[ Z! >[ .< ei 4@ <! y| y| y| y@ F$ ji a[ .< .< .< .< .< .< .< .< .< .< .< .< .< .< @m j3 e3 y< :{ %} ~% 3^ X, Et 6B pW qW <- QQ  ; rW  ; A- Y> <* AV -e Lb @l Wf sW tW uW sO vW wW xW yW >O _O -e Cd EM zW AW BW CW DW EW DQ FW GW HW 4y !c UG VG ,a 4] 4^ 5^ ]( B{ IW JW KW 9W LW MW MW MW MW NW OW 8} PW QW QW QW QW V! RW SW eW eW TW nV nV UW nV VW .S .S .S .S WW 1# 1# 1# 1# 1# 1# 1# 1# 1# 1# 1# XW Hl 'h O! $# $# $# $# $# $# $# ",
"P< P< P< P< P< P< P< P< 7T 7T 7T 7T 7T 7T 7T 7T 7T 7T 7T 7T 7T 7T &r =W =W =W =W =W =W YW ZW =W =W =W =W Ga ZT +U `W HS HS HS HS HS *< IR IR Ur  X i@ fT fT fT fT 1] s] t] )) 4] u] +~ v  x  y  A  D  c. h+ =+ M+ N+ ^# =@ 5@ /# /# P# _$ _$ _$ _$ _$ D$  % _% h% T& N% }& v& v* [V i; U- !W #; .X _- v> |= sS OU cH L6 ad X< U} p2 M6 r! t( [6 =| .< .< .< .< .< %T .< &% H: Q{ Q{ Q{ (^ u( T1 $+ y| ,5 y| =@ b% r} +X @X #X #X $X %X %X &X &X *X 4| 4| 4| 4| 7] =X =X -X -X -X -X ;X >X ,X ,X o~ +{ +{ ,/ .< .< j^ j^ .< .< .< .< .< .< .< .< .< .< .< .< .< .< .< .< .< .< .< .< .< .< .< .< .< .< .< .< .< .< .< .< .< .< .< .< .< .< .< .< .< .< .< .< .< .< .< .< .< .< .< .< .< .< .< .< .< .< .< .< .< .< .< .< .< .< .< .< .< .< .< .< .< .< .< .< .< .< .< .< .< .< .< .< .< .< .< .< .< .< .< .< .< .< .< .< .< .< .< .< .< .< .< .< .< .< .< .< .< .< .< .< .< .< .< .< .< .< .< .< .< .< .< .< .< .< .< .< .< .< .< .< .< .< .< .< .< .< .< .< .< .< .< .< .< .< .< .< .< .< .< .< .< .< .< .< .< .< .< .< .< .< .< %T %T +e S) M_ Q{ Q{ O{ Q{ Q{ o^ Z( O{ O{ O{ O{ O{ F/ i_ W( W( W( b/ <~ ;a `! `! ;a 7] 'X 'X 'X 7] 7] 7] ;a ;a ;a ;a p( p( +{ %5 )X 4@ y| y| y| y| y@ F$ ji a[ .< .< .< .< .< .< .< .< .< .< .< .< .< .< @m j3 e3 y< :{ %} ~% 3^ X, Et 6B !X qW <- P-  ; #; ~; A- q= [* ~W #i ~X fS vu #O {X ]X ^X /X (X _X _y dN -e -e -e $M (y Rd AO :X <X [X }X |X 1X GN <G Kb UG VG ,a 4] 4^ 5^ ]( 2X 3X 3X 3X 3X 3X 3X 3X 3X 3X 3X 4X 5X RW RW RW RW RW RW RW SW eW eW eW 6X nV nV nV 7X .S .S .S .S WW 1# 1# 1# 1# 1# 1# 1# 1# 1# 1# 1# F[ 8X 9X $# $# $# $# $# $# $# $# ",
"P< P< P< P< P< P< P< <, 7T 7T 7T 7T 7T 7T 7T 7T 7T 7T 7T 7T 7T &r =W =W =W =W 0X h= aX We v5 bX bX bX bX cX ZT dX eX fX HS HS HS HS *< IR gX hX iX fT fT fT fT fT 1] s] t] )) 4] u] +~ v  x  y  A  D  c. h+ =+ M+ N+ ^# =@ 5@ /# /# P# _$ _$ _$ _$ _$ D$  % _% h% T& N% }& w& 0* X> R- /; ~; #; Z- jX w> |= sS %z cH L6 ad X< U} p2 M6 r! t( [6 :> ,/ .< .< .< .< .< @m 0; X^ Q{ Q{ Q{ (^ u( T1 $+ y| ,5 y| ^# 3, kX kX lX lX lX lX mX nX nX nX nX nX @X nX oX nX @X @X @X #X $X $X $X $X $X +X +X +X +X r} *X *X x< r} p( .< .< .< .< .< .< .< .< .< .< .< .< .< .< .< .< .< .< .< .< .< .< .< .< .< .< .< .< .< .< .< .< .< .< .< .< .< .< .< .< .< .< .< .< .< .< .< .< .< .< .< .< .< .< .< .< .< .< .< .< .< .< .< .< .< .< .< .< .< .< .< .< .< .< .< .< .< .< .< .< .< .< .< .< .< .< .< .< .< .< .< .< .< .< .< .< .< .< .< .< .< .< .< .< .< .< .< .< .< .< .< .< .< .< .< .< .< .< .< .< .< .< .< .< .< .< .< .< .< .< .< .< .< .< .< .< .< .< .< .< .< .< .< .< .< .< .< .< .< .< .< .< .< .< .< .< .< .< .< .< .< .< %T %T @m 0; M_ Q{ Q{ ![ t{ 17 w( ~9 17 17 17 17 17 z] z] z] z] %Q LS K' (( (~ (~ G~ G~ G~ G~ G~ G~ G~ f| G~ G~ G~ G~ S1 S1 f| Bx 5@ #+ y| y| y| y| y@ F$ ji a[ .< .< .< .< .< .< .< .< .< .< .< .< .< .< @m j3 e3 y< :{ %} ~% 3^ Sf Et hk |z qW <- P- ~; #; .; pX b- [* ~W #i oa -x Lw qX <f Iy yR ey 9y _y 0y PR -e -e -e Kb &S rX nI #i sX tX }V uX (O db Kb -e UG VG ,a 4] 4^ 5^ ]( 2X 3X 3X 3X 3X 3X 3X 3X 3X 3X 3X 3X 3X vX RW RW RW RW RW RW SW eW eW eW eW .W nV wX .S .S .S .S .S WW 1# 1# 1# 1# 1# 1# 1# 1# 1# 1# 1# xX 8X yX $# $# $# $# $# $# $# $# ",
"P< P< P< P< P< P< g# 7T 7T 7T 7T pj *W *W *W =W &r *W pj l| &r =W =W =W =W zX aX @/ AX bX bX bX bX bX bX BX ZT CX eX DX HS HS HS HS *< IR EX hX FX fT fT fT fT fT 1] s] t] )) 4] u] +~ v  x  y  A  D  c. h+ =+ M+ N+ ^# =@ 5@ /# /# P# _$ _$ _$ _$ _$ D$  % _% h% T& $& }& w& 0* [V i; /; .; n; PU (- GX HX !* %z cH L6 8m X< U} H3 M6 r! t( [6 :> ,/ .< .< .< %T ,/ X, M_ Q{ Q{ Q{ Q{ (^ u( U$ $+ y| y| IX 0] JX lX lX lX lX lX lX lX lX lX lX lX lX lX lX KX lX lX lX lX lX lX lX lX lX lX lX lX nX nX LX nX MX v# _$ 4| a[ .< .< .< .< .< .< .< .< .< .< .< .< .< .< .< .< .< .< .< .< .< .< .< .< .< .< .< .< .< .< .< .< .< .< .< .< .< .< .< .< .< .< .< .< .< .< .< .< .< .< .< .< .< .< .< .< .< .< .< .< .< .< .< .< .< .< .< .< .< .< .< .< .< .< .< .< .< .< .< .< .< .< .< .< .< .< .< .< .< .< .< .< .< .< .< .< .< .< .< .< .< .< .< .< .< .< .< .< .< .< .< .< .< .< .< .< .< .< .< .< .< .< .< .< .< .< .< .< .< .< .< .< .< .< .< .< .< .< .< .< .< .< .< .< .< .< .< .< .< .< .< .< .< .< .< .< .< .< .< .< .< %T j^ U, 0; M_ Q{ Q{ NX  { v# MX OX OX OX @3 PX PX PX PX PX 3, PX 3, PX QX QX QX QX QX QX QX QX QX QX PX QX JX JX JX JX RX SX TX UX q~ B  y| y| y| y@ F$ ji a[ .< .< .< .< .< .< .< .< .< .< .< .< .< .< @m j3 e3 y< :{ %} ~% 3^ wc Yt hk |z VX <- P- .; Q; !; y- b- }* ~W #i oa Kb LG WX XX _G YX 2F rP db jx Kb -e -e -e -e yR ix DN yR ZX vS cy eb UG Nb -e -e UG VG ,a 4] 4^ 5^ ]( 2X 3X 3X 3X 3X 3X 3X 3X 3X 3X 3X 3X 3X 3X `X RW RW RW RW RW SW eW eW eW eW  Y .W .Y .S .S .S .S .S WW 1# 1# 1# 1# 1# 1# 1# 1# 1# 1# 1# 8X Hl Yi $# $# $# $# $# $# $# $# ",
"P< P< P< P< P< P< 6T 7T 7T 7T &r =W =W =W =W =W =W =W =W =W =W =W =W =W =W aX aX bX bX bX bX bX bX bX bX +Y ZT @Y eX i[ HS HS HS HS #Y IR Ur hX $Y fT fT fT fT fT 1] s] t] )) 4] u] +~ v  x  y  A  D  c. h+ =+ M+ N+ ^# =@ 5@ /# /# P# _$ _$ _$ _$ _$ D$  % _% h% T& $& {& w& ;* =, i; V- R; n; `- &- GX }= bt %* cH L6 8m X< U} H3 M6 r! t( [6 (% ,/ .< .< .< .< @m 4Q X^ Q{ Q{ Q{ Q{ (^ u( T1 @+ y| IX %Y &Y *Y =Y =Y =Y =Y =Y =Y =Y =Y =Y =Y =Y =Y =Y =Y =Y =Y =Y =Y =Y =Y =Y =Y *Y *Y lX lX lX -Y oX ;Y >Y UX h+ v# 5] a[ .< .< .< .< .< .< .< .< .< .< .< .< .< .< .< .< .< .< .< .< .< .< .< .< .< .< .< .< .< .< .< .< .< .< .< .< .< .< .< .< .< .< .< .< .< .< .< .< .< .< .< .< .< .< .< .< .< .< .< .< .< .< .< .< .< .< .< .< .< .< .< .< .< .< .< .< .< .< .< .< .< .< .< .< .< .< .< .< .< .< .< .< .< .< .< .< .< .< .< .< .< .< .< .< .< .< .< .< .< .< .< .< .< .< .< .< .< .< .< .< .< .< .< .< .< .< .< .< .< .< .< .< .< .< .< .< .< .< .< .< .< .< .< .< .< .< .< .< .< .< .< .< .< .< .< .< .< .< .< .< .< %T j^ U, 0; M_ Q{ Q{ NX x@ IX ,Y &Y lX oX lX lX lX lX lX lX lX mX oX oX lX =Y =Y =Y =Y =Y =Y =Y =Y =Y =Y =Y *Y *Y *Y *Y *Y *Y &Y 'Y Q[ q~ B  y| y| y@ F$ ji a[ .< .< .< .< .< .< .< .< .< .< .< .< .< .< @m j3 e3 y< :{ %} ~% 3^ X, Yt hk |z /* )Y R- R; n; !; E- u= |* !Y #i oa Kb -x ;e NG @l NS RS Lw $M -e -e -e -e -e -e -e -e MG 6N XX #y %R Mb Lb -e -e -e UG VG ,a 4] 4^ 5^ ]( 2X 3X 3X 3X 3X 3X 3X 3X 3X 3X 3X 3X 3X 3X 3X ~Y RW RW RW RW SW eW eW eW eW eW eW gW .S .S .S .S .S tb 1# 1# 1# 1# 1# 1# 1# 1# 1# 1# 9X 8X 8& $# $# $# $# $# $# $# $# $# ",
"P< P< P< P< P< tq 7T 7T 7T *W =W =W =W =W =W =W =W =W =W =W =W =W =W =W =W aX aX bX bX bX bX bX bX bX bX bX {Y eX eX v+ HS HS HS HS HS IR hX hX $Y $U fT fT fT fT 1] s] t] )) 4] u] +~ v  x  y  A  D  c. h+ =+ M+ N+ ^# =@ 5@ /# /# P# _$ _$ _$ _$ _$ D$  % _% h% T& $& {& x& R, =, i; W- +; P; {; ]Y ^Y }= ~* %* 2p L6 8m X< U} H3 M6 r! t( .6 &% +{ .< .< .< .< @m /Y X^ Q{ Q{ Q{ Q{ (^ u( Y  E  (Y _Y :Y MX <Y <Y <Y <Y <Y <Y <Y <Y <Y <Y <Y <Y <Y <Y <Y <Y <Y <Y <Y <Y <Y <Y <Y <Y [Y *Y -Y -Y lX [Y }Y |Y y| y| n{ 5] a[ .< .< .< .< .< .< .< .< .< .< .< .< .< .< .< .< .< .< .< .< .< .< .< .< .< .< .< .< .< .< .< .< .< .< .< .< .< .< .< .< .< .< .< .< .< .< .< .< .< .< .< .< .< .< .< .< .< .< .< .< .< .< .< .< .< .< .< .< .< .< .< .< .< .< .< .< .< .< .< .< .< .< .< .< .< .< .< .< .< .< .< .< .< .< .< .< .< .< .< .< .< .< .< .< .< .< .< .< .< .< .< .< .< .< .< .< .< .< .< .< .< .< .< .< .< .< .< .< .< .< .< .< .< .< .< .< .< .< .< .< .< .< .< .< .< .< .< .< .< .< .< .< .< .< .< .< .< .< .< .< .< %T j^ U, 0; M_ Q{ Q{ NX }2 y| j4 1Y 2Y *Y 3Y 3Y oX nX nX nX nX nX nX nX nX nX nX nX nX nX nX nX nX nX nX nX nX nX nX nX nX nX nX lX <Y 4Y i+ y| y| M+ F$ ji a[ .< .< .< .< .< .< .< .< .< .< .< .< .< .< @m j3 e3 y< :{ %} ~% 3^ X, Yt 5Y |z 6Y )Y R- !; %; +; 7Y v= 5= !Y Hy 8Y Kb -x Rd 6N Rd OR BR Gy <G UG Lb -e -e -e -e -e /G /G 5N Gy aw 9Y :G Lb -e -e -e UG VG ,a 4] 4^ 5^ ]( 2X 3X 3X 3X 3X 3X 3X 3X 3X 3X 3X 3X 3X 3X 3X 3X d' RW RW RW 0Y eW eW eW eW eW aY .S .S .S .S .S .S 1# 1# 1# 1# 1# 1# 1# 1# 1# N5 $0 Sb 8X bY $# $# $# $# $# $# $# $# $# ",
"P< P< G[ g# g# 7T 7T 7T UT =W =W =W =W =W =W =W =W =W =W =W =W =W =W =W =W aX aX We bX v5 v5 v5 bX bX bX bX cY dY eY fY HS HS HS HS HS gY hX hX hY %U fT fT fT fT 1] s] t] )) 4] u] +~ v  x  y  A  D  c. h+ =+ M+ N+ ^# =@ 5@ /# /# P# _$ _$ _$ _$ _$ D$ @% _% h% T& O% ]& x& w, =, S- W- @; o; !W iY jY kY z* |z 2p #w 8m X< U} H3 M6 r! t( D< R' +{ .< .< .< .< @m 4Q X^ Q{ Q{ Q{ Q{ (^ s{ I$ lY mY nY oY pY pY pY pY pY pY pY pY pY pY pY pY qY rY rY rY rY rY rY rY rY rY rY sY sY tY uY nX =Y 2Y vY i+ y| ,5 c. /# 5] a[ .< .< .< .< .< .< .< .< .< .< .< .< .< .< .< .< .< .< .< .< .< .< .< .< .< .< .< .< .< .< .< .< .< .< .< .< .< .< .< .< .< .< .< .< .< .< .< .< .< .< .< .< .< .< .< .< .< .< .< .< .< .< .< .< .< .< .< .< .< .< .< .< .< .< .< .< .< .< .< .< .< .< .< .< .< .< .< .< .< .< .< .< .< .< .< .< .< .< .< .< .< .< .< .< .< .< .< .< .< .< .< .< .< .< .< .< .< .< .< .< .< .< .< .< .< .< .< .< .< .< .< .< .< .< .< .< .< .< .< .< .< .< .< .< .< .< .< .< .< .< .< .< .< .< .< .< .< .< .< .< .< %T j^ U, 0; M_ Q{ Q{ NX }2 c. ,5 Nu IX wY RX xY *Y [Y <Y MX MX MX MX MX MX MX MX <Y <Y <Y <Y <Y <Y <Y <Y <Y <Y <Y <Y <Y yY yY yY [Y <Y TX 1Y (Y <! =+ I| ji a[ .< .< .< .< .< .< .< .< .< .< .< .< .< .< @m j3 e3 y< :{ %} ~% 3^ X, Yt iF Az zY )Y R- rW P; #; 7Y p= AY !Y Hy 8Y BY ix CN Lw /G CY DY EY 9F 0y qy Kb -e -e Kb 6x =T ZQ yR FY eb GY 5F UG -e -e -e UG VG ,a 4] 4^ 5^ ]( 2X 3X 3X 3X 3X 3X 3X 3X 3X 3X 3X 3X 3X 3X 3X 3X p_ RW RW RW HY eW eW eW eW eW IY .S .S .S .S .S .S 1# 1# 1# 1# 1# 1# 1# 1# 1# }g Sb JY )h [9 $# $# $# $# $# $# $# $# $# ",
"7T 7T 7T 7T 7T 7T 7T 7T *W =W =W =W =W =W =W =W =W =W =W =W =W =W =W =W =W aX aX aX aX aX aX aX aX KY bX bX bX LY MY NY fX HS HS HS HS OY hX hX PY PY QY fT fT fT 1] s] t] )) 4] u] +~ v  x  y  A  D  c. h+ =+ M+ N+ ^# =@ 5@ /# /# P# _$ _$ _$ _$ _$ D$ @% _% i% G% O% ]& x& w, q= S- X- #; *; .; /- 1z Q* 7= |z RY SY 8m X< U} H3 M6 r! t( _4 R' +{ .< .< .< %T !j LR X^ Q{ Q{ Q{ Q{ (^ [( U( TY UY VY WY WY WY WY WY WY WY WY WY WY WY WY WY WY XY YY ZY ZY ZY ZY ZY ZY ZY YY `Y VY  Z .Z +Z wY |Y y| ,5 C  B  q~ /# 5] a[ .< .< .< .< .< .< .< .< .< .< .< .< .< .< .< .< .< .< .< .< .< .< .< .< .< .< .< .< .< .< .< .< .< .< .< .< .< .< .< .< .< .< .< .< .< .< .< .< .< .< .< .< .< .< .< .< .< .< .< .< .< .< .< .< .< .< .< .< .< .< .< .< .< .< .< .< .< .< .< .< .< .< .< .< .< .< .< .< .< .< .< .< .< .< .< .< .< .< .< .< .< .< .< .< .< .< .< .< .< .< .< .< .< .< .< .< .< .< .< .< .< .< .< .< .< .< .< .< .< .< .< .< .< .< .< .< .< .< .< .< .< .< .< .< .< .< .< .< .< .< .< .< .< .< .< .< .< .< .< .< .< %T j^ U, 0; M_ Q{ Q{ NX }2 c. Nu ,5 C  K  v{ :Y RX [Y RX RX RX RX RX RX RX RX SX MX <Y <Y <Y <Y <Y <Y @Z #Z 2Y 2Y 2Y 2Y 2Y 2Y $Z 2Y :Y #Z 0] ^# $+ y@ _~ `! a[ %T .< .< .< .< .< .< .< .< .< .< .< .< .< @m j3 e3 y< :{ %} ~% 3^ X, M2 Sn II jN )Y i; -> o; #; 2; p= 2* %Z !c 8Y &Z *y we *Z =Z 'T -Z ;Z >Z <L >O wS -e Kb DN ,Z &S OR 'Z )Z )Z !Z ~Z GN db Kb -e UG VG ,a 4] 4^ 5^ ]( 2X 3X 3X 3X 3X 3X 3X 3X 3X 3X 3X 3X 3X 3X 3X 3X 5X RW RW RW {Z ]Z eW eW eW eW ^Z .S .S .S .S .S 'S 1# 1# 1# 1# 1# 1# 1# 1# /Z Sb Sb |g <} [9 t0 $# $# $# $# $# $# $# $# ",
"7T 7T 7T 7T 7T 7T 7T l| =W =W =W =W =W =W =W =W =W =W =W =W =W =W =W =W =W aX aX aX aX aX aX aX aX aX (Z bX bX _Z MY MY :Z HS HS HS HS OY hX hX PY PY $U fT fT fT 1] s] t] )) 4] u] +~ v  x  y  A  D  c. h+ =+ M+ N+ ^# =@ 5@ /# /# P# _$ _$ _$ _$ _$ D$ @% _% i% G% O% ]& x& ,* r= S- X- #; =; .; <Z 1z Q* {* |z RY SY 8m X< U} H3 o4 r! t( _4  ) +{ .< .< .< %T +{ S' *^ X^ Q{ Q{ Q{ Q{ f[ [Z }Z |Z 1Z 2Z 3Z 3Z 3Z 3Z 3Z 3Z 3Z 3Z 3Z 3Z 4Z 4Z 4Z 5Z 6Z |Z 7Z 7Z 7Z 7Z 7Z 7Z 6Z 8Z 8Z 9Z 0Z x< v] aZ B  B  y| <! q~ /# 5] a[ .< .< .< .< .< .< .< .< .< .< .< .< .< .< .< .< .< .< .< .< .< .< .< .< .< .< .< .< .< .< .< .< .< .< .< .< .< .< .< .< .< .< .< .< .< .< .< .< .< .< .< .< .< .< .< .< .< .< .< .< .< .< .< .< .< .< .< .< .< .< .< .< .< .< .< .< .< .< .< .< .< .< .< .< .< .< .< .< .< .< .< .< .< .< .< .< .< .< .< .< .< .< .< .< .< .< .< .< .< .< .< .< .< .< .< .< .< .< .< .< .< .< .< .< .< .< .< .< .< .< .< .< .< .< .< .< .< .< .< .< .< .< .< .< .< .< .< .< .< .< .< .< .< .< .< .< .< .< .< .< .< %T .< @m G} M_ Q{ Q{ NX }2 c. y| y| y| B  y| p' bZ cZ dZ eZ fZ gZ gZ gZ gZ gZ gZ hZ hZ hZ hZ iZ iZ iZ iZ jZ kZ kZ kZ lZ lZ mZ mZ mZ lZ nZ S< *X 3, G~ 4| a[ Z! a[ .< .< .< .< .< .< .< .< .< .< .< .< .< @m j3 e3 y< :{ %} ~% 3^ X, M2 Sn cA oZ _- i; -> O; pZ 2; p= 2* qZ !c rZ &S CN sZ tZ uZ vZ wZ yT xZ yZ db :T -e <f zZ 6N AZ BZ CZ DZ EZ FZ GZ HZ qa UG -e UG VG ,a 4] 4^ 5^ ]( 2X 3X 3X 3X 3X 3X 3X 3X 3X 3X 3X 3X 3X 3X 3X 3X RW RW RW RW {Z IZ eW eW eW eW JZ .S .S .S .S .S @8 1# 1# 1# 1# 1# 1# 1# N5 *d Sb Sb KZ o/ [9 p. $# $# $# $# $# $# $# $# ",
"7T 7T 7T 7T 7T 7T 7T =W =W =W =W =W =W =W =W =W =W =W =W =W =W =W =W =W =W LZ aX aX aX aX aX aX aX aX MZ bX bX <b LY MY HS HS HS HS HS OY hX hX NZ PY PY fT fT fT 1] s] t] )) 4] u] +~ v  x  y  A  D  c. h+ =+ M+ N+ ^# =@ 5@ /# /# P# _$ _$ _$ _$ _$ D$ @% _% i% G% O% ]& x& ,* r= S- S; $; =; !; >- {, wJ {* |z 2p #w 8m X< U} H3 o4 r! t( MS  ) bk G4 G4 G4 G4 bk :% ,6 X^ Q{ Q{ Q{ W( O{ {4 OZ PZ QZ RZ RZ RZ RZ RZ RZ RZ SZ SZ RZ RZ TZ UZ RZ VZ WZ XZ WZ WZ WZ WZ WZ WZ WZ YZ YZ ZZ `Z x< i+ ,5 C  y| y| <! Dx /# 5] a[ e_ .< .< .< .< .< .< .< .< .< .< .< .< .< .< .< .< .< .< .< .< .< .< .< .< .< .< .< .< .< .< .< .< .< .< .< .< .< .< .< .< .< .< .< .< .< .< .< .< .< .< .< .< .< .< .< .< .< .< .< .< .< .< .< .< .< .< .< .< .< .< .< .< .< .< .< .< .< .< .< .< .< .< .< .< .< .< .< .< .< .< .< .< .< .< .< .< .< .< .< .< .< .< .< .< .< .< .< .< .< .< .< .< .< .< .< .< .< .< .< .< .< .< .< .< .< .< .< .< .< .< .< .< .< .< .< .< .< .< .< .< .< .< .< .< .< .< .< .< .< .< .< .< .< .< .< .< .< .< .< .< %T j^ @m G} M_ Q{ Q{ NX }2 c. y| y| h+ b. [B  ` .` +` @` #` $` $` $` $` $` $` $` %` %` %` &` &` &` &` &` &` &` &` &` &` &` &` &` *` *` =` -` ;` .< y/ 0/ 0/ ^^ a[ .< .< .< .< .< .< .< .< .< .< .< .< .< cl wc e3 y< :{ %} ~% 9m X, M2 Sn cA oZ _- i; #; =; n; >` `> 2* qZ !c LH ,` SS 3! '` )` !` {P ~` {` ]` ^` *E Fx /G Cw }V /` (` _` :` <` [` @P }` !E GN Kb UG VG ,a 4] 4^ 5^ ]( 2X 3X 3X 3X 3X 3X 3X 3X 3X 3X 3X 3X 3X 3X 3X ~Y RW RW RW |` {Z 1` eW eW eW eW JZ .S .S .S .S .S to 1# 1# 1# 1# 1# 1# 1# XS Sb Sb 2` 2g [9 [9 [9 )| $# $# $# $# $# $# $# ",
"7T 7T 7T 7T 7T 7T *W =W =W =W =W =W =W =W =W =W =W =W =W =W =W =W =W =W =W LZ aX aX aX aX aX aX aX aX We bX bX bX bX 3` HS HS HS HS HS OY hX hX $Y PY PY $U fT fT 1] s] t] )) 4] u] +~ v  x  y  A  D  c. h+ =+ M+ N+ ^# =@ 5@ /# /# P# _$ _$ _$ _$ _$ D$ @% _% i% G% O% ]& M& v, r= S- S; n; ;; @; >- ~, R* {* II +J #w 8m _1 ti H3 /| r! t( MS  ) bk G4 G4 G4 G4 a[ C, wc X^ Q{ Q{ Q{ Q{ Q{ 4` 5` 6` kf 6` 6` kf 6` 6` 7` 7` `d `d oC 8` 9` v% b4 0` a` b` b` %: %: %: %: %: !_ V] c` d` ,[ f| M+ y| y| y| y| B  y| /# 5] ha G4 G4 G4 G4 G4 G4 G4 G4 G4 G4 G4 G4 G4 G4 G4 G4 G4 G4 G4 G4 G4 G4 G4 G4 G4 G4 G4 G4 G4 G4 G4 G4 G4 G4 G4 G4 G4 G4 G4 G4 G4 G4 G4 G4 G4 G4 G4 G4 G4 G4 G4 G4 G4 G4 G4 G4 G4 G4 G4 G4 G4 G4 G4 G4 G4 G4 G4 G4 G4 G4 G4 G4 G4 G4 G4 G4 G4 G4 G4 G4 G4 G4 G4 G4 G4 G4 G4 G4 G4 G4 G4 G4 G4 G4 G4 G4 G4 G4 G4 G4 G4 G4 G4 G4 G4 G4 G4 G4 G4 G4 G4 G4 G4 G4 G4 G4 G4 G4 G4 G4 G4 G4 G4 G4 G4 G4 G4 G4 G4 G4 G4 G4 G4 G4 G4 G4 G4 G4 G4 G4 G4 G4 G4 G4 G4 G4 G4 G4 G4 G4 G4 G4 G4 G4 G4 G4 G4 G4 G4 G4 G4 a[ G4 e% rR B< Q{ Q{ NX }2 c. y| y| h+ b. [B e` f` g` h` 5Z i` i` i` i` i` i` i` i` i` i` i` i` i` i` i` i` i` i` i` i` i` i` i` j` 5Z k` l` u6 %| N{ N{ +j m` &e G4 G4 G4 G4 G4 G4 G4 G4 G4 G4 G4 G4 G4 [% wc x( y< :{ %} ~% 3^ X, M2 Sn cA oZ _- _; n` ); %; >` y= D* o` !c 2R p` q` r` s` t` u` v` w` x` y` z` yO ay ix @l A` B` C` D` E` F` G` 9Q H` Pe xR Lb UG VG ,a 4] 4^ 5^ ]( 2X 3X 3X 3X 3X 3X 3X 3X 3X 3X 3X 3X 3X 3X 3X vX RW RW RW |` {Z {Z eW eW eW eW I` .S .S .S .S .S J` 1# 1# 1# 1# 1# 1# 1# K` Sb Sb Hl 'h [9 [9 [9 [9 }/ q. N5 N5 N5 #/ }/ ",
"=W &r pj UT &W &r =W =W =W =W =W =W =W =W =W =W =W =W =W =W =W =W =W =W =W L` aX aX aX aX aX aX aX aX DU bX bX bX zX HS HS HS HS HS HS gX hX hX $Y PY PY PY QY fT 1] s] t] )) 4] u] +~ v  x  y  A  D  c. h+ =+ M+ N+ ^# =@ 5@ /# /# P# _$ _$ _$ _$ _$ D$ @% _% i% G% O% ]& y& v, t= (; S; %; ;; @; h0 C> R* M` II +J #w 8m _1 ti H3 /| r! t( MS j3 bk G4 G4 G4 G4 m~ /p 1{ !x X^ Q{ Q{ Q{ Q{ 1^ _^ N` O` O` N` ~_ N` P` L, O` ~_ Z( M_ fx X, _% Q` ha %| %| %| %| %| %| %| %| %| %| R` /( .< ei 4@ y| y| y| y| B  y| e# S` &e G4 G4 G4 G4 G4 G4 G4 G4 G4 G4 G4 G4 G4 G4 G4 G4 G4 G4 G4 G4 G4 G4 G4 G4 G4 G4 G4 G4 G4 G4 G4 G4 G4 G4 G4 G4 G4 G4 G4 G4 G4 G4 G4 G4 G4 G4 G4 G4 G4 G4 G4 G4 G4 G4 G4 G4 G4 G4 G4 G4 G4 G4 G4 G4 G4 G4 G4 G4 G4 G4 G4 G4 G4 G4 G4 G4 G4 G4 G4 G4 G4 G4 G4 G4 G4 G4 G4 G4 G4 G4 G4 G4 G4 G4 G4 G4 G4 G4 G4 G4 G4 G4 G4 G4 G4 G4 G4 G4 G4 G4 G4 G4 G4 G4 G4 G4 G4 G4 G4 G4 G4 G4 G4 G4 G4 G4 G4 G4 G4 G4 G4 G4 G4 G4 G4 G4 G4 G4 G4 G4 G4 G4 G4 G4 G4 G4 G4 G4 G4 G4 G4 G4 G4 G4 G4 G4 G4 G4 G4 G4 G4 m~ G4 e% rR B< Q{ Q{ NX }2 c. y| y| y| b. T` QX %: OZ U` V` W` W` W` W` W` W` W` W` W` W` W` W` W` W` W` W` W` W` W` W` W` W` W` X` V` Y` 6] /^ &e 0/ 0/ 0/ m` &e G4 G4 G4 G4 G4 G4 G4 G4 G4 G4 G4 G4 G4 [% wc x( y< :{ %} ~% 3^ X, [3 Sn cA oZ _- )7 n; ;; &; >` y= D* o` Hy &Z tx Z` ``   .. .+ .0P @ .# .$ .% .& .* ./g NG = .- .; .> .JP , .E` ' .) ..V 4y jx UG VG ,a 4] 4^ 5^ ]( 2X 3X 3X 3X 3X 3X 3X 3X 3X 3X 3X 3X 3X 3X 3X 5X RW RW RW |` {Z {Z y_ eW eW eW I` .S .S .S .S .S wn 1# 1# 1# 1# 1# 1# |6 Sb Sb 2` Hl [9 [9 [9 [9 [9 [9 [9 [9 [9 [9 [9 [9 ",
"=W =W =W =W =W =W =W =W =W =W =W =W =W =W =W =W =W =W =W =W =W =W =W =W =W L` aX aX aX aX aX aX aX aX DU bX bX bX i[ HS HS HS HS HS HS ! .hX hX ~ .PY PY PY PY fT 1] s] t] )) 4] u] +~ v  x  y  A  D  c. h+ =+ M+ N+ ^# =@ 5@ /# /# P# _$ _$ _$ _$ _$ D$ @% _% j% G% O% ^& z& y* t= (; ]; &; >; Q; ;c { .`J M` II }r #w $n V< k{ H3 /| r! t( MS j3 C, G4 G4 G4 G4 a[ e_ 6; fx X^ Q{ Q{ Q{ Q{ Q{ o^ W( W( W( W( ]z ]z Wx Y] qR ^z e% SO &e >[ y/ k^ k^ 0/ /( /( /( /( /( /( /( /( /( ] .,[ a[ ei 4@ y| y| y| y| B  y| e# S` d1 G4 G4 G4 G4 G4 G4 G4 G4 G4 G4 G4 G4 G4 G4 G4 G4 G4 G4 G4 G4 G4 G4 G4 G4 G4 G4 G4 G4 G4 G4 G4 G4 G4 G4 G4 G4 G4 G4 G4 G4 G4 G4 G4 G4 G4 G4 G4 G4 G4 G4 G4 G4 G4 G4 G4 G4 G4 G4 G4 G4 G4 G4 G4 G4 G4 G4 G4 G4 G4 G4 G4 G4 G4 G4 G4 G4 G4 G4 G4 G4 G4 G4 G4 G4 G4 G4 G4 G4 G4 G4 G4 G4 G4 G4 G4 G4 G4 G4 G4 G4 G4 G4 G4 G4 G4 G4 G4 G4 G4 G4 G4 G4 G4 G4 G4 G4 G4 G4 G4 G4 G4 G4 G4 G4 G4 G4 G4 G4 G4 G4 G4 G4 G4 G4 G4 G4 G4 G4 G4 G4 G4 G4 G4 G4 G4 G4 G4 G4 G4 G4 G4 G4 G4 G4 G4 G4 G4 G4 G4 G4 G4 m~ G4 e% rR q} Q{ Q{ NX }2 c. y| y| y| ,5 ,5 :B `! ^ ./ .;` ;` ;` ;` ;` ;` ;` ;` ;` ;` ;` ;` ;` ;` ;` ;` ;` ;` ;` ;` ;` ;` ;` ;` ;` ;` &: ( .0/ 0/ 0/ 0/ 0/ m` &e G4 G4 G4 G4 G4 G4 G4 G4 G4 G4 G4 G4 G4 [% wc x( y< :{ %} ~% 3^ X, [3 Sn 9C :* jX T- %; >; P; _ .y= D* o` Hy &Z tx AW : .< .YP )Q [ .} .| .1 .2 .bb 3 .=T /g 4 .5 .6 .7 .[ .8 .9 .0 .a .b .c .sP UG VG ,a 4] 4^ 5^ ]( 2X 3X 3X 3X 3X 3X 3X 3X 3X 3X 3X 3X 3X 3X d .RW RW RW RW Y{ {Z {Z e .eW eW eW I` .S .S .S .S .S Z, 1# 1# 1# 1# 1# 1# m6 Sb Sb f .[} [9 [9 [9 [9 [9 [9 [9 [9 [9 [9 [9 [9 ",
"=W =W =W =W =W =W =W =W =W =W =W =W =W =W =W =W =W =W =W =W =W =W =W =W =W {k aX aX aX aX aX aX aX aX DU bX bX bX ~R HS HS HS HS HS HS g .hX hX h .PY PY PY PY PY 1] s] t] )) 4] u] +~ v  x  y  A  D  c. h+ =+ M+ N+ ^# =@ 5@ /# /# P# _$ _$ _$ _$ _$ E$ @% _% j% G% O% ^& z& y* u= T- ]; o; q; Q; i .j .S* ]* II }r Nw $n V< k{ H3 /| r! t( k .K6 C, G4 G4 G4 G4 a[ G4 c% @^ X^ Q{ Q{ Q{ Q{ Q{ Q{ o^ o^ W( i_ Q{ __ l .m .B, m` 0/ k^ C: C: k^ 0/ 0/ 0/ 0/ 0/ 0/ 0/ 0/ 0/ 0/ 0/ 0/ ,[ ,[ a[ ei 4@ y| y| y| y| B  y| e# S` &e G4 G4 G4 G4 G4 G4 G4 G4 G4 G4 G4 G4 G4 G4 G4 G4 G4 G4 G4 G4 G4 G4 G4 G4 G4 G4 G4 G4 G4 G4 G4 G4 G4 G4 G4 G4 G4 G4 G4 G4 G4 G4 G4 G4 G4 G4 G4 G4 G4 G4 G4 G4 G4 G4 G4 G4 G4 G4 G4 G4 G4 G4 G4 G4 G4 G4 G4 G4 G4 G4 G4 G4 G4 G4 G4 G4 G4 G4 G4 G4 G4 G4 G4 G4 G4 G4 G4 G4 G4 G4 G4 G4 G4 G4 G4 G4 G4 G4 G4 G4 G4 G4 G4 G4 G4 G4 G4 G4 G4 G4 G4 G4 G4 G4 G4 G4 G4 G4 G4 G4 G4 G4 G4 G4 G4 G4 G4 G4 G4 G4 G4 G4 G4 G4 G4 G4 G4 G4 G4 G4 G4 G4 G4 G4 G4 G4 G4 G4 G4 G4 G4 G4 G4 G4 G4 G4 G4 G4 G4 G4 G4 m~ a[ n .LR X^ Q{ Q{ NX }2 c. y| y| y| ,5 ,5 {# G~ .< Z! a[ a[ a[ a[ a[ a[ a[ a[ a[ a[ a[ a[ a[ a[ a[ a[ a[ a[ a[ a[ a[ a[ a[ a[ a[ a[ a[ %| w[ k^ 0/ 0/ 0/ m` &e G4 G4 G4 G4 G4 G4 G4 G4 G4 G4 G4 G4 G4 [% wc x( y< :{ %} [2 9m X, uu Ho <F 9x &- T- o; >; o; 6G z= E* o .)c 2R ^x {T p .q .r .s .EV t .u .v .w .'c fR #O %h x .y .z .A ._Q B .UP C .D .hQ 4y jx UG VG ,a 4] 4^ 5^ ]( 2X 3X 3X 3X 3X 3X 3X 3X 3X 3X 3X 3X 3X 3X d' RW RW RW RW Y{ {Z {Z E .eW eW F .I` G ..S .S .S .S 1# 1# 1# 1# 1# 1# 1# y9 Sb H .8X bY [9 [9 [9 [9 [9 [9 [9 [9 [9 [9 [9 [9 ",
"=W =W =W =W =W =W =W =W =W =W =W =W =W =W =W =W =W =W =W =W =W =W =W =W =W YW aX aX aX aX aX aX aX aX I .bX bX bX :1 HS HS HS HS HS HS g .hX hX Ur PY PY PY PY PY 1] s] t] )) 4] u] +~ v  x  y  A  D  c. h+ =+ M+ N+ ^# =@ 5@ /# /# P# _$ _$ _$ _$ _$ E$ @% _% j% G% O% l& z& y* u= => Z- O; N; J .!- K .S* ]* cA }r Nw $n V< k{ H3 /| r! t( x( ,6 C, G4 G4 G4 G4 G4 C, X, B< Q{ Q{ Q{ Q{ Q{ Q{ Q{ Q{ Q{ M_ fx L .}% Nn 0/ k^ C: 0/ 0/ 0/ 0/ 0/ 0/ 0/ 0/ 0/ 0/ 0/ 0/ 0/ 0/ 0/ 0/ 0/ ,[ ,[ a[ ei 4@ y| y| y| y| B  y| e# S` &e G4 G4 G4 G4 G4 G4 G4 G4 G4 G4 G4 G4 G4 G4 G4 G4 G4 G4 G4 G4 G4 G4 G4 G4 G4 G4 G4 G4 G4 G4 G4 G4 G4 G4 G4 G4 G4 G4 G4 G4 G4 G4 G4 G4 G4 G4 G4 G4 G4 G4 G4 G4 G4 G4 G4 G4 G4 G4 G4 G4 G4 G4 G4 G4 G4 G4 G4 G4 G4 G4 G4 G4 G4 G4 G4 G4 G4 G4 G4 G4 G4 G4 G4 G4 G4 G4 G4 G4 G4 G4 G4 G4 G4 G4 G4 G4 G4 G4 G4 G4 G4 G4 G4 G4 G4 G4 G4 G4 G4 G4 G4 G4 G4 G4 G4 G4 G4 G4 G4 G4 G4 G4 G4 G4 G4 G4 G4 G4 G4 G4 G4 G4 G4 G4 G4 G4 G4 G4 G4 G4 G4 G4 G4 G4 G4 G4 G4 G4 G4 G4 G4 G4 G4 G4 G4 G4 G4 G4 G4 G4 G4 M .m~ N . e X^ Q{ Q{ NX }2 c. y| y| y| ,5 ;[ O .U] ^^ 0/ >[ >[ >[ >[ >[ >[ >[ >[ >[ >[ >[ >[ >[ >[ >[ >[ >[ >[ >[ >[ >[ >[ >[ >[ >[ >[ >[ /( 0/ 0/ 0/ 0/ 0/ m` &e G4 G4 G4 G4 G4 G4 G4 G4 G4 G4 G4 G4 G4 [% wc x( y< :{ %} [2 9m Ze oC Ho <F P .&- T- *; N; =; H- A= F* o .eN -e AR QR Q .R .S .GV T .U .jU V .W .zO jx 0w CN RP X .iP oU Y .#V Z .` . ..cN xR Kb UG VG ,a 4] 4^ 5^ ]( 2X 3X 3X 3X 3X 3X 3X 3X 3X 3X 3X 3X 3X 3X 5X RW RW RW RW ...{Z {Z {Z aY eW +..I` @...S .S .S @8 1# 1# 1# 1# 1# 1# m* Sb Sb 2g 2g [9 [9 [9 [9 [9 [9 [9 [9 [9 [9 [9 [9 [9 ",
"=W =W =W =W =W =W =W =W =W =W =W =W =W =W =W =W =W =W =W =W =W =W =W =W =W YW aX aX aX aX aX aX aX aX v5 bX bX bX ZW HS HS HS HS HS HS g .iX hX iX PY PY PY PY PY 1] s] t] )) 4] u] +~ v  x  y  A  D  c. h+ =+ M+ N+ ^# =@ 5@ /# /# P# _$ _$ _$ _$ _$ E$ @% _% j% G% 7' ^& z& '* u= T- Z- O; /> &; ~- #..[= qW cA }r Nw $n V< k{ H3 /| r! t( x( ,6 $..G4 G4 G4 G4 e_ d% fx X^ Q{ Q{ Q{ Q{ Q{ W( Q{ H: %..d% SO m` k^ C: C: k^ 0/ 0/ 0/ 0/ 0/ 0/ 0/ 0/ 0/ 0/ 0/ 0/ 0/ 0/ 0/ 0/ 0/ 0/ ,[ ,[ a[ ei 4@ y| y| y| y| B  y| e# S` &e G4 G4 G4 G4 G4 G4 G4 G4 G4 G4 G4 G4 G4 G4 G4 G4 G4 G4 G4 G4 G4 G4 G4 G4 G4 G4 G4 G4 G4 G4 G4 G4 G4 G4 G4 G4 G4 G4 G4 G4 G4 G4 G4 G4 G4 G4 G4 G4 G4 G4 G4 G4 G4 G4 G4 G4 G4 G4 G4 G4 G4 G4 G4 G4 G4 G4 G4 G4 G4 G4 G4 G4 G4 G4 G4 G4 G4 G4 G4 G4 G4 G4 G4 G4 G4 G4 G4 G4 G4 G4 G4 G4 G4 G4 G4 G4 G4 G4 G4 G4 G4 G4 G4 G4 G4 G4 G4 G4 G4 G4 G4 G4 G4 G4 G4 G4 G4 G4 G4 G4 G4 G4 G4 G4 G4 G4 G4 G4 G4 G4 G4 G4 G4 G4 G4 G4 G4 G4 G4 G4 G4 G4 G4 G4 G4 G4 G4 G4 G4 G4 G4 G4 G4 G4 G4 G4 G4 G4 G4 G4 G4 G4 m~ bk S' M_ Q{ Q{ NX }2 c. y| y| y| ,5 ;[ O .U< 0/ ,[ 0/ 0/ 0/ 0/ 0/ 0/ 0/ 0/ 0/ 0/ 0/ 0/ 0/ 0/ 0/ 0/ 0/ 0/ 0/ 0/ 0/ 0/ 0/ 0/ 0/ 0/ 0/ 0/ 0/ 0/ 0/ 0/ 0/ m` &e G4 G4 G4 G4 G4 G4 G4 G4 G4 G4 G4 G4 G4 [% wc x( y< :{ %} [2 9m Ze oC Ho <F P .&- _> O; &..-; 3; 22 p, *..eN rZ Rx vu =..-..;..>..,..'..)..!..9Y 6y Kb Lc [W /G ~..{..DQ ]..~Q ^../..(..~E 3y Kb UG VG ,a 4] 4^ 5^ ]( 2X 3X 3X 3X 3X 3X 3X 3X 3X 3X 3X 3X 3X ~Y RW RW RW RW RW _..{Z {Z {Z E .:..+..I` @...S .S .S >d 1# 1# 1# 1# 1# 1# /Z Sb Sb <..[..[9 [9 [9 [9 [9 [9 [9 [9 [9 [9 [9 [9 [9 ",
"zX aX aX aX LZ L` 0X =W =W =W =W =W =W =W =W =W =W =W =W =W =W =W =W =W =W }..aX aX aX aX aX aX aX |..bX bX bX bX 1..HS HS HS HS HS HS g .Ur hX hX PY PY PY PY PY 1] s] t] )) 4] u] +~ v  x  y  A  D  c. h+ =+ M+ N+ ^# =@ 5@ /# /# P# _$ _$ _$ _$ _$ E$ @% _% j% G% 3& ^& z& u, 2..=> `- =; /> o; ~- I> T* VX 9C }r Nw $n V< k{ 2) /| r! t( x( G} $..G4 G4 G4 a[ e_ 46 .^ X^ Q{ Q{ Q{ Q{ Q{ W( M_ L ..e w[ k^ C: k^ k^ 0/ 0/ 0/ 0/ 0/ 0/ 0/ 0/ 0/ 0/ 0/ 0/ 0/ 0/ 0/ 0/ 0/ 0/ 0/ 0/ ,[ ,[ a[ ei 4@ y| y| y| y| B  y| e# S` &e G4 G4 G4 G4 G4 G4 G4 G4 G4 G4 G4 G4 G4 G4 G4 G4 G4 G4 G4 G4 G4 G4 G4 G4 G4 G4 G4 G4 G4 G4 G4 G4 G4 G4 G4 G4 G4 G4 G4 G4 G4 G4 G4 G4 G4 G4 G4 G4 G4 G4 G4 G4 G4 G4 G4 G4 G4 G4 G4 G4 G4 G4 G4 G4 G4 G4 G4 G4 G4 G4 G4 G4 G4 G4 G4 G4 G4 G4 G4 G4 G4 G4 G4 G4 G4 G4 G4 G4 G4 G4 G4 G4 G4 G4 G4 G4 G4 G4 G4 G4 G4 G4 G4 G4 G4 G4 G4 G4 G4 G4 G4 G4 G4 G4 G4 G4 G4 G4 G4 G4 G4 G4 G4 G4 G4 G4 G4 G4 G4 G4 G4 G4 G4 G4 G4 G4 G4 G4 G4 G4 G4 G4 G4 G4 G4 G4 G4 G4 G4 G4 G4 G4 G4 G4 G4 G4 G4 G4 G4 G4 G4 G4 M ./p |2 B< Q{ Q{ NX }2 c. y| y| y| ,5 ,5 y@ +% m` N{ 3..C: 0/ 0/ 0/ 0/ 0/ 0/ 0/ 0/ 0/ 0/ 0/ 0/ 0/ 0/ 0/ 0/ 0/ 0/ 0/ 0/ 0/ 0/ 0/ 0/ 0/ 0/ 0/ 0/ 0/ 0/ 0/ m` &e G4 G4 G4 G4 G4 G4 G4 G4 G4 G4 G4 G4 G4 [% wc x( y< :{ %} [2 H/ Ze oC Ho <F P .&- _> =; /> -; 3; 22 p, 4..)c 5..-x *y yy 6..7..8..9..0..(..1F 7y vy -e Cd Lw @l ix T0 a..b..c..d..e..8y ta UG -e UG VG ,a 4] 4^ 5^ ]( 2X 3X 3X 3X 3X 3X 3X 3X 3X 3X 3X 3X 4X 5X RW RW RW RW RW @_ {Z {Z {Z {Z f..g..I` @...S .S .S wn 1# 1# 1# 1# 1# 1# >| Sb Sb h..[9 [9 [9 [9 [9 [9 [9 [9 [9 [9 [9 [9 [9 [9 ",
"aX aX aX aX aX aX aX aX i..{k ZW =W =W =W =W =W =W =W =W =W =W =W =W =W =W =W aX aX aX aX aX aX aX DU bX bX bX bX bX ~R HS HS HS HS HS g .Ur hX hX j..PY PY PY PY 1] s] t] )) 4] u] +~ v  x  y  A  D  c. h+ =+ M+ N+ ^# =@ 5@ /# /# P# _$ _$ _$ _$ _$ E$ @% _% j% G% 3& ^& z& u, 2..U- `- k..l..o; J4 I> T* /* <F ls Nw $n V< k{ 2) /| r! t( x( ,6 $..G4 G4 G4 a[ bk 46 .^ X^ Q{ Q{ Q{ Q{ i_ b/ m...e 0/ C: k^ 0/ 0/ 0/ 0/ 0/ 0/ 0/ 0/ 0/ 0/ 0/ 0/ 0/ 0/ 0/ 0/ 0/ 0/ 0/ 0/ 0/ 0/ 0/ ,[ ,[ a[ ei 4@ y| y| y| y| B  y| e# S` &e G4 G4 G4 G4 G4 G4 G4 G4 G4 G4 G4 G4 G4 G4 G4 G4 G4 G4 G4 G4 G4 G4 G4 G4 G4 G4 G4 G4 G4 G4 G4 G4 G4 G4 G4 G4 G4 G4 G4 G4 G4 G4 G4 G4 G4 G4 G4 G4 G4 G4 G4 G4 G4 G4 G4 G4 G4 G4 G4 G4 G4 G4 G4 G4 G4 G4 G4 G4 G4 G4 G4 G4 G4 G4 G4 G4 G4 G4 G4 G4 G4 G4 G4 G4 G4 G4 G4 G4 G4 G4 G4 G4 G4 G4 G4 G4 G4 G4 G4 G4 G4 G4 G4 G4 G4 G4 G4 G4 G4 G4 G4 G4 G4 G4 G4 G4 G4 G4 G4 G4 G4 G4 G4 G4 G4 G4 G4 G4 G4 G4 G4 G4 G4 G4 G4 G4 G4 G4 G4 G4 G4 G4 G4 G4 G4 G4 G4 G4 G4 G4 G4 G4 G4 G4 G4 G4 G4 G4 G4 G4 G4 G4 G4 /p U' B< Q{ Q{ NX }2 c. y| y| y| Nu Nu *+ W/ E% m` C: C: 0/ 0/ 0/ 0/ 0/ 0/ 0/ 0/ 0/ 0/ 0/ 0/ 0/ 0/ 0/ 0/ 0/ 0/ 0/ 0/ 0/ 0/ 0/ 0/ 0/ 0/ 0/ 0/ 0/ 0/ 0/ m` &e G4 G4 G4 G4 G4 G4 G4 G4 G4 G4 G4 G4 G4 [% wc x( y< :{ %} [2 H/ ^z oC Ho n..}* &- U- -; t; ); 3; 22 p, 4..)c 5..BY Wf JN 6N ec Lb Mb  Q o..8y cy Lb -e p..;e rX Wf q..r..s..t..-T cb u..8y Lb -e UG VG ,a 4] 4^ 5^ ]( 2X 3X 3X 3X 3X 3X 3X 3X 3X 3X d .5X RW RW RW RW RW RW RW RW |` {Z {Z {Z {Z IY I` @...S .S TT tb 1# 1# 1# 1# 1# |6 Sb Sb Sb !h [9 [9 [9 [9 [9 [9 [9 [9 [9 [9 [9 [9 [9 [9 ",
"aX aX aX aX aX aX aX aX aX aX aX aX LZ L` v..YW YW =W =W =W =W =W =W =W =W ZW aX aX aX aX aX aX @/ bX bX bX bX bX bX :b HS HS HS HS HS g .Ur hX hX $Y PY PY PY PY 1] s] t] )) 4] u] +~ v  x  y  A  D  c. h+ =+ M+ N+ ^# =@ 5@ /# /# P# _$ _$ _$ _$ _$ V$ @% _% j% G% 3& :& L& )* 2..U- `- ;; ^> >> @4 ), U* /* <F ls Nw sC V< k{ 2) /| r! t( x( ,6 $..G4 G4 G4 G4 G4 <% fx X^ Q{ Q{ Q{ Q{ X^ w..SO /( 0/ 0/ 0/ 0/ 0/ 0/ 0/ 0/ 0/ 0/ 0/ 0/ 0/ 0/ 0/ 0/ 0/ 0/ 0/ 0/ 0/ 0/ 0/ 0/ 0/ 0/ ,[ ,[ a[ ei 4@ y| y| y| y| B  y| e# S` &e G4 G4 G4 G4 G4 G4 G4 G4 G4 G4 G4 G4 G4 G4 G4 G4 G4 G4 G4 G4 G4 G4 G4 G4 G4 G4 G4 G4 G4 G4 G4 G4 G4 G4 G4 G4 G4 G4 G4 G4 G4 G4 G4 G4 G4 G4 G4 G4 G4 G4 G4 G4 G4 G4 G4 G4 G4 G4 G4 G4 G4 G4 G4 G4 G4 G4 G4 G4 G4 G4 G4 G4 G4 G4 G4 G4 G4 G4 G4 G4 G4 G4 G4 G4 G4 G4 G4 G4 G4 G4 G4 G4 G4 G4 G4 G4 G4 G4 G4 G4 G4 G4 G4 G4 G4 G4 G4 G4 G4 G4 G4 G4 G4 G4 G4 G4 G4 G4 G4 G4 G4 G4 G4 G4 G4 G4 G4 G4 G4 G4 G4 G4 G4 G4 G4 G4 G4 G4 G4 G4 G4 G4 G4 G4 G4 G4 G4 G4 G4 G4 G4 G4 G4 G4 G4 G4 G4 G4 G4 G4 G4 G4 m~ a[ _% H: Q{ Q{ NX }2 c. y| y| y| Nu Nu @+ NX @^ ^z |% x../( 0/ 0/ 0/ 0/ 0/ 0/ 0/ 0/ 0/ 0/ 0/ 0/ 0/ 0/ 0/ 0/ 0/ 0/ 0/ 0/ 0/ 0/ 0/ 0/ 0/ 0/ 0/ 0/ 0/ 0/ m` &e G4 G4 G4 G4 G4 G4 G4 G4 G4 G4 G4 G4 G4 [% Sf k .y< :{ %} [2 H/ ^h uu cH n..}* &- /; -; t; p; J- C= G* 4..]c 5..<W 2J /g 7N %y sP cy 5F y..vS Kb -e -e -e Kb $M SS z..5N 5N A..Gx *R Vf Cd -e -e UG VG ,a 4] 4^ 5^ ]( 2X 3X 3X 3X 3X 3X 3X 3X 3X B..RW RW RW RW RW RW RW RW RW RW RW Y{ {Z {Z {Z IY I` @...S .S e@ 1# 1# 1# 1# 1# *3 m| Zb Sb Sb bY [9 [9 [9 [9 [9 [9 [9 [9 [9 [9 [9 [9 [9 [9 ",
"aX aX aX aX aX aX aX aX aX aX aX aX aX aX aX aX aX aX aX aX aX aX aX aX aX aX aX aX aX aX aX @/ bX bX bX bX bX bX bX C..HS HS HS HS HS #U D..hX hX h .PY PY PY PY 1] s] t] )) 4] u] +~ v  x  y  A  D  c. h+ =+ M+ N+ ^# =@ 5@ /# /# P# _$ _$ _$ _$ _$ V$ @% _% j% G% && rL L& u, p= /; `- ;; ,> E..F..G..<= /* <F ls Nw sC G} k{ 2) /| r! t( x( ][ [% G4 G4 G4 G4 G4 Q`  e X^ Q{ Q{ Q{ M^ H..g% `e 0/ 0/ 0/ 0/ 0/ 0/ 0/ 0/ 0/ 0/ 0/ 0/ 0/ 0/ 0/ 0/ 0/ 0/ 0/ 0/ 0/ 0/ 0/ 0/ 0/ 0/ 0/ ,[ ,[ a[ ei 4@ y| y| y| y| B  y| e# S` &e G4 G4 G4 G4 G4 G4 G4 G4 G4 G4 G4 G4 G4 G4 G4 G4 G4 G4 G4 G4 G4 G4 G4 G4 G4 G4 G4 G4 G4 G4 G4 G4 G4 G4 G4 G4 G4 G4 G4 G4 G4 G4 G4 G4 G4 G4 G4 G4 G4 G4 G4 G4 G4 G4 G4 G4 G4 G4 G4 G4 G4 G4 G4 G4 G4 G4 G4 G4 G4 G4 G4 G4 G4 G4 G4 G4 G4 G4 G4 G4 G4 G4 G4 G4 G4 G4 G4 G4 G4 G4 G4 G4 G4 G4 G4 G4 G4 G4 G4 G4 G4 G4 G4 G4 G4 G4 G4 G4 G4 G4 G4 G4 G4 G4 G4 G4 G4 G4 G4 G4 G4 G4 G4 G4 G4 G4 G4 G4 G4 G4 G4 G4 G4 G4 G4 G4 G4 G4 G4 G4 G4 G4 G4 G4 G4 G4 G4 G4 G4 G4 G4 G4 G4 G4 G4 G4 G4 G4 G4 G4 G4 G4 m~ m~ U, @^ Q{ Q{ NX }2 c. y| y| y| Nu Nu f{ I: W( b/ .^ ^z B, 0/ 0/ 0/ 0/ 0/ 0/ 0/ 0/ 0/ 0/ 0/ 0/ 0/ 0/ 0/ 0/ 0/ 0/ 0/ 0/ 0/ 0/ 0/ 0/ 0/ 0/ 0/ 0/ 0/ 0/ m` &e G4 G4 G4 G4 G4 G4 G4 G4 G4 G4 G4 G4 G4 [% Sf k .y< :{ %} [2 H/ Ze :4 2p n..I..g0 /; ;; ,> >; |; C= G* 4..J..xy <W 2R <f zR ix BR wR `w 2J -e Iy -e -e -e #i Iy Kb zR %y PR HW uy -e Kb Iy -e -e ux K..@~ 4] 4^ 5^ ]( 2X 3X 3X 3X 3X 3X 3X 3X `X RW RW RW RW RW RW RW RW RW RW RW RW RW {Z {Z {Z IY I` @...S  S kS 1# 1# 1# p.  | m| m| W# Sb C..[9 [9 [9 [9 [9 [9 [9 [9 [9 [9 [9 [9 [9 [9 [9 ",
"aX aX aX aX aX aX aX aX aX aX aX aX aX aX aX aX aX aX aX aX aX aX aX aX aX aX aX aX aX |..r7 bX bX bX bX bX bX bX bX L..M..HS HS HS HS ;W N..hX hX h .PY PY PY PY 1] s] t] )) 4] u] +~ v  x  y  A  D  c. h+ =+ M+ N+ ^# =@ 5@ /# /# P# _$ _$ _$ _$ _$ V$ @% _% j% G% && rL L& 8= p= /; {; >; '> ); /B O..<= /* <F ls Nw sC G} k{ 2) %} r! t( x( ][ [% G4 G4 G4 G4 m~ e_ T' +< Q{ Q{ W( .^ v7 m` +j 0/ 0/ 0/ 0/ 0/ 0/ 0/ 0/ 0/ 0/ 0/ 0/ 0/ 0/ 0/ 0/ 0/ 0/ 0/ 0/ 0/ 0/ 0/ 0/ 0/ 0/ 0/ ,[ ,[ a[ ei 4@ y| y| y| y| B  y| e# S` %| a[ G4 G4 G4 G4 G4 G4 G4 G4 G4 G4 G4 G4 G4 G4 G4 G4 G4 G4 G4 G4 G4 G4 G4 G4 G4 G4 G4 G4 G4 G4 G4 G4 G4 G4 G4 G4 G4 G4 G4 G4 G4 G4 G4 G4 G4 G4 G4 G4 G4 G4 G4 G4 G4 G4 G4 G4 G4 G4 G4 G4 G4 G4 G4 G4 G4 G4 G4 G4 G4 G4 G4 G4 G4 G4 G4 G4 G4 G4 G4 G4 G4 G4 G4 G4 G4 G4 G4 G4 G4 G4 G4 G4 G4 G4 G4 G4 G4 G4 G4 G4 G4 G4 G4 G4 G4 G4 G4 G4 G4 G4 G4 G4 G4 G4 G4 G4 G4 G4 G4 G4 G4 G4 G4 G4 G4 G4 G4 G4 G4 G4 G4 G4 G4 G4 G4 G4 G4 G4 G4 G4 G4 G4 G4 G4 G4 G4 G4 G4 G4 G4 G4 G4 G4 G4 G4 G4 G4 G4 G4 G4 G4 m~ m~ <% +^ Q{ Q{ NX }2 c. y| y| y| Nu Nu <| NX W( W( o^ .^ f% 0/ C: 0/ 0/ 0/ 0/ 0/ 0/ 0/ 0/ 0/ 0/ 0/ 0/ 0/ 0/ 0/ 0/ 0/ 0/ 0/ 0/ 0/ 0/ 0/ 0/ 0/ 0/ 0/ 0/ /( %| a[ G4 G4 G4 G4 G4 G4 G4 G4 G4 G4 G4 G4 Q` wc x( y< :{ %} [2 H/ Ze uu 2p <F I..*- ^; >; '> P..|; 9- 3= 4..-e 2R PP BN /g yy &S ix ix ix ix ix ix ix ix ix ix ix ix 6x 6x Yx DN ix ix ix ix ix ix 5N Q..nz 4] 4^ 5^ ]( 2X 3X 3X 3X 3X 3X 3X 3X RW RW RW RW RW RW RW RW RW RW RW RW RW RW Y{ {Z {Z R..I` @..J( kS e@ =  S..p7 !| m| m| m| 52 K` [9 [9 [9 [9 [9 [9 [9 [9 [9 [9 [9 [9 [9 [9 [9 [9 ",
"aX aX aX aX aX aX aX aX aX aX aX aX aX aX aX aX aX aX aX aX aX aX aX aX aX aX @/ r7 v5 bX bX bX bX bX bX bX bX bX bX T..U..HS HS HS HS ;W N..hX hX Ur PY PY PY PY 1] s] t] )) 4] u] +~ v  x  y  A  D  c. h+ =+ M+ N+ ^# =@ 5@ /# /# P# _$ _$ _$ _$ _$ V$ @% _% j% G% && rL L& ~* p= /; !W P..J; >; V..', <= /* <F ls 0x $n G} k{ 2) %} r! t( x( *1 [% a[ a[ a[ a[ a[ a[ :% g[ b/ Q{ X^ Ze [q 0/ 0/ 0/ 0/ 0/ 0/ 0/ 0/ 0/ 0/ 0/ 0/ 0/ 0/ 0/ 0/ 0/ 0/ 0/ 0/ 0/ 0/ 0/ 0/ 0/ 0/ 0/ 0/ 0/ ,[ ,[ a[ ei 4@ y| y| y| y| B  y| e# =X %| a[ a[ a[ a[ a[ a[ a[ a[ a[ a[ a[ a[ a[ a[ a[ a[ a[ a[ a[ a[ a[ a[ a[ a[ a[ a[ a[ a[ a[ a[ a[ a[ a[ a[ a[ a[ a[ a[ a[ a[ a[ a[ a[ a[ a[ a[ a[ a[ a[ a[ a[ a[ a[ a[ a[ a[ a[ a[ a[ a[ a[ a[ a[ a[ a[ a[ a[ a[ a[ a[ a[ a[ a[ a[ a[ a[ a[ a[ a[ a[ a[ a[ a[ a[ a[ a[ a[ a[ a[ a[ a[ a[ a[ a[ a[ a[ a[ a[ a[ a[ a[ a[ a[ a[ a[ a[ a[ a[ a[ a[ a[ a[ a[ a[ a[ a[ a[ a[ a[ a[ a[ a[ a[ a[ a[ a[ a[ a[ a[ a[ a[ a[ a[ a[ a[ a[ a[ a[ a[ a[ a[ a[ a[ a[ a[ a[ a[ a[ a[ a[ a[ a[ a[ a[ a[ a[ a[ a[ a[ a[ a[ a[ )/ )/ d% +^ Q{ Q{ NX }2 c. y| y| y| Nu Nu <| NX Q{ (^ Q{ .^ e% 0/ C: 0/ 0/ 0/ 0/ 0/ 0/ 0/ 0/ 0/ 0/ 0/ 0/ 0/ 0/ 0/ 0/ 0/ 0/ 0/ 0/ 0/ 0/ 0/ 0/ 0/ 0/ 0/ 0/ /( %| a[ a[ a[ a[ a[ a[ a[ a[ a[ a[ a[ a[ a[ N . e x( y< :{ %} [2 H/ Ze uu 2p ]G W..]Y ^; >; '> N; |; 9- 3= %Z X..Y..Z..`.. +..+.++.++.++.++.++.++.++.++.++.++.@+.@+.@+.#+.#+.=y =y =y =y =y =y =y =y $+.%+.q{ 4] 4^ 5^ ]( 2X 3X 3X 3X 3X 3X 3X 3X B..RW RW RW RW RW RW RW RW RW RW RW RW RW RW {Z {Z {Z kS kS kS kS kS Ap =  =  &+.4z m| m| m| q. [9 [9 [9 [9 [9 [9 [9 [9 [9 [9 [9 [9 [9 [9 [9 [9 ",
"aX aX aX aX aX aX aX }9 *+.$t $t $t $t ~h =+.aX aX aX aX aX aX aX aX aX MZ AX bX bX bX bX bX bX bX bX -+.Ha cY cY #s ;+.aY HS HS HS HS ;W N..hX hX iX PY PY PY PY 1] s] t] )) 4] u] +~ v  x  y  A  D  c. h+ =+ M+ N+ ^# =@ 5@ /# /# P# _$ _$ _$ _$ _$ V$ @% _% j% @& && rL L& ~* Z> /;  ; P..v; >; >+.,+.i, zY n..gK 0x sC G} k{ 2) %} r! t( x( *1 [% a[ a[ a[ a[ a[ a[ bk  e M_ X^ .# '+./( 0/ 0/ 0/ 0/ 0/ 0/ 0/ 0/ 0/ 0/ 0/ 0/ 0/ 0/ 0/ 0/ 0/ 0/ 0/ 0/ 0/ 0/ 0/ 0/ 0/ 0/ 0/ 0/ 0/ ,[ ,[ a[ ei 4@ y| y| y| y| B  y| e# =X %| a[ a[ a[ a[ a[ a[ a[ a[ a[ a[ a[ a[ a[ a[ a[ a[ a[ a[ a[ a[ a[ a[ a[ a[ a[ a[ a[ a[ a[ a[ a[ a[ a[ a[ a[ a[ a[ a[ a[ a[ a[ a[ a[ a[ a[ a[ a[ a[ a[ a[ a[ a[ a[ a[ a[ a[ a[ a[ a[ a[ a[ a[ a[ a[ a[ a[ a[ a[ a[ a[ a[ a[ a[ a[ a[ a[ a[ a[ a[ a[ a[ a[ a[ a[ a[ a[ a[ a[ a[ a[ a[ a[ a[ a[ a[ a[ a[ a[ a[ a[ a[ a[ a[ a[ a[ a[ a[ a[ a[ a[ a[ a[ a[ a[ a[ a[ a[ a[ a[ a[ a[ a[ a[ a[ a[ a[ a[ a[ a[ a[ a[ a[ a[ a[ a[ a[ a[ a[ a[ a[ a[ a[ a[ a[ a[ a[ a[ a[ a[ a[ a[ a[ a[ a[ a[ a[ a[ a[ a[ a[ a[ a[ )/ )/ d% +^ Q{ Q{ NX }2 c. y| y| y| Nu Nu <| NX Q{ (^ b/ La Q` 0/ C: 0/ 0/ 0/ 0/ 0/ 0/ 0/ 0/ 0/ 0/ 0/ 0/ 0/ 0/ 0/ 0/ 0/ 0/ 0/ 0/ 0/ 0/ 0/ 0/ 0/ 0/ 0/ 0/ /( %| a[ a[ a[ a[ a[ a[ a[ a[ a[ a[ a[ a[ a[ N . e x( y< :{ %} [2 H/ ^h uu 2p ]G 5= )+.W- ,; '> N; !+.~+.{+.]+.^+./+.(+.qw _+.:+.3: 2^ 2^ 2^ 2^ 2^ 2^ 2^ 2^ 2^ Q{ Q{ W( [w [w _^ :( N` O` <+.[+.}+.@d |+.:^ c+ )) 4^ 5^ ]( l! 3X 3X 3X 3X 3X 3X 3X 3X ~Y 1+.RW RW RW RW RW RW RW RW RW RW RW RW _..{Z {Z kS kS kS kS kS 2+.=  =  =  3+.m| m| m| W# [9 [9 [9 [9 [9 [9 [9 [9 [9 [9 [9 [9 [9 [9 [9 [9 ",
"aX aX aX aX aX aX 4+.$t $t $t $t $t $t $t $t *+.aX aX aX aX aX aX aX aX bX bX bX bX bX bX bX 5+.6+.7+.8+.8+.8+.8+.8+.;+.9+.HS HS HS HS ;W j..hX hX hX PY PY PY PY 1] s] t] )) 4] u] +~ v  x  y  A  D  c. h+ =+ M+ N+ ^# =@ 5@ /# /# P# _$ _$ _$ _$ _$ V$ @% _% k% @& 3& rL B& ~* Z> /; ~; N; 0+.,; >+.L> i, zY n..gK 0x sC G} k{ 2) %} r! t( x( *1 TQ G4 a[ a[ a[ a[ a[ a[ @m a+.b+.|% /( 0/ 0/ 0/ 0/ 0/ 0/ 0/ 0/ 0/ 0/ 0/ 0/ 0/ 0/ 0/ 0/ 0/ 0/ 0/ 0/ 0/ 0/ 0/ 0/ 0/ 0/ 0/ 0/ 0/ 0/ ,[ ,[ a[ ei 4@ y| y| y| y| B  y| e# =X %| a[ a[ a[ a[ a[ a[ a[ a[ a[ a[ a[ a[ a[ a[ a[ a[ a[ a[ a[ a[ a[ a[ a[ a[ a[ a[ a[ a[ a[ a[ a[ a[ a[ a[ a[ a[ a[ a[ a[ a[ a[ a[ a[ a[ a[ a[ a[ a[ a[ a[ a[ a[ a[ a[ a[ a[ a[ a[ a[ a[ a[ a[ a[ a[ a[ a[ a[ a[ a[ a[ a[ a[ a[ a[ a[ a[ a[ a[ a[ a[ a[ a[ a[ a[ a[ a[ a[ a[ a[ a[ a[ a[ a[ a[ a[ a[ a[ a[ a[ a[ a[ a[ a[ a[ a[ a[ a[ a[ a[ a[ a[ a[ a[ a[ a[ a[ a[ a[ a[ a[ a[ a[ a[ a[ a[ a[ a[ a[ a[ a[ a[ a[ a[ a[ a[ a[ a[ a[ a[ a[ a[ a[ a[ a[ a[ a[ a[ a[ a[ a[ a[ a[ a[ a[ a[ a[ a[ a[ a[ a[ a[ a[ )/ )/ c+.+^ Q{ Q{ NX }2 c. y| y| y| Nu Nu <| NX Q{ i| b/  e }n C: C: 0/ 0/ 0/ 0/ 0/ 0/ 0/ 0/ 0/ 0/ 0/ 0/ 0/ 0/ 0/ 0/ 0/ 0/ 0/ 0/ 0/ 0/ 0/ 0/ 0/ 0/ 0/ 0/ /( %| a[ a[ a[ a[ a[ a[ a[ a[ a[ a[ a[ a[ a[ N . e x( y< :{ %} [2 ~9 ^h uu 2p JG 5= ]Y X- N; v; /> j; ~+.K* d+.e+.f+.g+.h+.n^ _^ G. <  <  <  <  <  <  <  <  <  2  2  /. M# 3+ 7  @@ 1@ e  |. 1. h  i  i  =] 4] )) 4^ 5^ ]( w! IW 3X 3X 3X 3X 3X 3X 3X 3X i+.x| j+.RW RW RW RW RW RW RW RW RW RW Y{ {Z {Z kS kS kS kS kS k+.=  =  =  =  4z m| m| W# [9 [9 [9 [9 [9 [9 [9 [9 [9 [9 [9 [9 [9 [9 [9 [9 ",
"aX aX aX aX v0 Ds *. H( $t $t $t $t $t $t $t $t *+.aX aX aX aX aX aX aX bX bX bX bX bX bX Ha 8+.8+.8+.8+.8+.8+.8+.8+.;+.l+.HS HS HS HS 8U OY hX hX hX NZ PY PY PY 1] s] t] )) 4] u] +~ v  x  y  A  D  c. h+ =+ M+ N+ ^# =@ 5@ /# /# P# _$ _$ _$ _$ _$ V$ @% _% k% @& 3& (& B& ~* p= V- ~; r; w; '; m+.n+.i, zY n..gK 0x sC G} k{ 2) %} r! t( x( *1 TQ G4 a[ a[ a[ a[ a[ )/ a[ e_ o+.0/ C: 0/ 0/ 0/ 0/ 0/ 0/ 0/ 0/ 0/ 0/ 0/ 0/ 0/ 0/ 0/ 0/ 0/ 0/ 0/ 0/ 0/ 0/ 0/ 0/ 0/ 0/ 0/ 0/ 0/ 0/ ,[ ,[ a[ ei 4@ y| y| y| y| B  y| e# =X %| a[ a[ a[ a[ a[ a[ a[ a[ a[ a[ a[ a[ a[ a[ a[ a[ a[ a[ a[ a[ a[ a[ a[ a[ a[ a[ a[ a[ a[ a[ a[ a[ a[ a[ a[ a[ a[ a[ a[ a[ a[ a[ a[ a[ a[ a[ a[ a[ a[ a[ a[ a[ a[ a[ a[ a[ a[ a[ a[ a[ a[ a[ a[ a[ a[ a[ a[ a[ a[ a[ a[ a[ a[ a[ a[ a[ a[ a[ a[ a[ a[ a[ a[ a[ a[ a[ a[ a[ a[ a[ a[ a[ a[ a[ a[ a[ a[ a[ a[ a[ a[ a[ a[ a[ a[ a[ a[ a[ a[ a[ a[ a[ a[ a[ a[ a[ a[ a[ a[ a[ a[ a[ a[ a[ a[ a[ a[ a[ a[ a[ a[ a[ a[ a[ a[ a[ a[ a[ a[ a[ a[ a[ a[ a[ a[ a[ a[ a[ a[ a[ a[ a[ a[ a[ a[ a[ a[ a[ a[ a[ a[ a[ )/ )/ c+.+^ Q{ Q{ NX }2 c. y| y| y| Nu Nu <| NX Q{ i| B< V' >[ p+.C: 0/ 0/ 0/ 0/ 0/ 0/ 0/ 0/ 0/ 0/ 0/ 0/ 0/ 0/ 0/ 0/ 0/ 0/ 0/ 0/ 0/ 0/ 0/ 0/ 0/ 0/ 0/ 0/ /( %| a[ a[ a[ a[ a[ a[ a[ a[ a[ a[ a[ a[ a[ N . e x( y< :{ %} [2 ~9 ^h uu 2p JG q+.]Y X- N; w; s; j; bH K* d+.r+.f+.g+.h+.Y] N` G. <  <  <  <  <  <  <  <  <  2  2  /. 3+ 7  @@ 1@ e  |. |. h  4. s+.t+.;] 4] )) 4^ 5^ ]( 8W 9W u+.3X 3X 3X 3X 3X 3X 3X v+.w+.w+.x+.`X RW RW RW RW RW RW RW RW Y{ {Z {Z |c kS kS kS kS ;d =  =  =  =  y+.m| m| a^ [9 [9 [9 [9 [9 [9 [9 [9 [9 [9 [9 [9 [9 [9 [9 [9 ",
"aX aX aX 4+.E@ X1 X1 X1 <1 $t $t $t $t $t $t $t $t z+.aX aX aX aX aX |..bX bX bX bX A+.7+.8+.8+.8+.8+.8+.8+.8+.8+.B+.;+.l+.C+.HS HS HS *< OY hX hX hX D+.PY PY PY 1] s] t] )) 4] u] +~ v  x  y  A  D  c. h+ =+ M+ N+ ^# =@ 5@ /# /# P# _$ _$ _$ _$ _$ V$ @% _% k% @& 3& (& B& ~* p= V- .; /> )> r; m+.n+.j, zY ]G et 0x sC G} k{ 2) %} r! t( x( *1 [% a[ a[ a[ a[ a[ a[ a[ Z! y/ C: C: 0/ 0/ 0/ 0/ 0/ 0/ 0/ 0/ 0/ 0/ 0/ 0/ 0/ 0/ 0/ 0/ 0/ 0/ 0/ 0/ 0/ 0/ 0/ 0/ 0/ 0/ 0/ 0/ 0/ 0/ 0/ ,[ ,[ a[ ei 4@ y| y| y| y| B  y| e# =X %| a[ a[ a[ a[ a[ a[ a[ a[ a[ a[ a[ a[ a[ a[ a[ a[ a[ a[ a[ a[ a[ a[ a[ a[ a[ a[ a[ a[ a[ a[ a[ a[ a[ a[ a[ a[ a[ a[ a[ a[ a[ a[ a[ a[ a[ a[ a[ a[ a[ a[ a[ a[ a[ a[ a[ a[ a[ a[ a[ a[ a[ a[ a[ a[ a[ a[ a[ a[ a[ a[ a[ a[ a[ a[ a[ a[ a[ a[ a[ a[ a[ a[ a[ a[ a[ a[ a[ a[ a[ a[ a[ a[ a[ a[ a[ a[ a[ a[ a[ a[ a[ a[ a[ a[ a[ a[ a[ a[ a[ a[ a[ a[ a[ a[ a[ a[ a[ a[ a[ a[ a[ a[ a[ a[ a[ a[ a[ a[ a[ a[ a[ a[ a[ a[ a[ a[ a[ a[ a[ a[ a[ a[ a[ a[ a[ a[ a[ a[ a[ a[ a[ a[ a[ a[ a[ a[ a[ a[ a[ a[ a[ a[ Z! )/ c+.+^ Q{ Q{ NX }2 c. y| y| y| Nu Nu <| NX Q{ (^ +^ e% 0/ C: 0/ 0/ 0/ 0/ 0/ 0/ 0/ 0/ 0/ 0/ 0/ 0/ 0/ 0/ 0/ 0/ 0/ 0/ 0/ 0/ 0/ 0/ 0/ 0/ 0/ 0/ 0/ 0/ 0/ /( %| a[ a[ a[ a[ a[ a[ a[ a[ a[ a[ a[ a[ a[ N .UQ e} y< :{ %} [2 ~9 ^h uu 2p JG q+.]Y X- /> E+.t; s- ~+.K* F+.G+.f+.g+.h+.Y] N` G. <  <  <  <  <  <  <  <  <  2  2  /. t@ 3+ @@ 1@ e  |. |. h  4. s+.A) 8x 4] )) 4^ 5^ ]( 8W 9W 9W H+.3X 3X 3X 3X 3X 3X w+.w+.w+.w+.w+.I+.J+.j+.RW RW RW RW RW ...{Z {Z Z{ kS kS kS kS ;d =  =  =  =  K+.m| m| r5 [9 [9 [9 [9 [9 [9 [9 [9 [9 [9 [9 [9 [9 [9 [9 [9 ",
"aX 4+.<1 X1 X1 X1 X1 X1 X1 <1 $t $t $t $t $t $t $t $t LZ aX aX aX aX MZ bX bX bX -+.8+.8+.8+.8+.8+.8+.8+.8+.8+.8+.L+.;+.l+.M+.HS HS HS *< OY hX hX hX hX NZ PY PY 1] s] t] )) 4] u] +~ v  x  y  A  D  c. h+ =+ M+ N+ ^# =@ 5@ /# /# P# _$ _$ _$ _$ _$ V$ @% _% k% @& 3& (& B& ~* p= V- .; s; N+.O+.P+.n+.Q+.6* ]G et 0x sC G} k{ 2) %} r! t( x( *1 [% a[ a[ a[ a[ a[ a[ a[ a[ >[ 0/ 0/ 0/ 0/ 0/ 0/ 0/ 0/ 0/ 0/ 0/ 0/ 0/ 0/ 0/ 0/ 0/ 0/ 0/ 0/ 0/ 0/ 0/ 0/ 0/ 0/ 0/ 0/ 0/ 0/ 0/ 0/ 0/ ,[ ,[ a[ ei 4@ y| y| y| y| B  y| e# =X %| a[ a[ a[ a[ a[ a[ a[ a[ a[ a[ a[ a[ a[ a[ a[ a[ a[ a[ a[ a[ a[ a[ a[ a[ a[ a[ a[ a[ a[ a[ a[ a[ a[ a[ a[ a[ a[ a[ a[ a[ a[ a[ a[ a[ a[ a[ a[ a[ a[ a[ a[ a[ a[ a[ a[ a[ a[ a[ a[ a[ a[ a[ a[ a[ a[ a[ a[ a[ a[ a[ a[ a[ a[ a[ a[ a[ a[ a[ a[ a[ a[ a[ a[ a[ a[ a[ a[ a[ a[ a[ a[ a[ a[ a[ a[ a[ a[ a[ a[ a[ a[ a[ a[ a[ a[ a[ a[ a[ a[ a[ a[ a[ a[ a[ a[ a[ a[ a[ a[ a[ a[ a[ a[ a[ a[ a[ a[ a[ a[ a[ a[ a[ a[ a[ a[ a[ a[ a[ a[ a[ a[ a[ a[ a[ a[ a[ a[ a[ a[ a[ a[ a[ a[ a[ a[ a[ a[ a[ a[ a[ a[ a[ Z! Z! e% +^ Q{ Q{ NX }2 c. y| y| y| Nu Nu <| L| W( Y] LR .e k^ C: 0/ 0/ 0/ 0/ 0/ 0/ 0/ 0/ 0/ 0/ 0/ 0/ 0/ 0/ 0/ 0/ 0/ 0/ 0/ 0/ 0/ 0/ 0/ 0/ 0/ 0/ 0/ 0/ 0/ /( %| a[ a[ a[ a[ a[ a[ a[ a[ a[ a[ a[ a[ a[ e_ UQ e} y< :{ %} [2 ~9 ^h uu 2p JG 2* ]Y S; /> )> l..s- E= K* z* R+.f+.g+.S+.Y] _( A/ <  <  <  <  <  <  <  <  <  |  |  Z~ |) [) /} 1@ e  |. |. h  4. l  () |{ 4] )) 4^ 5^ ]( T+.9W 9W 9W U+.d .3X 3X 3X 3X V+.w+.w+.w+.w+.w+.w+.w+.W+.X+.RW RW RW {Z {Z {Z Z{ kS kS kS kS ;d =  =  =  =  +1 7| m| 7| [9 [9 [9 [9 [9 [9 [9 [9 [9 [9 [9 [9 [9 [9 [9 [9 ",
"E@ X1 X1 X1 X1 X1 X1 X1 X1 X1 0& $t $t $t $t $t $t $t mr aX aX aX aX MZ bX bX bX -+.8+.8+.8+.8+.8+.8+.8+.8+.8+.8+.]b ;+.l+.M+.HS HS HS *< OY hX hX hX Y+.Z+.`+.PY 1] s] t] )) 4] u] +~ v  x  y  A  D  c. h+ =+ M+ N+ ^# =@ 5@ /# /# P# _$ _$ _$ _$ _$ V$ @% _% k% @& 3& _& C& P, w= V- .; t; H; t; P+.U8 X* jN ]G et 0x sC G} k{ 2) %} r! t( x( *1 [% a[ a[ a[ a[ a[ a[ a[ a[ %| 0/ 0/ 0/ 0/ 0/ 0/ 0/ 0/ 0/ 0/ 0/ 0/ 0/ 0/ 0/ 0/ 0/ 0/ 0/ 0/ 0/ 0/ 0/ 0/ 0/ 0/ 0/ 0/ 0/ 0/ 0/ 0/ 0/ ,[ ,[ a[ ei 4@ y| y| y| y| B  y| e# =X %| a[ a[ a[ a[ a[ a[ a[ a[ a[ a[ a[ a[ a[ a[ a[ a[ a[ a[ a[ a[ a[ a[ a[ a[ a[ a[ a[ a[ a[ a[ a[ a[ a[ a[ a[ a[ a[ a[ a[ a[ a[ a[ a[ a[ a[ a[ a[ a[ a[ a[ a[ a[ a[ a[ a[ a[ a[ a[ a[ a[ a[ a[ a[ a[ a[ a[ a[ a[ a[ a[ a[ a[ a[ a[ a[ a[ a[ a[ a[ a[ a[ a[ a[ a[ a[ a[ a[ a[ a[ a[ a[ a[ a[ a[ a[ a[ a[ a[ a[ a[ a[ a[ a[ a[ a[ a[ a[ a[ a[ a[ a[ a[ a[ a[ a[ a[ a[ a[ a[ a[ a[ a[ a[ a[ a[ a[ a[ a[ a[ a[ a[ a[ a[ a[ a[ a[ a[ a[ a[ a[ a[ a[ a[ a[ a[ a[ a[ a[ a[ a[ a[ a[ a[ a[ a[ a[ a[ a[ a[ a[ a[ a[ Z! Z! <%  @.Q{ Q{ NX }2 c. y| y| y| Nu Nu <| L| W( !x U' .@.3..C: 0/ 0/ 0/ 0/ 0/ 0/ 0/ 0/ 0/ 0/ 0/ 0/ 0/ 0/ 0/ 0/ 0/ 0/ 0/ 0/ 0/ 0/ 0/ 0/ 0/ 0/ 0/ 0/ 0/ /( %| a[ a[ a[ a[ a[ a[ a[ a[ a[ a[ a[ a[ a[ e_ T' MS y< :{ %} [2 H/ ^h uu 2p JG 2* ]Y Y- s; x; ,> @Q E= K* z* cA +@.g+.@@.LR N' G$ =$ Y  T$ z$ .* g& r* z$ ~% I/ V@ =@ n+ %@ *+ J: 1@ |. |. h  4. o  |{ |{ 4] )) 4^ 5^ ]( #@.$@.9W 9W 9W 9W JW 3X 3X 3X %@.w+.w+.w+.w+.w+.w+.w+.w+.w+.w+.7< @_ {Z {Z {Z Z{ kS kS kS kS ;d =  =  =  =  p. 5s m| m| q. [9 [9 [9 [9 [9 [9 =W l| {+ {+ l| =W j$ &@.*@.",
"=@.-@.X1 X1 X1 X1 X1 X1 X1 X1 0& $t $t $t $t $t $t $t *+.aX aX aX aX DU bX bX bX bX %0 8+.8+.8+.8+.8+.8+.8+.8+.8+.;@.;+.l+.M+.HS HS HS fX >@.hX hX ,@.,@.'@.)@.!@.1] s] t] )) 4] u] +~ v  x  y  A  D  c. h+ =+ M+ N+ ^# =@ 5@ /# /# P# _$ _$ _$ _$ _$ V$ @% _% k% @& 3& _& C& P, w= V- ~@.l..{> L; {@.U8 X* jN JG et 0x sC G} k{ 2) %} r! t( x( ][ [% a[ a[ a[ a[ a[ a[ a[ a[ %| 0/ 0/ 0/ 0/ 0/ 0/ 0/ 0/ 0/ 0/ 0/ 0/ 0/ 0/ 0/ 0/ 0/ 0/ 0/ 0/ 0/ 0/ 0/ 0/ 0/ 0/ 0/ 0/ 0/ 0/ 0/ 0/ 0/ ,[ ,[ a[ ei 4@ y| y| y| y| B  y| e# =X %| a[ a[ a[ a[ a[ a[ a[ a[ a[ a[ a[ a[ a[ a[ a[ a[ a[ a[ a[ a[ a[ a[ a[ a[ a[ a[ a[ a[ a[ a[ a[ a[ a[ a[ a[ a[ a[ a[ a[ a[ a[ a[ a[ a[ a[ a[ a[ a[ a[ a[ a[ a[ a[ a[ a[ a[ a[ a[ a[ a[ a[ a[ a[ a[ a[ a[ a[ a[ a[ a[ a[ a[ a[ a[ a[ a[ a[ a[ a[ a[ a[ a[ a[ a[ a[ a[ a[ a[ a[ a[ a[ a[ a[ a[ a[ a[ a[ a[ a[ a[ a[ a[ a[ a[ a[ a[ a[ a[ a[ a[ a[ a[ a[ a[ a[ a[ a[ a[ a[ a[ a[ a[ a[ a[ a[ a[ a[ a[ a[ a[ a[ a[ a[ a[ a[ a[ a[ a[ a[ a[ a[ a[ a[ a[ a[ a[ a[ a[ a[ a[ a[ a[ a[ a[ a[ a[ a[ a[ a[ a[ a[ a[ Z! )/ d%  @.Q{ Q{ NX }2 c. y| y| y| Nu Nu <| L| o^ +^ e% w[ C: 0/ 0/ 0/ 0/ 0/ 0/ 0/ 0/ 0/ 0/ 0/ 0/ 0/ 0/ 0/ 0/ 0/ 0/ 0/ 0/ 0/ 0/ 0/ 0/ 0/ 0/ 0/ 0/ 0/ 0/ /( %| a[ a[ a[ a[ a[ a[ a[ a[ a[ a[ a[ a[ Z! a[ U' MS y< :{ %} [2 H/ ^h uu 2p ]@.2* ]Y ]; t; H; ^@./@.(@.o, z* 9C _@.g+.,a U' +% C$ _$ x# x# y# y# x# y# y# x# P# /# 5@ *@ n+ N+ K  m7 |. |. 3. 6. t  S] |{ 4] )) 4^ 5^ ]( #@.:@.<@.[@.9W 9W 9W }@.3X 3X 3X |@.+} w+.w+.w+.w+.w+.w+.w+.w+.w+.1@.{Z {Z {Z Z{ kS kS kS kS 2@.=  =  =  =  [9 a^ m| m| *r [9 [9 [9 [9 Yi &. *. *. *. *. *. *. 3@.4@.4@.",
"5@.5@.6_ 6@.X1 X1 X1 X1 X1 X1 0& $t $t $t $t $t $t $t *+.aX aX aX aX DU bX bX bX bX -+.7+.8+.8+.8+.8+.8+.8+.8+.8+.7@.;+.l+.M+.HS HS HS HS IR hX hX ,@.,@.8@.'@.)@.// s] t] )) 4] u] +~ v  x  y  A  D  c. h+ =+ M+ N+ ^# =@ 5@ /# /# P# _$ _$ _$ _$ _$ E$ @% _% k% @& 3& _& C& P, w= V- !; l..G; ^> {@.U8 X* jN JG et 0x sC G} k{ 2) %} r! t( x( ][ $..a[ a[ a[ a[ a[ a[ a[ a[ %| 0/ 0/ 0/ 0/ 0/ 0/ 0/ 0/ 0/ 0/ 0/ 0/ 0/ 0/ 0/ 0/ 0/ 0/ 0/ 0/ 0/ 0/ 0/ 0/ 0/ 0/ 0/ 0/ 0/ 0/ 0/ 0/ 0/ ,[ ,[ a[ ei 4@ y| y| y| y| B  y| e# =X %| a[ a[ a[ a[ a[ a[ a[ a[ a[ a[ a[ a[ a[ a[ a[ a[ a[ a[ a[ a[ a[ a[ a[ a[ a[ a[ a[ a[ a[ a[ a[ a[ a[ a[ a[ a[ a[ a[ a[ a[ a[ a[ a[ a[ a[ a[ a[ a[ a[ a[ a[ a[ a[ a[ a[ a[ a[ a[ a[ a[ a[ a[ a[ a[ a[ a[ a[ a[ a[ a[ a[ a[ a[ a[ a[ a[ a[ a[ a[ a[ a[ a[ a[ a[ a[ a[ a[ a[ a[ a[ a[ a[ a[ a[ a[ a[ a[ a[ a[ a[ a[ a[ a[ a[ a[ a[ a[ a[ a[ a[ a[ a[ a[ a[ a[ a[ a[ a[ a[ a[ a[ a[ a[ a[ a[ a[ a[ a[ a[ a[ a[ a[ a[ a[ a[ a[ a[ a[ a[ a[ a[ a[ a[ a[ a[ a[ a[ a[ a[ a[ a[ a[ a[ a[ a[ a[ a[ a[ a[ a[ a[ a[ )/ a[ d%  @.Q{ Q{ NX }2 c. y| y| y| Nu Nu f{ ^/ Y] Ze &e C: C: 0/ 0/ 0/ 0/ 0/ 0/ 0/ 0/ 0/ 0/ 0/ 0/ 0/ 0/ 0/ 0/ 0/ 0/ 0/ 0/ 0/ 0/ 0/ 0/ 0/ 0/ 0/ 0/ 0/ 0/ /( %| a[ a[ a[ a[ a[ a[ a[ a[ a[ a[ a[ m~ m~ e_ S' k .y< :{ %} [2 H/ ^h bU 2p ]@.uQ ]Y Y- l..H; K; /@.(@.o, z* 0, 9@.]a xr c% `$ C$ _$ _$ _$ _$ _$ _$ _$ _$ _$ P# /# 5@ *@ n+ N+ =+ M6 7+ N. h  P. v  S] |{ 4] )) 4^ 5^ 1] #@.:@.:@.<@.0@.9W 9W 9W a@.b@.3X 3X 3X v+.c@.V+.w+.w+.w+.w+.w+.d@.{Z {Z {Z {Z Z{ kS kS kS kS 2+.=  =  =  3+.[9 }/ 7| m| m| }/ [9 }/ 1$ *. *. *. *. *. *. *. *. K$ 4@.4@.",
"5@.5@.5@.5@.6_ -@.X1 X1 X1 X1 {b $t $t $t $t $t $t $t *+.aX aX aX aX I .bX bX bX bX bX bX e@.8+.8+.8+.8+.8+.8+.8+.f@.;+.l+.M+.HS HS HS HS IR i@ hX Fa ,@.,@.8@.'@.q  s] t] )) 4] u] +~ v  x  y  A  D  c. h+ =+ M+ N+ ^# =@ 5@ /# /# P# _$ _$ _$ _$ _$ V$ @% _% k% @& 3& _& C& P, y= V- R; ,> !> ,> {@.U8 ON jN ]G gK 0x !p G} k{ 2) %} r! t( x( ][ Q` a[ a[ a[ a[ a[ a[ a[ a[ %| 0/ 0/ 0/ 0/ 0/ 0/ 0/ 0/ 0/ 0/ 0/ 0/ 0/ 0/ 0/ 0/ 0/ 0/ 0/ 0/ 0/ 0/ 0/ 0/ 0/ 0/ 0/ 0/ 0/ 0/ 0/ 0/ 0/ ,[ ,[ a[ ei 4@ y| y| y| y| B  y| e# =X %| a[ a[ a[ a[ a[ a[ a[ a[ a[ a[ a[ a[ a[ a[ a[ a[ a[ a[ a[ a[ a[ a[ a[ a[ a[ a[ a[ a[ a[ a[ a[ a[ a[ a[ a[ a[ a[ a[ a[ a[ a[ a[ a[ a[ a[ a[ a[ a[ a[ a[ a[ a[ a[ a[ a[ a[ a[ a[ a[ a[ a[ a[ a[ a[ a[ a[ a[ a[ a[ a[ a[ a[ a[ a[ a[ a[ a[ a[ a[ a[ a[ a[ a[ a[ a[ a[ a[ a[ a[ a[ a[ a[ a[ a[ a[ a[ a[ a[ a[ a[ a[ a[ a[ a[ a[ a[ a[ a[ a[ a[ a[ a[ a[ a[ a[ a[ a[ a[ a[ a[ a[ a[ a[ a[ a[ a[ a[ a[ a[ a[ a[ a[ a[ a[ a[ a[ a[ a[ a[ a[ a[ a[ a[ a[ a[ a[ a[ a[ a[ a[ a[ a[ a[ a[ a[ a[ a[ a[ a[ a[ a[ a[ a[ a[ _% H: Q{ Q{ NX }2 c. y| y| y| Nu g@.f{ ^/ +^ [% 0/ C: 0/ 0/ 0/ 0/ 0/ 0/ 0/ 0/ 0/ 0/ 0/ 0/ 0/ 0/ 0/ 0/ 0/ 0/ 0/ 0/ 0/ 0/ 0/ 0/ 0/ 0/ 0/ 0/ 0/ 0/ 0/ /( %| a[ a[ a[ a[ a[ a[ a[ a[ a[ a[ a[ a[ C, 46 +^ |^ y< :{ %} [2 H/ ^h bU }r :I h@.i@.Y- l..G; '> T; E= o, z* 0, j@.k@.ld _% `$ C$ _$ _$ _$ _$ _$ _$ _$ _$ _$ P# /# 5@ *@ n+ N+ =+ H  9+ N. 7. T. x  S] |{ 4] )) 4^ 5^ 2] l@.:@.:@.:@.:@.m@.9W 9W 9W n@.u+.o@.3X 3X 3X 3X 3X 3X |@.p@.q@.|` {Z {Z {Z {Z Z{ kS kS kS kS Ap =  =  =  r@.[9 [9 #/ 42 W# }/ Vb b@ *. *. *. *. *. *. *. *. *. *. s@.4@.",
"9( 5@.5@.5@.5@.5@.c; X1 X1 X1 i= $t $t $t $t $t $t $t mr aX aX aX aX v5 bX bX bX bX bX bX bX 7+.8+.8+.8+.8+.8+.8+.f@.;+.l+.M+.HS HS HS HS IR t@.hX A| ,@.,@.,@.5i q  s] t] )) 4] u] +~ v  x  y  A  D  c. h+ =+ M+ N+ ^# =@ 5@ /# /# P# _$ _$ _$ _$ _$ V$ @% _% k% @& && _& C& {* y= ^; !; K; A; K; u@.v@.w@.6* ]G gK 0x !p G} k{ 2) %} r! t( x( ][ Q` a[ a[ a[ a[ a[ a[ a[ a[ %| 0/ 0/ 0/ 0/ 0/ 0/ 0/ 0/ 0/ 0/ 0/ 0/ 0/ 0/ 0/ 0/ 0/ 0/ 0/ 0/ 0/ 0/ 0/ 0/ 0/ 0/ 0/ 0/ 0/ 0/ 0/ 0/ 0/ ,[ ,[ a[ ei 4@ y| y| y| y| B  y| e# =X %| a[ a[ a[ a[ a[ a[ a[ a[ a[ a[ a[ a[ a[ a[ a[ a[ a[ a[ a[ a[ a[ a[ a[ a[ a[ a[ a[ a[ a[ a[ a[ a[ a[ a[ a[ a[ a[ a[ a[ a[ a[ a[ a[ a[ a[ a[ a[ a[ a[ a[ a[ a[ a[ a[ a[ a[ a[ a[ a[ a[ a[ a[ a[ a[ a[ a[ a[ a[ a[ a[ a[ a[ a[ a[ a[ a[ a[ a[ a[ a[ a[ a[ a[ a[ a[ a[ a[ a[ a[ a[ a[ a[ a[ a[ a[ a[ a[ a[ a[ a[ a[ a[ a[ a[ a[ a[ a[ a[ a[ a[ a[ a[ a[ a[ a[ a[ a[ a[ a[ a[ a[ a[ a[ a[ a[ a[ a[ a[ a[ a[ a[ a[ a[ a[ a[ a[ a[ a[ a[ a[ a[ a[ a[ a[ a[ a[ a[ a[ a[ a[ a[ a[ a[ a[ a[ a[ a[ a[ a[ a[ a[ a[ a[ a[ :% y[ Q{ Q{ NX }2 c. y| y| y| Nu Nu f{ NX LR .e k^ C: 0/ 0/ 0/ 0/ 0/ 0/ 0/ 0/ 0/ 0/ 0/ 0/ 0/ 0/ 0/ 0/ 0/ 0/ 0/ 0/ 0/ 0/ 0/ 0/ 0/ 0/ 0/ 0/ 0/ 0/ 0/ /( %| a[ a[ a[ a[ a[ a[ a[ a[ a[ a[ a[ Q` Ze !x Q{ A/ y< :{ %}  & H/ ^h @v }r :I h@.<Z ]; ,> !> x@.T; E= o, z* v& cH PK m% _% `$ C$ _$ _$ _$ _$ _$ _$ _$ _$ _$ P# /# 5@ *@ n+ N+ =+ $+ a+ N. Q. X. x  S] |{ 4] )) 4^ 5^ 2] y@.z@.:@.:@.:@.:@.$@.0@.9W 9W 9W 9W H+.A@.B@.d .3X 3X 3X 3X 3X C@.{Z {Z {Z {Z Z{ kS kS kS kS =  =  =  =  D@.[9 [9 [9 /Z K` YW *. *. *. *. *. *. *. *. *. *. *. *. *. s@.",
"E@.F@.5@.5@.5@.5@.5@.c; X1 X1 X1 $t $t $t $t $t $t $t }9 aX aX aX aX v5 bX bX bX bX bX bX bX -+.8+.8+.8+.8+.8+.8+.;+.;+.l+.G@.HS HS HS HS IR >@.}s H@.,@.,@.,@.,@.1] s] t] )) 4] u] +~ v  x  y  A  D  c. h+ =+ M+ N+ ^# =@ 5@ /# /# P# _$ _$ _$ _$ _$ V$ @% _% k% S% && _& C& {* y= ^; +; '> I@.'> J@.Ye w@.K@.]G et 0x !p G} k{ 2) %} r! t( x( G} C, a[ a[ a[ a[ a[ a[ a[ a[ %| 0/ 0/ 0/ 0/ 0/ 0/ 0/ 0/ 0/ 0/ 0/ 0/ 0/ 0/ 0/ 0/ 0/ 0/ 0/ 0/ 0/ 0/ 0/ 0/ 0/ 0/ 0/ 0/ 0/ 0/ 0/ 0/ 0/ ,[ ,[ a[ ei 4@ y| y| y| y| B  y| e# =X %| a[ a[ a[ a[ a[ a[ a[ a[ a[ a[ a[ a[ a[ a[ a[ a[ a[ a[ a[ a[ a[ a[ a[ a[ a[ a[ a[ a[ a[ a[ a[ a[ a[ a[ a[ a[ a[ a[ a[ a[ a[ a[ a[ a[ a[ a[ a[ a[ a[ a[ a[ a[ a[ a[ a[ a[ a[ a[ a[ a[ a[ a[ a[ a[ a[ a[ a[ a[ a[ a[ a[ a[ a[ a[ a[ a[ a[ a[ a[ a[ a[ a[ a[ a[ a[ a[ a[ a[ a[ a[ a[ a[ a[ a[ a[ a[ a[ a[ a[ a[ a[ a[ a[ a[ a[ a[ a[ a[ a[ a[ a[ a[ a[ a[ a[ a[ a[ a[ a[ a[ a[ a[ a[ a[ a[ a[ a[ a[ a[ a[ a[ a[ a[ a[ a[ a[ a[ a[ a[ a[ a[ a[ a[ a[ a[ a[ a[ a[ a[ a[ a[ a[ a[ a[ a[ a[ a[ a[ a[ a[ a[ a[ )/ a[ d% +^ Q{ Q{ NX }2 c. y| y| y| Nu Nu &+ xV  e B, 0/ C: 0/ 0/ 0/ 0/ 0/ 0/ 0/ 0/ 0/ 0/ 0/ 0/ 0/ 0/ 0/ 0/ 0/ 0/ 0/ 0/ 0/ 0/ 0/ 0/ 0/ 0/ 0/ 0/ 0/ 0/ 0/ /( %| a[ a[ a[ a[ a[ a[ a[ a[ a[ a[ N .^z __ Q{ i_ A/ y< :{ %}  & H/ ^h @v +J :I h@.<Z Z- ,> !> v; T; E= o, {* w& =& @& m% _% `$ C$ _$ _$ _$ _$ _$ _$ _$ _$ _$ P# /# 5@ *@ n+ N+ =+ =+ c+ M. V. Z. x  S] |{ 4] )) 4^ 5^ 1] y@.L@.M@.N@.:@.:@.:@.:@.O@.P@.[@.9W 9W 9W 9W 9W 9W 9W 9W 9W Q@.R@.{Z {Z {Z {Z Z{ kS kS kS x{ =  =  =  =  S@.[9 [9 T@.h..h..0& *. *. *. *. *. *. *. *. *. *. *. *. *. *. ",
"U@.U@.V@.68 5@.5@.5@.5@.c; X1 X1 W@.$t $t $t $t $t $t =+.aX aX aX aX v5 bX bX bX bX bX bX bX bX Ja 8+.8+.8+.8+.X@.;+.;+.l+.HS HS HS HS HS IR IR Y@.hX Fa ,@.,@.,@.1] s] t] )) 4] u] +~ v  x  y  A  D  c. h+ =+ M+ N+ ^# =@ 5@ /# /# P# _$ _$ _$ _$ _$ V$ @% _% k% S% && _& C& {* `> ^; +; '> B; '> J@.Ye w@.K@.JG Zt yx !p G} k{ 2) %} r! t( x( G} C, a[ a[ a[ a[ a[ a[ a[ a[ %| 0/ 0/ 0/ 0/ 0/ 0/ 0/ 0/ 0/ 0/ 0/ 0/ 0/ 0/ 0/ 0/ 0/ 0/ 0/ 0/ 0/ 0/ 0/ 0/ 0/ 0/ 0/ 0/ 0/ 0/ 0/ 0/ 0/ ,[ ,[ a[ ei 4@ y| y| y| y| B  y| e# =X %| a[ a[ a[ a[ a[ a[ a[ a[ a[ a[ a[ a[ a[ a[ a[ a[ a[ a[ a[ a[ a[ a[ a[ a[ a[ a[ a[ a[ a[ a[ a[ a[ a[ a[ a[ a[ a[ a[ a[ a[ a[ a[ a[ a[ a[ a[ a[ a[ a[ a[ a[ a[ a[ a[ a[ a[ a[ a[ a[ a[ a[ a[ a[ a[ a[ a[ a[ a[ a[ a[ a[ a[ a[ a[ a[ a[ a[ a[ a[ a[ a[ a[ a[ a[ a[ a[ a[ a[ a[ a[ a[ a[ a[ a[ a[ a[ a[ a[ a[ a[ a[ a[ a[ a[ a[ a[ a[ a[ a[ a[ a[ a[ a[ a[ a[ a[ a[ a[ a[ a[ a[ a[ a[ a[ a[ a[ a[ a[ a[ a[ a[ a[ a[ a[ a[ a[ a[ a[ a[ a[ a[ a[ a[ a[ a[ a[ a[ a[ a[ a[ a[ a[ a[ a[ a[ a[ a[ a[ a[ a[ a[ a[ )/ )/ e% fx X^ Q{ NX }2 c. y| y| y| Nu Nu K  'W %..B, +j C: 0/ 0/ 0/ 0/ 0/ 0/ 0/ 0/ 0/ 0/ 0/ 0/ 0/ 0/ 0/ 0/ 0/ 0/ 0/ 0/ 0/ 0/ 0/ 0/ 0/ 0/ 0/ 0/ 0/ 0/ 0/ /( %| a[ a[ a[ a[ a[ a[ a[ a[ a[ e_ W'  @.Q{ Q{ Q{ (_ y< T[ %}  & H/ ^h @v +J :I uQ <Z Z- K; A; v; T; E= o, {* x& x, H% m% _% `$ C$ _$ _$ _$ _$ _$ _$ _$ _$ _$ P# /# 5@ *@ n+ N+ =+ $+ e+ b+ Z. Z. x  S] |{ 4] )) 4^ 5^ :~ Z@.`@.L@. #..#.:@.:@.:@.:@.:@.:@.O@.+#.+#.+#.+#.+#.@#.##.$#.v~ %#.{Z {Z {Z {Z Z{ kS kS kS 5U =  =  =  =  +1 [9 [9 '| h..!o *. *. *. *. *. *. *. *. *. *. *. *. *. *. *. ",
"U@.U@.U@.U@.F@.5@.5@.5@.5@.-@.X1 N/ $t $t $t $t $t $t i..aX aX aX aX bX bX bX bX bX bX bX bX bX 5+.8+.8+.8+.8+.L+.;+.;+.l+.HS HS HS HS HS g .IR &#.D+.*#.,@.,@.,@.1] s] t] )) 4] u] +~ v  x  y  A  D  c. h+ =+ M+ N+ ^# =@ 5@ /# /# P# _$ _$ _$ _$ _$ V$ @% _% l% H% && _& C& {* `> ^; +; =#.-#.=#.;#.>#.w@.K@.JG Zt yx !p G} k{ 2) %} r! t( x( G} C, a[ a[ a[ a[ a[ a[ a[ a[ %| 0/ 0/ 0/ 0/ 0/ 0/ 0/ 0/ 0/ 0/ 0/ 0/ 0/ 0/ 0/ 0/ 0/ 0/ 0/ 0/ 0/ 0/ 0/ 0/ 0/ 0/ 0/ 0/ 0/ 0/ 0/ 0/ 0/ ,[ ,[ a[ ei 4@ y| y| y| y| B  y| e# =X %| a[ a[ a[ a[ a[ a[ a[ a[ a[ a[ a[ a[ a[ a[ a[ a[ a[ a[ a[ a[ a[ a[ a[ a[ a[ a[ a[ a[ a[ a[ a[ a[ a[ a[ a[ a[ a[ a[ a[ a[ a[ a[ a[ a[ a[ a[ a[ a[ a[ a[ a[ a[ a[ a[ a[ a[ a[ a[ a[ a[ a[ a[ a[ a[ a[ a[ a[ a[ a[ a[ a[ a[ a[ a[ a[ a[ a[ a[ a[ a[ a[ a[ a[ a[ a[ a[ a[ a[ a[ a[ a[ a[ a[ a[ a[ a[ a[ a[ a[ a[ a[ a[ a[ a[ a[ a[ a[ a[ a[ a[ a[ a[ a[ a[ a[ a[ a[ a[ a[ a[ a[ a[ a[ a[ a[ a[ a[ a[ a[ a[ a[ a[ a[ a[ a[ a[ a[ a[ a[ a[ a[ a[ a[ a[ a[ a[ a[ a[ a[ a[ a[ a[ a[ a[ a[ a[ a[ a[ a[ a[ a[ a[ )/ Z! Q` LR M_ Q{ NX }2 c. y| y| y| Nu Nu K  'W %..B, +j C: 0/ 0/ 0/ 0/ 0/ 0/ 0/ 0/ 0/ 0/ 0/ 0/ 0/ 0/ 0/ 0/ 0/ 0/ 0/ 0/ 0/ 0/ 0/ 0/ 0/ 0/ 0/ 0/ 0/ 0/ 0/ /( %| a[ a[ a[ a[ a[ a[ a[ a[ e_ d% WO (^ Q{ Q{ Q{ (_ y< T[ >5  & H/ ^h @v +J :I uQ <Z PU u; ,#.0+.QQ  , L* {* x& '& i& m% _% `$ C$ _$ _$ _$ _$ _$ _$ _$ _$ _$ P# /# 5@ *@ n+ N+ =+ K  .+ .+ B  Z. x  S] |{ 4] )) 4^ 5^ :~ '#.)#.!#. #.L@.~#.{#.:@.:@.:@.:@.:@.:@.:@.:@.:@.:@.:@.&! w{ v~ v~ ]#.{Z {Z {Z Z{ kS kS kS ;d =  =  =  =  >$ [9 [9 >| h..^#.*. *. *. *. *. *. *. *. *. *. *. *. *. *. *. ",
"kR U@.U@.U@.U@./#.P/ 5@.5@.(#.K$ <1 $t $t $t $t $t $t ~h aX aX aX aX _#.bX bX bX bX bX bX bX bX bX e@.8+.8+.8+.:#.;+.;+.<#.HS HS HS HS HS g .[#.&#.Y@.hX jR ,@.,@.1] s] t] )) 4] u] +~ v  x  y  A  D  c. h+ =+ M+ N+ ^# =@ 5@ /# /# P# _$ _$ _$ _$ _$ V$ @% _% l% H% && _& C& {* `> ^; !; =#.C; v; ;#.>#.w@.oZ JG Zt !y !p G} k{ 2) %} r! t( x( G} C, a[ a[ a[ a[ a[ a[ a[ a[ %| 0/ 0/ 0/ 0/ 0/ 0/ 0/ 0/ 0/ 0/ 0/ 0/ 0/ 0/ 0/ 0/ 0/ 0/ 0/ 0/ 0/ 0/ 0/ 0/ 0/ 0/ 0/ 0/ 0/ 0/ 0/ 0/ 0/ ,[ ,[ a[ ei 4@ y| y| y| y| B  y| e# =X %| a[ a[ a[ a[ a[ a[ a[ a[ a[ a[ a[ a[ a[ a[ a[ a[ a[ a[ a[ a[ a[ a[ a[ a[ a[ a[ a[ a[ a[ a[ a[ a[ a[ a[ a[ a[ a[ a[ a[ a[ a[ a[ a[ a[ a[ a[ a[ a[ a[ a[ a[ a[ a[ a[ a[ a[ a[ a[ a[ a[ a[ a[ a[ a[ a[ a[ a[ a[ a[ a[ a[ a[ a[ a[ a[ a[ a[ a[ a[ a[ a[ a[ a[ a[ a[ a[ a[ a[ a[ a[ a[ a[ a[ a[ a[ a[ a[ a[ a[ a[ a[ a[ a[ a[ a[ a[ a[ a[ a[ a[ a[ a[ a[ a[ a[ a[ a[ a[ a[ a[ a[ a[ a[ a[ a[ a[ a[ a[ a[ a[ a[ a[ a[ a[ a[ a[ a[ a[ a[ a[ a[ a[ a[ a[ a[ a[ a[ a[ a[ a[ a[ a[ a[ a[ a[ a[ a[ a[ a[ a[ a[ a[ a[ Z! e_ S' H: Q{ NX }2 c. y| y| y| Nu Nu K  'W %..B, +j C: 0/ 0/ 0/ 0/ 0/ 0/ 0/ 0/ 0/ 0/ 0/ 0/ 0/ 0/ 0/ 0/ 0/ 0/ 0/ 0/ 0/ 0/ 0/ 0/ 0/ 0/ 0/ 0/ 0/ 0/ 0/ /( %| a[ a[ a[ a[ a[ a[ a[ G4 e% H..(^ o^ Q{ Q{ Q{ (_ y< T[ >5  & H/ ^h @v +J :I h@.<Z PU '> B; w; }#.., n, 8* &* '& i& m% _%  % C$ _$ _$ _$ _$ _$ _$ _$ _$ _$ P# /# 5@ *@ n+ N+ =+ K  c. c. B  Z. x  S] |{ 4] )) 4^ 5^ ]( vX |#.)#.1#.2#. #.L@.3#.4#.5#.:@.:@.:@.:@.:@.:@.6#.7#.8#.9#.v~ v~ 0#.{Z {Z {Z Z{ kS kS kS 2@.=  =  =  ~q [9 [9 [9 }} Re *. *. *. *. *. *. *. *. *. *. *. *. *. *. *. *. ",
"a#.b#.c#.U@.U@.U@.U@.d#.U% E@ e#.$t $t $t $t $t $t $t $t }9 aX aX aX (Z bX bX bX bX bX bX bX bX bX 5+.7+.8+.8+.7@.;+.;+.aY HS HS HS HS HS g .f#.&#.&#.D+.hX g#.,@.1] s] t] )) 4] u] +~ v  x  y  A  D  c. h+ =+ M+ N+ ^# =@ 5@ /# /# P# _$ _$ _$ _$ _$ V$ @% _% l% H% && _& C& {* y= vV +; =#.h#.w; ;#.>#.w@.:* JG Zt !y !p G} k{ 2) %} r! t( x( G} C, a[ a[ a[ a[ a[ a[ a[ a[ %| 0/ 0/ 0/ 0/ 0/ 0/ 0/ 0/ 0/ 0/ 0/ 0/ 0/ 0/ 0/ 0/ 0/ 0/ 0/ 0/ 0/ 0/ 0/ 0/ 0/ 0/ 0/ 0/ 0/ 0/ 0/ 0/ 0/ ,[ ,[ a[ ei 4@ y| y| y| y| B  y| e# =X %| a[ a[ a[ a[ a[ a[ a[ a[ a[ a[ a[ a[ a[ a[ a[ a[ a[ a[ a[ a[ a[ a[ a[ a[ a[ a[ a[ a[ a[ a[ a[ a[ a[ a[ a[ a[ a[ a[ a[ a[ a[ a[ a[ a[ a[ a[ a[ a[ a[ a[ a[ a[ a[ a[ a[ a[ a[ a[ a[ a[ a[ a[ a[ a[ a[ a[ a[ a[ a[ a[ a[ a[ a[ a[ a[ a[ a[ a[ a[ a[ a[ a[ a[ a[ a[ a[ a[ a[ a[ a[ a[ a[ a[ a[ a[ a[ a[ a[ a[ a[ a[ a[ a[ a[ a[ a[ a[ a[ a[ a[ a[ a[ a[ a[ a[ a[ a[ a[ a[ a[ a[ a[ a[ a[ a[ a[ a[ a[ a[ a[ a[ a[ a[ a[ a[ a[ a[ a[ a[ a[ a[ a[ a[ a[ a[ a[ a[ a[ a[ a[ a[ a[ a[ a[ a[ a[ a[ a[ a[ a[ a[ a[ a[ Z! a[ Uw @^ Q{ NX }2 c. y| y| y| Nu Nu @+ NX i#.B, C: C: 0/ 0/ 0/ 0/ 0/ 0/ 0/ 0/ 0/ 0/ 0/ 0/ 0/ 0/ 0/ 0/ 0/ 0/ 0/ 0/ 0/ 0/ 0/ 0/ 0/ 0/ 0/ 0/ 0/ 0/ 0/ /( %| a[ a[ a[ a[ a[ a[ a[ e_ 46 __ o^ Q{ Q{ Q{ Q{ (_ y< T[ >5  & H/ 1{ @v +J :I h@.<Z PU '> -#.)> j#.., L* 8* &* '& i& m% _%  % C$ _$ _$ _$ _$ _$ _$ _$ _$ _$ P# /# 5@ *@ n+ N+ =+ K  c. c. B  Z. x  S] |{ 4] )) 4^ 5^ ]( 4X k#.l#.m#.)#.)#.n#.`@.o#.o#.p#.q#.r#.s#.s#.s#.t#.8#.8#.7#.v~ v~ u#.{Z {Z {Z Z{ kS kS kS =  =  =  =  }P [9 [9 [9 v#.&. *. *. *. *. *. *. *. *. *. *. *. *. *. *. *. *. ",
"a#.a#.a#.7t w#.c#.U@.U@.E@.$t $t $t $t $t $t $t $t $t $t $t }9 aX aX aX _#.bX bX bX bX bX bX bX bX bX -+.7+.8+.f@.;+.;+.x#.HS HS HS HS HS g .y#.&#.&#.z#.hX hX A#.r  s] t] )) 4] u] +~ v  x  y  A  D  c. h+ =+ M+ N+ ^# =@ 5@ /# /# P# _$ _$ _$ _$ _$ V$ @% _% l% H% && _& C& {* y= vV +; =#.h#.w; B#.>#.w@.:* &* Zt !y !p G} k{ 2) %} r! t( k .K6 C, a[ a[ a[ a[ a[ a[ a[ a[ %| 0/ 0/ 0/ 0/ 0/ 0/ 0/ 0/ 0/ 0/ 0/ 0/ 0/ 0/ 0/ 0/ 0/ 0/ 0/ 0/ 0/ 0/ 0/ 0/ 0/ 0/ 0/ 0/ 0/ 0/ 0/ 0/ 0/ ,[ ,[ a[ ei 4@ y| y| y| y| B  y| e# =X %| a[ a[ a[ a[ a[ a[ a[ a[ a[ a[ a[ a[ a[ a[ a[ a[ a[ a[ a[ a[ a[ a[ a[ a[ a[ a[ a[ a[ a[ a[ a[ a[ a[ a[ a[ a[ a[ a[ a[ a[ a[ a[ a[ a[ a[ a[ a[ a[ a[ a[ a[ a[ a[ a[ a[ a[ a[ a[ a[ a[ a[ a[ a[ a[ a[ a[ a[ a[ a[ a[ a[ a[ a[ a[ a[ a[ a[ a[ a[ a[ a[ a[ a[ a[ a[ a[ a[ a[ a[ a[ a[ a[ a[ a[ a[ a[ a[ a[ a[ a[ a[ a[ a[ a[ a[ a[ a[ a[ a[ a[ a[ a[ a[ a[ a[ a[ a[ a[ a[ a[ a[ a[ a[ a[ a[ a[ a[ a[ a[ a[ a[ a[ a[ a[ a[ a[ a[ a[ a[ a[ a[ a[ a[ a[ a[ a[ a[ a[ a[ a[ a[ a[ a[ a[ a[ a[ a[ a[ a[ a[ a[ a[ a[ Z! Z! !j 0; b/ NX }2 c. y| y| y| Nu Nu f{ L| H..h% k^ C: 0/ 0/ 0/ 0/ 0/ 0/ 0/ 0/ 0/ 0/ 0/ 0/ 0/ 0/ 0/ 0/ 0/ 0/ 0/ 0/ 0/ 0/ 0/ 0/ 0/ 0/ 0/ 0/ 0/ 0/ 0/ /( %| a[ a[ a[ a[ a[ a[ a[ N . e M_ Q{ Q{ Q{ Q{ Q{ (_ y< T[ >5  & W/ 1{ @v +J :I h@.<Z PU '> C; )> U; ., n, 8* &* '& i& m% _%  % C$ _$ _$ _$ _$ _$ _$ _$ _$ _$ P# /# 5@ *@ n+ N+ =+ K  c. c. B  Z. x  S] |{ 4] )) 4^ 5^ ]( 4X k#.k#.k#.C#.)#.)#.)#.D#.E#.o#.o#.p#.F#.s#.G#.8#.8#.H#.I#.v~ v~ a) {Z {Z {Z Z{ kS kS kS Ap =  =  3_ J#.[9 [9 [9 F# *. *. *. *. *. *. *. *. *. *. *. *. *. *. *. *. *. ",
"a#.a#.a#.a#.a#.a#.a#.a#.K#.L#.$t $t $t $t $t $t $t $t $t $t $t LZ aX aX MZ bX bX bX bX bX bX bX bX bX bX bX <b M#.;+.;+.N#.HS HS HS HS HS g .OY &#.&#.&#.O#.P#.Q#.`/ s] t] )) 4] u] +~ v  x  y  A  D  c. h+ =+ M+ N+ ^# =@ 5@ /# /# P# _$ _$ _$ _$ _$ V$ @% _% l% H% && _& C& {* y= ^; +; v; E; w; R#.S#.w@.:* &* Zt !y !p G} k{ 2) %} r! t( k .K6 C, a[ a[ a[ a[ a[ a[ a[ a[ %| 0/ 0/ 0/ 0/ 0/ 0/ 0/ 0/ 0/ 0/ 0/ 0/ 0/ 0/ 0/ 0/ 0/ 0/ 0/ 0/ 0/ 0/ 0/ 0/ 0/ 0/ 0/ 0/ 0/ 0/ 0/ 0/ 0/ ,[ ,[ a[ ei 4@ y| y| y| y| B  y| e# =X %| a[ a[ a[ a[ a[ a[ a[ a[ a[ a[ a[ a[ a[ a[ a[ a[ a[ a[ a[ a[ a[ a[ a[ a[ a[ a[ a[ a[ a[ a[ a[ a[ a[ a[ a[ a[ a[ a[ a[ a[ a[ a[ a[ a[ a[ a[ a[ a[ a[ a[ a[ a[ a[ a[ a[ a[ a[ a[ a[ a[ a[ a[ a[ a[ a[ a[ a[ a[ a[ a[ a[ a[ a[ a[ a[ a[ a[ a[ a[ a[ a[ a[ a[ a[ a[ a[ a[ a[ a[ a[ a[ a[ a[ a[ a[ a[ a[ a[ a[ a[ a[ a[ a[ a[ a[ a[ a[ a[ a[ a[ a[ a[ a[ a[ a[ a[ a[ a[ a[ a[ a[ a[ a[ a[ a[ a[ a[ a[ a[ a[ a[ a[ a[ a[ a[ a[ a[ a[ a[ a[ a[ a[ a[ a[ a[ a[ a[ a[ a[ a[ a[ a[ a[ a[ a[ a[ a[ a[ a[ a[ a[ a[ a[ )/ Z! bk X, B< NX }2 c. y| y| y| Nu g@.f{ L| qR g% C: C: 0/ 0/ 0/ 0/ 0/ 0/ 0/ 0/ 0/ 0/ 0/ 0/ 0/ 0/ 0/ 0/ 0/ 0/ 0/ 0/ 0/ 0/ 0/ 0/ 0/ 0/ 0/ 0/ 0/ 0/ 0/ /( %| a[ a[ a[ a[ a[ a[ a[ N .S' B< Q{ Q{ Q{ Q{ Q{ (_ y< T[ >5  & W/ 1{ @v +J :I D* <Z PU '> C; )> U; ., 7G 8* &* '& i& m% _%  % C$ _$ _$ _$ _$ _$ _$ _$ _$ _$ P# /# 5@ *@ n+ N+ =+ K  c. c. B  Z. x  S] |{ 4] )) 4^ 5^ ]( 4X k#.k#.k#.k#.l#.|#.)#.)#.)#.T#.U#.V#.s#.W#.X#.8#.8#.Y#.v~ v~ v~ a) {Z {Z {Z Z{ kS kS kS f' =  =  Z#.`#.}/ {+ i= *. *. *. *. *. *. *. *. *. *. *. *. *. *. *. *. *. *. ",
"a#.a#.a#.a#.a#.a#.a#.a#. $.K#.^#.m/ $t $t $t $t $t $t $t $t $t mr aX aX aX r7 bX bX bX bX bX bX bX bX bX bX bX ;+.;+.;+.M..HS HS HS HS HS g ..$.&#.&#.&#.+$.Q#.Q#.`/ s] t] )) 4] u] +~ v  x  y  A  D  c. h+ =+ M+ N+ ^# =@ 5@ /# /# P# _$ _$ _$ _$ _$ V$ @% _% l% H% && _& C& {* y= ^; rW @$.#$.)> R#.S#.Z* :* &* Zt !y !p G} k{ 2) %} r! t( MS j3 bk a[ a[ a[ a[ a[ a[ a[ a[ %| 0/ 0/ 0/ 0/ 0/ 0/ 0/ 0/ 0/ 0/ 0/ 0/ 0/ 0/ 0/ 0/ 0/ 0/ 0/ 0/ 0/ 0/ 0/ 0/ 0/ 0/ 0/ 0/ 0/ 0/ 0/ 0/ 0/ ,[ ,[ a[ ei 4@ y| y| y| y| B  y| e# =X %| a[ a[ a[ a[ a[ a[ a[ a[ a[ a[ a[ a[ a[ a[ a[ a[ a[ a[ a[ a[ a[ a[ a[ a[ a[ a[ a[ a[ a[ a[ a[ a[ a[ a[ a[ a[ a[ a[ a[ a[ a[ a[ a[ a[ a[ a[ a[ a[ a[ a[ a[ a[ a[ a[ a[ a[ a[ a[ a[ a[ a[ a[ a[ a[ a[ a[ a[ a[ a[ a[ a[ a[ a[ a[ a[ a[ a[ a[ a[ a[ a[ a[ a[ a[ a[ a[ a[ a[ a[ a[ a[ a[ a[ a[ a[ a[ a[ a[ a[ a[ a[ a[ a[ a[ a[ a[ a[ a[ a[ a[ a[ a[ a[ a[ a[ a[ a[ a[ a[ a[ a[ a[ a[ a[ a[ a[ a[ a[ a[ a[ a[ a[ a[ a[ a[ a[ a[ a[ a[ a[ a[ a[ a[ a[ a[ a[ a[ a[ a[ a[ a[ a[ a[ a[ a[ a[ a[ a[ a[ a[ a[ a[ a[ a[ Z! a[ _% *^ NX }2 c. y| y| y| Nu g@.f{ ^/ ZO TQ 0/ C: 0/ 0/ 0/ 0/ 0/ 0/ 0/ 0/ 0/ 0/ 0/ 0/ 0/ 0/ 0/ 0/ 0/ 0/ 0/ 0/ 0/ 0/ 0/ 0/ 0/ 0/ 0/ 0/ 0/ 0/ 0/ /( %| a[ a[ a[ a[ a[ a[ a[ bk W' +^ Q{ Q{ Q{ Q{ Q{ (_ y< T[ >5  & W/ 1{ @v +J :I D* <Z PU J; D; I; $$.., n, 8* &* '& i& m% _% `$ C$ _$ _$ _$ _$ _$ _$ _$ _$ _$ P# /# 5@ *@ n+ N+ =+ K  c. c. B  Z. x  S] |{ 4] )) 4^ 5^ ]( %@.9W 9W 9W %$.k#.k#.&$.)#.)#.)#.)#.*$.s#.t#.8#.8#.H#.=$.v~ v~ v~ -$.{Z {Z {Z Z{ kS kS kS e@ =  &+.}P p7 pj *. *. *. *. *. *. *. *. *. *. *. *. *. *. *. *. *. *. *. *. ",
"a#.a#.a#.a#.a#.a#.a#.a#.a#.;$.K#.K#.L#.$t $t $t $t $t $t $t $t $t aX aX aX >$.bX bX bX bX bX bX bX bX bX bX bX ;+.;+.,$.HS HS HS HS HS HS g .'$.&#.&#.&#.)$.Q#.Q#.R. s] t] )) 4] u] +~ v  x  y  A  D  c. h+ =+ M+ N+ ^# =@ 5@ /# /# P# _$ _$ _$ _$ _$ E$ @% _% l% @& && _& C& {* y= ^; -> ]> #$.)> !$.S#.Z* :* &* Zt !y !p G} k{ 2) %} r! t( MS P' e_ a[ a[ a[ a[ a[ a[ a[ a[ %| 0/ 0/ 0/ 0/ 0/ 0/ 0/ 0/ 0/ 0/ 0/ 0/ 0/ 0/ 0/ 0/ 0/ 0/ 0/ 0/ 0/ 0/ 0/ 0/ 0/ 0/ 0/ 0/ 0/ 0/ 0/ 0/ 0/ ,[ ,[ a[ ei 4@ y| y| y| y| B  y| e# =X %| a[ a[ a[ a[ a[ a[ a[ a[ a[ a[ a[ a[ a[ a[ a[ a[ a[ a[ a[ a[ a[ a[ a[ a[ a[ a[ a[ a[ a[ a[ a[ a[ a[ a[ a[ a[ a[ a[ a[ a[ a[ a[ a[ a[ a[ a[ a[ a[ a[ a[ a[ a[ a[ a[ a[ a[ a[ a[ a[ a[ a[ a[ a[ a[ a[ a[ a[ a[ a[ a[ a[ a[ a[ a[ a[ a[ a[ a[ a[ a[ a[ a[ a[ a[ a[ a[ a[ a[ a[ a[ a[ a[ a[ a[ a[ a[ a[ a[ a[ a[ a[ a[ a[ a[ a[ a[ a[ a[ a[ a[ a[ a[ a[ a[ a[ a[ a[ a[ a[ a[ a[ a[ a[ a[ a[ a[ a[ a[ a[ a[ a[ a[ a[ a[ a[ a[ a[ a[ a[ a[ a[ a[ a[ a[ a[ a[ a[ a[ a[ a[ a[ a[ a[ a[ a[ a[ a[ a[ a[ a[ a[ a[ a[ a[ m~ m~ Gk G} 'W }2 c. y| y| y| Nu g@.f{ ^/ Y] 46 (4 C: 0/ 0/ 0/ 0/ 0/ 0/ 0/ 0/ 0/ 0/ 0/ 0/ 0/ 0/ 0/ 0/ 0/ 0/ 0/ 0/ 0/ 0/ 0/ 0/ 0/ 0/ 0/ 0/ 0/ 0/ 0/ /( %| a[ a[ a[ a[ a[ a[ a[ G4 [% fx Q{ Q{ Q{ Q{ Q{ (_ y< :{ %}  & W/ 1{ @v }r :I D* <Z ~$.J; {$.H; U; ., n, 8* &* '& i& m% _% `$ C$ _$ _$ _$ _$ _$ _$ _$ _$ _$ P# /# 5@ *@ n+ N+ =+ K  c. c. B  Z. x  S] |{ 4] )) 4^ 5^ ]( 8W 9W 9W 9W 9W m@.k#.k#.&$.)#.)#.)#.)#.X#.8#.8#.8#.]$.=$.v~ v~ v~ v~ {Z {Z {Z |c kS kS kS kS _[ ^$.}P Z, {+ *. *. *. *. *. *. *. *. *. *. *. *. *. *. *. *. *. *. *. *. ",
"a#.a#.a#.a#.a#.a#.a#.a#.a#./$.K#.K#.K#.^#.m/ $t $t $t $t $t $t $t LZ aX aX aX We bX bX bX bX bX bX bX bX bX bX ;+.;+.($.HS HS HS HS HS HS _$.&#.&#.&#.&#.Y+.:$.g#.1] s] t] )) 4] u] +~ v  x  y  A  D  c. h+ =+ M+ N+ ^# =@ 5@ /# /# P# _$ _$ _$ _$ _$ V$ @% _% l% @& 3& _& C& {* y= ^; @; w; #$.)> <$.S#.Z* :* JG Zt !y !p G} k{ 2) %} r! t( MS P' e_ a[ a[ a[ a[ a[ a[ a[ a[ %| 0/ 0/ 0/ 0/ 0/ 0/ 0/ 0/ 0/ 0/ 0/ 0/ 0/ 0/ 0/ 0/ 0/ 0/ 0/ 0/ 0/ 0/ 0/ 0/ 0/ 0/ 0/ 0/ 0/ 0/ 0/ 0/ 0/ ,[ ,[ a[ ei 4@ y| y| y| y| B  y| e# =X %| a[ a[ a[ a[ a[ a[ a[ a[ a[ a[ a[ a[ a[ a[ a[ a[ a[ a[ a[ a[ a[ a[ a[ a[ a[ a[ a[ a[ a[ a[ a[ a[ a[ a[ a[ a[ a[ a[ a[ a[ a[ a[ a[ a[ a[ a[ a[ a[ a[ a[ a[ a[ a[ a[ a[ a[ a[ a[ a[ a[ a[ a[ a[ a[ a[ a[ a[ a[ a[ a[ a[ a[ a[ a[ a[ a[ a[ a[ a[ a[ a[ a[ a[ a[ a[ a[ a[ a[ a[ a[ a[ a[ a[ a[ a[ a[ a[ a[ a[ a[ a[ a[ a[ a[ a[ a[ a[ a[ a[ a[ a[ a[ a[ a[ a[ a[ a[ a[ a[ a[ a[ a[ a[ a[ a[ a[ a[ a[ a[ a[ a[ a[ a[ a[ a[ a[ a[ a[ a[ a[ a[ a[ a[ a[ a[ a[ a[ a[ a[ a[ a[ a[ a[ a[ a[ a[ a[ a[ a[ a[ a[ a[ a[ a[ a[ Z! a[ c% 3^ A( c. y| y| y| Nu Nu f{ I: Y] %..ha C: C: 0/ 0/ 0/ 0/ 0/ 0/ 0/ 0/ 0/ 0/ 0/ 0/ 0/ 0/ 0/ 0/ 0/ 0/ 0/ 0/ 0/ 0/ 0/ 0/ 0/ 0/ 0/ 0/ 0/ 0/ /( %| a[ a[ a[ a[ a[ a[ a[ a[ bk  e M_ Q{ Q{ Q{ Q{ (_ y< :{ %}  & W/ 1{ @v }r :I D* <Z ~$.J; {$.H; U; ., n, 8* &* '& J% m% _% `$ C$ _$ _$ _$ _$ _$ _$ _$ _$ _$ P# /# 5@ *@ n+ N+ =+ K  c. c. B  Z. x  S] |{ 4] )) 4^ 5^ ]( G1 [$.9W 9W 9W 9W }$.k#.k#.&$.)#.)#.)#.8#.8#.8#.8#.|$.=$.v~ v~ v~ v~ {Z {Z {Z kS kS kS kS kS kS 1$.}P `#.tq *. *. *. *. *. *. *. *. *. *. *. *. *. *. *. *. *. *. *. *. ",
"a#.a#.a#.a#.a#.a#.a#.a#.a#.a#.;$.K#.K#.K#.K#.m/ $t $t $t $t $t $t i..aX aX aX aX AX bX bX bX bX bX bX bX bX bX ;+.;+.2$.HS HS HS HS HS HS eT &#.&#.&#.&#.hY $U $U 1] s] t] )) 4] u] +~ v  x  y  A  D  c. h+ =+ M+ N+ ^# =@ 5@ /# /# P# _$ _$ _$ _$ _$ V$ @% _% l% @& 3& _& C& {* y= ^; @; ]> #$.)> <$.S#.1P :* ]@.!u !y !p G} k{ 2) %} r! t( _4 P' e_ a[ a[ a[ a[ a[ a[ a[ a[ %| 0/ 0/ 0/ 0/ 0/ 0/ 0/ 0/ 0/ 0/ 0/ 0/ 0/ 0/ 0/ 0/ 0/ 0/ 0/ 0/ 0/ 0/ 0/ 0/ 0/ 0/ 0/ 0/ 0/ 0/ 0/ 0/ 0/ ,[ ,[ a[ ei 4@ y| y| y| y| B  y| e# =X %| a[ a[ a[ a[ a[ a[ a[ a[ a[ a[ a[ a[ a[ a[ a[ a[ a[ a[ a[ a[ a[ a[ a[ a[ a[ a[ a[ a[ a[ a[ a[ a[ a[ a[ a[ a[ a[ a[ a[ a[ a[ a[ a[ a[ a[ a[ a[ a[ a[ a[ a[ a[ a[ a[ a[ a[ a[ a[ a[ a[ a[ a[ a[ a[ a[ a[ a[ a[ a[ a[ a[ a[ a[ a[ a[ a[ a[ a[ a[ a[ a[ a[ a[ a[ a[ a[ a[ a[ a[ a[ a[ a[ a[ a[ a[ a[ a[ a[ a[ a[ a[ a[ a[ a[ a[ a[ a[ a[ a[ a[ a[ a[ a[ a[ a[ a[ a[ a[ a[ a[ a[ a[ a[ a[ a[ a[ a[ a[ a[ a[ a[ a[ a[ a[ a[ a[ a[ a[ a[ a[ a[ a[ a[ a[ a[ a[ a[ a[ a[ a[ a[ a[ a[ a[ a[ a[ a[ a[ a[ a[ a[ a[ a[ a[ a[ Z! Z! +{ 8; U/ c. y| y| y| Nu Nu u{ L| M^ .# SO 0/ C: 0/ 0/ 0/ 0/ 0/ 0/ 0/ 0/ 0/ 0/ 0/ 0/ 0/ 0/ 0/ 0/ 0/ 0/ 0/ 0/ 0/ 0/ 0/ 0/ 0/ 0/ 0/ 0/ 0/ 0/ /( %| a[ a[ a[ a[ a[ a[ a[ a[ G4 <% fx Q{ Q{ Q{ Q{ (_ y< :{ %}  & W/ 1{ @v }r :I D* <Z ~$.J; {$.H; U; ., n, 8* &* '& J% m% _% `$ C$ _$ _$ _$ _$ _$ _$ _$ _$ _$ P# /# 5@ *@ n+ N+ =+ K  c. c. B  Z. x  S] |{ 4] )) 4^ 5^ ]( z~ 3$.H+.9W 9W 9W 0@.k#.k#.k#.m#.)#.)#.8#.8#.8#.8#.4$.=$.v~ v~ v~ 0#.{Z {Z {Z kS kS kS kS kS kS ([ }P 5$.*. *. *. *. *. *. *. *. *. *. *. *. *. *. *. *. *. *. *. *. *. ",
"a#.a#.a#.a#.a#.a#.a#.a#.a#.a#.6$.K#.K#.K#.K#.7t $t $t $t $t $t $t mr aX aX aX aX We bX bX bX bX bX bX bX bX bX ;+.;+.4e HS HS HS HS HS HS pS &#.&#.&#.&#.$U $U $U 1] s] t] )) 4] u] +~ v  x  y  A  D  c. h+ =+ M+ N+ ^# =@ 5@ /# /# P# _$ _$ _$ _$ _$ V$ @% _% l% @& 3& _& C& {* y= ^; -> ]> 7$.)> <$.S#.1P 8$.]@.!u !y !p G} k{ 2) %} r! t( _4 R' e_ a[ a[ a[ a[ a[ a[ a[ a[ %| 0/ 0/ 0/ 0/ 0/ 0/ 0/ 0/ 0/ 0/ 0/ 0/ 0/ 0/ 0/ 0/ 0/ 0/ 0/ 0/ 0/ 0/ 0/ 0/ 0/ 0/ 0/ 0/ 0/ 0/ 0/ 0/ 0/ ,[ ,[ a[ ei 4@ y| y| y| y| B  y| e# =X %| a[ a[ a[ a[ a[ a[ a[ a[ a[ a[ a[ a[ a[ a[ a[ a[ a[ a[ a[ a[ a[ a[ a[ a[ a[ a[ a[ a[ a[ a[ a[ a[ a[ a[ a[ a[ a[ a[ a[ a[ a[ a[ a[ a[ a[ a[ a[ a[ a[ a[ a[ a[ a[ a[ a[ a[ a[ a[ a[ a[ a[ a[ a[ a[ a[ a[ a[ a[ a[ a[ a[ a[ a[ a[ a[ a[ a[ a[ a[ a[ a[ a[ a[ a[ a[ a[ a[ a[ a[ a[ a[ a[ a[ a[ a[ a[ a[ a[ a[ a[ a[ a[ a[ a[ a[ a[ a[ a[ a[ a[ a[ a[ a[ a[ a[ a[ a[ a[ a[ a[ a[ a[ a[ a[ a[ a[ a[ a[ a[ a[ a[ a[ a[ a[ a[ a[ a[ a[ a[ a[ a[ a[ a[ a[ a[ a[ a[ a[ a[ a[ a[ a[ a[ a[ a[ a[ a[ a[ a[ a[ a[ a[ a[ a[ a[ a[ %| e_ (( n+ c. y| y| y| Nu Nu }2 L| Q{ fx |% 0/ C: 0/ 0/ 0/ 0/ 0/ 0/ 0/ 0/ 0/ 0/ 0/ 0/ 0/ 0/ 0/ 0/ 0/ 0/ 0/ 0/ 0/ 0/ 0/ 0/ 0/ 0/ 0/ 0/ 0/ 0/ /( %| a[ a[ a[ a[ a[ a[ a[ a[ a[ bk  e X^ Q{ Q{ Q{ (_ y< :{ %}  & W/ 1{ @v }r :I D* <Z ~$.J; E; H; U; ., n, 8* &* '& J% m% _% `$ C$ _$ _$ _$ _$ _$ _$ _$ _$ _$ P# /# 5@ *@ n+ N+ =+ K  c. c. B  Z. x  S] |{ 4] )) 4^ 5^ ]( z~ 3$.3$.9$.9W 9W 9W m@.k#.k#.l#.0$.a$.8#.8#.8#.8#.b$.=$.v~ %#.c$.{Z {Z {Z {Z kS kS kS kS kS kS kS Z#.}P +# *. *. *. *. *. *. *. *. *. *. *. *. *. *. *. *. *. *. *. *. ",
"a#.a#.a#.a#.a#.a#.a#.a#.a#.a#. $.K#.K#.K#.7t $t $t $t $t $t $t $t *+.aX aX aX aX >$.bX bX bX bX bX bX bX bX bX ;+.;+.L..HS HS HS HS HS HS d$.&#.&#.&#./V $U $U $U 1] s] t] )) 4] u] +~ v  x  y  A  D  c. h+ =+ M+ N+ ^# =@ 5@ /# /# P# _$ _$ _$ _$ _$ V$ @% _% l% @& 3& _& C& {* y= ^; -> ]> 7$.)> <$.S#.Z* :* JG Zt !y !p G} k{ 2) %} r! t( _4 R' e_ a[ a[ a[ a[ a[ a[ a[ a[ %| 0/ 0/ 0/ 0/ 0/ 0/ 0/ 0/ 0/ 0/ 0/ 0/ 0/ 0/ 0/ 0/ 0/ 0/ 0/ 0/ 0/ 0/ 0/ 0/ 0/ 0/ 0/ 0/ 0/ 0/ 0/ 0/ 0/ ,[ ,[ a[ ei 4@ y| y| y| y| B  y| e# =X %| a[ a[ a[ a[ a[ a[ a[ a[ a[ a[ a[ a[ a[ a[ a[ a[ a[ a[ a[ a[ a[ a[ a[ a[ a[ a[ a[ a[ a[ a[ a[ a[ a[ a[ a[ a[ a[ a[ a[ a[ a[ a[ a[ a[ a[ a[ a[ a[ a[ a[ a[ a[ a[ a[ a[ a[ a[ a[ a[ a[ a[ a[ a[ a[ a[ a[ a[ a[ a[ a[ a[ a[ a[ a[ a[ a[ a[ a[ a[ a[ a[ a[ a[ a[ a[ a[ a[ a[ a[ a[ a[ a[ a[ a[ a[ a[ a[ a[ a[ a[ a[ a[ a[ a[ a[ a[ a[ a[ a[ a[ a[ a[ a[ a[ a[ a[ a[ a[ a[ a[ a[ a[ a[ a[ a[ a[ a[ a[ a[ a[ a[ a[ a[ a[ a[ a[ a[ a[ a[ a[ a[ a[ a[ a[ a[ a[ a[ a[ a[ a[ a[ a[ a[ a[ a[ a[ a[ a[ a[ a[ a[ a[ a[ a[ a[ a[ %| a[ T< =@ E  y| y| y| Nu Nu }2 L| Q{ La |% 0/ C: 0/ 0/ 0/ 0/ 0/ 0/ 0/ 0/ 0/ 0/ 0/ 0/ 0/ 0/ 0/ 0/ 0/ 0/ 0/ 0/ 0/ 0/ 0/ 0/ 0/ 0/ 0/ 0/ 0/ 0/ /( %| a[ a[ a[ a[ a[ a[ a[ a[ a[ e_ T' *^ Q{ Q{ Q{ (_ y< :{ %}  & W/ 1{ @v }r :I D* <Z ~$.J; E; H; U; ., n, 8* &* '& i& m% _% `$ C$ _$ _$ _$ _$ _$ _$ _$ _$ _$ P# /# 5@ *@ n+ N+ =+ K  c. c. B  Z. x  S] |{ 4] )) 4^ 5^ ]( z~ 3$.3$.e$.9W 9W 9W 9W }$.k#.k#.l#.a$.8#.8#.8#.8#.f$.=$.%#.]#.{Z {Z {Z {Z g$.kS kS kS kS kS kS kS J` }P s| *. *. *. *. *. *. *. *. *. *. *. *. *. *. *. *. *. *. *. *. ",
"a#.a#.a#.a#.a#.a#.a#.a#.a#.a#. $.K#.K#.K#.L#.%t K#.7t $t $t $t $t $t LZ aX aX aX aX v5 bX bX bX bX bX bX bX L..;+.;+.bX HS HS HS HS HS HS h$.&#.&#.&#.$U $U $U $U 1] s] t] )) 4] u] +~ v  x  y  A  D  c. h+ =+ M+ N+ ^# =@ 5@ /# /# P# _$ _$ _$ _$ _$ V$ @% _% l% @& 3& _& C& {* y= ^; -> ]> #$.)> !$.S#.Z* :* JG Zt !y !p G} k{ 2) %} r! t( _4 %% e_ a[ a[ a[ a[ a[ a[ a[ a[ %| 0/ 0/ 0/ 0/ 0/ 0/ 0/ 0/ 0/ 0/ 0/ 0/ 0/ 0/ 0/ 0/ 0/ 0/ 0/ 0/ 0/ 0/ 0/ 0/ 0/ 0/ 0/ 0/ 0/ 0/ 0/ 0/ 0/ ,[ ,[ a[ ei 4@ y| y| y| y| B  y| e# =X ^^ a[ a[ a[ a[ a[ a[ a[ a[ a[ a[ a[ a[ a[ a[ a[ a[ a[ a[ a[ a[ a[ a[ a[ a[ a[ a[ a[ a[ a[ a[ a[ a[ a[ a[ a[ a[ a[ a[ a[ a[ a[ a[ a[ a[ a[ a[ a[ a[ a[ a[ a[ a[ a[ a[ a[ a[ a[ a[ a[ a[ a[ a[ a[ a[ a[ a[ a[ a[ a[ a[ a[ a[ a[ a[ a[ a[ a[ a[ a[ a[ a[ a[ a[ a[ a[ a[ a[ a[ a[ a[ a[ a[ a[ a[ a[ a[ a[ a[ a[ a[ a[ a[ a[ a[ a[ a[ a[ a[ a[ a[ a[ a[ a[ a[ a[ a[ a[ a[ a[ a[ a[ a[ a[ a[ a[ a[ a[ a[ a[ a[ a[ a[ a[ a[ a[ a[ a[ a[ a[ a[ a[ a[ a[ a[ a[ a[ a[ a[ a[ a[ a[ a[ a[ a[ a[ a[ a[ a[ a[ a[ a[ a[ a[ a[ a[ a[ %| a[ T< =@ h+ y| y| y| Nu Nu f{ L| X^ Ze [q 0/ C: 0/ 0/ 0/ 0/ 0/ 0/ 0/ 0/ 0/ 0/ 0/ 0/ 0/ 0/ 0/ 0/ 0/ 0/ 0/ 0/ 0/ 0/ 0/ 0/ 0/ 0/ 0/ 0/ 0/ 0/ /( %| a[ a[ a[ a[ a[ a[ a[ a[ a[ e_ e% fx M^ Q{ Q{ (_ y< :{ %}  & W/ 1{ @v }r :I D* <Z ~$.J; D; I; U; ., n, 8* &* '& i& m% _% `$ C$ _$ _$ _$ _$ _$ _$ _$ _$ _$ P# /# 5@ *@ n+ N+ =+ K  c. c. B  Z. x  S] |{ 4] )) 4^ 5^ ]( z~ 3$.3$.3$.9$.9W 9W 9W 0@.k#.k#.k#.i$.8#.8#.8#.8#.H#.=$.]#.{Z {Z {Z {Z {Z g$.kS kS kS kS kS kS kS j$.}P !+ *. *. *. *. *. *. *. *. *. *. *. *. *. *. *. *. *. *. *. *. ",
"a#.a#.a#.a#.a#.a#.a#.a#.a#.a#./$.K#.K#.K#.K#.K#.K#.L#.$t $t $t $t $t ~h aX aX aX aX We bX bX bX bX bX bX bX 4e ;+.;+.bX HS HS HS HS HS HS &#.&#.&#.'$.$U $U $U $U 1] s] t] )) 4] u] +~ v  x  y  A  D  c. h+ =+ M+ N+ ^# =@ 5@ /# /# P# _$ _$ _$ _$ _$ V$ @% _% l% @& 3& _& C& {* y= ^; -> ]> #$.)> R#.S#.Z* :* &* Zt !y !p G} k{ 2) %} r! t( _4 %% e_ a[ a[ a[ a[ a[ a[ a[ a[ %| 0/ 0/ 0/ 0/ 0/ 0/ 0/ 0/ 0/ 0/ 0/ 0/ 0/ 0/ 0/ 0/ 0/ 0/ 0/ 0/ 0/ 0/ 0/ 0/ 0/ 0/ 0/ 0/ 0/ 0/ 0/ 0/ 0/ ,[ ,[ a[ ei 4@ y| y| y| y| <! Dx e# =X %| a[ a[ a[ a[ a[ a[ a[ a[ a[ a[ a[ a[ a[ a[ a[ a[ a[ a[ a[ a[ a[ a[ a[ a[ a[ a[ a[ a[ a[ a[ a[ a[ a[ a[ a[ a[ a[ a[ a[ a[ a[ a[ a[ a[ a[ a[ a[ a[ a[ a[ a[ a[ a[ a[ a[ a[ a[ a[ a[ a[ a[ a[ a[ a[ a[ a[ a[ a[ a[ a[ a[ a[ a[ a[ a[ a[ a[ a[ a[ a[ a[ a[ a[ a[ a[ a[ a[ a[ a[ a[ a[ a[ a[ a[ a[ a[ a[ a[ a[ a[ a[ a[ a[ a[ a[ a[ a[ a[ a[ a[ a[ a[ a[ a[ a[ a[ a[ a[ a[ a[ a[ a[ a[ a[ a[ a[ a[ a[ a[ a[ a[ a[ a[ a[ a[ a[ a[ a[ a[ a[ a[ a[ a[ a[ a[ a[ a[ a[ a[ a[ a[ a[ a[ a[ a[ a[ a[ a[ a[ a[ a[ a[ a[ a[ a[ a[ %| a[ T< =@ h+ y| y| y| Nu Nu f{ I: __ 6; ^^ k^ 0/ 0/ 0/ 0/ 0/ 0/ 0/ 0/ 0/ 0/ 0/ 0/ 0/ 0/ 0/ 0/ 0/ 0/ 0/ 0/ 0/ 0/ 0/ 0/ 0/ 0/ 0/ 0/ 0/ 0/ 0/ /( %| a[ a[ a[ a[ a[ a[ a[ a[ a[ a[ N .LR b/ Q{ Q{ (_ y< :{ %}  & W/ 1{ @v }r :I D* <Z ~$.J; D; I; U; ., n, 8* &* '& i& m% _% `$ C$ _$ _$ _$ _$ _$ _$ _$ _$ _$ P# /# 5@ *@ n+ N+ =+ K  c. c. B  Z. x  S] |{ 4] )) 4^ 5^ ]( z~ 3$.3$.3$.u+.9W 9W 9W 9W m@.k#.k#.k#.k$.8#.8#.8#.8#.l$.m$.{Z {Z {Z {Z {Z n$.kS kS kS kS kS kS kS d@ }P i= i= *. *. *. *. *. *. *. *. *. *. *. *. *. *. *. *. *. *. *. ",
"a#.a#.a#.a#.a#.a#.a#.a#.a#.a#.a#.;$.K#.K#.K#.K#.K#.m/ $t $t $t $t $t $t }9 aX aX aX >$.AX bX bX bX bX bX bX 4e ;+.;+.bX HS HS HS HS HS HS &#.&#.&#.'$.$U $U $U $U 1] s] t] )) 4] u] +~ v  x  y  A  D  c. h+ =+ M+ N+ ^# =@ 5@ /# /# P# _$ _$ _$ _$ _$ V$ @% _% l% @& && _& C& {* y= ^; @; 0+.#$.o$.R#.S#.Y* :* &* Zt !y !p G} k{ 2) %} r! t( D< U' G4 a[ a[ a[ a[ a[ a[ a[ m~ ^^ 0/ 0/ 0/ 0/ 0/ 0/ 0/ 0/ 0/ 0/ 0/ 0/ 0/ 0/ 0/ 0/ 0/ 0/ 0/ 0/ 0/ 0/ 0/ 0/ 0/ 0/ 0/ 0/ 0/ 0/ 0/ 0/ 0/ ,[ ,[ a[ ei 4@ y| y| y| y| <! Dx e# =X ^^ m~ a[ a[ a[ a[ a[ a[ a[ a[ a[ a[ a[ a[ a[ a[ a[ a[ a[ a[ a[ a[ a[ a[ a[ a[ a[ a[ a[ a[ a[ a[ a[ a[ a[ a[ a[ a[ a[ a[ a[ a[ a[ a[ a[ a[ a[ a[ a[ a[ a[ a[ a[ a[ a[ a[ a[ a[ a[ a[ a[ a[ a[ a[ a[ a[ a[ a[ a[ a[ a[ a[ a[ a[ a[ a[ a[ a[ a[ a[ a[ a[ a[ a[ a[ a[ a[ a[ a[ a[ a[ a[ a[ a[ a[ a[ a[ a[ a[ a[ a[ a[ a[ a[ a[ a[ a[ a[ a[ a[ a[ a[ a[ a[ a[ a[ a[ a[ a[ a[ a[ a[ a[ a[ a[ a[ a[ a[ a[ a[ a[ a[ a[ a[ a[ a[ a[ a[ a[ a[ a[ a[ a[ a[ a[ a[ a[ a[ a[ a[ a[ a[ a[ a[ a[ a[ a[ a[ a[ a[ a[ a[ a[ a[ a[ a[ m~ %| m~ T< O# h+ y| y| y| Nu Nu f{ I: +^ e% w[ k^ 0/ 0/ 0/ 0/ 0/ 0/ 0/ 0/ 0/ 0/ 0/ 0/ 0/ 0/ 0/ 0/ 0/ 0/ 0/ 0/ 0/ 0/ 0/ 0/ 0/ 0/ 0/ 0/ 0/ 0/ 0/ `e ^^ m~ a[ a[ a[ a[ a[ a[ a[ a[ a[ e_ UQ M_ Q{ Q{ (_ y< :{ %}  & W/ 1{ @v +J :I h@.<Z PU '> p$.I; U; q$.7G 8* &* '& i& m% _% `$ C$ _$ _$ _$ _$ _$ _$ _$ _$ _$ P# /# 5@ *@ n+ N+ =+ K  c. c. B  Z. x  S] |{ 4] )) 4^ 5^ ]( z~ 3$.3$.3$.3$.[$.9W 9W 9W 9W P@.k#.k#.r$.8#.8#.8#.9#.s$.s$.t$.{Z {Z {Z {Z u$.kS kS kS kS kS kS kS 5@.}P i= 0& *. *. *. *. *. *. *. *. *. *. *. *. *. *. *. *. *. *. *. ",
"a#.a#.a#.a#.a#.a#.a#.a#.a#.a#.a#./$.K#.K#.K#.K#.K#.L#.$t $t $t $t $t $t $t =+.aX aX aX MZ bX bX bX bX bX bX 4e ;+.;+.bX HS HS HS HS HS HS &#.&#.&#.&#.$U $U $U $U 1] s] t] )) 4] u] +~ v  x  y  A  D  c. h+ =+ M+ N+ ^# =@ 5@ /# /# P# _$ _$ _$ _$ _$ V$ @% _% l% H% && _& C& {* y= vV +; v; E; w; R#.S#.w@.:* &* Zt !y !p G} k{ 2) %} r! t( NX _% G4 m~ m~ m~ m~ m~ m~ m~ m~ ^^ 0/ 0/ 0/ 0/ 0/ 0/ 0/ 0/ 0/ 0/ 0/ 0/ 0/ 0/ 0/ 0/ 0/ 0/ 0/ 0/ 0/ 0/ 0/ 0/ 0/ 0/ 0/ 0/ 0/ 0/ 0/ 0/ 0/ ,[ ,[ a[ ei 4@ y| y| y| y| B  y| e# =X ^^ m~ m~ m~ m~ m~ m~ m~ m~ m~ m~ m~ m~ m~ m~ m~ m~ m~ m~ m~ m~ m~ m~ m~ m~ m~ m~ m~ m~ m~ m~ m~ m~ m~ m~ m~ m~ m~ m~ m~ m~ m~ m~ m~ m~ m~ m~ m~ m~ m~ m~ m~ m~ m~ m~ m~ m~ m~ m~ m~ m~ m~ m~ m~ m~ m~ m~ m~ m~ m~ m~ m~ m~ m~ m~ m~ m~ m~ m~ m~ m~ m~ m~ m~ m~ m~ m~ m~ m~ m~ m~ m~ m~ m~ m~ m~ m~ m~ m~ m~ m~ m~ m~ m~ m~ m~ m~ m~ m~ m~ m~ m~ m~ m~ m~ m~ m~ m~ m~ m~ m~ m~ m~ m~ m~ m~ m~ m~ m~ m~ m~ m~ m~ m~ m~ m~ m~ m~ m~ m~ m~ m~ m~ m~ m~ m~ m~ m~ m~ m~ m~ m~ m~ m~ m~ m~ m~ m~ m~ m~ m~ m~ m~ m~ m~ m~ m~ ^^ m~ U< O# h+ y| y| y| Nu g@.f{ I: La SO k^ C: 0/ 0/ 0/ 0/ 0/ 0/ 0/ 0/ 0/ 0/ 0/ 0/ 0/ 0/ 0/ 0/ 0/ 0/ 0/ 0/ 0/ 0/ 0/ 0/ 0/ 0/ 0/ 0/ 0/ 0/ 0/ `e ^^ m~ m~ m~ m~ m~ m~ m~ m~ m~ m~ G4 U, fx X^ Q{ (_ y< :{ %}  & W/ 1{ @v +J :I h@.<Z PU '> C; )> U; ., 2= 8* &* '& i& m% _% `$ C$ _$ _$ _$ _$ _$ _$ _$ _$ _$ P# /# 5@ *@ n+ N+ =+ K  c. c. B  Z. x  S] |{ 4] )) 4^ 5^ ]( z~ 3$.3$.3$.3$.}@.9W 9W 9W 9W 9W P@.k#.k#.t#.8#.8#.v$.s$.s$.w$.x$.y$.{Z {Z z$.kS kS kS kS kS A$.}P }P }P i= $t &. *. *. *. *. *. *. *. *. *. *. *. *. *. *. *. *. *. *. ",
"a#.a#.a#.a#.a#.a#.a#.a#.a#.a#.a#.a#.;$.K#.K#.K#.K#.K#.0& $t $t $t $t $t $t $t aX aX aX aX I .bX bX bX bX bX 4e ;+.;+.bX HS HS HS HS HS HS &#.&#.Y@.&#.hY $U $U $U 1] s] t] )) 4] u] +~ v  x  y  A  D  c. h+ =+ M+ N+ ^# =@ 5@ /# /# P# _$ _$ _$ _$ _$ V$ @% _% l% H% && _& C& {* y= vV +; v; D; w; R#.S#.w@.:* &* Zt !y !p G} k{ 2) %} r! t( zz _% G4 m~ m~ m~ m~ m~ m~ m~ m~ ^^ 0/ 0/ 0/ 0/ 0/ 0/ 0/ 0/ 0/ 0/ 0/ 0/ 0/ 0/ 0/ 0/ 0/ 0/ 0/ 0/ 0/ 0/ 0/ 0/ 0/ 0/ 0/ 0/ 0/ 0/ 0/ 0/ 0/ ,[ ,[ a[ ei 4@ y| y| y| y| B  y| e# =X ^^ m~ m~ m~ m~ m~ m~ m~ m~ m~ m~ m~ m~ m~ m~ m~ m~ m~ m~ m~ m~ m~ m~ m~ m~ m~ m~ m~ m~ m~ m~ m~ m~ m~ m~ m~ m~ m~ m~ m~ m~ m~ m~ m~ m~ m~ m~ m~ m~ m~ m~ m~ m~ m~ m~ m~ m~ m~ m~ m~ m~ m~ m~ m~ m~ m~ m~ m~ m~ m~ m~ m~ m~ m~ m~ m~ m~ m~ m~ m~ m~ m~ m~ m~ m~ m~ m~ m~ m~ m~ m~ m~ m~ m~ m~ m~ m~ m~ m~ m~ m~ m~ m~ m~ m~ m~ m~ m~ m~ m~ m~ m~ m~ m~ m~ m~ m~ m~ m~ m~ m~ m~ m~ m~ m~ m~ m~ m~ m~ m~ m~ m~ m~ m~ m~ m~ m~ m~ m~ m~ m~ m~ m~ m~ m~ m~ m~ m~ m~ m~ m~ m~ m~ m~ m~ m~ m~ m~ m~ m~ m~ m~ m~ m~ m~ m~ m~ ^^ m~ U< O# h+ y| y| y| Nu Nu @+ _} m..x..k^ C: 0/ 0/ 0/ 0/ 0/ 0/ 0/ 0/ 0/ 0/ 0/ 0/ 0/ 0/ 0/ 0/ 0/ 0/ 0/ 0/ 0/ 0/ 0/ 0/ 0/ 0/ 0/ 0/ 0/ 0/ 0/ `e ^^ m~ m~ m~ m~ m~ m~ m~ m~ m~ m~ m~ bk wc X^ Q{ (_ y< :{ %}  & H/ ^h @v +J :I h@.<Z PU '> -#.)> j#.., L* 8* &* '& i& m% _% `$ C$ _$ _$ _$ _$ _$ _$ _$ _$ _$ P# /# 5@ *@ n+ N+ =+ K  c. c. B  Z. x  S] |{ 4] )) 4^ 5^ ]( z~ 3$.3$.3$.3$.3$.9$.9W 9W 9W 9W 9W P@.k#.B$.8#.8#.B$.s$.s$.C$.D$.x$.{Z {Z Z{ kS kS kS kS kS }P }P }P }P i= $t %t *. *. *. *. *. *. *. *. *. *. *. *. *. *. *. *. *. *. ",
"a#.a#.a#.a#.a#.a#.a#.a#.a#.a#.a#.a#./$.K#.K#.K#.K#.K#.K#.%t $t $t $t $t $t $t }9 aX aX aX |..bX bX bX bX bX 4e ;+.;+.bX HS HS HS HS HS HS &#.z#.E$.F$.&#.$U $U $U 1] s] t] )) 4] u] +~ v  x  y  A  D  c. h+ =+ M+ N+ ^# =@ 5@ /# /# P# _$ _$ _$ _$ _$ V$ @% _% l% H% && _& C& {* y= ^; +; =#.h#.w; B#.>#.w@.:* JG Zt !y !p G} k{ 2) %} r! t( zz U, G4 m~ m~ m~ m~ m~ m~ m~ m~ ^^ 0/ 0/ 0/ 0/ 0/ 0/ 0/ 0/ 0/ 0/ 0/ 0/ 0/ 0/ 0/ 0/ 0/ 0/ 0/ 0/ 0/ 0/ 0/ 0/ 0/ 0/ 0/ 0/ 0/ 0/ 0/ 0/ 0/ ,[ ,[ a[ ei 4@ y| y| y| y| B  y| e# =X ^^ m~ m~ m~ m~ m~ m~ m~ m~ m~ m~ m~ m~ m~ m~ m~ m~ m~ m~ m~ m~ m~ m~ m~ m~ m~ m~ m~ m~ m~ m~ m~ m~ m~ m~ m~ m~ m~ m~ m~ m~ m~ m~ m~ m~ m~ m~ m~ m~ m~ m~ m~ m~ m~ m~ m~ m~ m~ m~ m~ m~ m~ m~ m~ m~ m~ m~ m~ m~ m~ m~ m~ m~ m~ m~ m~ m~ m~ m~ m~ m~ m~ m~ m~ m~ m~ m~ m~ m~ m~ m~ m~ m~ m~ m~ m~ m~ m~ m~ m~ m~ m~ m~ m~ m~ m~ m~ m~ m~ m~ m~ m~ m~ m~ m~ m~ m~ m~ m~ m~ m~ m~ m~ m~ m~ m~ m~ m~ m~ m~ m~ m~ m~ m~ m~ m~ m~ m~ m~ m~ m~ m~ m~ m~ m~ m~ m~ m~ m~ m~ m~ m~ m~ m~ m~ m~ m~ m~ m~ m~ m~ m~ m~ m~ m~ m~ m~ ^^ m~ U< O# h+ y| y| y| Nu Nu @+ xV L .(4 C: C: 0/ 0/ 0/ 0/ 0/ 0/ 0/ 0/ 0/ 0/ 0/ 0/ 0/ 0/ 0/ 0/ 0/ 0/ 0/ 0/ 0/ 0/ 0/ 0/ 0/ 0/ 0/ 0/ 0/ 0/ 0/ `e ^^ m~ m~ m~ m~ m~ m~ m~ m~ m~ m~ m~ G4 S' M_ Q{ (_ y< :{ %}  & H/ ^h @v +J :I h@.<Z PU u; ,#.w; QQ G= n, {* &* '& i& m% _% `$ C$ _$ _$ _$ _$ _$ _$ _$ _$ _$ P# /# 5@ *@ n+ N+ =+ K  c. c. B  Z. x  S] |{ 4] )) 4^ 5^ ]( z~ 3$.3$.3$.3$.3$.3$.u+.G$.9W 9W 9W 9W H$.I$.8#.8#.J$.s$.s$.K$.D$.D$.L$.{Z &_ kS kS kS kS kS }P }P }P }P i= $t $t b@ *. *. *. *. *. *. *. *. *. *. *. *. *. *. *. *. *. ",
"a#.a#.a#.a#.a#.a#.a#.a#.a#.a#.a#.a#.a#.;$.K#.K#.K#.K#.K#.K#.0& $t $t $t $t $t *+.aX aX aX aX v5 bX bX bX bX vC ;+.;+.bX HS HS HS HS HS HS &#.E$.E$.E$.F$.hY $U $U 1] s] t] )) 4] u] +~ v  x  y  A  D  c. h+ =+ M+ N+ ^# =@ 5@ /# /# P# _$ _$ _$ _$ _$ V$ @% _% l% H% && _& C& {* `> ^; +; =#.C; M$.;#.>#.w@.oZ JG Zt yx !p G} k{ 2) %} r! t( 'W U, G4 m~ m~ m~ m~ m~ m~ m~ m~ ^^ 0/ 0/ 0/ 0/ 0/ 0/ 0/ 0/ 0/ 0/ 0/ 0/ 0/ 0/ 0/ 0/ 0/ 0/ 0/ 0/ 0/ 0/ 0/ 0/ 0/ 0/ 0/ 0/ 0/ 0/ 0/ 0/ 0/ ,[ ,[ a[ ei 4@ y| y| y| y| B  y| e# =X ^^ m~ m~ m~ m~ m~ m~ m~ m~ m~ m~ m~ m~ m~ m~ m~ m~ m~ m~ m~ m~ m~ m~ m~ m~ m~ m~ m~ m~ m~ m~ m~ m~ m~ m~ m~ m~ m~ m~ m~ m~ m~ m~ m~ m~ m~ m~ m~ m~ m~ m~ m~ m~ m~ m~ m~ m~ m~ m~ m~ m~ m~ m~ m~ m~ m~ m~ m~ m~ m~ m~ m~ m~ m~ m~ m~ m~ m~ m~ m~ m~ m~ m~ m~ m~ m~ m~ m~ m~ m~ m~ m~ m~ m~ m~ m~ m~ m~ m~ m~ m~ m~ m~ m~ m~ m~ m~ m~ m~ m~ m~ m~ m~ m~ m~ m~ m~ m~ m~ m~ m~ m~ m~ m~ m~ m~ m~ m~ m~ m~ m~ m~ m~ m~ m~ m~ m~ m~ m~ m~ m~ m~ m~ m~ m~ m~ m~ m~ m~ m~ m~ m~ m~ m~ m~ m~ m~ m~ m~ m~ m~ m~ m~ m~ m~ m~ m~ ^^ m~ U< O# h+ y| y| y| Nu Nu @+ w^ e% w[ N$.k^ 0/ 0/ 0/ 0/ 0/ 0/ 0/ 0/ 0/ 0/ 0/ 0/ 0/ 0/ 0/ 0/ 0/ 0/ 0/ 0/ 0/ 0/ 0/ 0/ 0/ 0/ 0/ 0/ 0/ 0/ 0/ `e ^^ m~ m~ m~ m~ m~ m~ m~ m~ m~ m~ m~ G4 :% ][ X^ (_ y< :{ %}  & H/ ^h @v +J :I uQ <Z PU K; A; v; T; E= O$.{* x& '& i& m% _% `$ C$ _$ _$ _$ _$ _$ _$ _$ _$ _$ P# /# 5@ *@ n+ N+ =+ K  c. c. B  Z. x  S] |{ 4] )) 4^ 5^ ]( z~ 3$.3$.3$.3$.3$.3$.3$.3$.3$.P$.H+.[$.9W 9W Q$.8#.9#.s$.s$.K$.D$.D$.R$.{Z kS kS kS kS kS kS *_ }P }P }P i= $t $t ^#.*. *. *. *. *. *. *. *. *. *. *. *. *. *. *. *. *. ",
"a#.a#.a#.a#.a#.a#.a#.a#.a#.a#.a#.a#.a#./$.K#.K#.K#.K#.K#.K#.K#.0& $t $t $t $t $t LZ aX aX aX DU bX bX bX bX bX ;+.;+.S$.fX HS HS HS HS HS &#.T$.U$.T$.E$.z#.%U $U 1] s] t] )) 4] u] +~ v  x  y  A  D  c. h+ =+ M+ N+ ^# =@ 5@ /# /# P# _$ _$ _$ _$ _$ V$ @% _% l% H% && _& C& {* `> ^; +; =#.-#.=#.;#.>#.w@.oZ JG Zt yx !p G} k{ 2) %} r! t( 'W U, M .m~ m~ m~ m~ m~ m~ m~ m~ ^^ 0/ 0/ 0/ 0/ 0/ 0/ 0/ 0/ 0/ 0/ 0/ 0/ 0/ 0/ 0/ 0/ 0/ 0/ 0/ 0/ 0/ 0/ 0/ 0/ 0/ 0/ 0/ 0/ 0/ 0/ 0/ 0/ 0/ ,[ ,[ a[ ei 4@ y| y| y| y| B  y| e# =X ^^ m~ m~ m~ m~ m~ m~ m~ m~ m~ m~ m~ m~ m~ m~ m~ m~ m~ m~ m~ m~ m~ m~ m~ m~ m~ m~ m~ m~ m~ m~ m~ m~ m~ m~ m~ m~ m~ m~ m~ m~ m~ m~ m~ m~ m~ m~ m~ m~ m~ m~ m~ m~ m~ m~ m~ m~ m~ m~ m~ m~ m~ m~ m~ m~ m~ m~ m~ m~ m~ m~ m~ m~ m~ m~ m~ m~ m~ m~ m~ m~ m~ m~ m~ m~ m~ m~ m~ m~ m~ m~ m~ m~ m~ m~ m~ m~ m~ m~ m~ m~ m~ m~ m~ m~ m~ m~ m~ m~ m~ m~ m~ m~ m~ m~ m~ m~ m~ m~ m~ m~ m~ m~ m~ m~ m~ m~ m~ m~ m~ m~ m~ m~ m~ m~ m~ m~ m~ m~ m~ m~ m~ m~ m~ m~ m~ m~ m~ m~ m~ m~ m~ m~ m~ m~ m~ m~ m~ m~ m~ m~ m~ m~ m~ m~ m~ m~ ^^ m~ U< O# h+ y| y| y| Nu ,5 f{ J' N .k^ C: 0/ 0/ 0/ 0/ 0/ 0/ 0/ 0/ 0/ 0/ 0/ 0/ 0/ 0/ 0/ 0/ 0/ 0/ 0/ 0/ 0/ 0/ 0/ 0/ 0/ 0/ 0/ 0/ 0/ 0/ 0/ 0/ `e ^^ m~ m~ m~ m~ m~ m~ m~ m~ m~ m~ m~ m~ bk X, B< z< y< :{ %}  & H/ ^h @v +J :I uQ <Z Z- ,> A; v; T; E= O$.{* w& x, i& m% _% `$ C$ _$ _$ _$ _$ _$ _$ _$ _$ _$ P# /# 5@ *@ n+ N+ =+ K  c. c. B  Z. x  S] |{ 4] )) 4^ 5^ ]( z~ 3$.3$.3$.3$.3$.3$.3$.3$.3$.3$.3$.3$.}@.[$.9W V$.W$.v$.s$.X$.D$.D$.Y$.Z$.kS kS kS kS kS kS J` }P /b +n 0& $t $t m/ *. *. *. *. *. *. *. *. *. *. *. *. *. *. *. *. *. ",
"a#.a#.a#.a#.a#.a#.a#.a#.a#.a#.a#.a#.a#.a#.6$.K#.K#.K#.K#.K#.K#.K#.0& $t $t $t $t }9 aX aX aX DU bX bX bX bX bX ;+.;+.4e `$.HS HS HS HS HS &#. %.U$..%.E$.F$.+%.$U 1] s] t] )) 4] u] +~ v  x  y  A  D  c. h+ =+ M+ N+ ^# =@ 5@ /# /# P# _$ _$ _$ _$ _$ V$ @% _% k% S% && _& C& {* `> ^; +; J; B; =#.J@.>#.w@.K@.JG Zt 0x !p G} k{ 2) %} r! t( 'W U, M .m~ m~ m~ m~ m~ m~ m~ m~ ^^ 0/ 0/ 0/ 0/ 0/ 0/ 0/ 0/ 0/ 0/ 0/ 0/ 0/ 0/ 0/ 0/ 0/ 0/ 0/ 0/ 0/ 0/ 0/ 0/ 0/ 0/ 0/ 0/ 0/ 0/ 0/ 0/ 0/ ,[ ,[ a[ ei 4@ y| y| y| y| <! @+ H$ `! ^^ m~ m~ m~ m~ m~ m~ m~ m~ m~ m~ m~ m~ m~ m~ m~ m~ m~ m~ m~ m~ m~ m~ m~ m~ m~ m~ m~ m~ m~ m~ m~ m~ m~ m~ m~ m~ m~ m~ m~ m~ m~ m~ m~ m~ m~ m~ m~ m~ m~ m~ m~ m~ m~ m~ m~ m~ m~ m~ m~ m~ m~ m~ m~ m~ m~ m~ m~ m~ m~ m~ m~ m~ m~ m~ m~ m~ m~ m~ m~ m~ m~ m~ m~ m~ m~ m~ m~ m~ m~ m~ m~ m~ m~ m~ m~ m~ m~ m~ m~ m~ m~ m~ m~ m~ m~ m~ m~ m~ m~ m~ m~ m~ m~ m~ m~ m~ m~ m~ m~ m~ m~ m~ m~ m~ m~ m~ m~ m~ m~ m~ m~ m~ m~ m~ m~ m~ m~ m~ m~ m~ m~ m~ m~ m~ m~ m~ m~ m~ m~ m~ m~ m~ m~ m~ m~ m~ m~ m~ m~ m~ m~ m~ m~ m~ m~ m~ ^^ m~ U< O# h+ y| y| y| 0u 0u x@ 8; i% .j C: 0/ 0/ 0/ 0/ 0/ 0/ 0/ 0/ 0/ 0/ 0/ 0/ 0/ 0/ 0/ 0/ 0/ 0/ 0/ 0/ 0/ 0/ 0/ 0/ 0/ 0/ 0/ 0/ 0/ 0/ 0/ 0/ `e ^^ m~ m~ m~ m~ m~ m~ m~ m~ m~ m~ m~ m~ G4 |2 q} z< y< :{ %}  & H/ ^h @v +J :I uQ <Z Z- ,> !> v; T; E= o, z* w& >& #& m% _% `$ C$ _$ _$ _$ _$ _$ _$ _$ _$ _$ P# /# 5@ *@ n+ N+ =+ K  c. c. B  Z. x  S] |{ 4] )) 4^ 5^ ]( z~ 3$.3$.3$.3$.3$.3$.3$.3$.3$.3$.3$.3$.3$.e$.[$.9W @%.#%.s$.$%.D$.D$.x$.g$.kS kS kS kS kS d@ 5m At i..*+.$t $t $t $t Ds *. *. *. *. *. *. *. *. *. *. *. *. *. *. *. *. ",
"a#.a#.a#.a#.a#.a#.a#.a#.a#.a#.a#.a#.a#.a#.a#.K#.K#.K#.K#.K#.K#.K#.K#.0& $t $t $t $t aX aX aX r7 bX bX bX bX bX M#.;+.4e `$.HS HS HS HS HS Y@.U$.U$.U$.%%.E$.Y@.%U 1] s] t] )) 4] u] +~ v  x  y  A  D  c. h+ =+ M+ N+ ^# =@ 5@ /# /# P# _$ _$ _$ _$ _$ V$ @% _% k% S% && _& C&  K *, ^; +; '> I@.'> J@.Ye w@.K@.JG Zt 0x !p G} k{ 2) %} r! t( 'W cl m~ m~ m~ m~ m~ m~ m~ m~ m~ ^^ 0/ 0/ 0/ 0/ 0/ 0/ 0/ 0/ 0/ 0/ 0/ 0/ 0/ 0/ 0/ 0/ 0/ 0/ 0/ 0/ 0/ 0/ 0/ 0/ 0/ 0/ 0/ 0/ 0/ 0/ 0/ 0/ 0/ ,[ ,[ a[ ei 4@ y| y| y| y| y| }2 I' !j ^^ m~ m~ m~ m~ m~ m~ m~ m~ m~ m~ m~ m~ m~ m~ m~ m~ m~ m~ m~ m~ m~ m~ m~ m~ m~ m~ m~ m~ m~ m~ m~ m~ m~ m~ m~ m~ m~ m~ m~ m~ m~ m~ m~ m~ m~ m~ m~ m~ m~ m~ m~ m~ m~ m~ m~ m~ m~ m~ m~ m~ m~ m~ m~ m~ m~ m~ m~ m~ m~ m~ m~ m~ m~ m~ m~ m~ m~ m~ m~ m~ m~ m~ m~ m~ m~ m~ m~ m~ m~ m~ m~ m~ m~ m~ m~ m~ m~ m~ m~ m~ m~ m~ m~ m~ m~ m~ m~ m~ m~ m~ m~ m~ m~ m~ m~ m~ m~ m~ m~ m~ m~ m~ m~ m~ m~ m~ m~ m~ m~ m~ m~ m~ m~ m~ m~ m~ m~ m~ m~ m~ m~ m~ m~ m~ m~ m~ m~ m~ m~ m~ m~ m~ m~ m~ m~ m~ m~ m~ m~ m~ m~ m~ m~ m~ m~ m~ ^^ m~ U< O# h+ y| y| y| ,5 ,5 U@  % Nn ,[ C: 0/ 0/ 0/ 0/ 0/ 0/ 0/ 0/ 0/ 0/ 0/ 0/ 0/ 0/ 0/ 0/ 0/ 0/ 0/ 0/ 0/ 0/ 0/ 0/ 0/ 0/ 0/ 0/ 0/ 0/ 0/ 0/ `e ^^ m~ m~ m~ m~ m~ m~ m~ m~ m~ m~ m~ m~ a[ V' *^ (_ y< :{ %}  & H/ ^h @v }r :I h@.<Z ]; ,> z; x@.T; E= o, z* w& >& #& m% _% `$ C$ _$ _$ _$ _$ _$ _$ _$ _$ _$ P# /# 5@ *@ n+ N+ =+ K  c. c. B  Z. x  S] |{ 4] )) 4^ 5^ ]( z~ 3$.3$.3$.3$.3$.3$.3$.3$.3$.3$.3$.3$.3$.3$.A@.9W 9W &%.s$.*%.D$.D$.D$.O@ kS kS kS kS kS 5( >d G[ =%.-%.$t $t $t $t i= *. *. *. *. *. *. *. *. *. *. *. *. *. *. *. *. ",
"a#.a#.a#.a#.a#.a#.a#.a#.a#.a#.a#.a#.a#.a#.a#. $.K#.K#.K#.K#.K#.K#.K#.K#.0& $t $t $t =+.aX >$.bX bX bX bX bX bX ;%.;+.4e `$.HS HS HS HS HS >%.U$.U$.U$.U$.,%.'%.+%.1] s] t] )) 4] u] +~ v  x  y  A  D  c. h+ =+ M+ N+ ^# =@ 5@ /# /# P# _$ _$ _$ _$ _$ V$ @% _% k% S% && _& C& {* )%.^; +; u; A; u; u@.Ye w@.K@.]G gK 0x !p G} k{ 2) %} r! t( P{ !j m~ m~ m~ m~ m~ m~ m~ m~ m~ ^^ 0/ 0/ 0/ 0/ 0/ 0/ 0/ 0/ 0/ 0/ 0/ 0/ 0/ 0/ 0/ 0/ 0/ 0/ 0/ 0/ 0/ 0/ 0/ 0/ 0/ 0/ 0/ 0/ 0/ 0/ 0/ 0/ 0/ ,[ ,[ a[ ei 4@ y| y| y| y| y| <| 01 U, &e !%.m~ m~ m~ m~ m~ m~ m~ m~ m~ m~ m~ m~ m~ m~ m~ m~ m~ m~ m~ m~ m~ m~ m~ m~ m~ m~ m~ m~ m~ m~ m~ m~ m~ m~ m~ m~ m~ m~ m~ m~ m~ m~ m~ m~ m~ m~ m~ m~ m~ m~ m~ m~ m~ m~ m~ m~ m~ m~ m~ m~ m~ m~ m~ m~ m~ m~ m~ m~ m~ m~ m~ m~ m~ m~ m~ m~ m~ m~ m~ m~ m~ m~ m~ m~ m~ m~ m~ m~ m~ m~ m~ m~ m~ m~ m~ m~ m~ m~ m~ m~ m~ m~ m~ m~ m~ m~ m~ m~ m~ m~ m~ m~ m~ m~ m~ m~ m~ m~ m~ m~ m~ m~ m~ m~ m~ m~ m~ m~ m~ m~ m~ m~ m~ m~ m~ m~ m~ m~ m~ m~ m~ m~ m~ m~ m~ m~ m~ m~ m~ m~ m~ m~ m~ m~ m~ m~ m~ m~ m~ m~ m~ m~ m~ m~ m~ ^^ m~ U< O# h+ y| y| y| ,5 ,5 n+ b= /( ,[ 0/ 0/ 0/ 0/ 0/ 0/ 0/ 0/ 0/ 0/ 0/ 0/ 0/ 0/ 0/ 0/ 0/ 0/ 0/ 0/ 0/ 0/ 0/ 0/ 0/ 0/ 0/ 0/ 0/ 0/ 0/ 0/ 0/ `e ^^ m~ m~ m~ m~ m~ m~ m~ m~ m~ m~ m~ m~ M .~%.{%.g_ y< :{ %} [2 H/ ^h @v }r :I uQ i@.Y- ^> ~> '> ]%.(@.o, z* w& >& #& m% _% `$ C$ _$ _$ _$ _$ _$ _$ _$ _$ _$ P# /# 5@ *@ n+ N+ =+ K  c. c. B  Z. x  S] |{ 4] )) 4^ 5^ ]( z~ 3$.3$.3$.3$.3$.3$.3$.3$.3$.3$.3$.3$.3$.3$.e$.9W 9W 9W ^%.s$./%.D$.D$.(%.kS kS kS kS kS $< >d _%.=%.=%.zX $t $t $t Ds *. *. *. *. *. *. *. *. *. *. *. *. *. *. *. *. ",
"a#.a#.a#.a#.a#.a#.a#.a#.a#.a#.a#.a#.a#.a#.a#.a#.;$.K#.K#.K#.K#.K#.K#.K#.K#.%t $t $t ~h aX I .bX bX bX bX bX bX p6 ;+.4e `$.HS HS HS HS HS E$.U$.Y+.U$.U$.:%.E$.&#.1] s] t] )) 4] u] +~ v  x  y  A  D  c. h+ =+ M+ N+ ^# =@ 5@ /# /# P# _$ _$ _$ _$ _$ V$ @% _% k% @& && _& C& {* `> ^; !; ,> z; ,> {@.<%.ON 6* ]G gK 0x !p G} k{ 2) %} r! r( P{ +{ Z! Z! Z! Z! Z! Z! Z! Z! Z! >[ 0/ 0/ 0/ 0/ 0/ 0/ 0/ 0/ 0/ 0/ 0/ 0/ 0/ 0/ 0/ 0/ 0/ 0/ 0/ 0/ 0/ 0/ 0/ 0/ 0/ 0/ 0/ 0/ 0/ 0/ 0/ 0/ 0/ ,[ ,[ a[ ei 4@ y| y| y| y| y| <| 3^ c% a[ [%.Z! Z! Z! Z! Z! Z! Z! Z! Z! Z! Z! Z! Z! Z! Z! Z! Z! Z! Z! Z! Z! Z! Z! Z! Z! Z! Z! Z! Z! Z! Z! Z! Z! Z! Z! Z! Z! Z! Z! Z! Z! Z! Z! Z! Z! Z! Z! Z! Z! Z! Z! Z! Z! Z! Z! Z! Z! Z! Z! Z! Z! Z! Z! Z! Z! Z! Z! Z! Z! Z! Z! Z! Z! Z! Z! Z! Z! Z! Z! Z! Z! Z! Z! Z! Z! Z! Z! Z! Z! Z! Z! Z! Z! Z! Z! Z! Z! Z! Z! Z! Z! Z! Z! Z! Z! Z! Z! Z! Z! Z! Z! Z! Z! Z! Z! Z! Z! Z! Z! Z! Z! Z! Z! Z! Z! Z! Z! Z! Z! Z! Z! Z! Z! Z! Z! Z! Z! Z! Z! Z! Z! Z! Z! Z! Z! Z! Z! Z! Z! Z! Z! Z! Z! Z! Z! Z! Z! Z! Z! Z! Z! Z! Z! Z! Z! >[ Z! U< O# h+ y| y| y| ,5 ;[ O .U< `e ,[ 0/ 0/ 0/ 0/ 0/ 0/ 0/ 0/ 0/ 0/ 0/ 0/ 0/ 0/ 0/ 0/ 0/ 0/ 0/ 0/ 0/ 0/ 0/ 0/ 0/ 0/ 0/ 0/ 0/ 0/ 0/ 0/ 0/ 0/ >[ Z! Z! Z! Z! Z! Z! Z! Z! Z! Z! Z! Z! Z! C, wc x( y< :{ %} [2 H/ ^h bU }%.]@.uQ i@.Y- l..|%.1%.]%.(@.o, z* w& >& #& m% _% `$ C$ _$ _$ _$ _$ _$ _$ _$ _$ _$ P# /# 5@ *@ n+ N+ =+ K  c. c. B  Z. x  S] |{ 4] )) 4^ 5^ ]( z~ 3$.3$.3$.3$.3$.3$.3$.3$.3$.3$.3$.3$.3$.3$.G$.9W 9W 9W 2%.s$.3%.4%.D$.5%.kS kS kS kS kS .T >d 6%.=%.=%.pj G[ 0& $t Ds *. *. *. *. *. *. *. *. *. *. *. *. *. *. *. *. ",
"K#.6$.a#.a#.a#.a#.a#.a#.a#./$. $.6$.;$.;$.;$.6$.6$.K#.K#.K#.K#.K#.K#.K#.K#.K#.^#.m/ $t =+.We bX bX bX bX bX bX S$.;+.4e `$.HS HS HS HS HS 7%.8%.9%.8%.U$..%.E$.z#.1] s] t] )) 4] u] +~ v  x  y  A  D  c. h+ =+ M+ N+ ^# =@ 5@ /# /# P# _$ _$ _$ _$ _$ E$ @% _% k% @& 3& _& C& z* w= V- !; ^> G; ^> {@.U8 X* jN ]G et 0x sC G} k{ 2) %} r! r( P{ ,/ Z! Z! Z! Z! Z! Z! Z! Z! Z! >[ 0/ 0/ 0/ 0/ 0/ 0/ 0/ 0/ 0/ 0/ 0/ 0/ 0/ 0/ 0/ 0/ 0/ 0/ 0/ 0/ 0/ 0/ 0/ 0/ 0/ 0/ 0/ 0/ 0/ 0/ 0/ 0/ 0/ ,[ ,[ a[ ei 4@ y| y| y| y| Dx A( P{  e e_ [%.Z! Z! Z! Z! Z! Z! Z! Z! Z! Z! Z! Z! Z! Z! Z! Z! Z! Z! Z! Z! Z! Z! Z! Z! Z! Z! Z! Z! Z! Z! Z! Z! Z! Z! Z! Z! Z! Z! Z! Z! Z! Z! Z! Z! Z! Z! Z! Z! Z! Z! Z! Z! Z! Z! Z! Z! Z! Z! Z! Z! Z! Z! Z! Z! Z! Z! Z! Z! Z! Z! Z! Z! Z! Z! Z! Z! Z! Z! Z! Z! Z! Z! Z! Z! Z! Z! Z! Z! Z! Z! Z! Z! Z! Z! Z! Z! Z! Z! Z! Z! Z! Z! Z! Z! Z! Z! Z! Z! Z! Z! Z! Z! Z! Z! Z! Z! Z! Z! Z! Z! Z! Z! Z! Z! Z! Z! Z! Z! Z! Z! Z! Z! Z! Z! Z! Z! Z! Z! Z! Z! Z! Z! Z! Z! Z! Z! Z! Z! Z! Z! Z! Z! Z! Z! Z! Z! Z! Z! Z! Z! Z! Z! Z! Z! Z! >[ Z! U< O# h+ y| y| y| ,5 ;[ O .U< `e ,[ 0/ 0/ 0/ 0/ 0/ 0/ 0/ 0/ 0/ 0/ 0/ 0/ 0/ 0/ 0/ 0/ 0/ 0/ 0/ 0/ 0/ 0/ 0/ 0/ 0/ 0/ 0/ 0/ 0/ 0/ 0/ 0/ 0/ 0/ >[ Z! Z! Z! Z! Z! Z! Z! Z! Z! Z! Z! Z! Z! bk  e e} y< :{ %} [2 H/ ^h bU 2p ]@.2* ]Y Y- t; H; ^@.@Q (@.K* z* w& >& #& m% _% `$ C$ _$ _$ _$ _$ _$ _$ _$ _$ _$ P# /# 5@ *@ n+ N+ =+ K  c. c. B  Z. x  S] |{ 4] )) 4^ 5^ ]( z~ 3$.3$.3$.3$.3$.3$.3$.3$.3$.3$.3$.3$.3$.A@.9W 9W 9W 9W 9W 0%.s$.a%.D$.b%.kS kS kS kS kS @n >d =%.=%.c%.5s 5s P< $t %t *. *. *. *. *. *. *. *. *. *. *. *. *. *. *. *. ",
"K#.K#.K#. $.a#.a#./$.6$.K#.K#.K#.K#.K#.K#.K#.K#.K#.K#.K#.K#.K#.K#.K#.K#.K#.K#.K#.K#.L#.*+.aX We bX bX bX bX bX bX d%.bX `$.HS HS HS HS HS .%.e%.9%.f%.g%.U$.T$.E$.1] s] t] )) 4] u] +~ v  x  y  A  D  c. h+ =+ M+ N+ ^# =@ 5@ /# /# P# _$ _$ _$ _$ _$ E$ @% _% k% @& 3& _& C& P, w= V- ~@.l..G; t; h%.U8 X* jN JG et 0x sC G} k{ 2) /| r! r( )] .< Z! Z! Z! Z! Z! Z! Z! Z! Z! >[ 0/ 0/ 0/ 0/ 0/ 0/ 0/ 0/ 0/ 0/ 0/ 0/ 0/ 0/ 0/ 0/ 0/ 0/ 0/ 0/ 0/ 0/ 0/ 0/ 0/ 0/ 0/ 0/ 0/ 0/ 0/ 0/ 0/ ,[ ,[ a[ ei 4@ y| y| y| y| Dx I4 J3 La !j Z! Z! Z! Z! Z! Z! Z! Z! Z! Z! Z! Z! Z! Z! Z! Z! Z! Z! Z! Z! Z! Z! Z! Z! Z! Z! Z! Z! Z! Z! Z! Z! Z! Z! Z! Z! Z! Z! Z! Z! Z! Z! Z! Z! Z! Z! Z! Z! Z! Z! Z! Z! Z! Z! Z! Z! Z! Z! Z! Z! Z! Z! Z! Z! Z! Z! Z! Z! Z! Z! Z! Z! Z! Z! Z! Z! Z! Z! Z! Z! Z! Z! Z! Z! Z! Z! Z! Z! Z! Z! Z! Z! Z! Z! Z! Z! Z! Z! Z! Z! Z! Z! Z! Z! Z! Z! Z! Z! Z! Z! Z! Z! Z! Z! Z! Z! Z! Z! Z! Z! Z! Z! Z! Z! Z! Z! Z! Z! Z! Z! Z! Z! Z! Z! Z! Z! Z! Z! Z! Z! Z! Z! Z! Z! Z! Z! Z! Z! Z! Z! Z! Z! Z! Z! Z! Z! Z! Z! Z! Z! Z! Z! Z! Z! Z! Z! >[ Z! U< O# h+ y| y| y| ,5 ;[ O .U< `e ,[ 0/ 0/ 0/ 0/ 0/ 0/ 0/ 0/ 0/ 0/ 0/ 0/ 0/ 0/ 0/ 0/ 0/ 0/ 0/ 0/ 0/ 0/ 0/ 0/ 0/ 0/ 0/ 0/ 0/ 0/ 0/ 0/ 0/ 0/ >[ Z! Z! Z! Z! Z! Z! Z! Z! Z! Z! Z! Z! Z! bk  e e} y< :{ %} [2 ~9 ^h uu 2p JG 2* ]Y *U s; N+.,> @Q (@.K* z* w& >& #& m% _% `$ C$ _$ _$ _$ _$ _$ _$ _$ _$ _$ P# /# 5@ *@ n+ N+ =+ K  c. c. B  Z. x  S] |{ 4] )) 4^ 5^ ]( z~ 3$.3$.3$.3$.3$.3$.3$.3$.3$.3$.3$.3$.3$.[$.9W 9W 9W 9W i%.j%.s$.k%.D$.k+.kS kS kS kS kS >d 6i =%.=%.l%.5s 5s 5s XW m/ *. *. *. *. *. *. *. *. *. *. *. *. *. *. *. *. ",
"K#.K#.K#.K#.K#.;$.K#.K#.K#.K#.K#.K#.K#.K#.K#.K#.K#.K#.K#.K#.K#.K#.K#.K#.K#.K#.K#.K#.K#.K#.m/ LZ |.._#.bX bX bX bX vC bX `$.HS HS HS HS HS U$.m%.9%.9%.n%.U$.+6 E$.1] s] t] )) 4] u] +~ v  x  y  A  D  c. h+ =+ M+ N+ ^# =@ 5@ /# /# P# _$ _$ _$ _$ _$ E$ @% _% k% @& 3& (& B& z* w= V- ~@.t; {> o%.P+.U8 X* jN ]G et 0x sC G} k{ 2) /| r! r( )] .< Z! Z! Z! Z! Z! Z! Z! Z! Z! >[ 0/ 0/ 0/ 0/ 0/ 0/ 0/ 0/ 0/ 0/ 0/ 0/ 0/ 0/ 0/ 0/ 0/ 0/ 0/ 0/ 0/ 0/ 0/ 0/ 0/ 0/ 0/ 0/ 0/ 0/ 0/ 0/ 0/ ,[ ,[ a[ ei 4@ y| y| y| y| q~ p2 |( p%.=w Z! [%.Z! Z! Z! Z! Z! Z! Z! Z! Z! Z! Z! Z! Z! Z! Z! Z! Z! Z! Z! Z! Z! Z! Z! Z! Z! Z! Z! Z! Z! Z! Z! Z! Z! Z! Z! Z! Z! Z! Z! Z! Z! Z! Z! Z! Z! Z! Z! Z! Z! Z! Z! Z! Z! Z! Z! Z! Z! Z! Z! Z! Z! Z! Z! Z! Z! Z! Z! Z! Z! Z! Z! Z! Z! Z! Z! Z! Z! Z! Z! Z! Z! Z! Z! Z! Z! Z! Z! Z! Z! Z! Z! Z! Z! Z! Z! Z! Z! Z! Z! Z! Z! Z! Z! Z! Z! Z! Z! Z! Z! Z! Z! Z! Z! Z! Z! Z! Z! Z! Z! Z! Z! Z! Z! Z! Z! Z! Z! Z! Z! Z! Z! Z! Z! Z! Z! Z! Z! Z! Z! Z! Z! Z! Z! Z! Z! Z! Z! Z! Z! Z! Z! Z! Z! Z! Z! Z! Z! Z! Z! Z! Z! Z! Z! Z! >[ Z! U< O# h+ y| y| y| ,5 ;[ O .U< `e ,[ 0/ 0/ 0/ 0/ 0/ 0/ 0/ 0/ 0/ 0/ 0/ 0/ 0/ 0/ 0/ 0/ 0/ 0/ 0/ 0/ 0/ 0/ 0/ 0/ 0/ 0/ 0/ 0/ 0/ 0/ 0/ 0/ 0/ 0/ >[ Z! Z! Z! Z! Z! Z! Z! Z! Z! Z! Z! Z! Z! bk  e e} y< :{ %} [2 ~9 ^h uu 2p JG q+.]Y X- /> )> L; @Q E= K* z* v& >& #& m% _% `$ C$ _$ _$ _$ _$ _$ _$ _$ _$ _$ P# /# 5@ *@ n+ N+ =+ K  c. c. B  Z. x  S] |{ 4] )) 4^ 5^ ]( z~ 3$.3$.3$.3$.3$.3$.3$.}@.#@.P$.3$.3$.G$.9W 9W 9W 9W 9W PW q%.r%.4%.D$.kS kS kS kS kS 5( >d s%.=%.=%.t%.5s 5s 5s *r $t &. *. *. *. *. *. *. *. *. *. *. *. *. *. *. *. ",
"K#.K#.K#.K#.K#.K#.K#.K#.K#.K#.K#.K#.K#.K#.K#.K#.K#.K#.K#.K#.K#.K#.K#.K#.K#.K#.K#.K#.K#.K#.K#.u%.aX aX We bX bX bX bX bX `$.HS HS HS HS fX U$.9%.9%.9%.9%.U$..%.E$.2] s] t] )) 4] u] +~ v  x  y  A  D  c. h+ =+ M+ N+ ^# =@ 5@ /# /# P# _$ _$ _$ _$ _$ E$ @% _% k% @& 3& (& B& ~* p= V- .; t; H; M; P+.n+.v%.6* ]G et 0x sC G} k{ 2) /| r! r( )] .< Z! Z! Z! Z! Z! Z! Z! Z! Z! >[ 0/ 0/ 0/ 0/ 0/ 0/ 0/ 0/ 0/ 0/ 0/ 0/ 0/ 0/ 0/ 0/ 0/ 0/ 0/ 0/ 0/ 0/ 0/ 0/ 0/ 0/ 0/ 0/ 0/ 0/ 0/ 0/ 0/ ,[ ,[ a[ ei 4@ y| y| y| y| E  N# J3 H: T' a[ [%.Z! Z! Z! Z! Z! Z! Z! Z! Z! Z! Z! Z! Z! Z! Z! Z! Z! Z! Z! Z! Z! Z! Z! Z! Z! Z! Z! Z! Z! Z! Z! Z! Z! Z! Z! Z! Z! Z! Z! Z! Z! Z! Z! Z! Z! Z! Z! Z! Z! Z! Z! Z! Z! Z! Z! Z! Z! Z! Z! Z! Z! Z! Z! Z! Z! Z! Z! Z! Z! Z! Z! Z! Z! Z! Z! Z! Z! Z! Z! Z! Z! Z! Z! Z! Z! Z! Z! Z! Z! Z! Z! Z! Z! Z! Z! Z! Z! Z! Z! Z! Z! Z! Z! Z! Z! Z! Z! Z! Z! Z! Z! Z! Z! Z! Z! Z! Z! Z! Z! Z! Z! Z! Z! Z! Z! Z! Z! Z! Z! Z! Z! Z! Z! Z! Z! Z! Z! Z! Z! Z! Z! Z! Z! Z! Z! Z! Z! Z! Z! Z! Z! Z! Z! Z! Z! Z! Z! Z! Z! Z! Z! Z! Z! Z! >[ Z! U< O# h+ y| y| y| ,5 ;[ O .U< `e ,[ 0/ 0/ 0/ 0/ 0/ 0/ 0/ 0/ 0/ 0/ 0/ 0/ 0/ 0/ 0/ 0/ 0/ 0/ 0/ 0/ 0/ 0/ 0/ 0/ 0/ 0/ 0/ 0/ 0/ 0/ 0/ 0/ 0/ 0/ >[ Z! Z! Z! Z! Z! Z! Z! Z! Z! Z! Z! Z! Z! bk  e e} y< :{ %} [2 ~9 ^h uu 2p JG q+.]Y X- r; E+.s; j; w%.K* z* v& >& #& l% _% `$ C$ _$ _$ _$ _$ _$ _$ _$ _$ _$ P# /# 5@ *@ n+ N+ =+ K  c. c. B  Z. x  S] |{ 4] )) 4^ 5^ ]( z~ 3$.3$.3$.3$.3$.3$.H+.9W 9W 9W 9W 9W 9W 9W 9W 9W 9W [@.q%.q%.x%.D$.y%.kS kS kS kS kS $< >d g# =%.=%.XG 5s 5s 5s 5s {+ %t *. *. *. *. *. *. *. *. *. *. *. *. *. *. *. ",
"K#.K#.K#.K#.K#.K#.K#.K#.K#.K#.K#.K#.K#.K#.K#.K#.K#.K#.K#.K#.K#.K#.K#.K#.K#.K#.K#.K#.K#.K#.K#.K#.}9 aX aX |..v5 bX bX bX `$.HS HS HS HS z%.U$.9%.9%.9%.9%.A%.U$.T$.2] s] t] )) 4] u] +~ v  x  y  A  D  c. h+ =+ M+ N+ ^# =@ 5@ /# /# P# _$ _$ _$ _$ _$ E$ @% _% k% @& 3& (& B& ~* p= V- .; M; )> r; m+.n+.j, zY ]G et 0x sC G} k{ 2) /| r! r( )] .< Z! Z! Z! Z! Z! Z! Z! Z! Z! >[ 0/ 0/ 0/ 0/ 0/ 0/ 0/ 0/ 0/ 0/ 0/ 0/ 0/ 0/ 0/ 0/ 0/ 0/ 0/ 0/ 0/ 0/ 0/ 0/ 0/ 0/ 0/ 0/ 0/ 0/ 0/ 0/ 0/ ,[ ,[ a[ ei 4@ y| y| y| y| F  B%.f[ X^ wc e_ [%.[%.Z! Z! Z! Z! Z! Z! Z! Z! Z! Z! Z! Z! Z! Z! Z! Z! Z! Z! Z! Z! Z! Z! Z! Z! Z! Z! Z! Z! Z! Z! Z! Z! Z! Z! Z! Z! Z! Z! Z! Z! Z! Z! Z! Z! Z! Z! Z! Z! Z! Z! Z! Z! Z! Z! Z! Z! Z! Z! Z! Z! Z! Z! Z! Z! Z! Z! Z! Z! Z! Z! Z! Z! Z! Z! Z! Z! Z! Z! Z! Z! Z! Z! Z! Z! Z! Z! Z! Z! Z! Z! Z! Z! Z! Z! Z! Z! Z! Z! Z! Z! Z! Z! Z! Z! Z! Z! Z! Z! Z! Z! Z! Z! Z! Z! Z! Z! Z! Z! Z! Z! Z! Z! Z! Z! Z! Z! Z! Z! Z! Z! Z! Z! Z! Z! Z! Z! Z! Z! Z! Z! Z! Z! Z! Z! Z! Z! Z! Z! Z! Z! Z! Z! Z! Z! Z! Z! Z! Z! Z! Z! Z! Z! Z! >[ Z! U< O# h+ y| y| y| ,5 ;[ O .U< `e ,[ 0/ 0/ 0/ 0/ 0/ 0/ 0/ 0/ 0/ 0/ 0/ 0/ 0/ 0/ 0/ 0/ 0/ 0/ 0/ 0/ 0/ 0/ 0/ 0/ 0/ 0/ 0/ 0/ 0/ 0/ 0/ 0/ 0/ 0/ >[ Z! Z! Z! Z! Z! Z! Z! Z! Z! Z! Z! Z! Z! bk X, e} y< :{ %} [2 ~9 ^h uu 2p JG q+.]Y X- r; w; /> j; bH K* F+.v& >& #& l% _%  % C$ _$ _$ _$ _$ _$ _$ _$ _$ _$ P# /# 5@ *@ n+ N+ =+ K  c. c. B  Z. x  S] |{ 4] )) 4^ 5^ ]( z~ 3$.3$.3$.3$.3$.3$.[$.9W 9W 9W 9W 9W 9W 9W 9W 9W 9W PW q%.q%.g) D$.)r kS kS kS kS kS so >d C%.=%.=%.tu 5s 5s 5s 5s F| $t b@ *. *. *. *. *. *. *. *. *. *. *. *. *. *. ",
"K#.K#.K#.K#.K#.K#.K#.K#.K#.K#.K#.K#.K#.K#.K#.K#.K#.K#.K#.K#.K#.K#.K#.K#.K#.K#.K#.K#.K#.K#.K#.K#.7t aX aX aX |..I) D%.L..E%.HS HS HS HS z%.U$.9%.9%.9%.9%.F%.U$.+6 2] s] t] )) 4] u] +~ v  x  y  A  D  c. h+ =+ M+ N+ ^# =@ 5@ /# /# P# _$ _$ _$ _$ _$ E$ @% _% k% @& 3& (& B& ~* p= /; ~; r; G%.'; m+.L> i, zY n..gK 0x sC G} k{ 2) /| r! r( )] .< Z! Z! Z! Z! Z! Z! Z! Z! Z! >[ 0/ 0/ 0/ 0/ 0/ 0/ 0/ 0/ 0/ 0/ 0/ 0/ 0/ 0/ 0/ 0/ 0/ 0/ 0/ 0/ 0/ 0/ 0/ 0/ 0/ 0/ 0/ 0/ 0/ 0/ 0/ 0/ 0/ ,[ ,[ a[ ei 4@ y| y| y| y| E  *4 <( (^ qR @m Z! [%.Z! Z! Z! Z! Z! Z! Z! Z! Z! Z! Z! Z! Z! Z! Z! Z! Z! Z! Z! Z! Z! Z! Z! Z! Z! Z! Z! Z! Z! Z! Z! Z! Z! Z! Z! Z! Z! Z! Z! Z! Z! Z! Z! Z! Z! Z! Z! Z! Z! Z! Z! Z! Z! Z! Z! Z! Z! Z! Z! Z! Z! Z! Z! Z! Z! Z! Z! Z! Z! Z! Z! Z! Z! Z! Z! Z! Z! Z! Z! Z! Z! Z! Z! Z! Z! Z! Z! Z! Z! Z! Z! Z! Z! Z! Z! Z! Z! Z! Z! Z! Z! Z! Z! Z! Z! Z! Z! Z! Z! Z! Z! Z! Z! Z! Z! Z! Z! Z! Z! Z! Z! Z! Z! Z! Z! Z! Z! Z! Z! Z! Z! Z! Z! Z! Z! Z! Z! Z! Z! Z! Z! Z! Z! Z! Z! Z! Z! Z! Z! Z! Z! Z! Z! Z! Z! Z! Z! Z! Z! Z! Z! Z! Z! >[ Z! U< O# h+ y| y| y| ,5 ;[ O .U< `e ,[ 0/ 0/ 0/ 0/ 0/ 0/ 0/ 0/ 0/ 0/ 0/ 0/ 0/ 0/ 0/ 0/ 0/ 0/ 0/ 0/ 0/ 0/ 0/ 0/ 0/ 0/ 0/ 0/ 0/ 0/ 0/ 0/ 0/ 0/ >[ Z! Z! Z! Z! Z! Z! Z! Z! Z! Z! Z! Z! Z! bk X, MS y< :{ %} [2 ~9 ^h uu 2p JG 5= ]Y W- N; v; M; j; bH I* !* v& >& #& l% _%  % C$ _$ _$ _$ _$ _$ _$ _$ _$ _$ P# /# 5@ *@ n+ N+ =+ K  c. c. B  Z. x  S] |{ 4] )) 4^ 5^ ]( z~ 3$.3$.3$.3$.3$.e$.9W 9W 9W 9W 9W 9W 9W 9W 9W 9W i%.q%.q%.q%.D$.D$.H%.kS kS kS kS kS I%.>d J%.=%.=%.5s 5s 5s 5s 5s 5s XW ^#.*. *. *. *. *. *. *. *. *. *. *. *. *. *. ",
"K#.K#.K#.K#.K#.K#.K#.K#.K#.K#.K#.K#.K#.K#.K#.K#.K#.K#.K#.K#.K#.K#.K#.K#.K#.K#.K#.K#.K#.K#.K#.K#.K#.K%.aX aX aX L%.M%.M%.N%.HS HS HS HS O%.U$.9%.9%.9%.9%.f%.U$.P%.2] s] t] )) 4] u] +~ v  x  y  A  D  c. h+ =+ M+ N+ ^# =@ 5@ /# /# P# _$ _$ _$ _$ _$ E$ @% _% k% @& 3& rL L& ~* Z> /; ~; N; w; '; >+.L> i, zY n..gK 0x sC G} k{ 2) o4 r! r( )] .< Z! Z! Z! Z! Z! Z! Z! Z! Z! >[ 0/ 0/ 0/ 0/ 0/ 0/ 0/ 0/ 0/ 0/ 0/ 0/ 0/ 0/ 0/ 0/ 0/ 0/ 0/ 0/ 0/ 0/ 0/ 0/ 0/ 0/ 0/ 0/ 0/ 0/ 0/ 0/ 0/ ,[ ,[ a[ ei 4@ y| y| y| y| E  0$ <( (^ M_  e bk Z! Z! Z! Z! Z! Z! Z! Z! Z! Z! Z! Z! Z! Z! Z! Z! Z! Z! Z! Z! Z! Z! Z! Z! Z! Z! Z! Z! Z! Z! Z! Z! Z! Z! Z! Z! Z! Z! Z! Z! Z! Z! Z! Z! Z! Z! Z! Z! Z! Z! Z! Z! Z! Z! Z! Z! Z! Z! Z! Z! Z! Z! Z! Z! Z! Z! Z! Z! Z! Z! Z! Z! Z! Z! Z! Z! Z! Z! Z! Z! Z! Z! Z! Z! Z! Z! Z! Z! Z! Z! Z! Z! Z! Z! Z! Z! Z! Z! Z! Z! Z! Z! Z! Z! Z! Z! Z! Z! Z! Z! Z! Z! Z! Z! Z! Z! Z! Z! Z! Z! Z! Z! Z! Z! Z! Z! Z! Z! Z! Z! Z! Z! Z! Z! Z! Z! Z! Z! Z! Z! Z! Z! Z! Z! Z! Z! Z! Z! Z! Z! Z! Z! Z! Z! Z! Z! Z! Z! Z! Z! Z! Z! Z! Z! >[ Z! U< O# h+ y| y| y| ,5 ;[ O .U< `e ,[ 0/ 0/ 0/ 0/ 0/ 0/ 0/ 0/ 0/ 0/ 0/ 0/ 0/ 0/ 0/ 0/ 0/ 0/ 0/ 0/ 0/ 0/ 0/ 0/ 0/ 0/ 0/ 0/ 0/ 0/ 0/ 0/ 0/ 0/ >[ Z! Z! Z! Z! Z! Z! Z! Z! Z! Z! Z! Z! Z! bk  e e} y< :{ %} [2 ~9 ^h uu 2p ]G 5= ]Y W- q; J; N; 4; bH 3= !* v& >& #& l% _%  % C$ _$ _$ _$ _$ _$ _$ _$ _$ _$ P# /# 5@ *@ n+ N+ =+ K  c. c. B  Z. x  S] |{ 4] )) 4^ 5^ ]( z~ 3$.3$.3$.3$.3$.e$.9W 9W 9W 9W 9W 9W 9W 9W 9W 9W Q%.q%.q%.R%.D$.D$.b%.kS kS kS kS e@ >d >d S%.=%.l%.5s 5s 5s 5s 5s 5s +1 $t b@ *. *. *. *. *. *. *. *. *. *. *. *. *. ",
"K#.K#.K#.K#.K#.K#.K#.K#.K#.K#.K#.K#.K#.K#.K#.K#.K#.K#.K#.K#.K#.K#.K#.K#.K#.K#.K#.K#.K#.K#.K#.K#.K#.7t aX aX aX M%.M%.M%.N%.HS HS HS HS T%.U$.9%.9%.9%.9%.9%.Y+.U$.2] s] t] )) 4] u] +~ v  x  y  A  D  c. h+ =+ M+ N+ ^# =@ 5@ /# /# P# _$ _$ _$ _$ _$ E$ @% _% k% @& 3& rL L& ~* p= /;  ; N; v; >; >+.iK i, zY n..gK 0x sC G} k{ 2) o4 r! r( 3^ a[ Z! Z! Z! Z! Z! Z! Z! Z! %| >[ 0/ 0/ 0/ 0/ 0/ 0/ 0/ 0/ 0/ 0/ 0/ 0/ 0/ 0/ 0/ 0/ 0/ 0/ 0/ 0/ 0/ 0/ 0/ 0/ 0/ 0/ 0/ 0/ 0/ 0/ 0/ 0/ 0/ ,[ ,[ a[ ei 4@ y| y| y| y| E  2) 1^ (^ Q{ +^ W' a[ U%.Z! Z! Z! Z! Z! Z! Z! Z! Z! Z! Z! Z! Z! Z! Z! Z! Z! Z! Z! Z! Z! Z! Z! Z! Z! Z! Z! Z! Z! Z! Z! Z! Z! Z! Z! Z! Z! Z! Z! Z! Z! Z! Z! Z! Z! Z! Z! Z! Z! Z! Z! Z! Z! Z! Z! Z! Z! Z! Z! Z! Z! Z! Z! Z! Z! Z! Z! Z! Z! Z! Z! Z! Z! Z! Z! Z! Z! Z! Z! Z! Z! Z! Z! Z! Z! Z! Z! Z! Z! Z! Z! Z! Z! Z! Z! Z! Z! Z! Z! Z! Z! Z! Z! Z! Z! Z! Z! Z! Z! Z! Z! Z! Z! Z! Z! Z! Z! Z! Z! Z! Z! Z! Z! Z! Z! Z! Z! Z! Z! Z! Z! Z! Z! Z! Z! Z! Z! Z! Z! Z! Z! Z! Z! Z! Z! Z! Z! Z! Z! Z! Z! Z! Z! Z! Z! Z! Z! Z! Z! Z! Z! Z! >[ %| U< O# h+ y| y| y| ,5 ;[ O .U< `e ,[ 0/ 0/ 0/ 0/ 0/ 0/ 0/ 0/ 0/ 0/ 0/ 0/ 0/ 0/ 0/ 0/ 0/ 0/ 0/ 0/ 0/ 0/ 0/ 0/ 0/ 0/ 0/ 0/ 0/ 0/ 0/ 0/ 0/ 0/ >[ Z! Z! Z! Z! Z! Z! Z! Z! Z! Z! Z! Z! Z! C, wc x( y< :{ %} [2 H/ Ze uu 2p ]G V%.]Y ^; >; '> N; !+.9- 3= !* v& >& H% l% _%  % C$ _$ _$ _$ _$ _$ _$ _$ _$ _$ P# /# 5@ *@ n+ N+ =+ K  c. c. B  Z. x  S] |{ 4] )) 4^ 5^ ]( z~ 3$.3$.3$.3$.3$.#@.9W 9W 9W 9W 9W 9W 9W 9W 9W W%.q%.q%.q%.X%.D$.D$.kS kS kS kS kS 5( >d >d =%.=%.ZG 5s 5s 5s 5s 5s 5s 5s m/ ^#.*. *. *. *. *. *. *. *. *. *. *. *. *. ",
"K#.K#.K#.K#.K#.K#.K#.K#.K#.K#.K#.K#.K#.K#.K#.K#.K#.K#.K#.K#.K#.K#.K#.K#.K#.K#.K#.K#.K#.K#.K#.K#.K#.K#.}9 aX aX M%.M%.M%.N%.HS HS HS HS T%.U$.9%.9%.9%.9%.9%.Y%.U$.2] s] t] )) 4] u] +~ v  x  y  A  D  c. h+ =+ M+ N+ ^# =@ 5@ /# /# P# _$ _$ _$ _$ _$ E$ @% _% j% G% && rL L& 8= p= /; !W P..J; >; V..', <= 6Y n..gK 0x $n G} k{ 2) o4 r! r( z] a[ %| %| %| %| %| %| %| %| %| /( 0/ 0/ 0/ 0/ 0/ 0/ 0/ 0/ 0/ 0/ 0/ 0/ 0/ 0/ 0/ 0/ 0/ 0/ 0/ 0/ 0/ 0/ 0/ 0/ 0/ 0/ 0/ 0/ 0/ 0/ 0/ 0/ 0/ ,[ ,[ a[ ei 4@ y| y| y| y| h+ 2) Z( 2^ Q{ Y] l .'+.%| .@.%| %| %| %| %| %| %| %| %| %| %| %| %| %| %| %| %| %| %| %| %| %| %| %| %| %| %| %| %| %| %| %| %| %| %| %| %| %| %| %| %| %| %| %| %| %| %| %| %| %| %| %| %| %| %| %| %| %| %| %| %| %| %| %| %| %| %| %| %| %| %| %| %| %| %| %| %| %| %| %| %| %| %| %| %| %| %| %| %| %| %| %| %| %| %| %| %| %| %| %| %| %| %| %| %| %| %| %| %| %| %| %| %| %| %| %| %| %| %| %| %| %| %| %| %| %| %| %| %| %| %| %| %| %| %| %| %| %| %| %| %| %| %| %| %| %| %| %| %| %| %| %| %| %| %| %| %| %| %| %| %| /( %| g} O# h+ y| y| y| ,5 ;[ O .U< `e ,[ 0/ 0/ 0/ 0/ 0/ 0/ 0/ 0/ 0/ 0/ 0/ 0/ 0/ 0/ 0/ 0/ 0/ 0/ `e /( /( 0/ 0/ 0/ 0/ 0/ 0/ 0/ 0/ 0/ 0/ 0/ 0/ 0/ >[ %| %| %| %| %| %| %| %| %| %| %| %| %| [% 4Q x( y< :{ %} [2 H/ Ze :4 2p ]G I..g0 ^; >; K; ,; |; 9- 3= !* 0, ;& H% l% _%  % C$ _$ _$ _$ _$ _$ _$ _$ _$ _$ P# /# 5@ *@ n+ N+ =+ K  c. c. B  Z. x  S] |{ 4] )) 4^ 5^ ]( z~ 3$.3$.3$.3$.3$.H+.9W 9W 9W 9W 9W 9W 9W 9W [@.q%.q%.q%.q%.x$.D$.y%.kS kS kS kS kS $< >d >d =%.=%.c~ 5s 5s 5s 5s 5s 5s 5s {+ $t b@ *. *. *. *. *. *. *. *. *. *. *. *. ",
"K#.K#.K#.K#.K#.K#.K#.K#.K#.K#.K#.K#.K#.K#.K#.K#.K#.K#.K#.K#.K#.K#.K#.K#.K#.K#.K#.K#.K#.K#.K#.K#.K#.K#.0& aX DU M%.M%.M%.N%.HS HS HS HS Z%.U$.f%.9%.9%.9%.9%.`%.U$.2] s] t] )) 4] u] +~ v  x  y  A  D  c. h+ =+ M+ N+ ^# =@ 5@ /# /# P# _$ _$ _$ _$ _$ E$ @% _% j% G% && :& L& b, p= /; {; >; 1%.); /B ', <= /* <F ls Nw sC G} k{ 2) o4 r! r( L^ a[ %| %| %| %| %| %| %| %| %| /( 0/ 0/ 0/ 0/ 0/ 0/ 0/ 0/ 0/ 0/ 0/ 0/ 0/ 0/ 0/ 0/ 0/ 0/ 0/ 0/ 0/ 0/ 0/ 0/ 0/ 0/ 0/ 0/ 0/ 0/ 0/ 0/ 0/ ,[ ,[ a[ ei 4@ y| y| y| y| c. 0$ 1^ 2^ Q{ o^ .^ 46 ha .@..@.%| %| %| %| %| %| %| %| %| %| %| %| %| %| %| %| %| %| %| %| %| %| %| %| %| %| %| %| %| %| %| %| %| %| %| %| %| %| %| %| %| %| %| %| %| %| %| %| %| %| %| %| %| %| %| %| %| %| %| %| %| %| %| %| %| %| %| %| %| %| %| %| %| %| %| %| %| %| %| %| %| %| %| %| %| %| %| %| %| %| %| %| %| %| %| %| %| %| %| %| %| %| %| %| %| %| %| %| %| %| %| %| %| %| %| %| %| %| %| %| %| %| %| %| %| %| %| %| %| %| %| %| %| %| %| %| %| %| %| %| %| %| %| %| %| %| %| %| %| %| %| %| %| %| %| %| %| %| %| %| /( %| g} O# h+ y| y| y| ,5 ;[ O .U< `e ,[ 0/ 0/ 0/ 0/ 0/ 0/ 0/ 0/ 0/ 0/ 0/ 0/ 0/ 0/ 0/ 0/ /( %| SO <% <% bk .@.}{ 0/ 0/ 0/ 0/ 0/ 0/ 0/ 0/ 0/ 0/ >[ %| ha ha %| %| %| %| %| %| %| %| %| &e [% 4Q x( y< :{ %} [2 H/ ^h :4 2p n..B* g0 V- ;; ,> >; |; C= G*  &.0, ;& H% k% :> *% C$ _$ _$ _$ _$ _$ _$ _$ _$ _$ P# /# 5@ *@ n+ N+ =+ K  c. c. B  Z. x  S] |{ 4] )) 4^ 5^ ]( z~ 3$.3$.3$.3$.3$.U+.9W 9W 9W 9W 9W 9W 9W 9W Q%.q%.q%.q%.R%.D$.D$..&.kS kS kS kS kS so >d 6i =%.=%.9t 5s 5s 5s 5s 5s 5s 5s ,< $t %t *. *. *. *. *. *. *. *. *. *. *. *. ",
"K#.K#.K#.K#.K#.K#.K#.K#.K#.K#.K#.K#.K#.K#.K#.K#.K#.K#.K#.K#.K#.K#.K#.K#.K#.K#.K#.K#.K#.K#.K#.K#.K#.K#.K#.+&.@&.M%.M%.M%.N%.HS HS HS HS #&.U$.m%.9%.9%.9%.9%.9%.Y+.2] s] t] )) 4] u] +~ v  x  y  A  D  c. h+ =+ M+ N+ ^# =@ 5@ /# /# P# _$ _$ _$ _$ _$ E$ @% _% j% G% && rL L& $&.p= /; `- ;; ,> -; /B O..<= /* <F ls Nw sC G} k{ 2) o4 r! r( L^ a[ %| %| %| %| %| %| %| %| %| /( 0/ 0/ 0/ 0/ 0/ 0/ 0/ 0/ 0/ 0/ 0/ 0/ 0/ 0/ 0/ 0/ 0/ 0/ 0/ 0/ 0/ 0/ 0/ 0/ 0/ 0/ 0/ 0/ 0/ 0/ 0/ 0/ 0/ ,[ ,[ a[ ei 4@ y| y| y| y| E  ,) F/ Y] Q{ Q{ X^ La n ..@.>[ %| %| %| %| %| %| %| %| %| %| %| %| %| %| %| %| %| %| %| %| %| %| %| %| %| %| %| %| %| %| %| %| %| %| %| %| %| %| %| %| %| %| %| %| %| %| %| %| %| %| %| %| %| %| %| %| %| %| %| %| %| %| %| %| %| %| %| %| %| %| %| %| %| %| %| %| %| %| %| %| %| %| %| %| %| %| %| %| %| %| %| %| %| %| %| %| %| %| %| %| %| %| %| %| %| %| %| %| %| %| %| %| %| %| %| %| %| %| %| %| %| %| %| %| %| %| %| %| %| %| %| %| %| %| %| %| %| %| %| %| %| %| %| %| %| %| %| %| %| %| %| %| %| %| %| %| %| %| %| %| /( %| g} O# h+ y| y| y| ,5 ;[ O .U< `e ,[ 0/ 0/ 0/ 0/ 0/ 0/ 0/ 0/ 0/ 0/ 0/ 0/ 0/ C: 0/ ha U' @^ M_ M_ M_ H: fx U' G4 >[ 0/ 0/ 0/ 0/ 0/ 0/ /( /( [q e% T' :% a[ >[ %| %| %| %| %| %| %| &e TQ 4Q x( y< :{ %} [2 H/ Ze 8` cH n..B* &- /; -; l..>; J- C= G*  &.0, ;& H% k% (% *% C$ _$ _$ _$ _$ _$ _$ _$ _$ _$ P# /# 5@ *@ n+ N+ =+ K  c. c. B  Z. x  S] |{ 4] )) 4^ 5^ ]( z~ 3$.3$.3$.3$.e$.9W 9W 9W 9W 9W 9W 9W 9W W%.q%.q%.q%.q%.X%.D$.D$.%&.TT kS kS kS kS @n >d s%.=%.=%.*r 5s 5s 5s 5s 5s 5s 5s 5s m/ $t &. *. *. *. *. *. *. *. *. *. *. *. ",
"K#.K#.K#.K#.K#.K#.K#.K#.K#.K#.K#.K#.K#.K#.K#.K#.K#.K#.K#.K#.K#.K#.K#.K#.K#.K#.K#.K#.K#.K#.K#.K#.K#.K#.K#.4+.Lh M%.M%.M%.N%.HS HS HS HS #&.U$.U$.9%.9%.9%.9%.9%.L5 2] s] t] )) 4] u] +~ v  x  y  A  D  c. h+ =+ M+ N+ ^# =@ 5@ /# /# P# _$ _$ _$ _$ _$ E$ @% _% j% G% 3& rL L& )* &&.U- `- p; ^> >> @4 ), <= VX <F ls Nw $n V< k{ 2) o4 r! 7~ H/ a[ %| %| %| %| %| %| %| %| %| /( 0/ 0/ 0/ 0/ 0/ 0/ 0/ 0/ 0/ 0/ 0/ 0/ 0/ 0/ 0/ 0/ 0/ 0/ 0/ 0/ 0/ 0/ 0/ 0/ 0/ 0/ 0/ 0/ 0/ 0/ 0/ 0/ 0/ ,[ ,[ a[ ei 4@ y| y| y| y| h+ ,) O{ Y] Q{ Q{ o^ .^ <% ^^ >[ %| %| %| %| %| %| %| %| %| %| %| %| %| %| %| %| %| %| %| %| %| %| %| %| %| %| %| %| %| %| %| %| %| %| %| %| %| %| %| %| %| %| %| %| %| %| %| %| %| %| %| %| %| %| %| %| %| %| %| %| %| %| %| %| %| %| %| %| %| %| %| %| %| %| %| %| %| %| %| %| %| %| %| %| %| %| %| %| %| %| %| %| %| %| %| %| %| %| %| %| %| %| %| %| %| %| %| %| %| %| %| %| %| %| %| %| %| %| %| %| %| %| %| %| %| %| %| %| %| %| %| %| %| %| %| %| %| %| %| %| %| %| %| %| %| %| %| %| %| %| %| %| %| %| %| %| %| %| %| %| /( %| g} O# h+ y| y| y| ,5 ;[ O .U< `e ,[ 0/ 0/ 0/ 0/ 0/ 0/ 0/ 0/ 0/ 0/ 0/ k^ 0/ &e U' @^ b/ Q{ Q{ Q{ Q{ Q{ Q{ X^ qR 6; %| 3..3..C: @j (p }% w..+^ H: B<  e e_ >[ %| %| %| %| %| %| %| &e TQ 4Q x( y< :{ %} [2 H/ Ze oC Ho <F P .&- U- =; t; p; *&.0- G*  &.0, ;& H% k% c% `$ C$ _$ _$ _$ _$ _$ _$ _$ _$ _$ P# /# 5@ *@ n+ N+ =+ K  c. c. B  Z. x  S] |{ 4] )) 4^ 5^ ]( z~ u+.#@.e$.=&.G$.9W 9W 9W 9W 9W 9W 9W i%.q%.q%.q%.q%.q%.x$.D$.-&.;&.;&.;&.8( kS kS >d >d s%.=%.-%.5s 5s 5s 5s 5s 5s 5s 5s 5s u+ $t %t *. *. *. *. *. *. *. *. *. *. *. ",
"K#.K#.K#.K#.K#.K#.K#.K#.K#.K#.K#.K#.K#.K#.K#.K#.K#.K#.K#.K#.K#.K#.K#.K#.K#.K#.K#.K#.K#.K#.K#.K#.K#.K#.K#.K#.c) M%.M%.M%.N%.HS HS HS HS U$.U$.>&.zS ,&.9%.9%.9%.9%.2] s] t] )) 4] u] +~ v  x  y  A  D  c. h+ =+ M+ N+ ^# =@ 5@ /# /# P# _$ _$ _$ _$ _$ E$ @% _% j% G% 3& ^& L& )* 2..U- 0> '&.l..*; @4 19 T* /* <F ls Nw $n V< k{ 2) M6 r! 7~ H/ a[ %| %| %| %| %| %| %| %| %| /( 0/ 0/ >[ `e C: C: 0/ 0/ 0/ 0/ 0/ 0/ 0/ k^ C: C: C: C: C: k^ 0/ 0/ 0/ 0/ 0/ 0/ 0/ 0/ 0/ 0/ 0/ 0/ 0/ ,[ ,[ a[ ei 4@ y| y| y| y| h+ ,) Q{ Y] Q{ Q{ Q{ .^ W' ha .@.%| %| %| %| %| %| %| %| %| %| %| %| %| %| %| %| %| %| %| %| %| %| %| %| %| %| %| %| %| %| %| %| %| %| %| %| %| %| %| %| %| %| %| %| %| %| %| %| %| %| %| %| %| %| %| %| %| %| %| %| %| %| %| %| %| %| %| %| %| %| %| %| %| %| %| %| %| %| %| %| %| %| %| %| %| %| %| %| %| %| %| %| %| %| %| %| %| %| %| %| %| %| %| %| %| %| %| %| %| %| %| %| %| %| %| %| %| %| %| %| %| %| %| %| %| %| %| %| %| %| %| %| %| %| %| %| %| %| %| %| %| %| %| %| %| %| %| %| %| %| %| %| %| %| %| %| %| %| %| %| /( %| g} O# h+ y| y| y| ,5 ;[ O .U< `e ,[ 0/ 0/ 0/ 0/ 0/ 0/ 0/ 0/ 0/ C: +j &e 6; /Y X^ Q{ Q{ Q{ Q{ Q{ Q{ Q{ Q{ Q{ b/ H: ,6 X, T' S' LR fx B< X^ Q{ Q{ M_ UQ a[ >[ %| %| %| %| %| %| %| &e TQ /Y g< y< :{ %} [2 17 Ze oC Ho <F P .&- _> =; /> -; 3; 22 )&. &.0, ;& H% k% c% `$ C$ _$ _$ _$ _$ _$ _$ _$ _$ _$ P# /# 5@ *@ n+ N+ =+ K  c. c. B  Z. x  S] |{ 4] )) 4^ 5^ ]( 8W 9W 9W 9W 9W 9W 9W 9W 9W 9W 9W 9W 9W !&.q%.q%.q%.q%.~&.D$.D$.{&.;&.;&.;&.]&.kS d@ >d >d ^&.6s oI 5s 5s 5s 5s 5s 5s 5s 5s 5s +1 $t $t b@ *. *. *. *. *. *. *. *. *. *. ",
"K#.K#.K#.K#.K#.K#.K#.K#.K#.K#.K#.K#.K#.K#.K#.K#.K#.K#.K#.K#.K#.K#.K#.K#.K#.K#.K#.K#.K#.K#.K#.K#.K#.K#.K#.K#.M%.M%.M%.M%.N%.HS HS HS HS U$./&.4R 4R jS (&.9%.9%.9%.2] s] t] )) 4] u] +~ v  x  y  A  D  c. h+ =+ M+ N+ ^# =@ 5@ /# /# P# _$ _$ _$ _$ _$ E$ @% _% j% G% 3& ^& z& )* u= _> 0> =; s; o; {- I> T* qW 9C ls Nw $n V< k{ 2) M6 r! 7~ H/ G4 %| %| %| %| %| %| %| %| %| /( 0/ 0/ bk S' S' 6; SO &e `e C: 3..3..y/ G4 _% S' S' 46 6; }% [q /( C: C: 0/ 0/ 0/ 0/ 0/ 0/ 0/ 0/ 0/ ,[ ,[ a[ ei 4@ y| y| y| y| h+ ,) Q{ Y] Q{ Q{ i_ _&.L .ha >[ %| %| %| %| %| %| %| %| %| %| %| %| %| %| %| %| %| %| %| %| %| %| %| %| %| %| %| %| %| %| %| %| %| %| %| %| %| %| %| %| %| %| %| %| %| %| %| %| %| %| %| %| %| %| %| %| %| %| %| %| %| %| %| %| %| %| %| %| %| %| %| %| %| %| %| %| %| %| %| %| %| %| %| %| %| %| %| %| %| %| %| %| %| %| %| %| %| %| %| %| %| %| %| %| %| %| %| %| %| %| %| %| %| %| %| %| %| %| %| %| %| %| %| %| %| %| %| %| %| %| %| %| %| %| %| %| %| %| %| %| %| %| %| %| %| %| %| %| %| %| %| %| %| %| %| %| %| %| %| %| /( %| g} O# h+ y| y| y| ,5 ;[ O .U< `e ,[ 0/ 0/ 0/ 0/ 0/ k^ k^ C: m` [% X, qR B< X^ Q{ Q{ Q{ Q{ Q{ Q{ Q{ Q{ Q{ Q{ Q{ Q{ M^ X^ X^ X^ b/ Q{ Q{ Q{ Q{ M^ @^ c% ha >[ %| %| %| %| %| %| %| &e TQ /Y g< y< :{ %} [2 9m Ze oC Ho <F P .&- T- *; &..-; 3; 22 p, )* 0, ;& H% k% c% `$ C$ _$ _$ _$ _$ _$ _$ _$ _$ _$ P# /# 5@ *@ n+ N+ =+ K  c. c. B  Z. x  S] |{ 4] )) 4^ 5^ ]( 8W 9W 9W 9W 9W 9W 9W 9W :&.W%.<&.<&.[&.q%.q%.q%.q%.q%.}&.D$.D$.|&.;&.;&.;&.;&.kS 5( >d >d >d 5s 5s 5s 5s 5s 5s 5s 5s 5s 5s 5s *r $t $t Z& *. *. *. *. *. *. *. *. *. *. ",
"K#.K#.K#.K#.K#.K#.K#.K#.K#.K#.K#.K#.K#.K#.K#.K#.K#.K#.K#.K#.K#.K#.K#.K#.K#.K#.K#.K#.K#.K#.K#.K#.K#.K#.K#.K#.1&.M%.M%.M%.2&.HS HS HS HS /&.>Z 4R 4R 4R 4R 3&.4&.5&.p  s] t] )) 4] u] +~ v  x  y  A  D  c. h+ =+ M+ N+ ^# =@ 5@ /# /# P# _$ _$ _$ _$ _$ E$ @% _% j% G% 3& ^& z& '* u= T- PU =; /> &; ~- #..g, ]* cA }r Nw $n V< k{ 2) M6 r! 7~ H/ e_ %| %| %| %| %| %| %| %| %| /( 0/ 0/ Q` @^ X^ H: qR /Y wc UQ S'  e LR ][ H: X^ X^ M_ H: qR fx 4Q ^z f% Nn C: 3..C: 0/ 0/ 0/ 0/ 0/ ,[ ,[ a[ ei 4@ y| y| y| y| h+ +4 Q{ Y] Q{ Q{ W( x1 b+..e >[ >[ %| %| %| %| %| %| %| %| %| %| %| %| %| %| %| %| %| %| %| %| %| %| %| %| %| %| %| %| %| %| %| %| %| %| %| %| %| %| %| %| %| %| %| %| %| %| %| %| %| %| %| %| %| %| %| %| %| %| %| %| %| %| %| %| %| %| %| %| %| %| %| %| %| %| %| %| %| %| %| %| %| %| %| %| %| %| %| %| %| %| %| %| %| %| %| %| %| %| %| %| %| %| %| %| %| %| %| %| %| %| %| %| %| %| %| %| %| %| %| %| %| %| %| %| %| %| %| %| %| %| %| %| %| %| %| %| %| %| %| %| %| %| %| %| %| %| %| %| %| %| %| %| %| %| %| %| %| %| %| /( %| g} O# h+ y| y| y| ,5 ;[ O .U< `e ,[ 0/ 0/ 0/ C: C: k^ o+.d% LR H: X^ Q{ Q{ Q{ Q{ Q{ Q{ Q{ Q{ Q{ Q{ Q{ Q{ Q{ Q{ Q{ Q{ Q{ Q{ Q{ Q{ Q{ Q{ Q{ Q{ X^ LR Q` %| %| %| %| %| %| %| %| %| &e TQ /Y g< y< :{ %} [2 9m Ze oC Ho <F P .&- T- o; N; *; H- A= F* )* u& ;& H% k% c% `$ C$ _$ _$ _$ _$ _$ _$ _$ _$ _$ P# /# 5@ *@ n+ N+ =+ K  c. c. B  Z. x  S] |{ 4] )) 4^ 5^ ]( 8W 9W 9W 9W 9W 9W 9W i%.6&.q%.q%.q%.q%.q%.q%.q%.q%.~&.D$.D$.D$.7&.;&.;&.;&.;&.;d vb >d >d >d `r 5s 5s 5s 5s 5s 5s 5s 5s 5s 5s 5s u+ i= *. *. *. *. *. *. *. *. *. *. *. ",
"K#.K#.K#.K#.K#.K#.K#.K#.K#.K#.K#.K#.K#.K#.K#.K#.K#.K#.K#.K#.K#.K#.K#.K#.K#.K#.K#.K#.K#.K#.K#.K#.K#.K#.K#.K#.E[ M%.M%.8&.n7 2Q Xi x{ vb 4R 4R 4R 4R 4R 4R 4R 4R 4R {) s] t] )) 4] u] +~ v  x  y  A  D  c. h+ =+ M+ N+ ^# =@ 5@ /# /# P# _$ _$ _$ _$ _$ E$ @% _% j% G% O% ^& z& y* u= T- Z- *; N; n; 9&.K .S* ]* cA }r Nw $n V< k{ H3 M6 r! 7~ H/ e_ %| %| %| %| %| %| %| %| %| /( 0/ k^ |% +^ Q{ Q{ Q{ Q{ Q{ b/ b/ Q{ Q{ Q{ Q{ Q{ Q{ Q{ Q{ Q{ Q{ Q{ X^  @.LR W' n .c3 >[ C: C: +j 0/ ,[ ,[ a[ ei 4@ y| y| y| y| (Y +4 Q{ Y] Q{ Q{ o^ __ %...e >[ >[ %| %| %| %| %| %| %| %| %| %| %| %| %| %| %| %| %| %| %| %| %| %| %| %| %| %| %| %| %| %| %| %| %| %| %| %| %| %| %| %| %| %| %| %| %| %| %| %| %| %| %| %| %| %| %| %| %| %| %| %| %| %| %| %| %| %| %| %| %| %| %| %| %| %| %| %| %| %| %| %| %| %| %| %| %| %| %| %| %| %| %| %| %| %| %| %| %| %| %| %| %| %| %| %| %| %| %| %| %| %| %| %| %| %| %| %| %| %| %| %| %| %| %| %| %| %| %| %| %| %| %| %| %| %| %| %| %| %| %| %| %| %| %| %| %| %| %| %| %| %| %| %| %| %| %| %| %| %| %| /( %| g} O# h+ y| y| y| ,5 ;[ O .U< `e ,[ 0/ C: C: y/ [q 0&.LR H: b/ Q{ Q{ Q{ Q{ Q{ Q{ Q{ Q{ Q{ Q{ Q{ Q{ Q{ Q{ Q{ Q{ Q{ Q{ Q{ Q{ Q{ Q{ Q{ Q{ Q{ X^ H: U' a[ %| %| %| %| %| %| %| %| %| &e TQ /Y g< y< :{ %} [2 9m X, [3 Sn 9C 9x &- T- %; >; *; a&.z= F* '* u& 'y H% k% c% `$ C$ _$ _$ _$ _$ _$ _$ _$ _$ _$ P# /# 5@ *@ n+ N+ =+ K  c. c. B  Z. x  S] |{ 4] )) 4^ 5^ ]( 8W 9W 9W 9W 9W 9W :&.6&.q%.q%.q%.q%.q%.q%.q%.q%.q%.}&.D$.D$.D$.7&.;&.;&.;&.>( *. N8 >d >d >d y+.5s s[ s[ w. s[ s[ s[ s[ s[ s[ P< *. *. *. *. *. *. *. *. *. *. *. *. *. ",
"K#.K#.K#.K#.K#.K#.K#.K#.K#.K#.K#.K#.K#.K#.K#.K#.K#.K#.K#.K#.K#.K#.K#.K#.K#.K#.K#.K#.K#.K#.K#.K#.K#.K#.K#.K#.z+.b&.n7 2Q 2Q 2Q 2Q 2Q 2Q 2Q 2Q 2Q 2Q 2Q 7: c&.c&.c&.]( s] t] )) 4] u] +~ v  x  y  A  D  c. h+ =+ M+ N+ ^# =@ 5@ /# /# P# _$ _$ _$ _$ _$ E$ @% _% j% G% O% ^& z& y* u= T- ]; P; P..$; i .j .S* M` cA }r Nw $n V< k{ H3 M6 r! 7~ W/ e_ %| %| %| %| %| %| %| %| %| /( 0/ k^ '+.+^ Q{ Q{ Q{ Q{ Q{ Q{ Q{ Q{ Q{ Q{ Q{ Q{ Q{ Q{ Q{ Q{ Q{ Q{ Q{ Q{ b/ M_ @^ LR S' 6; bk >[ C: N{ ,[ a[ ei 4@ y| y| y| y| %+ +4 Q{ 2^ Q{ Q{ Q{ __ ^z SO >[ >[ %| %| %| %| %| %| %| %| %| %| %| %| %| %| %| %| %| %| %| %| %| %| %| %| %| %| %| %| %| %| %| %| %| %| %| %| %| %| %| %| %| %| %| %| %| %| %| %| %| %| %| %| %| %| %| %| %| %| %| %| %| %| %| %| %| %| %| %| %| %| %| %| %| %| %| %| %| %| %| %| %| %| %| %| %| %| %| %| %| %| %| %| %| %| %| %| %| %| %| %| %| %| %| %| %| %| %| %| %| %| %| %| %| %| %| %| %| %| %| %| %| %| %| %| %| %| %| %| %| %| %| %| %| %| %| %| %| %| %| %| %| %| %| %| %| %| %| %| %| %| %| %| %| %| %| %| %| %| %| /( %| g} O# h+ y| y| y| ,5 ;[ O .x< 0/ N{ C: ^^ $..U' La H: X^ Q{ Q{ Q{ Q{ Q{ Q{ Q{ Q{ Q{ Q{ Q{ Q{ Q{ Q{ Q{ Q{ Q{ Q{ Q{ Q{ Q{ Q{ Q{ Q{ Q{ Q{ Q{ X^ LR N .%| %| %| %| %| %| %| %| %| %| &e TQ /Y x( y< :{ %} ~% 3^ Sf [3 Sn cA :* jX @T %; >; P; _ .y= F* '* t& M, H% k% c% `$ C$ _$ _$ _$ _$ _$ _$ _$ _$ _$ P# /# 5@ *@ n+ N+ =+ K  c. c. B  Z. x  S] |{ 4] )) 4^ 5^ ]( 8W 9W 9W 9W 9W 9W W%.q%.q%.q%.q%.q%.q%.q%.q%.q%.X%.D$.D$.D$.D$.d&.;&.;&.e&.*. *. *. /b f&.>d 0: }$ *. *. *. *. *. *. *. *. *. *. *. *. *. *. *. *. *. *. *. *. *. *. *. ",
"K#.K#.K#.K#.K#.K#.K#.K#.K#.K#.K#.K#.K#.b@ `| `| `| `| `| `| `| g&.K#.K#.K#.K#.K#.K#.K#.K#.K#.K#.h&.~1 Cl }O 2Q 2Q 2Q 2Q 2Q 2Q 2Q 2Q 2Q 2Q 2Q 2Q 2Q 2Q 2Q 2Q 2Q 2Q 5^ s] t] )) 4] u] +~ v  x  y  A  D  c. h+ =+ M+ N+ ^# =@ 5@ /# /# P# _$ _$ _$ _$ _$ E$ @% _% j% G% O% l& z& y* t= (; Y- P; q; #; '- { .S* M` II }r Vw $n _1 ti H3 M6 r! 7~ W/ e_ %| %| %| %| %| %| %| %| %| /( 0/ k^ '+.p%.b/ Q{ Q{ Q{ Q{ Q{ (^ (^ (^ c/ Y] Y] Y] Y] Y] Y] Y] Y] Y] Y] Y] Y] __ x1 Y] __ .# i&.j&.k&.l&.^^ m&.y@ y| y| y| y| %+ _4 Q{ 2^ Q{ Q{ Q{ x1 b+..e >[ >[ %| %| %| %| %| %| %| %| %| %| %| %| %| %| %| %| %| %| %| %| %| %| %| %| %| %| %| %| %| %| %| %| %| %| %| %| %| %| %| %| %| %| %| %| %| %| %| %| %| %| %| %| %| %| %| %| %| %| %| %| %| %| %| %| %| %| %| %| %| %| %| %| %| %| %| %| %| %| %| %| %| %| %| %| %| %| %| %| %| %| %| %| %| %| %| %| %| %| %| %| %| %| %| %| %| %| %| %| %| %| %| %| %| %| %| %| %| %| %| %| %| %| %| %| %| %| %| %| %| %| %| %| %| %| %| %| %| %| %| %| %| %| %| %| %| %| %| %| %| %| %| %| %| %| %| %| %| %| %| /( %| g} O# h+ y| y| y| ,5 ;[ n&.5] ] .o&.h% 46 qR __ Y] __ Y] Y] Y] Y] c/ c/ (^ Q{ Q{ Q{ Q{ Q{ Q{ Q{ Q{ Q{ Q{ Q{ Q{ Q{ Q{ Q{ Q{ Q{ Q{ Q{ Q{ b/ *^ c% a[ .@.%| %| %| %| %| %| %| %| %| &e [% 4Q x( y< :{ %} ~% 3^ X, M2 Sn cA oZ jX )7 n; ;; %; F- y= pR '* t& R& H% k% c% `$ C$ _$ _$ _$ _$ _$ _$ _$ _$ _$ P# /# 5@ *@ n+ N+ =+ K  c. c. B  Z. x  S] |{ 4] )) 4^ 5^ ]( 8W 9W 9W 9W 9W 9W <&.q%.q%.q%.q%.q%.q%.q%.q%.X%.D$.D$.D$.D$.D$.|9 ;&.;&.p&.*. *. *. *. *. *. *. *. *. *. *. *. *. *. *. *. *. *. *. *. *. *. *. *. *. *. *. *. *. *. *. ",
"K#.K#.x% x% x% x% x% =@.Q8 u9 q&.v_ #] r&.r&.r&.r&.r&.r&.r&.r&.r&.r&.r&.r&.r&.r&.r&.s&.Al 2Q 2Q 2Q 2Q 2Q 2Q 2Q 2Q 2Q 2Q 2Q 2Q 2Q 2Q 2Q 2Q 2Q 2Q 2Q 2Q 2Q 2Q 2Q 2Q 5^ s] t] )) 4] u] +~ v  x  y  A  D  c. h+ =+ M+ N+ ^# =@ 5@ /# /# P# _$ _$ _$ _$ _$ D$ @% _% j% G% O% l& M& y* t= (; Y- %; p; @; ,- { .`J M` II +J #w 8m _1 ti H3 M6 r! 7~ W/ e_ %| %| %| %| %| %| %| %| %| /( /( y/ N .fx b/ Q{ Q{ Q{ i_ i_ i_ F/ 1^ F/ 1^ 1^ 1^ 1^ 1^ 1^ _( _( <( <( :( :( [( d[ m_ m_ m_ [( r{ $^ n2  % y# v] y| y| y| y| %+ _4 Q{ 2^ Q{ Q{ W( x1 ^z [q >[ .@.%| %| %| %| %| %| %| %| %| %| %| %| %| %| %| %| %| %| %| %| %| %| %| %| %| %| %| %| %| %| %| %| %| %| %| %| %| %| %| %| %| %| %| %| %| %| %| %| %| %| %| %| %| %| %| %| %| %| %| %| %| %| %| %| %| %| %| %| %| %| %| %| %| %| %| %| %| %| %| %| %| %| %| %| %| %| %| %| %| %| %| %| %| %| %| %| %| %| %| %| %| %| %| %| %| %| %| %| %| %| %| %| %| %| %| %| %| %| %| %| %| %| %| %| %| %| %| %| %| %| %| %| %| %| %| %| %| %| %| %| %| %| %| %| %| %| %| %| %| %| %| %| %| %| %| %| %| %| %| /( %| g} O# h+ y| y| y| y| <! M+ e- R' e< LS f[ /< :( }( <( <( 1^ 1^ 1^ 1^ F/ i_ Q{ Q{ Q{ Q{ Y] Y] n^ n^ t&.t&.t&.t&.n^ n^ Y] Y] Y] Y] Q{ Q{ X^ LR Q` %| %| %| %| %| %| %| %| %| %| %| &e TQ 4Q x( y< :{ %} ~% 3^ X, M2 Sn cA oZ _- _; $; ); %; >` y= D* v, 9, R& H% k% c% N' B$ _$ _$ _$ _$ _$ _$ _$ _$ _$ P# /# 5@ *@ n+ N+ =+ K  c. c. B  Z. x  S] |{ 4] )) 4^ 5^ ]( 8W 9W 9W 9W 9W 9W q%.q%.q%.q%.q%.q%.q%.u&.J@ D$.D$.D$.D$.D$.v&.;&.;&.w&.*. *. *. *. *. *. *. *. *. *. *. *. *. *. *. *. *. *. *. *. *. *. *. *. *. *. *. *. *. *. *. *. ",
"gW gW gW gW gW gW gW gW gW gW gW gW gW gW x&.A% !^ y&.z&.z&.z&.z&.z&.z&.z&.z&.z&.z&.A&.B&.2Q 2Q 2Q 2Q 2Q 2Q 2Q 2Q 2Q 2Q 2Q C&.D&.D&.D&.D&.E&.E&.E&.E&.E&.E&.E&.E&.{) s] t] )) 4] u] +~ v  x  y  A  D  c. h+ =+ M+ N+ ^# =@ 5@ /# /# P# _$ _$ _$ _$ _$ D$ @% _% i% G% O% ]& M& v, r= (; S; n; ;; @; >- ~, R* F&.II +J #w 8m _1 ti H3 M6 r! 7~ W/ G4 %| %| %| %| %| %| %| %| %| %| %| >[ Q` La X^ :( |^ G&.r* r* d$ d$ e$ e$ e$ r@ r@ ^_ H&.1: 1: c[ c[ k_ Y/ V^ h| h| h| 0+ 0+ 2: 2: I&.I&.I&.k3 a. y| yw y| y| %+ _4 Q{ 2^ Q{ Q{ Q{ !x 46 ha .@.%| %| %| %| %| %| %| %| %| %| %| %| %| %| %| %| %| %| %| %| %| %| %| %| %| %| %| %| %| %| %| %| %| %| %| %| %| %| %| %| %| %| %| %| %| %| %| %| %| %| %| %| %| %| %| %| %| %| %| %| %| %| %| %| %| %| %| %| %| %| %| %| %| %| %| %| %| %| %| %| %| %| %| %| %| %| %| %| %| %| %| %| %| %| %| %| %| %| %| %| %| %| %| %| %| %| %| %| %| %| %| %| %| %| %| %| %| %| %| %| %| %| %| %| %| %| %| %| %| %| %| %| %| %| %| %| %| %| %| %| %| %| %| %| %| %| %| %| %| %| %| %| %| %| %| %| %| %| %| %| /( %| g} O# h+ y| y| yw yw b. ]~ 0| 0| _) h| h| h| V^ c[ 1: 1: ^_ r@ >: 7$ 7$ L_ r* A/ A/ (_ |^ ^} <+.<+.(} (} (} m_ N` N` d[ [( :( 1^ Q{ Q{ H: T' ha %| %| %| %| %| %| %| %| %| %| %| &e [% 4Q x( y< :{ %} ~% 9m X, M2 Sn cA oZ _- _; Q; -; %; >` w= D* v, s& *& H% k% c% N' B$ _$ _$ _$ _$ _$ _$ _$ _$ _$ P# /# 5@ *@ n+ N+ =+ K  c. c. B  Z. x  S] |{ 4] )) 4^ 5^ ]( 8W 9W 9W 9W 9W 9W !&.q%.R< IZ IZ IZ J&.D$.D$.D$.D$.D$.D$.}&.|9 ;&.;&.;&.;&.w&.e&.@n PQ K&.E( L&.L&.L&.L&.L&.L&.L&.K&.*< e&.e&.e&.e&.e&.e&.e&.e&.w&.;&.;&.;&.;&.;&.;&.;&.",
"gW gW gW gW gW gW gW gW gW gW gW gW gW gW gW gW gW M&.M&.M&.M&.M&.M&.M&.M&.M&.M&.M&.M&.M&.N&.O&.P&.Q&.Q&.Q&.R&.O&.O&.M&.M&.M&.M&.M&.M&.M&.S&.S&.S&.S&.S&.S&.S&.S&.`/ s] t] )) 4] u] +~ v  x  y  A  D  c. h+ =+ M+ N+ ^# =@ 5@ /# /# P# _$ _$ _$ _$ _$ D$ @% _% i% G% O% ]& x& ,* r= S- S; n` -; ~@.>- {, R* {* Az 2p #w 8m X< ti H3 M6 r! 7~ w( G4 %| %| %| %| %| %| %| %| %| %| %| ^^ Q` 4Q M_ e3 0+ F~ F~ F~ F~ F~ F~ F~ F~ 1( #( `) `) `) `) `) `) `) `) `) `) `) `) `) `) `) `) &} `) I~ `) r! [B y| j4 j4 %+ _4 Q{ 2^ Q{ Q{ Q{ .^ W' ha .@.%| %| %| %| %| %| %| %| %| %| %| %| %| %| %| %| %| %| %| %| %| %| %| %| %| %| %| %| %| %| %| %| %| %| %| %| %| %| %| %| %| %| %| %| %| %| %| %| %| %| %| %| %| %| %| %| %| %| %| %| %| %| %| %| %| %| %| %| %| %| %| %| %| %| %| %| %| %| %| %| %| %| %| %| %| %| %| %| %| %| %| %| %| %| %| %| %| %| %| %| %| %| %| %| %| %| %| %| %| %| %| %| %| %| %| %| %| %| %| %| %| %| %| %| %| %| %| %| %| %| %| %| %| %| %| %| %| %| %| %| %| %| %| %| %| %| %| %| %| %| %| %| %| %| %| %| %| %| %| %| /( %| g} O# h+ y| yw yw b. q! F~ I~ &} `) `) `) `) `) `) `) `) #( 1( 1( l_ l_ F~ F~ F~ F~ F~ `) f/ f/ f/ -] -] -] Z/ r] Q. y( O^ 2( x( O{ Y] La e% %| %| %| %| %| %| %| %| %| %| %| %| %| Q` 4Q x( y< :{ %} ~% 9m X, M2 Sn cA jN _- i; #; *; Q; w- p= 4* v, s& *& H% k% c% N' B$ _$ _$ _$ _$ _$ _$ _$ _$ _$ P# /# 5@ *@ n+ N+ =+ K  c. c. B  Z. x  S] |{ 4] )) 4^ 5^ ]( 8W 9W 9W 9W 9W 9W T&.q%.u&.D$.D$.D$.D$.D$.-&.{&.U&.d&.|9 ;&.;&.;&.;&.;&.;&.;&.;&.;&.;&.;&.;&.;&.;&.;&.;&.;&.;&.;&.;&.;&.;&.;&.;&.;&.;&.;&.;&.;&.;&.;&.;&.;&.;&.;&.;&.;&.",
"gW gW gW gW gW gW gW gW gW gW gW gW gW gW gW gW V&.W&.M&.M&.M&.M&.M&.X&.Y&.Y&.Y&.Y&.Y&.Z&.M&.M&.M&.M&.O&.O&.O&.O&.O&.O&.O&.O&.O&.O&.O&.O&.`&.`&. *.S&.S&.S&.S&.S&.`/ s] t] )) 4] u] +~ v  x  y  A  D  c. h+ =+ M+ N+ ^# =@ 5@ /# /# P# _$ _$ _$ _$ _$ D$ @% _% i% G% O% ]& &* ,* q= S- X- #; O; .; <Z 1z Q* {* |z RY #w 8m X< U} H3 8] r! 7~ w( G4 %| %| %| %| %| %| %| %| %| %| %| ^^ Q` G} u( 3) V. ,! k) k) k) k) k) k) k) k) k) k) k) k) k) k) k) k) k) k) k) k) k) k) k) k) k) k) k) k) k) .~ ~) 0< aZ j4 *+ _4 Q{ 2^ Q{ Q{ o^ .^ d% %| >[ %| %| %| %| %| %| %| %| %| %| %| %| %| %| %| %| %| %| %| %| %| %| %| %| %| %| %| %| %| %| %| %| %| %| %| %| %| %| %| %| %| %| %| %| %| %| %| %| %| %| %| %| %| %| %| %| %| %| %| %| %| %| %| %| %| %| %| %| %| %| %| %| %| %| %| %| %| %| %| %| %| %| %| %| %| %| %| %| %| %| %| %| %| %| %| %| %| %| %| %| %| %| %| %| %| %| %| %| %| %| %| %| %| %| %| %| %| %| %| %| %| %| %| %| %| %| %| %| %| %| %| %| %| %| %| %| %| %| %| %| %| %| %| %| %| %| %| %| %| %| %| %| %| %| %| %| %| %| %| %| /( %| g} O# h+ y| yw b. a! +! k) k) k) k) k) k) k) k) k) k) k) k) k) k) k) k) k) k) k) k) k) Q) k) k) C/ C/ C/ k) k) k) k) L: %1 I&.c$ ![ __  e N .%| %| %| %| %| %| %| %| %| %| %| %| %| Q` rR x( y< :{ %} ~% 3^ X, M2 iF II 6* _- R- rW P; #; 7Y p= 4* ,* r& *& H% k% (% N' B$ _$ _$ _$ _$ _$ _$ _$ _$ _$ P# /# 5@ *@ n+ N+ =+ K  c. c. B  Z. x  S] |{ 4] )) 4^ 5^ 5^ .*.;&.;&.;&.;&.;&.+*.C} @*.S6 ]] |9 ;&.;&.;&.;&.;&.;&.;&.;&.;&.;&.;&.;&.;&.;&.;&.;&.;&.;&.;&.;&.;&.;&.;&.;&.;&.;&.;&.;&.;&.;&.;&.;&.;&.;&.;&.;&.#*.72 $*.$*.$*.$*.$*.|T ",
"%*.%*.V&.gW gW gW gW gW gW gW gW gW gW gW gW &*.**.8| =*.-*.;*.>*.,*.,*.'*.)*.)*.)*.)*.!*.r< r< r< r< r< r< r< r< r< r< r< r< r< r< r< r< r< r< r< r< r< r< r< r< 1] s] t] )) 4] u] +~ v  x  y  A  D  c. h+ =+ M+ N+ ^# =@ 5@ /# /# P# _$ _$ _$ _$ _$ D$ @% _% i% g* O% ]& x& ,* q= S- X- #; o; .; <Z 1z Q* 7= |z RY SY 8m X< U} H3 8] r! 7~ K' G4 %| %| %| %| %| %| %| %| %| %| %| ^^ C, K6 u( ~*.M6 8) `) k) k) k) k) k) k) k) k) k) k) k) k) k) k) k) k) k) k) k) k) k) k) k) k) k) k) k) k) k) @{ :! a! ,5 &+ D< Q{ 2^ Q{ Q{ M^ qR e% .@.>[ %| %| %| %| %| %| %| %| %| %| %| %| %| %| %| %| %| %| %| %| %| %| %| %| %| %| %| %| %| %| %| %| %| %| %| %| %| %| %| %| %| %| %| %| %| %| %| %| %| %| %| %| %| %| %| %| %| %| %| %| %| %| %| %| %| %| %| %| %| %| %| %| %| %| %| %| %| %| %| %| %| %| %| %| %| %| %| %| %| %| %| %| %| %| %| %| %| %| %| %| %| %| %| %| %| %| %| %| %| %| %| %| %| %| %| %| %| %| %| %| %| %| %| %| %| %| %| %| %| %| %| %| %| %| %| %| %| %| %| %| %| %| %| %| %| %| %| %| %| %| %| %| %| %| %| %| %| %| %| %| /( %| g} O# h+ y| x  (! .~ k) k) k) k) k) k) k) k) k) k) k) k) k) k) k) k) k) k) k) k) k) k) k) k) k) k) k) k) k) k) k) k) .~ r! ') b$ ![ !x T' a[ %| %| %| %| %| %| %| %| %| %| %| %| %| C, wc x( y< :{ %} ~% 3^ X, M2 iF Az zY )Y R- rW P; -> 7Y p= 2* w, r& *& @& j% &% Y$ B$ _$ _$ _$ _$ _$ _$ _$ _$ _$ P# /# 5@ *@ n+ N+ =+ K  c. c. B  Z. x  S] |{ 4] )) 4^ 5^ 5^ .*.;&.;&.;&.;&.;&.;&.;&.;&.;&.;&.;&.;&.;&.;&.;&.;&.;&.;&.;&.;&.;&.;&.;&.{*.#*.#*.]*.^*.^*./*.(*._*.:*.:*.<*.[*.3X e$.e$.:] }*.|*.|*.|*.|*.1*.1*.1*.5$ 2*.3*.3*.3*.3*.3*.",
"4*.4*.4*.4*.**.5*.6*.7*.i' %*.%*.&*.7*.]*.8*.4*.4*.8| 9*.0*.0*.0*.0*.0*.0*.0*.0*.0*.0*.0*.E' a*.r< r< r< r< r< r< r< r< r< r< r< r< r< r< r< r< r< r< r< r< r< r< 1] s] t] )) 4] u] +~ v  x  y  A  D  c. h+ =+ M+ N+ ^# =@ 5@ /# /# P# _$ _$ _$ _$ _$ D$ +% _% i% g* $& ]& x& R, Y> S- W- +; P; !W ]Y b*.Q* z* |z 2p SY 8m X< U} H3 8] r! 7~ K' G4 %| %| %| %| %| %| %| %| %| %| %| >[ bk j3 u( .6 f{ x! w] /_ k) k) k) k) k) k) k) k) k) k) k) k) k) k) k) k) k) k) k) k) k) k) k) k) k) k) k) k) k) k) `) :{ }^ D< M^ 2^ Q{ o^ C< w..|% %| .@.%| %| %| %| %| %| %| %| %| %| %| %| %| %| %| %| %| %| %| %| %| %| %| %| %| %| %| %| %| %| %| %| %| %| %| %| %| %| %| %| %| %| %| %| %| %| %| %| %| %| %| %| %| %| %| %| %| %| %| %| %| %| %| %| %| %| %| %| %| %| %| %| %| %| %| %| %| %| %| %| %| %| %| %| %| %| %| %| %| %| %| %| %| %| %| %| %| %| %| %| %| %| %| %| %| %| %| %| %| %| %| %| %| %| %| %| %| %| %| %| %| %| %| %| %| %| %| %| %| %| %| %| %| %| %| %| %| %| %| %| %| %| %| %| %| %| %| %| %| %| %| %| %| %| %| %| %| %| %| %| /( %| g} 6@ E  [B !) C( k) k) k) k) k) k) k) k) k) k) k) k) k) k) k) k) k) k) k) k) k) k) k) k) k) k) k) k) k) k) k) k) @{ ]) S] E  0$ :( __ U' m~ %| %| %| %| %| %| %| %| %| %| %| %| %| C, wc x( y< :{ %} ~% 3^ X, Yt iF Az zY )Y Q- c*.n; +; 7Y v= AY R, r& *& @& j% &% Y$ B$ _$ _$ _$ _$ _$ _$ _$ _$ _$ P# /# 5@ *@ n+ N+ =+ K  c. c. B  Z. x  S] |{ 4] )) 4^ 5^ 5^ .*.;&.;&.;&.;&.;&.;&.;&.;&.;&.;&.;&.;&.;&.;&.;&.;&.;&.;&.;&.;&.{*.d*.:] |*.|*.|*.|*.|*.|*.|*.|*.|*.|*.|*.|*.|*.|*.|*.|*.|*.|*.e*.f*.g*.h*.i*.i*.j*.~$ ~$ k*.p_ 3*.3*.3*.",
"4*.4*.4*.4*.4*.4*.4*.4*.4*.4*.4*.4*.4*.4*.4*.4*.4*.l*.0*.0*.0*.0*.0*.0*.0*.0*.0*.0*.0*.0*.0*.0*.f; m*.n*.o*.p*.r< r< r< r< r< r< r< r< r< r< r< r< r< r< r< r< r< 1] s] t] )) 4] u] +~ v  x  y  A  D  c. h+ =+ M+ N+ ^# =@ 5@ /# /# P# _$ _$ _$ _$ _$ D$  % _% h% T& $& {& x& R, =, i; ^; +; &; !W ]Y y> }= bt %* 2p L6 8m X< U} H3 8] r! 7~ K' G4 %| %| %| %| %| %| %| %| %| %| %| >[ bk wc M_ z[ <| B  q! ~/  ! k) k) k)  ! b! b! i^ i^ i^ i^ i^ b! b! k) k) C/ C/ C/ C/ C/ C/ C/ C/ C/ C/ C/ k) k) k) k) `) 7) e3 Q{ Y] Q{ Q{ !x 46 [q %| %| %| %| %| %| %| %| %| %| %| %| %| %| %| %| %| %| %| %| %| %| %| %| %| %| %| %| %| %| %| %| %| %| %| %| %| %| %| %| %| %| %| %| %| %| %| %| %| %| %| %| %| %| %| %| %| %| %| %| %| %| %| %| %| %| %| %| %| %| %| %| %| %| %| %| %| %| %| %| %| %| %| %| %| %| %| %| %| %| %| %| %| %| %| %| %| %| %| %| %| %| %| %| %| %| %| %| %| %| %| %| %| %| %| %| %| %| %| %| %| %| %| %| %| %| %| %| %| %| %| %| %| %| %| %| %| %| %| %| %| %| %| %| %| %| %| %| %| %| %| %| %| %| %| %| %| %| %| %| %| %| /( %| q( ^# +~ +! Q) Q) Q) Q) Q) Q) Q) Q) Q) Q) Q) Q) Q) Q) Q) Q) Q) Q) Q) Q) Q) Q) Q) Q) Q) Q) Q) Q) Q) Q) Q) i^  ! /_ q*.r*.,5 c. N# <( ZO _% %| .@.%| %| %| %| %| %| %| %| %| %| %| %| C, wc x( y< q! /| ~% 3^ Sf Yt hk |z /* s*.<; R; n; +; y- b- |* R, r& f* @& j% &% Y$ B$ _$ _$ _$ _$ _$ _$ _$ _$ _$ P# /# 5@ *@ n+ N+ =+ K  c. c. B  Z. x  S] |{ 4] )) 4^ 5^ 5^ .*.;&.;&.;&.;&.;&.;&.;&.;&.;&.;&.;&.;&.;&.;&.;&.;&.t*.A% IT u*.v*.w*.|*.|*.|*.|*.|*.|*.|*.|*.|*.|*.|*.|*.|*.|*.|*.e*.x*.f*.y*.y*.y*.z*.j*.A*.A*.A*.B*.j*.~$ ~$ W%.3*.3*.",
"4*.4*.4*.4*.4*.4*.4*.4*.4*.4*.4*.4*.4*.4*.4*.C*. W G+ 0*.0*.0*.0*.0*.0*.0*.0*.0*.0*.0*.0*.0*.0*.0*.0*.0*.0*.0*.0*.0*.f; m*.n*.p*.r< r< r< r< r< r< r< r< r< r< r< 1] s] t] )) 4] u] +~ v  x  y  A  D  c. h+ =+ M+ N+ ^# =@ 5@ /# /# P# _$ _$ _$ _$ _$ D$  % _% h% T& $& {& w& R, =, i; ^; .; n; `- &- GX }= bt %z 2p L6 8m X< U} H3 8] r! 7~ 8; M .^^ ^^ ^^ ^^ ^^ ^^ ^^ ^^ ^^ ^^ ^^ D*./p Sf M_ I: }2 c. 44 F< s( .! E*.O) O) C) C) O) O) a< P) P) a< O) {/ L: l_ F~ F~ F~ F~ F~ F~ F~ F~ F~ F~ F~ F~ F~ F~ F*.+( x( Q{ Y] Q{ Q{ +^ c+.%| >[ %| %| %| %| %| %| %| %| %| %| %| %| %| %| %| %| %| %| %| %| %| %| %| %| %| %| %| %| %| %| %| %| %| %| %| %| %| %| %| %| %| %| %| %| %| %| %| %| %| %| %| %| %| %| %| %| %| %| %| %| %| %| %| %| %| %| %| %| %| %| %| %| %| %| %| %| %| %| %| %| %| %| %| %| %| %| %| %| %| %| %| %| %| %| %| %| %| %| %| %| %| %| %| %| %| %| %| %| %| %| %| %| %| %| %| %| %| %| %| %| %| %| %| %| %| %| %| %| %| %| %| %| %| %| %| %| %| %| %| %| %| %| %| %| %| %| %| %| %| %| %| %| %| %| %| %| %| %| %| %| %| >[ %| T< N+ L! ~) w] G*.G*.G*.G*.G*.G*.G*.G*.G*.G*.G*.G*.G*.G*.G*.G*.G*.G*.G*.G*.G*.G*.G*.G*.G*.G*.G*.G*.6~ 6~ w] :! ~) +~ ,5 y| c. N# J3 +^ <% .@..@.%| %| %| %| %| %| %| %| %| %| %| %| bk X, MS y< q! /| ~% 3^ Sf Yt 5Y |z VX <- P- R; pZ R; y- b- |* ;* r& f* @& j% &% Y$ B$ _$ _$ _$ _$ _$ _$ _$ _$ _$ P# /# 5@ *@ n+ N+ =+ K  c. c. B  Z. x  S] |{ 4] )) 4^ 5^ 5^ .*.H*.I*.CU J*.B{ K*.L*.M*.|T ;&.;&.;&.;&.N*.O*.P*.P*.P*.Q*.y*.y*.y*.y*.y*.R*.R*.R*.S*.S*.S*.S*.S*.S*.R*.R*.T*.y*.y*.y*.y*.y*.y*.y*.U*.~$ V*.A*.A*.A*.A*.W*.~$ X*.p_ 3*.",
"4*.4*.4*.4*.4*.4*.4*.4*.4*.4*.4*.4*.4*.M) 6{ o_ R_ 0*.0*.0*.0*.0*.0*.0*.0*.0*.0*.0*.0*.0*.0*.0*.0*.0*.0*.0*.0*.0*.0*.0*.0*.0*.0*.E' a*.r< r< r< r< r< r< r< r< r< 1] s] t] )) 4] u] +~ v  x  y  A  D  c. h+ =+ M+ N+ ^# =@ 5@ /# /# P# _$ _$ _$ _$ _$ D$  % _% h% T& $& {& w& 0* [V i; /; .; n; ~$.&-  2 }= bt %z cH L6 ad X< U} H3 8] r! 7~ 8; m~ ^^ ^^ ^^ ^^ ^^ ^^ ^^ ^^ ^^ ^^ ^^ D*.G4 X, B< L| }2 c. 0u [B L! L! ]^ ]~ p~ )t 8] 82 Y*.Z*.x@ x@ U/ U/ lO :v =: S$ r* r* S$ S$ S$ S$ S$ S$ S$ S$ S$ S$ S$ S$ g< :( Q{ Q{ Q{ Q{ +^ d% %| >[ ^^ ^^ ^^ ^^ ^^ ^^ ^^ ^^ ^^ ^^ ^^ ^^ ^^ ^^ ^^ ^^ ^^ ^^ ^^ ^^ ^^ ^^ ^^ ^^ ^^ ^^ ^^ ^^ ^^ ^^ ^^ ^^ ^^ ^^ ^^ ^^ ^^ ^^ ^^ ^^ ^^ ^^ ^^ ^^ ^^ ^^ ^^ ^^ ^^ ^^ ^^ ^^ ^^ ^^ ^^ ^^ ^^ ^^ ^^ ^^ ^^ ^^ ^^ ^^ ^^ ^^ ^^ ^^ ^^ ^^ ^^ ^^ ^^ ^^ ^^ ^^ ^^ ^^ ^^ ^^ ^^ ^^ ^^ ^^ ^^ ^^ ^^ ^^ ^^ ^^ ^^ ^^ ^^ ^^ ^^ ^^ ^^ ^^ ^^ ^^ ^^ ^^ ^^ ^^ ^^ ^^ ^^ ^^ ^^ ^^ ^^ ^^ ^^ ^^ ^^ ^^ ^^ ^^ ^^ ^^ ^^ ^^ ^^ ^^ ^^ ^^ ^^ ^^ ^^ ^^ ^^ ^^ ^^ ^^ ^^ ^^ ^^ ^^ ^^ ^^ ^^ ^^ ^^ ^^ ^^ ^^ ^^ ^^ ^^ ^^ ^^ ^^ ^^ ^^ ^^ ^^ ^^ ^^ ^^ ^^ ^^ ^^ ^^ ,/ b= X$ V$ V$ V$ V$ V$ V$ V$ V$ V$ V$ V$ V$ V$ V$ V$ V$ V$ V$ V$ V$ V$ V$ V$ V$ V$ V$ V$ V$ V$ V$ X$ X$ B$ ^# <! b. y| y| c. }2 J3 qR <% >[ >[ ^^ ^^ ^^ ^^ ^^ ^^ ^^ ^^ ^^ ^^ ^^ ^^ SO %..e} y< q! /| ~% 3^ Sf Yt hk |z qW <- P-  ; #; .; `*.b-  =.;* r& 7, @& j% &% Y$ B$ _$ _$ _$ _$ _$ _$ _$ _$ _$ P# /# 5@ *@ n+ N+ =+ K  c. c. B  Z. x  S] |{ 4] )) 4^ 5^ 5^ .=.J*.J*.J*.+=.+=.+=.+=.+=.+=.@=.#=.$=.%=.P*.P*.P*.P*.P*.&=.y*.y*.y*.y*.y*.y*.y*.y*.y*.y*.y*.y*.y*.y*.y*.y*.y*.y*.y*.y*.y*.*=.==.U*.~$ ~$ -=.;=.>=.,=.'=.A*.)=.h*.!=.3*.",
"~=.{=.]=.UV ^=.]=.]=./=.(=._=.4*.M) :=.<=.[=.}=.|=.0*.0*.0*.0*.0*.0*.0*.0*.0*.0*.1=.}*.2=.<T 0*.0*.0*.0*.0*.0*.0*.0*.0*.0*.0*.0*.0*.0*.f; n*.r< r< r< r< r< r< r< 1] s] t] )) 4] u] +~ v  x  y  A  D  c. h+ =+ M+ N+ ^# =@ 5@ /# /# P# _$ _$ _$ _$ _$ D$  % _% h% T& N% }& w& v* 3=.i; /; ~; #; Z- %- w> |= !* OU cH L6 ad X< U} p2 e+ r! 7~ 8; m~ ^^ ^^ ^^ ^^ ^^ ^^ ^^ ^^ ^^ ^^ ^^ D*.G4 X, B< L| }2 y| y| y@ %$ X$ f| 4=..% .% b} b} :| D, 5n 5n 5n Ax !j _% /Y b/ 1^ O{ O{ 1^ 1^ 1^ 1^ 1^ 1^ 1^ 1^ 1^ 1^ 1^ 1^ Q{ Q{ Q{ Q{ Q{ __ 1{ &e y/ >[ ^^ ^^ ^^ ^^ ^^ ^^ ^^ ^^ ^^ ^^ ^^ ^^ ^^ ^^ ^^ ^^ ^^ ^^ ^^ ^^ ^^ ^^ ^^ ^^ ^^ ^^ ^^ ^^ ^^ ^^ ^^ ^^ ^^ ^^ ^^ ^^ ^^ ^^ ^^ ^^ ^^ ^^ ^^ ^^ ^^ ^^ ^^ ^^ ^^ ^^ ^^ ^^ ^^ ^^ ^^ ^^ ^^ ^^ ^^ ^^ ^^ ^^ ^^ ^^ ^^ ^^ ^^ ^^ ^^ ^^ ^^ ^^ ^^ ^^ ^^ ^^ ^^ ^^ ^^ ^^ ^^ ^^ ^^ ^^ ^^ ^^ ^^ ^^ ^^ ^^ ^^ ^^ ^^ ^^ ^^ ^^ ^^ ^^ ^^ ^^ ^^ ^^ ^^ ^^ ^^ ^^ ^^ ^^ ^^ ^^ ^^ ^^ ^^ ^^ ^^ ^^ ^^ ^^ ^^ ^^ ^^ ^^ ^^ ^^ ^^ ^^ ^^ ^^ ^^ ^^ ^^ ^^ ^^ ^^ ^^ ^^ ^^ ^^ ^^ ^^ ^^ ^^ ^^ ^^ ^^ ^^ ^^ ^^ ^^ ^^ ^^ ^^ ^^ ^^ ^^ ^^ ^^ ^^ ^^ ^^ ^^ ^^ m` ^^ &e &e &e &e &e &e &e &e &e &e &e &e &e &e &e &e &e &e &e &e &e &e &e &e &e &e &e &e &e &e &e ^^ m` G4 f| M+ B  y| y| y| }2 J3 qR TQ >[ >[ ^^ ^^ ^^ ^^ ^^ ^^ ^^ ^^ ^^ ^^ ^^ ^^ jz Ze e} y< q! /| ~% 3^ X, Et hk |z qW <- QQ  ; rW ~; A- Y> [* ;* r& 7, @& j% &% Y$ B$ _$ _$ _$ _$ _$ _$ _$ _$ _$ P# /# 5@ *@ n+ N+ =+ K  c. c. B  Z. x  S] |{ 4] )) 4^ 5^ ]( 5=.J*.J*.J*.+=.+=.+=.+=.+=.+=.6=.7=.7=.8=.P*.P*.P*.P*.P*.P*.9=.0=.0=.0=.0=.0=.0=.0=.0=.0=.0=.0=.0=.0=.0=.a=.b=.c=.d=.d=.d=.d=.d=.e=.f=.g=.h=.i=.i=.i=.j=.k=.A*.l=.m=.n=.",
"^=.^=.^=.^=.^=.^=.^=.^=.o=.p=.q=.r=.[=.[=.s=.0*.0*.<T <T t=.0*.t=.}*.}*.2=.E{ :] :] :] :] :] :] 2=.<T t=.0*.0*.0*.0*.0*.0*.0*.0*.0*.0*.0*.0*.Y) o*.r< r< r< r< r< 1] s] t] )) 4] u] +~ v  x  y  A  D  c. h+ =+ M+ N+ ^# =@ 5@ /# /# P# _$ _$ _$ _$ _$ D$  % _% 4% T& N% }& v& v* [V i; => !W #; Z- _- != |= sS OU Ho L6 ad X< U} p2 e+ r! 7~ 8; m~ ^^ ^^ ^^ ^^ ^^ ^^ ^^ ^^ ^^ ^^ ^^ D*.G4 X, B< L| }2 <! y| v# %X <V m~ 91 !%.m~ m~ m~ &e d1 ^^ ^^ ^^ ^^ >[ &e |% %..x1 i_ Q{ Q{ Q{ Q{ Q{ Q{ Q{ Q{ Q{ Q{ Q{ Q{ Q{ Q{ Q{ Q{ Q{ Q{ X^ qR 6; &e D*.^^ ^^ ^^ ^^ ^^ ^^ ^^ ^^ ^^ ^^ ^^ ^^ ^^ ^^ ^^ ^^ ^^ ^^ ^^ ^^ ^^ ^^ ^^ ^^ ^^ ^^ ^^ ^^ ^^ ^^ ^^ ^^ ^^ ^^ ^^ ^^ ^^ ^^ ^^ ^^ ^^ ^^ ^^ ^^ ^^ ^^ ^^ ^^ ^^ ^^ ^^ ^^ ^^ ^^ ^^ ^^ ^^ ^^ ^^ ^^ ^^ ^^ ^^ ^^ ^^ ^^ ^^ ^^ ^^ ^^ ^^ ^^ ^^ ^^ ^^ ^^ ^^ ^^ ^^ ^^ ^^ ^^ ^^ ^^ ^^ ^^ ^^ ^^ ^^ ^^ ^^ ^^ ^^ ^^ ^^ ^^ ^^ ^^ ^^ ^^ ^^ ^^ ^^ ^^ ^^ ^^ ^^ ^^ ^^ ^^ ^^ ^^ ^^ ^^ ^^ ^^ ^^ ^^ ^^ ^^ ^^ ^^ ^^ ^^ ^^ ^^ ^^ ^^ ^^ ^^ ^^ ^^ ^^ ^^ ^^ ^^ ^^ ^^ ^^ ^^ ^^ ^^ ^^ ^^ ^^ ^^ ^^ ^^ ^^ ^^ ^^ ^^ ^^ ^^ ^^ ^^ ^^ ^^ ^^ ^^ ^^ ^^ ^^ ^^ ^^ ^^ ^^ ^^ ^^ ^^ ^^ ^^ ^^ ^^ ^^ ^^ ^^ ^^ ^^ ^^ ^^ ^^ ^^ ^^ ^^ ^^ ^^ ^^ ^^ ^^ ^^ ^^ ^^ ^^ ^^ `e `e m~ G~ N+ B  y| y| y| &d J3 u=.}% ^^ ^^ ^^ ^^ ^^ ^^ ^^ ^^ ^^ ^^ ^^ ^^ ^^ ^^ [q ^z e} y< q! /| ~% 3^ X, Et 6B pW ]* <- QQ !W +;  ; A- Y> [* 0* v=.7, @& j% &% Y$ A$ _$ _$ _$ _$ _$ _$ _$ _$ _$ P# /# 5@ *@ n+ N+ =+ K  c. c. B  Z. x  S] |{ 4] )) 4^ 5^ {) 5=.J*.J*.J*.+=.+=.+=.+=.+=.+=.w=.x=.7=.y=.z=.P*.P*.P*.P*.P*.A=.B=.B=.B=.B=.B=.B=.B=.B=.B=.B=.B=.B=.B=.B=.B=.i=.i=.i=.i=.i=.i=.i=.C=.D=.D=.D=.D=.D=.D=.D=.D=.E=.F=.G=.A*.",
"H=.H=.y^ y^ I=.[=.[=.[=.[=.[=.[=.J=.K=.v$ 0*.0*.}*.:] :] :] :] :] :] :] :] :] :] :] :] :] :] :] :] :] :] :] :] E{ E{ }*.}*.<T t=.0*.0*.0*.0*.0*.0*.m*.r< r< r< r< 1] s] t] )) 4] u] +~ v  x  y  A  D  c. h+ =+ M+ N+ ^# =@ 5@ /# /# P# _$ _$ _$ _$ _$ D$  % _% 4% T& N% }& v& v* 3=.i; => `- rW S; $- != N* '* jy Ho L6 ad X< U} I4 e+ r! 7~ 8; m~ ^^ ^^ ^^ ^^ ^^ ^^ ^^ ^^ ^^ ^^ ^^ D*./p Sf B< L| }2 <! Dx 0] L=.!%.^^ ^^ ^^ ^^ ^^ ^^ ^^ ^^ ^^ ^^ ^^ ^^ ^^ ^^ %| SO Ze x1 i_ Q{ Q{ Q{ Q{ Q{ Q{ Q{ Q{ Q{ Q{ Q{ Q{ Q{ Q{ Q{ Q{ Q{ Q{ X^ +^ 46 [q D*.^^ ^^ ^^ ^^ ^^ ^^ ^^ ^^ ^^ ^^ ^^ ^^ ^^ ^^ ^^ ^^ ^^ ^^ ^^ ^^ ^^ ^^ ^^ ^^ ^^ ^^ ^^ ^^ ^^ ^^ ^^ ^^ ^^ ^^ ^^ ^^ ^^ ^^ ^^ ^^ ^^ ^^ ^^ ^^ ^^ ^^ ^^ ^^ ^^ ^^ ^^ ^^ ^^ ^^ ^^ ^^ ^^ ^^ ^^ ^^ ^^ ^^ ^^ ^^ ^^ ^^ ^^ ^^ ^^ ^^ ^^ ^^ ^^ ^^ ^^ ^^ ^^ ^^ ^^ ^^ ^^ ^^ ^^ ^^ ^^ ^^ ^^ ^^ ^^ ^^ ^^ ^^ ^^ ^^ ^^ ^^ ^^ ^^ ^^ ^^ ^^ ^^ ^^ ^^ ^^ ^^ ^^ ^^ ^^ ^^ ^^ ^^ ^^ ^^ ^^ ^^ ^^ ^^ ^^ ^^ ^^ ^^ ^^ ^^ ^^ ^^ ^^ ^^ ^^ ^^ ^^ ^^ ^^ ^^ ^^ ^^ ^^ ^^ ^^ ^^ ^^ ^^ ^^ ^^ ^^ ^^ ^^ ^^ ^^ ^^ ^^ ^^ ^^ ^^ ^^ ^^ ^^ ^^ ^^ ^^ ^^ ^^ ^^ ^^ ^^ ^^ ^^ ^^ ^^ ^^ ^^ ^^ ^^ ^^ ^^ ^^ ^^ ^^ ^^ ^^ ^^ ^^ ^^ ^^ ^^ ^^ ^^ ^^ ^^ ^^ ^^ ^^ ^^ ^^ `e `e m~ G~ N+ B  y| y| y| f{ f< 4Q C, ^^ ^^ ^^ ^^ ^^ ^^ ^^ ^^ ^^ ^^ ^^ ^^ ^^ ^^ [q ^z MS y< q! /| ~% 3^ X, Et 6B %z M` wV N- `- !; {; M=.Y> 9x 0* O& && G% i% &% Y$ A$ _$ _$ _$ _$ _$ _$ _$ _$ _$ P# /# 5@ *@ n+ N+ =+ K  c. c. B  Z. x  S] |{ 4] )) 4^ 5^ 1] 5=.J*.J*.J*.+=.+=.+=.+=.+=.N=.O=.P=.7=.7=.Q=.P*.P*.P*.P*.P*.P*.6=.R=.R=.R=.R=.S=.B=.B=.B=.B=.B=.R=.R=.R=.R=.T=.U=.U=.V=.W=.X=.Y=.Y=.Y=.Y=.Y=.Y=.Y=.Y=.Y=.Y=.Y=.Y=.Y=.Y=.",
"Z=.Z=.Z=.Z=.Z=.`=. -..-.+-.@-.iV #-.0*.0*.0*.0*.2=.:] :] :] :] :] :] :] :] :] :] :] :] :] :] :] :] :] :] :] :] :] :] :] :] :] :] :] :] 0*.0*.0*.0*.0*.f; p*.r< r< 1] s] t] )) 4] u] +~ v  x  y  A  D  c. h+ =+ M+ N+ ^# =@ 5@ /# /# P# _$ _$ _$ _$ _$ D$  % _% 4% T& N% }& u& v* @w R- T- `- +; X- <- '= m, '* jy Sn L6 ad X< U} I4 e+ r! 7~ 8; m~ ^^ ^^ ^^ ^^ ^^ ^^ ^^ ^^ ^^ ^^ ^^ D*./p Sf B< L| }2 <! Dx 0] L=.m~ ^^ ^^ ^^ ^^ ^^ ^^ ^^ ^^ ^^ ^^ ^^ ^^ ^^ ^^ >[ ^^ G4 1{ !x Q{ W( Q{ Q{ Q{ Q{ Q{ Q{ Q{ Q{ Q{ Q{ Q{ Q{ Q{ W( zx ]z $-.Y] wc C, ^^ >[ ^^ ^^ ^^ ^^ ^^ ^^ ^^ ^^ ^^ ^^ ^^ ^^ ^^ ^^ ^^ ^^ ^^ ^^ ^^ ^^ ^^ ^^ ^^ ^^ ^^ ^^ ^^ ^^ ^^ ^^ ^^ ^^ ^^ ^^ ^^ ^^ ^^ ^^ ^^ ^^ ^^ ^^ ^^ ^^ ^^ ^^ ^^ ^^ ^^ ^^ ^^ ^^ ^^ ^^ ^^ ^^ ^^ ^^ ^^ ^^ ^^ ^^ ^^ ^^ ^^ ^^ ^^ ^^ ^^ ^^ ^^ ^^ ^^ ^^ ^^ ^^ ^^ ^^ ^^ ^^ ^^ ^^ ^^ ^^ ^^ ^^ ^^ ^^ ^^ ^^ ^^ ^^ ^^ ^^ ^^ ^^ ^^ ^^ ^^ ^^ ^^ ^^ ^^ ^^ ^^ ^^ ^^ ^^ ^^ ^^ ^^ ^^ ^^ ^^ ^^ ^^ ^^ ^^ ^^ ^^ ^^ ^^ ^^ ^^ ^^ ^^ ^^ ^^ ^^ ^^ ^^ ^^ ^^ ^^ ^^ ^^ ^^ ^^ ^^ ^^ ^^ ^^ ^^ ^^ ^^ ^^ ^^ ^^ ^^ ^^ ^^ ^^ ^^ ^^ ^^ ^^ ^^ ^^ ^^ ^^ ^^ ^^ ^^ ^^ ^^ ^^ ^^ ^^ ^^ ^^ ^^ ^^ ^^ ^^ ^^ ^^ ^^ ^^ ^^ ^^ ^^ ^^ ^^ ^^ ^^ ^^ ^^ ^^ ^^ ^^ ^^ ^^ ^^ `e `e m~ G~ N+ B  y| y| y| u{ t{ Ze jz ^^ ^^ ^^ ^^ ^^ ^^ ^^ ^^ ^^ ^^ ^^ ^^ ^^ ^^ [q 1{ MS y< /) /| ~% 3^  e Et fA OU 8* @- N- `- R; `- Ou [V _* v* p& && G% h% &% Y$ A$ _$ _$ _$ _$ _$ _$ _$ _$ _$ P# /# 5@ *@ n+ N+ =+ K  c. c. B  Z. x  S] |{ 4] )) 4^ 5^ 1] 5=.J*.J*.B{ +=.+=.+=.+=.+=.%-.O=.O=.F1 7=.&-.P*.P*.P*.P*.P*.P*.e$.*-.=-.=-.=-.=-.=-.=-.=-.=-.=-.=-.=-.=-.=-.=-.=-.=-.=-.--.:=.0=.;-.>-.,-.'-.)-.!-.~-.Y=.Y=.Y=.Y=.Y=.Y=.",
"Z=.Z=.Z=.Z=.Z=.{-.]-.^-./-.(-._-.|*.0*.0*.0*.0*.}*.:] :] :] :] :] :] :] :] :] :] :] :] :] :] :] :] :] :] :] :] :] :] :] :] :] :] :] :] E{ 0*.0*.0*.0*.0*.f; p*.r< 1] s] t] )) 4] u] +~ v  x  y  A  D  c. h+ =+ M+ N+ ^# =@ 5@ /# /# P# _$ _$ _$ _$ _$ D$  % _% 4% u% M% ~& t& b* @w R- T- ~$.R; ^; wV ,= 1= sR jy Sn -w ad F: U} I4 Y. r! 8) Y$ m~ ^^ ^^ ^^ ^^ ^^ ^^ ^^ ^^ ^^ ^^ ^^ D*./p wc B< L| }2 y| Dx 0] L=.m~ ^^ ^^ ^^ ^^ ^^ ^^ ^^ ^^ ^^ ^^ ^^ ^^ ^^ ^^ ^^ D*.D*.M .6; p%.Q{ W( Q{ Q{ Q{ Q{ Q{ Q{ W( zx ]z ]z ]z Q{ M^ C< !x fx wc <% [q ^^ ^^ ^^ ^^ ^^ ^^ ^^ ^^ ^^ ^^ ^^ ^^ ^^ ^^ ^^ ^^ ^^ ^^ ^^ ^^ ^^ ^^ ^^ ^^ ^^ ^^ ^^ ^^ ^^ ^^ ^^ ^^ ^^ ^^ ^^ ^^ ^^ ^^ ^^ ^^ ^^ ^^ ^^ ^^ ^^ ^^ ^^ ^^ ^^ ^^ ^^ ^^ ^^ ^^ ^^ ^^ ^^ ^^ ^^ ^^ ^^ ^^ ^^ ^^ ^^ ^^ ^^ ^^ ^^ ^^ ^^ ^^ ^^ ^^ ^^ ^^ ^^ ^^ ^^ ^^ ^^ ^^ ^^ ^^ ^^ ^^ ^^ ^^ ^^ ^^ ^^ ^^ ^^ ^^ ^^ ^^ ^^ ^^ ^^ ^^ ^^ ^^ ^^ ^^ ^^ ^^ ^^ ^^ ^^ ^^ ^^ ^^ ^^ ^^ ^^ ^^ ^^ ^^ ^^ ^^ ^^ ^^ ^^ ^^ ^^ ^^ ^^ ^^ ^^ ^^ ^^ ^^ ^^ ^^ ^^ ^^ ^^ ^^ ^^ ^^ ^^ ^^ ^^ ^^ ^^ ^^ ^^ ^^ ^^ ^^ ^^ ^^ ^^ ^^ ^^ ^^ ^^ ^^ ^^ ^^ ^^ ^^ ^^ ^^ ^^ ^^ ^^ ^^ ^^ ^^ ^^ ^^ ^^ ^^ ^^ ^^ ^^ ^^ ^^ ^^ ^^ ^^ ^^ ^^ ^^ ^^ ^^ ^^ ^^ ^^ ^^ ^^ ^^ ^^ ^^ `e `e m~ G~ N+ B  y| y| y| u{ t{ 46 [q ^^ ^^ ^^ ^^ ^^ ^^ ^^ ^^ ^^ ^^ ^^ ^^ ^^ ^^ [q 46 MS y< q! /| ~% 3^ wc Et fA OU A* @- N- 0> ~; `- Jv [V _* v* $* && G% h% &% Y$ A$ _$ _$ _$ _$ _$ _$ _$ _$ _$ P# /# 5@ *@ n+ N+ =+ K  c. c. B  Z. x  S] |{ 4] )) 4^ 5^ 1] :-.J*.J*.B{ +=.+=.+=.+=.<-.O=.O=.O=.[-.7=.7=.8=.P*.P*.P*.P*.P*.}-.|-.1-.*-.=-.=-.=-.=-.=-.=-.=-.=-.=-.=-.=-.=-.=-.=-.=-.=-.=-.=-.=-.=-.=-.=-.=-.=-.=-.2-.3-.4-.5-.6-.Y=.",
"{-.]-.7-.8-.9-.0-.a-./-.T*._-.b-.0*.0*.0*.0*.0*.<T :] :] :] :] :] :] :] :] :] :] :] :] :] :] :] :] :] :] :] :] :] :] :] :] :] :] :] :] :] E{ 0*.0*.0*.0*.0*.f; p*.1] s] t] )) 4] u] +~ v  x  y  A  D  c. h+ =+ M+ N+ ^# =@ 5@ /# /# P# _$ _$ _$ _$ _$ D$  % c% 4% u% M% ~& t& b* @w Q- (; Z- R; ^; @- MU M* x* jy Sn -w Fk F: U} I4 Y. r! 8) Y$ m~ ^^ ^^ ^^ ^^ ^^ ^^ ^^ ^^ ^^ ^^ ^^ w1 C, wc q} .6 <| y| Dx 0] L=.m~ ^^ ^^ ^^ ^^ ^^ ^^ ^^ ^^ ^^ ^^ ^^ ^^ ^^ ^^ ^^ ^^ D*.D*.&e TQ 4Q x1 Q{ W( W( W( Q{ Q{ b/ X^ X^ M_ H: La S' _% cl C, G4 &e ^^ ^^ ^^ ^^ ^^ ^^ ^^ ^^ ^^ ^^ ^^ ^^ ^^ ^^ ^^ ^^ ^^ ^^ ^^ ^^ ^^ ^^ ^^ ^^ ^^ ^^ ^^ ^^ ^^ ^^ ^^ ^^ ^^ ^^ ^^ ^^ ^^ ^^ ^^ ^^ ^^ ^^ ^^ ^^ ^^ ^^ ^^ ^^ ^^ ^^ ^^ ^^ ^^ ^^ ^^ ^^ ^^ ^^ ^^ ^^ ^^ ^^ ^^ ^^ ^^ ^^ ^^ ^^ ^^ ^^ ^^ ^^ ^^ ^^ ^^ ^^ ^^ ^^ ^^ ^^ ^^ ^^ ^^ ^^ ^^ ^^ ^^ ^^ ^^ ^^ ^^ ^^ ^^ ^^ ^^ ^^ ^^ ^^ ^^ ^^ ^^ ^^ ^^ ^^ ^^ ^^ ^^ ^^ ^^ ^^ ^^ ^^ ^^ ^^ ^^ ^^ ^^ ^^ ^^ ^^ ^^ ^^ ^^ ^^ ^^ ^^ ^^ ^^ ^^ ^^ ^^ ^^ ^^ ^^ ^^ ^^ ^^ ^^ ^^ ^^ ^^ ^^ ^^ ^^ ^^ ^^ ^^ ^^ ^^ ^^ ^^ ^^ ^^ ^^ ^^ ^^ ^^ ^^ ^^ ^^ ^^ ^^ ^^ ^^ ^^ ^^ ^^ ^^ ^^ ^^ ^^ ^^ ^^ ^^ ^^ ^^ ^^ ^^ ^^ ^^ ^^ ^^ ^^ ^^ ^^ ^^ ^^ ^^ ^^ ^^ ^^ ^^ ^^ ^^ ^^ ^^ `e `e m~ G~ N+ B  y| y| y| u{ P{ 46 }n ^^ ^^ ^^ ^^ ^^ ^^ ^^ ^^ ^^ ^^ ^^ ^^ ^^ ^^ &e 46 _4 y< q! /| ~% 3^ wc $z fA cU 7= @- M- Z-  ; 0> Ou @w _* c-.O& && G% h% &% Y$ A$ _$ _$ _$ _$ _$ _$ _$ _$ _$ P# /# 5@ *@ n+ N+ =+ K  c. c. B  Z. x  S] |{ 4] )) 4^ 5^ 1] hS J*.J*.B{ +=.+=.+=.+=.w=.O=.O=.O=.d-.7=.7=.e-.P*.P*.P*.P*.P*.f-.|-.|-.|-.g-.h-.=-.=-.=-.=-.=-.=-.=-.=-.=-.=-.=-.=-.=-.=-.=-.=-.=-.=-.=-.=-.=-.=-.=-.i-.i-.i-.i-.i-.i-.",
"0-.0-.0-.0-.0-.0-.j-./-.k-._-.|*.0*.0*.0*.0*.0*.<T :] :] :] :] :] :] :] :] :] :] :] :] :] :] :] :] :] :] :] :] :] :] :] :] :] :] :] :] :] :] E{ 0*.0*.0*.0*.0*.0*.1] s] t] )) 4] u] +~ v  x  y  A  D  c. h+ =+ M+ N+ ^# =@ 5@ /# /# P# _$ _$ _$ _$ _$ D$  % c% 4% u% M% !& t& b* LU Q- (; Z- ~; V- @- MU n, x* xC iF -w Fk F: U} I4 Y. r! 8) Y$ m~ ^^ ^^ ^^ ^^ ^^ ^^ ^^ ^^ ^^ ^^ ^^ D*.C, K6 G/ D< <| y| Dx 0] L=.m~ ^^ ^^ ^^ ^^ ^^ ^^ ^^ ^^ ^^ ^^ ^^ ^^ ^^ ^^ ^^ ^^ ^^ D*.w1 d1 g% 1{ fx B< B< *^ fx 4Q  e |2 V' U, [% bk m~ m~ !%.D*.D*.^^ ^^ ^^ ^^ ^^ ^^ ^^ ^^ ^^ ^^ ^^ ^^ ^^ ^^ ^^ ^^ ^^ ^^ ^^ ^^ ^^ ^^ ^^ ^^ ^^ ^^ ^^ ^^ ^^ ^^ ^^ ^^ ^^ ^^ ^^ ^^ ^^ ^^ ^^ ^^ ^^ ^^ ^^ ^^ ^^ ^^ ^^ ^^ ^^ ^^ ^^ ^^ ^^ ^^ ^^ ^^ ^^ ^^ ^^ ^^ ^^ ^^ ^^ ^^ ^^ ^^ ^^ ^^ ^^ ^^ ^^ ^^ ^^ ^^ ^^ ^^ ^^ ^^ ^^ ^^ ^^ ^^ ^^ ^^ ^^ ^^ ^^ ^^ ^^ ^^ ^^ ^^ ^^ ^^ ^^ ^^ ^^ ^^ ^^ ^^ ^^ ^^ ^^ ^^ ^^ ^^ ^^ ^^ ^^ ^^ ^^ ^^ ^^ ^^ ^^ ^^ ^^ ^^ ^^ ^^ ^^ ^^ ^^ ^^ ^^ ^^ ^^ ^^ ^^ ^^ ^^ ^^ ^^ ^^ ^^ ^^ ^^ ^^ ^^ ^^ ^^ ^^ ^^ ^^ ^^ ^^ ^^ ^^ ^^ ^^ ^^ ^^ ^^ ^^ ^^ ^^ ^^ ^^ ^^ ^^ ^^ ^^ ^^ ^^ ^^ ^^ ^^ ^^ ^^ ^^ ^^ ^^ ^^ ^^ ^^ ^^ ^^ ^^ ^^ ^^ ^^ ^^ ^^ ^^ ^^ ^^ ^^ ^^ ^^ ^^ ^^ ^^ ^^ ^^ ^^ ^^ ^^ `e `e m~ G~ N+ B  y| y| y| u{ }6 6; d1 ^^ ^^ ^^ ^^ ^^ ^^ ^^ ^^ ^^ ^^ ^^ ^^ ^^ ^^ &e 6; _4 y< q! /| ~% 3^ wc $s ui cU z* @- s- Z- {; Z- V0 @w 6* v* O& && G% h% &% Y$ A$ _$ _$ _$ _$ _$ _$ _$ _$ _$ P# /# 5@ *@ n+ N+ =+ K  c. c. B  Z. x  S] |{ 4] )) 4^ 5^ 1] l-.J*.J*.B{ +=.+=.+=.m-.O=.O=.O=.O=.[-.7=.7=.n-.P*.P*.P*.P*.o-.|-.|-.|-.|-.|-.|-.g-.*-.=-.=-.=-.=-.=-.=-.=-.=-.=-.=-.=-.=-.=-.=-.=-.=-.=-.=-.=-.=-.=-.p-.i-.i-.i-.i-.i-.",
"0-.0-.0-.0-.0-.q-./-.r-._-.s-.0*.0*.0*.0*.0*.<T :] :] :] :] :] :] :] :] :] :] :] :] :] :] :] :] :] :] :] :] :] :] :] :] :] :] :] :] :] :] :] :] E{ 0*.0*.0*.0*.0*.1] s] t] )) 4] u] +~ v  x  y  A  D  c. h+ =+ M+ N+ ^# =@ 5@ /# /# P# _$ _$ _$ _$ _$ [!  % c% 4% u% 4& !& t& I& ^3 Q- (; ];  ; _> +- -= 2= t-.xC Sn -w Fk F: U} I4 Y. r! 8) Y$ m~ ^^ ^^ ^^ ^^ ^^ ^^ ^^ ^^ ^^ ^^ >[ }{ bk G} G/ D< <| y| Dx 0] L=.Z! ^^ ^^ ^^ ^^ ^^ ^^ ^^ ^^ ^^ ^^ ^^ ^^ ^^ ^^ ^^ ^^ ^^ ^^ ^^ w1 ^^ }n Q` e% e% e% Q` bk e_ M .91 !%.D*.D*.D*.>[ ^^ ^^ ^^ ^^ ^^ ^^ ^^ ^^ ^^ ^^ ^^ ^^ ^^ ^^ ^^ ^^ ^^ ^^ ^^ ^^ ^^ ^^ ^^ ^^ ^^ ^^ ^^ ^^ ^^ ^^ ^^ ^^ ^^ ^^ ^^ ^^ ^^ ^^ ^^ ^^ ^^ ^^ ^^ ^^ ^^ ^^ ^^ ^^ ^^ ^^ ^^ ^^ ^^ ^^ ^^ ^^ ^^ ^^ ^^ ^^ ^^ ^^ ^^ ^^ ^^ ^^ ^^ ^^ ^^ ^^ ^^ ^^ ^^ ^^ ^^ ^^ ^^ ^^ ^^ ^^ ^^ ^^ ^^ ^^ ^^ ^^ ^^ ^^ ^^ ^^ ^^ ^^ ^^ ^^ ^^ ^^ ^^ ^^ ^^ ^^ ^^ ^^ ^^ ^^ ^^ ^^ ^^ ^^ ^^ ^^ ^^ ^^ ^^ ^^ ^^ ^^ ^^ ^^ ^^ ^^ ^^ ^^ ^^ ^^ ^^ ^^ ^^ ^^ ^^ ^^ ^^ ^^ ^^ ^^ ^^ ^^ ^^ ^^ ^^ ^^ ^^ ^^ ^^ ^^ ^^ ^^ ^^ ^^ ^^ ^^ ^^ ^^ ^^ ^^ ^^ ^^ ^^ ^^ ^^ ^^ ^^ ^^ ^^ ^^ ^^ ^^ ^^ ^^ ^^ ^^ ^^ ^^ ^^ ^^ ^^ ^^ ^^ ^^ ^^ ^^ ^^ ^^ ^^ ^^ ^^ ^^ ^^ ^^ ^^ ^^ ^^ ^^ ^^ ^^ ^^ ^^ ^^ ^^ ^^ ^^ `e `e m~ G~ N+ B  y| y| y| *+ 3^ TQ D*.>[ ^^ ^^ ^^ ^^ ^^ ^^ ^^ ^^ ^^ ^^ ^^ ^^ ^^ %| 6; _4 y< q! /| ~% }6 Sf $s ui jy z* @- j; *U `- ]; vc @w (* a* O& && G% h% &% Y$ A$ _$ _$ _$ _$ _$ _$ _$ _$ _$ P# /# 5@ *@ n+ N+ =+ K  c. c. B  Z. x  S] |{ 4] )) 4^ 5^ 1] 5=.J*.J*.u-.+=.+=.+=.w=.O=.O=.v-.w-.x=.7=.7=.7=.1@.P*.P*.x-.NW |-.|-.|-.|-.|-.|-.|-.|-.y-.=-.=-.=-.=-.=-.=-.=-.=-.=-.=-.=-.=-.=-.=-.=-.=-.=-.=-.=-.=-.z-.i-.i-.i-.i-.i-.",
"0-.0-.0-.a-.j-./-./-.#-._-.n- 0*.0*.0*.0*.<T :] :] :] :] :] :] :] :] :] :] :] :] :] :] :] :] :] :] :] :] :] :] :] :] :] :] :] :] :] :] :] :] :] :] :] t=.0*.0*.0*.1] s] t] )) 4] u] +~ v  x  y  A  D  c. h+ =+ M+ N+ ^# =@ 5@ /# /# P# _$ _$ _$ _$ _$ B$  % c% 4% u% 4& |& s& G& V> Q- S- Y- {; _> .- *= 2= >* gx #m :4 Fk F: U} I4 Y. r! 8) Y$ m~ >[ >[ >[ >[ >[ >[ >[ >[ >[ >[ >[ }{ N .][ m^ D< <| y| Dx 0] L=.Z! >[ >[ >[ >[ >[ >[ >[ >[ >[ >[ >[ >[ >[ >[ >[ >[ >[ >[ >[ >[ >[ >[ >[ >[ >[ >[ >[ >[ >[ >[ D*.D*.D*.D*.>[ >[ >[ >[ >[ >[ >[ >[ >[ >[ >[ >[ >[ >[ >[ >[ >[ >[ >[ >[ >[ >[ >[ >[ >[ >[ >[ >[ >[ >[ >[ >[ >[ >[ >[ >[ >[ >[ >[ >[ >[ >[ >[ >[ >[ >[ >[ >[ >[ >[ >[ >[ >[ >[ >[ >[ >[ >[ >[ >[ >[ >[ >[ >[ >[ >[ >[ >[ >[ >[ >[ >[ >[ >[ >[ >[ >[ >[ >[ >[ >[ >[ >[ >[ >[ >[ >[ >[ >[ >[ >[ >[ >[ >[ >[ >[ >[ >[ >[ >[ >[ >[ >[ >[ >[ >[ >[ >[ >[ >[ >[ >[ >[ >[ >[ >[ >[ >[ >[ >[ >[ >[ >[ >[ >[ >[ >[ >[ >[ >[ >[ >[ >[ >[ >[ >[ >[ >[ >[ >[ >[ >[ >[ >[ >[ >[ >[ >[ >[ >[ >[ >[ >[ >[ >[ >[ >[ >[ >[ >[ >[ >[ >[ >[ >[ >[ >[ >[ >[ >[ >[ >[ >[ >[ >[ >[ >[ >[ >[ >[ >[ >[ >[ >[ >[ >[ >[ >[ >[ >[ >[ >[ >[ >[ >[ >[ >[ >[ >[ >[ >[ >[ 0/ 0/ Z! G~ M+ B  y| y| y| x@ 9m C, 0/ y/ >[ >[ >[ >[ >[ >[ >[ >[ >[ >[ >[ >[ >[ %| 6; D< y< q! /| ~% }6 Sf $s +i jy &U }- j; S; 0> Y- bi V> /* b* n& 3& G% i% &% Y$ A$ _$ _$ _$ _$ _$ _$ _$ _$ _$ P# /# 5@ *@ n+ N+ =+ K  c. c. B  Z. x  S] |{ 4] )) 4^ 5^ 1] 5=.J*.J*.#*.+=.+=.m-.O=.O=.O=.d-.7=.7=.7=.7=.7=.A-.}-.B-.C-.|-.|-.|-.|-.|-.|-.|-.|-.|-.|-.D-.=-.=-.=-.=-.=-.=-.=-.=-.=-.=-.=-.=-.=-.=-.=-.=-.=-.=-.=-.E-.i-.i-.i-.i-.i-.",
"q-.F-.j-./-./-./-.G-._-.s-.0*.0*.0*.0*.<T :] :] :] :] :] :] :] :] :] :] :] :] :] :] :] :] :] :] :] :] :] :] :] :] :] :] :] :] :] :] :] :] :] :] :] :] :] <T 0*.0*.1] s] t] )) 4] u] +~ v  x  y  A  D  c. h+ =+ M+ N+ ^# =@ 5@ /# /# P# _$ _$ _$ _$ _$ A$  % c% 4% u% L% |& s& G& V> <; _; X- `- @T  - hT K* >* gx hk uu (k F: U} I4 Y. r! 8) Y$ m~ >[ >[ >[ >[ >[ >[ >[ >[ >[ >[ >[ }{ Q` g[ O{ D< <| y| Dx 0] L=.Z! >[ >[ >[ >[ >[ >[ >[ >[ >[ >[ >[ >[ >[ >[ >[ >[ >[ >[ >[ >[ >[ y/ y/ y/ y/ y/ y/ D*.D*.>[ >[ >[ >[ >[ >[ >[ >[ >[ >[ >[ >[ >[ >[ >[ >[ >[ >[ >[ >[ >[ >[ >[ >[ >[ >[ >[ >[ >[ >[ >[ >[ >[ >[ >[ >[ >[ >[ >[ >[ >[ >[ >[ >[ >[ >[ >[ >[ >[ >[ >[ >[ >[ >[ >[ >[ >[ >[ >[ >[ >[ >[ >[ >[ >[ >[ >[ >[ >[ >[ >[ >[ >[ >[ >[ >[ >[ >[ >[ >[ >[ >[ >[ >[ >[ >[ >[ >[ >[ >[ >[ >[ >[ >[ >[ >[ >[ >[ >[ >[ >[ >[ >[ >[ >[ >[ >[ >[ >[ >[ >[ >[ >[ >[ >[ >[ >[ >[ >[ >[ >[ >[ >[ >[ >[ >[ >[ >[ >[ >[ >[ >[ >[ >[ >[ >[ >[ >[ >[ >[ >[ >[ >[ >[ >[ >[ >[ >[ >[ >[ >[ >[ >[ >[ >[ >[ >[ >[ >[ >[ >[ >[ >[ >[ >[ >[ >[ >[ >[ >[ >[ >[ >[ >[ >[ >[ >[ >[ >[ >[ >[ >[ >[ >[ >[ >[ >[ >[ >[ >[ >[ >[ >[ >[ >[ >[ >[ >[ >[ >[ >[ >[ >[ >[ >[ >[ >[ 0/ 0/ Z! G~ M+ B  y| y| y| x@ +) Gk 0/ y/ >[ >[ >[ >[ >[ >[ >[ >[ >[ >[ >[ >[ >[ %| d% D< y< q! M6 ~% }6 wc $s }z ~y sS }- j; X- 0> Y- bi V> /* b* n& 3& G% i% &% Y$ A$ _$ _$ _$ _$ _$ _$ _$ _$ _$ P# /# 5@ *@ n+ N+ =+ K  c. c. B  Z. x  S] |{ 4] )) 4^ 5^ ]( 5=.J*.J*.B{ +=.+=.H-.O=.O=.O=.I-.7=.7=.7=.7=.7=.J-.|-.|-.|-.|-.|-.|-.|-.|-.|-.|-.|-.|-.|-.|-.D-.=-.=-.=-.=-.=-.=-.=-.=-.=-.=-.=-.=-.=-.=-.=-.=-.=-.=-.K-.i-.i-.i-.i-.i-.",
"/-./-./-./-./-.k-._-._-.n- 0*.0*.0*.t=.:] :] :] :] :] :] :] :] :] :] :] :] :] :] :] :] :] :] :] :] :] :] :] :] :] L-.M-.N-.O-.P-.:] :] :] :] :] :] :] :] :] 2=.<T 1] s] t] )) 4] u] +~ v  x  y  A  D  c. h+ =+ M+ N+ ^# =@ 5@ /# /# P# _$ _$ _$ _$ _$ A$  % c% 4% u% L% |& s& J& V> <; i; W- 0> @T Q-.R-.K* 5Q gx hk uu (k 39 97 I4 Y. r! 8) Y$ m~ >[ >[ >[ >[ >[ >[ >[ >[ >[ >[ >[ >[ @m @^ m^ D< <| y| Dx 0] L=.Z! >[ >[ >[ >[ >[ >[ >[ >[ >[ >[ >[ >[ >[ >[ >[ >[ >[ >[ >[ >[ >[ >[ >[ >[ >[ >[ >[ >[ >[ >[ >[ >[ >[ >[ >[ >[ >[ >[ >[ >[ >[ >[ >[ >[ >[ >[ >[ >[ >[ >[ >[ >[ >[ >[ >[ >[ >[ >[ >[ >[ >[ >[ >[ >[ >[ >[ >[ >[ >[ >[ >[ >[ >[ >[ >[ >[ >[ >[ >[ >[ >[ >[ >[ >[ >[ >[ >[ >[ >[ >[ >[ >[ >[ >[ >[ >[ >[ >[ >[ >[ >[ >[ >[ >[ >[ >[ >[ >[ >[ >[ >[ >[ >[ >[ >[ >[ >[ >[ >[ >[ >[ >[ >[ >[ >[ >[ >[ >[ >[ >[ >[ >[ >[ >[ >[ >[ >[ >[ >[ >[ >[ >[ >[ >[ >[ >[ >[ >[ >[ >[ >[ >[ >[ >[ >[ >[ >[ >[ >[ >[ >[ >[ >[ >[ >[ >[ >[ >[ >[ >[ >[ >[ >[ >[ >[ >[ >[ >[ >[ >[ >[ >[ >[ >[ >[ >[ >[ >[ >[ >[ >[ >[ >[ >[ >[ >[ >[ >[ >[ >[ >[ >[ >[ >[ >[ >[ >[ >[ >[ >[ >[ >[ >[ >[ >[ >[ >[ >[ >[ >[ >[ >[ >[ >[ >[ >[ >[ >[ >[ >[ >[ >[ >[ >[ >[ >[ 0/ 0/ Z! G~ M+ B  y| y| y| x@ +) ,/ 0/ y/ >[ >[ >[ >[ >[ >[ >[ >[ >[ >[ >[ >[ >[ ^^ <% .6 y< 8) M6 L2 }6 wc xr }z ~y sS .- K- W- Z- X- V; V> S-.b* n& 3& G% i% &% Y$ A$ _$ _$ _$ _$ _$ _$ _$ _$ _$ P# /# 5@ *@ n+ N+ =+ K  c. c. B  Z. x  S] |{ 4] )) 4^ 5^ ]( 5=.J*.J*.B{ +=.Z[ O=.O=.O=.O=.w-.7=.7=.7=.7=.7=.T-.|-.|-.|-.|-.|-.|-.|-.|-.|-.|-.|-.|-.|-.|-.|-.D-.=-.=-.=-.=-.=-.=-.=-.=-.=-.=-.=-.=-.=-.=-.=-.=-.=-.U-.i-.i-.i-.i-.i-.",
"/-./-./-./-.k-._-._-.s-.0*.0*.0*.0*.E{ :] :] :] :] :] :] :] :] :] :] :] :] :] :] :] :] :] :] :] :] :] :] :] :] V-.W-.W-.W-.W-.W-.P-.:] :] :] :] :] :] :] :] :] :] 1] s] t] )) 4] u] +~ v  x  y  A  D  c. h+ =+ M+ N+ ^# =@ 5@ /# /# P# _$ _$ _$ _$ _$ A$  % c% 4% u% L% |& r& J& V> <; i; ^; 0> )7 `= JS 3= *Q ~x 6B uu (k 39 97 I4 Y. r! 8) Y$ m~ >[ >[ >[ >[ >[ >[ >[ >[ >[ >[ >[ >[ @m @^ O{ D< <| y| Dx 0] L=.Z! >[ >[ >[ >[ >[ >[ >[ >[ >[ >[ >[ >[ >[ >[ >[ >[ >[ >[ >[ >[ >[ >[ >[ >[ >[ >[ >[ >[ >[ >[ >[ >[ >[ >[ >[ >[ >[ >[ >[ >[ >[ >[ >[ >[ >[ >[ >[ >[ >[ >[ >[ >[ >[ >[ >[ >[ >[ >[ >[ >[ >[ >[ >[ >[ >[ >[ >[ >[ >[ >[ >[ >[ >[ >[ >[ >[ >[ >[ >[ >[ >[ >[ >[ >[ >[ >[ >[ >[ >[ >[ >[ >[ >[ >[ >[ >[ >[ >[ >[ >[ >[ >[ >[ >[ >[ >[ >[ >[ >[ >[ >[ >[ >[ >[ >[ >[ >[ >[ >[ >[ >[ >[ >[ >[ >[ >[ >[ >[ >[ >[ >[ >[ >[ >[ >[ >[ >[ >[ >[ >[ >[ >[ >[ >[ >[ >[ >[ >[ >[ >[ >[ >[ >[ >[ >[ >[ >[ >[ >[ >[ >[ >[ >[ >[ >[ >[ >[ >[ >[ >[ >[ >[ >[ >[ >[ >[ >[ >[ >[ >[ >[ >[ >[ >[ >[ >[ >[ >[ >[ >[ >[ >[ >[ >[ >[ >[ >[ >[ >[ >[ >[ >[ >[ >[ >[ >[ >[ >[ >[ >[ >[ >[ >[ >[ >[ >[ >[ >[ >[ >[ >[ >[ >[ >[ >[ >[ >[ >[ >[ >[ >[ >[ >[ >[ >[ >[ 0/ 0/ Z! G~ M+ B  y| y| y| M+ I' ,/ 0/ y/ >[ >[ >[ >[ >[ >[ >[ >[ >[ >[ >[ >[ >[ ^^ [% [6 y< 8) 8] L2 }6 rR xr }z ~y sS {p }; m; ]; W- cS X-.]* H& m& O% T& 4% &% X$ A$ _$ _$ _$ _$ _$ _$ _$ _$ _$ P# /# 5@ *@ n+ N+ =+ K  c. c. B  Z. x  S] |{ 4] )) 4^ 5^ ]( 5=.J*.J*.B{ +=.Y-.O=.O=.O=.O=.Z-.7=.7=.7=.7=.7=.`-.*-. ;.|-.|-.|-.|-.|-.|-.|-.|-.|-.|-.|-.|-.|-.|-.D-.=-.=-.=-.=-.=-.=-.=-.=-.=-.=-.=-.=-.=-.=-.=-.=-.=-.i-.i-.i-.i-.i-.",
"/-./-./-..;._-._-._-.|*.0*.0*.0*.}*.:] :] :] :] :] :] :] :] :] :] :] :] :] :] :] :] :] :] :] :] :] :] :] :] L-.W-.W-.W-.W-.W-.W-.W-.P-.:] :] :] :] :] :] :] :] :] 1] s] t] )) 4] u] +~ v  x  y  A  D  c. h+ =+ M+ N+ ^# =@ 5@ /# /# P# _$ _$ _$ _$ _$ A$  % c% 4% =' L% )& r& F& qS O- R- ^; Z- _; rS $= 3= -* ~x 6B oC ci $^ f} I4 Y. r! 8) Y$ m~ >[ >[ >[ >[ >[ >[ >[ >[ >[ >[ >[ .@.=w @^ O{ D< <| y| Dx 0] L=.Z! >[ >[ >[ >[ >[ >[ >[ >[ >[ >[ >[ >[ >[ >[ >[ >[ >[ >[ >[ >[ >[ >[ >[ >[ >[ >[ >[ >[ >[ >[ >[ >[ >[ >[ >[ >[ >[ >[ >[ >[ >[ >[ >[ >[ >[ >[ >[ >[ >[ >[ >[ >[ >[ >[ >[ >[ >[ >[ >[ >[ >[ >[ >[ >[ >[ >[ >[ >[ >[ >[ >[ >[ >[ >[ >[ >[ >[ >[ >[ >[ >[ >[ >[ >[ >[ >[ >[ >[ >[ >[ >[ >[ >[ >[ >[ >[ >[ >[ >[ >[ >[ >[ >[ >[ >[ >[ >[ >[ >[ >[ >[ >[ >[ >[ >[ >[ >[ >[ >[ >[ >[ >[ >[ >[ >[ >[ >[ >[ >[ >[ >[ >[ >[ >[ >[ >[ >[ >[ >[ >[ >[ >[ >[ >[ >[ >[ >[ >[ >[ >[ >[ >[ >[ >[ >[ >[ >[ >[ >[ >[ >[ >[ >[ >[ >[ >[ >[ >[ >[ >[ >[ >[ >[ >[ >[ >[ >[ >[ >[ >[ >[ >[ >[ >[ >[ >[ >[ >[ >[ >[ >[ >[ >[ >[ >[ >[ >[ >[ >[ >[ >[ >[ >[ >[ >[ >[ >[ >[ >[ >[ >[ >[ >[ >[ >[ >[ >[ >[ >[ >[ >[ >[ >[ >[ >[ >[ >[ >[ >[ >[ >[ >[ >[ >[ >[ >[ 0/ 0/ Z! G~ M+ B  y| y| y| M+ +;.j^ 0/ }{ >[ >[ >[ >[ >[ >[ >[ >[ >[ >[ >[ >[ >[ >[ Q` &5 s  8) 8] L2 P{ K6 Hq re @;.'*  - |; /; S; V- #;.T> ]* H& m& O% T& 4% &% X$ _$ _$ _$ _$ _$ _$ _$ _$ _$ _$ P# /# 5@ *@ n+ N+ =+ K  c. c. B  Z. x  S] |{ 4] )) 4^ 5^ ]( 5=.J*.J*.B{ +=.w=.O=.O=.O=.$;.h( 7=.7=.7=.7=.%;.&;.=-.=-.*;.|-.|-.|-.|-.|-.|-.|-.|-.|-.|-.|-.|-.|-.|-.g-.=;.=-.=-.=-.=-.=-.=-.=-.=-.=-.=-.=-.=-.=-.=-.=-.=-.=-.-;.U-.U-.",
"/-./-./-.(-._-._-.;;.0*.0*.0*.t=.:] :] :] :] :] :] :] :] :] :] :] :] :] :] :] :] :] :] :] :] :] :] :] :] L-.W-.W-.W-.W-.W-.W-.W-.W-.N-.:] :] :] :] :] :] :] :] :] 1] s] t] )) 4] u] +~ v  x  y  A  D  c. h+ =+ M+ N+ ^# =@ 5@ /# /# P# _$ _$ _$ _$ _$ A$  % c% g% =' L% )& r& F& ]3 O- i; V- ]; :; Y= >;.G* -* Ww fA oC ci $^ f} I4 Y. r! 8) Y$ m~ >[ >[ >[ >[ >[ >[ >[ >[ >[ >[ >[ .@.=w @^ O{ D< <| y| Dx 0] L=.Z! >[ >[ >[ >[ >[ >[ >[ >[ >[ >[ >[ >[ >[ >[ >[ >[ >[ >[ >[ >[ >[ >[ >[ >[ >[ >[ >[ >[ >[ >[ >[ >[ >[ >[ >[ >[ >[ >[ >[ >[ >[ >[ >[ >[ >[ >[ >[ >[ >[ >[ >[ >[ >[ >[ >[ >[ >[ >[ >[ >[ >[ >[ >[ >[ >[ >[ >[ >[ >[ >[ >[ >[ >[ >[ >[ >[ >[ >[ >[ >[ >[ >[ >[ >[ >[ >[ >[ >[ >[ >[ >[ >[ >[ >[ >[ >[ >[ >[ >[ >[ >[ >[ >[ >[ >[ >[ >[ >[ >[ >[ >[ >[ >[ >[ >[ >[ >[ >[ >[ >[ >[ >[ >[ >[ >[ >[ >[ >[ >[ >[ >[ >[ >[ >[ >[ >[ >[ >[ >[ >[ >[ >[ >[ >[ >[ >[ >[ >[ >[ >[ >[ >[ >[ >[ >[ >[ >[ >[ >[ >[ >[ >[ >[ >[ >[ >[ >[ >[ >[ >[ >[ >[ >[ >[ >[ >[ >[ >[ >[ >[ >[ >[ >[ >[ >[ >[ >[ >[ >[ >[ >[ >[ >[ >[ >[ >[ >[ >[ >[ >[ >[ >[ >[ >[ >[ >[ >[ >[ >[ >[ >[ >[ >[ >[ >[ >[ >[ >[ >[ >[ >[ >[ >[ >[ >[ >[ >[ >[ >[ >[ >[ >[ >[ >[ >[ >[ 0/ 0/ Z! G~ M+ B  y| y| y| y@ F$ j^ 0/ >[ >[ >[ >[ >[ >[ >[ >[ >[ >[ >[ >[ >[ >[ >[ C, l{ s  8) 8] L2 k{ K6 By 0b Ww sR ,;.J- /; S; V- #;.T> Q, J& m& O% T& 4% &% X$ _$ _$ _$ _$ _$ _$ _$ _$ _$ _$ P# /# 5@ *@ n+ N+ =+ K  c. c. B  Z. x  S] |{ 4] )) 4^ 5^ ]( l-.J*.J*.B{ ';.F1 );.:' !;.~;.7=.7=.7=.{;.];.^;.=-.=-.=-.=-. ;.|-.|-.|-.|-.|-.|-.|-.|-.|-.|-.|-.|-.|-.|-.|-./;.=-.=-.=-.=-.=-.=-.=-.=-.=-.=-.=-.=-.=-.=-.=-.=-.=-.=-.=-.",
"/-./-./-.(;._-._-.w*.0*.0*.0*.E{ :] :] :] :] :] :] :] :] :] :] :] :] :] :] :] :] :] :] :] :] :] :] L-.W-.W-.W-.W-.W-.W-.W-.W-.W-.W-.W-.O-.:] :] :] :] :] :] :] :] 1] s] t] )) 4] u] +~ v  x  y  A  D  c. h+ =+ M+ N+ ^# =@ 5@ /# /# P# _$ _$ _$ _$ _$ A$  % c% g% =' L% d- q& t* ]3 O- R- /; S; U; Y= #= d, a* Ww <j M2 ci $^ f} I4 p~ r! 8) Y$ m~ >[ >[ >[ >[ >[ >[ >[ >[ >[ >[ >[ %| :% *^ O{ D< <| y| Dx 0] L=.Z! >[ >[ >[ >[ >[ >[ >[ >[ >[ >[ >[ >[ >[ >[ >[ >[ >[ >[ >[ >[ >[ >[ >[ >[ >[ >[ >[ >[ >[ >[ >[ >[ >[ >[ >[ >[ >[ >[ >[ >[ >[ >[ >[ >[ >[ >[ >[ >[ >[ >[ >[ >[ >[ >[ >[ >[ >[ >[ >[ >[ >[ >[ >[ >[ >[ >[ >[ >[ >[ >[ >[ >[ >[ >[ >[ >[ >[ >[ >[ >[ >[ >[ >[ >[ >[ >[ >[ >[ >[ >[ >[ >[ >[ >[ >[ >[ >[ >[ >[ >[ >[ >[ >[ >[ >[ >[ >[ >[ >[ >[ >[ >[ >[ >[ >[ >[ >[ >[ >[ >[ >[ >[ >[ >[ >[ >[ >[ >[ >[ >[ >[ >[ >[ >[ >[ >[ >[ >[ >[ >[ >[ >[ >[ >[ >[ >[ >[ >[ >[ >[ >[ >[ >[ >[ >[ >[ >[ >[ >[ >[ >[ >[ >[ >[ >[ >[ >[ >[ >[ >[ >[ >[ >[ >[ >[ >[ >[ >[ >[ >[ >[ >[ >[ >[ >[ >[ >[ >[ >[ >[ >[ >[ >[ >[ >[ >[ >[ >[ >[ >[ >[ >[ >[ >[ >[ >[ >[ >[ >[ >[ >[ >[ >[ >[ >[ >[ >[ >[ >[ >[ >[ >[ >[ >[ >[ >[ >[ >[ >[ >[ >[ >[ >[ >[ >[ >[ 0/ 0/ Z! G~ M+ B  y| y| y| y@ ei %T 0/ >[ >[ >[ >[ >[ >[ >[ >[ >[ >[ >[ >[ >[ >[ >[ bk k{ W< 8) 8] L2 k{ K6 By 0b Ww sR  - J- /; X- /; 7> S> {* F& 8, O% +& 4% &% W$ _$ _$ _$ _$ _$ _$ _$ _$ _$ _$ P# /# 5@ *@ n+ N+ =+ K  c. c. B  Z. x  S] |{ 4] )) 4^ 5^ ]( _;.J*.J*.:;.~;.~;.~;.~;.~;.n> {;.<;.[;.^;.^;.};.|;.=-.=-.=-.=;.|-.|-.|-.|-.|-.|-.|-.|-.|-.|-.|-.|-.|-.|-.|-.|-.m$ =;.=-.=-.=-.=-.=-.=-.=-.=-.=-.=-.=-.=-.=-.=-.=-.=-.=-.",
"/-./-./-./-.G-._-._-.|*.0*.0*.}*.:] :] :] :] :] :] :] :] :] :] :] :] :] :] :] :] :] :] :] :] :] V-.W-.W-.W-.W-.W-.W-.W-.W-.W-.W-.W-.W-.W-.P-.:] :] :] :] :] :] :] 1] s] t] )) 4] u] +~ v  x  y  A  D  c. h+ =+ M+ N+ ^# =@ 5@ /# /# P# _$ _$ _$ _$ _$ A$  % c% g% =' L% d- p& D& -, O- Q- U- X- U; X= @= F* a* zw ui Yt ci $^ f} I4 p~ r! 8) Y$ m~ >[ >[ >[ >[ >[ >[ >[ >[ >[ >[ >[ %| _% *^ O{ D< <| y| Dx 0] L=.Z! >[ >[ >[ >[ >[ >[ >[ >[ >[ >[ >[ >[ >[ >[ >[ >[ >[ >[ >[ >[ >[ >[ >[ >[ >[ >[ >[ >[ >[ >[ >[ >[ >[ >[ >[ >[ >[ >[ >[ >[ >[ >[ >[ >[ >[ >[ >[ >[ >[ >[ >[ >[ >[ >[ >[ >[ >[ >[ >[ >[ >[ >[ >[ >[ >[ >[ >[ >[ >[ >[ >[ >[ >[ >[ >[ >[ >[ >[ >[ >[ >[ >[ >[ >[ >[ >[ >[ >[ >[ >[ >[ >[ >[ >[ >[ >[ >[ >[ >[ >[ >[ >[ >[ >[ >[ >[ >[ >[ >[ >[ >[ >[ >[ >[ >[ >[ >[ >[ >[ >[ >[ >[ >[ >[ >[ >[ >[ >[ >[ >[ >[ >[ >[ >[ >[ >[ >[ >[ >[ >[ >[ >[ >[ >[ >[ >[ >[ >[ >[ >[ >[ >[ >[ >[ >[ >[ >[ >[ >[ >[ >[ >[ >[ >[ >[ >[ >[ >[ >[ >[ >[ >[ >[ >[ >[ >[ >[ >[ >[ >[ >[ >[ >[ >[ >[ >[ >[ >[ >[ >[ >[ >[ >[ >[ >[ >[ >[ >[ >[ >[ >[ >[ >[ >[ >[ >[ >[ >[ >[ >[ >[ >[ >[ >[ >[ >[ >[ >[ >[ >[ >[ >[ >[ >[ >[ >[ >[ >[ >[ >[ >[ >[ >[ >[ >[ >[ 0/ 0/ Z! G~ M+ B  y| y| y| y@ lY <V 0/ >[ >[ >[ >[ >[ >[ >[ >[ >[ >[ >[ >[ >[ >[ D*./p .l W< 8) 8] L2 k{ K6 By 0b 1;.sR |R J- U- W- /; tR 2;.{* F& 8, O% T& 4% %% F$ _$ _$ _$ _$ _$ _$ _$ _$ _$ _$ P# /# 5@ *@ n+ N+ =+ K  c. c. B  Z. x  S] |{ 4] )) 4^ 5^ ]( _;.J*.J*.nq ~;.~;.3;.4;.^;.^;.^;.^;.^;.^;.^;.0[ 5;.=-.=-.=-.=-.m$ |-.|-.|-.|-.|-.|-.|-.|-.|-.|-.|-.|-.|-.|-.|-.|-.|-. ;.=;.=-.=-.=-.=-.=-.=-.=-.=-.=-.=-.=-.=-.=-.=-.=-.",
"/-./-./-./-./-.6;._-._-.v*.0*.0*.<T :] :] :] :] :] :] :] :] :] :] :] :] :] :] :] :] :] :] 7;.W-.W-.W-.W-.W-.W-.W-.W-.W-.W-.W-.W-.W-.W-.W-.V-.:] :] :] :] :] :] :] 1] s] t] )) 4] u] +~ v  x  y  A  D  c. h+ =+ M+ N+ ^# =@ 5@ /# /# P# _$ _$ _$ _$ _$ A$ +% c% g% s% L% d- O& d* qS O- 8;.U- X- U; X= $3 F* a* zw ui Yt ci $^  & I4 p~ r! 8) Y$ m~ >[ >[ >[ >[ >[ >[ >[ >[ >[ >[ y/ Z! _% H: O{ D< <| y| Dx 0] L=.Z! >[ >[ >[ >[ >[ >[ >[ >[ >[ >[ >[ >[ >[ >[ >[ >[ >[ >[ >[ >[ >[ >[ >[ >[ >[ >[ >[ >[ >[ >[ >[ >[ >[ >[ >[ >[ >[ >[ >[ >[ >[ >[ >[ >[ >[ >[ >[ >[ >[ >[ >[ >[ >[ >[ >[ >[ >[ >[ >[ >[ >[ >[ >[ >[ >[ >[ >[ >[ >[ >[ >[ >[ >[ >[ >[ >[ >[ >[ >[ >[ >[ >[ >[ >[ >[ >[ >[ >[ >[ >[ >[ >[ >[ >[ >[ >[ >[ >[ >[ >[ >[ >[ >[ >[ >[ >[ >[ >[ >[ >[ >[ >[ >[ >[ >[ >[ >[ >[ >[ >[ >[ >[ >[ >[ >[ >[ >[ >[ >[ >[ >[ >[ >[ >[ >[ >[ >[ >[ >[ >[ >[ >[ >[ >[ >[ >[ >[ >[ >[ >[ >[ >[ >[ >[ >[ >[ >[ >[ >[ >[ >[ >[ >[ >[ >[ >[ >[ >[ >[ >[ >[ >[ >[ >[ >[ >[ >[ >[ >[ >[ >[ >[ >[ >[ >[ >[ >[ >[ >[ >[ >[ >[ >[ >[ >[ >[ >[ >[ >[ >[ >[ >[ >[ >[ >[ >[ >[ >[ >[ >[ >[ >[ >[ >[ >[ >[ >[ >[ >[ >[ >[ >[ >[ >[ >[ >[ >[ >[ >[ >[ >[ >[ >[ >[ >[ >[ 0/ 0/ Z! G~ M+ B  y| y| y| y@ lY 9;.0/ >[ >[ >[ >[ >[ >[ >[ >[ >[ >[ >[ >[ >[ y/ >[ [% [6 y< 8) 8] L2 k{ K6 By 0b 1;.t-.|R I- T- m; U- 0;.;, ~* D& Q& O% T& 4% %% W$ _$ _$ _$ _$ _$ _$ _$ _$ _$ _$ P# /# 5@ *@ n+ N+ =+ K  c. c. B  Z. x  S] |{ 4] )) 4^ 5^ ]( _;.J*.J*.nq x=.a;.^;.^;.^;.^;.^;.^;.^;.^;.^;.b;.R~ &;.=-.=-.=-./;.|-.|-.|-.|-.|-.|-.|-.|-.|-.|-.|-.|-.|-.|-.|-.|-.|-.|-.|-./;.=;.=-.=-.=-.=-.=-.=-.=-.=-.=-.=-.=-.=-.=-.",
"/-./-./-./-./-./-.k-._-._-.c;.0*.0*.0*.<T E{ :] :] :] :] :] :] :] :] :] :] :] :] :] ~( N-.W-.W-.W-.W-.W-.W-.W-.W-.W-.W-.W-.W-.W-.W-.W-.W-.W-.M-.:] :] :] :] :] :] 1] s] t] )) 4] u] +~ v  x  y  A  D  c. h+ =+ M+ N+ ^# =@ 5@ /# /# P# _$ _$ _$ _$ _$ A$  % &% |% s% L% '& %* C& &2 O- O- T- W- P- U= += D* 3N 7w +i Yt ci $^  & I4 p~ r! 8) Y$ m~ >[ >[ >[ >[ >[ >[ >[ >[ >[ >[ y/ Z! c% H: Q{ d;.<| y| Dx 0] L=.Z! >[ >[ >[ >[ >[ >[ >[ >[ >[ >[ >[ >[ >[ >[ >[ >[ >[ >[ >[ >[ >[ >[ >[ >[ >[ >[ >[ >[ >[ >[ >[ >[ >[ >[ >[ >[ >[ >[ >[ >[ >[ >[ >[ >[ >[ >[ >[ >[ >[ >[ >[ >[ >[ >[ >[ >[ >[ >[ >[ >[ >[ >[ >[ >[ >[ >[ >[ >[ >[ >[ >[ >[ >[ >[ >[ >[ >[ >[ >[ >[ >[ >[ >[ >[ >[ >[ >[ >[ >[ >[ >[ >[ >[ >[ >[ >[ >[ >[ >[ >[ >[ >[ >[ >[ >[ >[ >[ >[ >[ >[ >[ >[ >[ >[ >[ >[ >[ >[ >[ >[ >[ >[ >[ >[ >[ >[ >[ >[ >[ >[ >[ >[ >[ >[ >[ >[ >[ >[ >[ >[ >[ >[ >[ >[ >[ >[ >[ >[ >[ >[ >[ >[ >[ >[ >[ >[ >[ >[ >[ >[ >[ >[ >[ >[ >[ >[ >[ >[ >[ >[ >[ >[ >[ >[ >[ >[ >[ >[ >[ >[ >[ >[ >[ >[ >[ >[ >[ >[ >[ >[ >[ >[ >[ >[ >[ >[ >[ >[ >[ >[ >[ >[ >[ >[ >[ >[ >[ >[ >[ >[ >[ >[ >[ >[ >[ >[ >[ >[ >[ >[ >[ >[ >[ >[ >[ >[ >[ >[ >[ >[ >[ >[ >[ >[ >[ >[ 0/ 0/ Z! G~ M+ B  y| y| y| y@ lY 9;.0/ >[ >[ >[ >[ >[ >[ >[ >[ >[ >[ >[ >[ }{ >[ SO %..e} y< 8) 8] L2 k{ G} Hq <d 7w w* `= t- (; /; U- 0;.R> !* D& _& N% T& 4% %% W$ _$ _$ _$ _$ _$ _$ _$ _$ _$ _$ P# /# 5@ *@ n+ N+ =+ K  c. c. B  Z. x  S] |{ 4] )) 4^ 5^ ]( l-.J*.J*.G^ e;.0[ ^;.^;.^;.^;.^;.^;.^;.^;.^;.b;.R~ 5;.=-.=-.=-.=;.|-.|-.|-.|-.|-.|-.|-.|-.|-.|-.|-.|-.|-.|-.|-.|-.|-.|-.|-.|-.|-. ;.=;.=-.=-.=-.=-.=-.=-.=-.=-.=-.=-.-;.",
"/-./-./-./-./-./-.T*._-._-._-.;;.f;.0*.0*.0*.t=.}*.:] :] :] :] :] :] :] :] :] N-.W-.W-.W-.W-.W-.W-.W-.W-.W-.W-.W-.W-.W-.W-.W-.W-.W-.W-.W-.W-.W-.W-.V-.P-.:] :] :] 1] s] t] )) 4] u] +~ v  x  y  A  D  c. h+ =+ M+ N+ ^# =@ 5@ /# /# P# _$ _$ _$ _$ _$ A$  % &% }% t% j& '& $* B& &2 T; O- T- m; QQ g;.h;.D* H& 7w +i Yt ci $^  & I4 W. r! 8) Y$ m~ >[ >[ >[ >[ >[ >[ >[ >[ >[ >[ y/ a[ S' B< Q{ d;.<| y| Dx 0] L=.Z! >[ >[ >[ >[ >[ >[ >[ >[ >[ >[ >[ >[ >[ >[ >[ >[ >[ >[ >[ >[ >[ >[ >[ >[ >[ >[ >[ >[ >[ >[ >[ >[ >[ >[ >[ >[ >[ >[ >[ >[ >[ >[ >[ >[ >[ >[ >[ >[ >[ >[ >[ >[ >[ >[ >[ >[ >[ >[ >[ >[ >[ >[ >[ >[ >[ >[ >[ >[ >[ >[ >[ >[ >[ >[ >[ >[ >[ >[ >[ >[ >[ >[ >[ >[ >[ >[ >[ >[ >[ >[ >[ >[ >[ >[ >[ >[ >[ >[ >[ >[ >[ >[ >[ >[ >[ >[ >[ >[ >[ >[ >[ >[ >[ >[ >[ >[ >[ >[ >[ >[ >[ >[ >[ >[ >[ >[ >[ >[ >[ >[ >[ >[ >[ >[ >[ >[ >[ >[ >[ >[ >[ >[ >[ >[ >[ >[ >[ >[ >[ >[ >[ >[ >[ >[ >[ >[ >[ >[ >[ >[ >[ >[ >[ >[ >[ >[ >[ >[ >[ >[ >[ >[ >[ >[ >[ >[ >[ >[ >[ >[ >[ >[ >[ >[ >[ >[ >[ >[ >[ >[ >[ >[ >[ >[ >[ >[ >[ >[ >[ >[ >[ >[ >[ >[ >[ >[ >[ >[ >[ >[ >[ >[ >[ >[ >[ >[ >[ >[ >[ >[ >[ >[ >[ >[ >[ >[ >[ >[ >[ >[ >[ >[ >[ >[ >[ >[ 0/ 0/ Z! G~ M+ B  y| y| y| y@ lY 9;.0/ >[ >[ >[ >[ >[ >[ >[ >[ >[ >[ >[ >[ ha }% w..__ (_ y( 8) 8] L2 k{ G} Dp <d 7w w* `= t- (; /; T- i;.R> u, D& _& N% T& 4% %% W$ _$ _$ _$ _$ _$ _$ _$ _$ _$ _$ P# /# 5@ *@ n+ N+ =+ K  c. c. B  Z. x  S] |{ 4] )) 4^ 5^ ]( 5=.J*.J*.J*.j;.R~ ^;.^;.^;.^;.^;.^;.^;.^;.^;.b;.R~ R~ |;.=-.=-.=-.k;.|-.|-.|-.|-.|-.|-.|-.|-.|-.|-.|-.|-.|-.|-.|-.|-.|-.|-.|-.|-.|-.|-.1-.*;.=-.=-.=-.=-.=-.l;.m;.n;.n;.",
"/-./-./-./-./-./-./-._-._-._-._-.;;.|*.0*.0*.0*.0*.1=.}*.:] :] :] :] :] :] L-.W-.W-.W-.W-.W-.W-.W-.W-.W-.W-.W-.W-.W-.W-.W-.W-.W-.W-.W-.W-.W-.W-.W-.W-.W-.W-.M-.P-.1] s] t] )) 4] u] +~ v  x  y  A  D  c. h+ =+ M+ N+ ^# =@ 5@ /# /# P# _$ _$ _$ _$ _$ A$  % &% }% t% j& x, o& B& S> N- O- (; /; T; g;..= 2* H& 7w +i Yt ci $^  & I4 W. r! 8) Y$ m~ >[ >[ >[ >[ >[ >[ >[ >[ >[ >[ y/ a[ S' B< Q{ d;.<| y| Dx 0] L=.Z! >[ >[ >[ >[ >[ >[ >[ >[ >[ >[ >[ >[ >[ >[ >[ >[ >[ >[ >[ >[ >[ >[ >[ >[ >[ >[ >[ >[ >[ >[ >[ >[ >[ y/ >[ >[ >[ >[ >[ >[ >[ >[ >[ >[ >[ >[ >[ >[ >[ >[ >[ >[ >[ >[ >[ >[ >[ >[ >[ >[ >[ >[ >[ >[ >[ >[ >[ >[ >[ >[ >[ >[ >[ >[ >[ >[ >[ >[ >[ >[ >[ >[ >[ >[ >[ >[ >[ >[ >[ >[ >[ >[ >[ >[ >[ >[ >[ >[ >[ >[ >[ >[ >[ >[ >[ >[ >[ >[ >[ >[ >[ >[ >[ >[ >[ >[ >[ >[ >[ >[ >[ >[ >[ >[ >[ >[ >[ >[ >[ >[ >[ >[ >[ >[ >[ >[ >[ >[ >[ >[ >[ >[ >[ >[ >[ >[ >[ >[ >[ >[ >[ >[ >[ >[ >[ >[ >[ >[ >[ >[ >[ >[ >[ >[ >[ >[ >[ >[ >[ >[ >[ >[ >[ >[ >[ >[ >[ >[ >[ >[ >[ >[ >[ >[ >[ >[ >[ >[ >[ >[ >[ >[ >[ >[ >[ >[ >[ >[ >[ >[ >[ >[ >[ >[ >[ >[ >[ >[ >[ >[ >[ >[ >[ >[ >[ >[ >[ >[ >[ >[ >[ >[ >[ >[ >[ >[ >[ >[ >[ >[ >[ >[ >[ >[ >[ >[ 0/ 0/ Z! G~ M+ B  y| y| y| y@ lY 9;.0/ >[ >[ >[ >[ >[ >[ >[ >[ >[ >[ >[ %| e% /Y Y] Q{ z< y( r! )t L2 k{ G} Dp <d 7w o;.1- t- (; => T- vQ p;.u, D& _& N% u% 4% %% F$ _$ _$ _$ _$ _$ _$ _$ _$ _$ _$ P# /# 5@ *@ n+ N+ =+ K  c. c. B  Z. x  S] |{ 4] )) 4^ 5^ ]( 5=.J*.J*.J*.q;.R~ >/ ^;.^;.^;.^;.^;.^;.^;.^;.r;.R~ R~ N: =-.=-.=-.h-.|-.|-.|-.|-.|-.|-.|-.|-.|-.|-.|-.|-.|-.|-.|-.|-.|-.|-.|-.|-.|-.|-.|-.|-.=-.=-.=-.s;.m;.n;.n;.n;.n;.",
"/-./-./-./-./-./-.r-._-._-._-._-._-.t;.0*.0*.0*.0*.0*.0*.<T :] :] :] :] :] O-.W-.W-.W-.W-.W-.W-.W-.W-.W-.W-.W-.W-.W-.W-.W-.W-.W-.W-.W-.W-.W-.W-.W-.W-.W-.W-.W-.W-.:~ s] t] )) 4] u] +~ v  x  y  A  D  c. h+ =+ M+ N+ ^# =@ 5@ /# /# P# _$ _$ _$ _$ _$ _$ `$ &% }% t% J% >& u;.z& S> N- O- S- /; N- 3Q /= 2* @M fv }z Et 1{ $^  & I4 x! r! 8) Y$ m~ >[ >[ >[ >[ >[ >[ >[ >[ >[ >[ y/ G4 X, B< Q{ d;.<| y| Dx 0] L=.Z! >[ >[ >[ >[ >[ >[ >[ >[ >[ >[ >[ >[ >[ >[ >[ >[ >[ >[ >[ >[ >[ >[ >[ >[ >[ >[ >[ >[ >[ >[ }{ y/ y/ y/ y/ y/ >[ >[ >[ >[ >[ >[ >[ >[ >[ >[ >[ >[ >[ >[ >[ >[ >[ >[ >[ >[ >[ >[ >[ >[ >[ >[ >[ >[ >[ >[ >[ >[ >[ >[ >[ >[ >[ >[ >[ >[ >[ >[ >[ >[ >[ >[ >[ >[ >[ >[ >[ >[ >[ >[ >[ >[ >[ >[ >[ >[ >[ >[ >[ >[ >[ >[ >[ >[ >[ >[ >[ >[ >[ >[ >[ >[ >[ >[ >[ >[ >[ >[ >[ >[ >[ >[ >[ >[ >[ >[ >[ >[ >[ >[ >[ >[ >[ >[ >[ >[ >[ >[ >[ >[ >[ >[ >[ >[ >[ >[ >[ >[ >[ >[ >[ >[ >[ >[ >[ >[ >[ >[ >[ >[ >[ >[ >[ >[ >[ >[ >[ >[ >[ >[ >[ >[ >[ >[ >[ >[ >[ >[ >[ >[ >[ >[ >[ >[ >[ >[ >[ >[ >[ >[ >[ >[ >[ >[ >[ >[ >[ >[ >[ >[ >[ >[ >[ >[ >[ y/ y/ y/ >[ >[ >[ >[ >[ >[ >[ >[ >[ >[ >[ >[ >[ >[ >[ >[ >[ >[ >[ >[ >[ >[ >[ >[ >[ >[ >[ >[ 0/ 0/ Z! G~ M+ B  y| y| y| y@ lY 9;.0/ >[ >[ >[ >[ >[ >[ >[ >[ >[ >[ >[ &e ^z X^ Q{ Q{ (_ y( r! e+ L2 l{ G} Dp Ky CP *Q 1- H- S- T- S- *> p;.)* K& _& M% u% b8 %% F$ _$ _$ _$ _$ _$ _$ _$ _$ _$ _$ P# /# 5@ *@ n+ N+ =+ K  c. c. B  Z. x  S] |{ 4] )) 4^ 5^ ]( 5=.J*.J*.v;.R~ R~ r;.^;.^;.^;.^;.^;.^;.^;.^;.0[ R~ R~ R~ =-.=-.=-.=-.g-.|-.|-.|-.|-.|-.|-.|-.|-.|-.|-.|-.|-.|-.|-.|-.|-.|-.|-.|-.|-.|-.|-.w;.=-.=-.x;.n;.n;.n;.n;.n;.n;.",
"/-./-./-./-./-./-.r-._-._-._-._-.s-.0*.0*.0*.0*.0*.0*.0*.0*.<T :] :] :] :] l] W-.W-.W-.W-.W-.W-.W-.W-.W-.W-.W-.W-.W-.W-.W-.W-.W-.W-.W-.W-.W-.W-.W-.W-.W-.W-.W-.W-.:~ s] t] )) 4] u] +~ v  x  y  A  D  c. h+ =+ M+ N+ ^# =@ 5@ /# /# P# _$ _$ _$ _$ _$ _$ `$ &% }% t% J% ;& o& z& Tw y;.T; _; T- @Q 4- z;.|* $Q [v }z $z ^h $^  & I4 x! r! 8) Y$ m~ >[ >[ >[ >[ >[ >[ >[ >[ >[ >[ y/ G4 X, B< Q{ d;.*+ y| Dx 0] L=.Z! >[ >[ >[ >[ >[ >[ >[ >[ >[ >[ >[ >[ >[ >[ >[ >[ >[ >[ >[ >[ >[ >[ >[ >[ >[ >[ >[ >[ >[ }{ y/ .@.G4 G4 >[ y/ >[ >[ >[ >[ >[ >[ >[ >[ >[ >[ >[ >[ >[ >[ >[ >[ >[ >[ >[ >[ >[ >[ >[ >[ >[ >[ >[ >[ >[ >[ >[ >[ >[ >[ >[ >[ >[ >[ >[ >[ >[ >[ >[ >[ >[ >[ >[ >[ >[ >[ >[ >[ >[ >[ >[ >[ >[ >[ >[ >[ >[ >[ >[ >[ >[ >[ >[ >[ >[ >[ >[ >[ >[ >[ >[ >[ >[ >[ >[ >[ >[ >[ >[ >[ >[ >[ >[ >[ >[ >[ >[ >[ >[ >[ >[ >[ >[ >[ >[ >[ >[ >[ >[ >[ >[ >[ >[ >[ >[ >[ >[ >[ >[ >[ >[ >[ >[ >[ >[ >[ >[ >[ >[ >[ >[ >[ >[ >[ >[ >[ >[ >[ >[ >[ >[ >[ >[ >[ >[ >[ >[ >[ >[ >[ >[ >[ >[ >[ >[ >[ >[ >[ >[ >[ >[ >[ >[ >[ >[ >[ >[ >[ >[ >[ >[ >[ >[ >[ >[ >[ D*.D*.y/ y/ y/ y/ y/ >[ >[ >[ >[ >[ >[ >[ >[ >[ >[ >[ >[ >[ >[ >[ >[ >[ >[ >[ >[ >[ >[ >[ 0/ 0/ Z! G~ M+ B  y| y| y| y@ lY 9;.0/ >[ >[ >[ >[ >[ >[ >[ >[ >[ >[ >[ &e b+.b/ Q{ Q{ (_ y( r! e+ 2) l{ G} Dp .b [v *Q 1- G- 9> (; _; *> P> '* K& /& M% =' g% %% F$ _$ _$ _$ _$ _$ _$ _$ _$ _$ _$ P# /# 5@ *@ n+ N+ =+ K  c. c. B  Z. x  S] |{ 4] )) 4^ 5^ ]( 5=.J*.J*.PW R~ R~ R~ ^;.^;.^;.^;.^;.^;.^;.^;.>/ R~ R~ R~ &;.=-.=-.=-.=;.g-.|-.|-.|-.|-.|-.|-.|-.|-.|-.|-.|-.|-.|-.|-.|-.|-.|-.|-.|-.|-.|-./;.=-.-;.n;.n;.n;.n;.n;.n;.n;.",
"/-./-./-./-./-./-.A;._-._-._-._-.|*.0*.0*.0*.0*.0*.0*.0*.0*.0*.E{ :] :] :] N-.W-.W-.W-.W-.W-.W-.W-.W-.W-.W-.W-.W-.W-.W-.W-.W-.W-.W-.W-.W-.W-.W-.W-.W-.W-.W-.W-.W-.:~ s] t] )) 4] u] +~ v  x  y  A  D  c. h+ =+ M+ N+ ^# =@ 5@ /# /# P# _$ _$ _$ _$ _$ _$ `$ &% }% t% J% ;& m& y& Tw M- N- i; T- s- 4- (= |* hK [v re $s ^h w(  & I4 x! r! 8) Y$ m~ >[ >[ >[ >[ >[ >[ >[ >[ >[ >[ y/ G4 X, B< Q{ d;.*+ y| Dx 0] L=.Z! >[ >[ >[ >[ >[ >[ >[ >[ >[ >[ >[ >[ >[ >[ >[ >[ >[ >[ >[ >[ >[ >[ >[ >[ >[ >[ >[ y/ y/ >[ ha d%  e  e N .>[ y/ >[ >[ >[ >[ >[ >[ >[ >[ >[ >[ >[ >[ >[ >[ >[ >[ >[ >[ >[ >[ >[ >[ >[ >[ >[ >[ >[ >[ >[ >[ >[ >[ >[ >[ >[ >[ >[ >[ >[ >[ >[ >[ >[ >[ >[ >[ >[ >[ >[ >[ >[ >[ >[ >[ >[ >[ >[ >[ >[ >[ >[ >[ >[ >[ >[ >[ >[ >[ >[ >[ >[ >[ >[ >[ >[ >[ >[ >[ >[ >[ >[ >[ >[ >[ >[ >[ >[ >[ >[ >[ >[ >[ >[ >[ >[ >[ >[ >[ >[ >[ >[ >[ >[ >[ >[ >[ >[ >[ >[ >[ >[ >[ >[ >[ >[ >[ >[ >[ >[ >[ >[ >[ >[ >[ >[ >[ >[ >[ >[ >[ >[ >[ >[ >[ >[ >[ >[ >[ >[ >[ >[ >[ >[ >[ >[ >[ >[ >[ >[ >[ >[ >[ >[ >[ >[ >[ >[ >[ >[ >[ >[ >[ >[ >[ >[ y/ >[ bk d% <% [% SO &e >[ y/ y/ y/ }{ }{ }{ >[ >[ >[ >[ >[ >[ >[ >[ >[ >[ >[ >[ >[ >[ >[ >[ >[ >[ >[ 0/ 0/ Z! G~ M+ B  y| y| y| y@ lY 9;.0/ >[ >[ >[ >[ >[ >[ >[ >[ >[ >[ >[ &e ^z x1 Q{ Q{ (_ y( r! Y. 2) l{ ,6 X' .b [v -* 1- B;.i; (; i; 5; ,, ,* ** :& 4& s% g% %% F$ _$ _$ _$ _$ _$ _$ _$ _$ _$ _$ P# /# 5@ *@ n+ N+ =+ K  c. c. B  Z. x  S] |{ 4] )) 4^ 5^ ]( 5=.J*.&*.R~ R~ R~ R~ >/ ^;.^;.^;.^;.^;.^;.^;.^;.R~ R~ R~ N: =-.=-.=-.=-.=-.D-.|-.|-.|-.|-.|-.|-.|-.|-.|-.|-.|-.|-.|-.|-.|-.|-.|-.|-.|-./;.=-.-;.n;.n;.n;.n;.n;.n;.n;.n;.",
"/-./-./-./-./-./-.A;._-._-._-._-./=.|*.0*.0*.0*.0*.0*.0*.0*.0*.}*.:] :] :] N-.W-.W-.W-.W-.W-.W-.W-.W-.W-.W-.W-.W-.W-.W-.W-.W-.W-.W-.W-.W-.W-.W-.W-.W-.W-.W-.W-.W-.:~ s] t] )) 4] u] +~ v  x  y  A  D  c. h+ =+ M+ N+ ^# =@ 5@ /# /# P# _$ _$ _$ _$ _$ _$ `$ &% }% t% J% ;& n& y& Gq M- N- i; T- s- C3 Z* r, KO [v 0b $s ^h w(  & I4 x! r! 8) Y$ m~ >[ >[ >[ >[ >[ >[ >[ >[ >[ >[ y/ G4 X, B< Q{ d;.*+ y| Dx 0] L=.Z! >[ >[ >[ >[ >[ >[ >[ >[ >[ >[ >[ >[ >[ >[ >[ >[ >[ >[ >[ >[ >[ >[ >[ >[ >[ y/ y/ D*.d1 [%  e !x i_ M_ 46 &e C;.y/ >[ >[ >[ >[ >[ >[ >[ >[ >[ >[ >[ >[ >[ >[ >[ >[ >[ >[ >[ >[ >[ >[ >[ >[ >[ >[ >[ >[ >[ >[ >[ >[ >[ >[ >[ >[ >[ >[ >[ >[ >[ >[ >[ >[ >[ >[ >[ >[ >[ >[ >[ >[ >[ >[ >[ >[ >[ >[ >[ >[ >[ >[ >[ >[ >[ >[ >[ >[ >[ >[ >[ >[ >[ >[ >[ >[ >[ >[ >[ >[ >[ >[ >[ >[ >[ >[ >[ >[ >[ >[ >[ >[ >[ >[ >[ >[ >[ >[ >[ >[ >[ >[ >[ >[ >[ >[ >[ >[ >[ >[ >[ >[ >[ >[ >[ >[ >[ >[ >[ >[ >[ >[ >[ >[ >[ >[ >[ >[ >[ >[ >[ >[ >[ >[ >[ >[ >[ >[ >[ >[ >[ >[ >[ >[ >[ >[ >[ >[ >[ >[ >[ >[ >[ >[ >[ >[ >[ >[ >[ >[ >[ >[ >[ y/ D;.a[  e M_ __ +^ 4Q ^z _% Q` .e .@.}{ }{ C;.y/ }{ }{ y/ }{ >[ >[ >[ >[ >[ >[ >[ >[ >[ >[ >[ >[ >[ >[ 0/ 0/ Z! G~ M+ B  y| y| y| y@ lY 9;.0/ >[ >[ >[ >[ >[ >[ >[ >[ >[ >[ >[ %| 46 !x Q{ Q{ (_ y( r! Y. H3 l{ ,6 1p .b mO E;.Z= u- i; (; i; zN ,, ,* B& :& 4& s% |% %% F$ _$ _$ _$ _$ _$ _$ _$ _$ _$ _$ P# /# 5@ *@ n+ N+ =+ K  c. c. B  Z. x  S] |{ 4] )) 4^ 5^ ]( 5=.J*.F;.R~ R~ R~ R~ r;.^;.^;.^;.^;.^;.^;.^;.^;.G;.R~ R~ H;.=-.=-.=-.=-.=-.*-.|-.|-.|-.|-.|-.|-.|-.|-.|-.|-.|-.|-.|-.|-.|-.|-.|-.g-.*;.=-.-;.n;.n;.n;.n;.n;.n;.n;.n;.n;.",
"/-./-./-./-./-./-.6;._-._-._-._-._-._-._-.w*.0*.0*.0*.0*.0*.0*.}*.:] :] :] N-.W-.W-.W-.W-.W-.W-.W-.W-.W-.W-.W-.W-.W-.W-.W-.W-.W-.W-.W-.W-.W-.W-.W-.W-.W-.W-.W-.W-.:~ s] t] )) 4] u] +~ v  x  y  A  D  c. h+ =+ M+ N+ ^# =@ 5@ /# /# P# _$ _$ _$ _$ _$ _$ `$ &% }% t% J% ;& m& x& R> M- M- R- (; j; Q= Y* [* KO bu <d kb Ze ~9 [2 I4 ]~ r! 8) Y$ m~ >[ >[ >[ >[ >[ >[ >[ >[ >[ >[ y/ G4 X, B< Q{ d;.*+ y| Dx 0] L=.Z! >[ >[ >[ >[ >[ >[ >[ >[ >[ >[ >[ >[ >[ >[ >[ >[ >[ >[ >[ >[ >[ >[ D*.y/ y/ }{ %| C, 1{ +^ X^ W( W( i_ fx e% >[ y/ y/ y/ y/ y/ y/ >[ >[ >[ >[ >[ >[ >[ >[ >[ >[ >[ >[ >[ >[ >[ >[ >[ >[ >[ >[ >[ >[ >[ >[ >[ >[ >[ >[ >[ >[ >[ >[ >[ >[ >[ >[ >[ >[ >[ >[ >[ >[ >[ >[ >[ >[ >[ >[ >[ >[ >[ >[ >[ >[ >[ >[ >[ >[ >[ >[ >[ >[ >[ >[ >[ >[ >[ >[ >[ >[ >[ >[ >[ >[ >[ >[ >[ >[ >[ >[ >[ >[ >[ >[ >[ >[ >[ >[ >[ >[ >[ >[ >[ >[ >[ >[ >[ >[ >[ >[ >[ >[ >[ >[ >[ >[ >[ >[ >[ >[ >[ >[ >[ >[ >[ >[ >[ >[ >[ >[ >[ >[ >[ >[ >[ >[ >[ >[ >[ >[ >[ >[ >[ >[ >[ >[ >[ >[ >[ >[ >[ >[ >[ >[ >[ >[ >[ >[ >[ >[ >[ >[ >[ >[ >[ >[ >[ y/ D;.>[ d% !x W( W( Q{ Q{ Q{ M^ B< 4Q W' I;..e ha %| }{ y/ y/ y/ y/ y/ y/ y/ }{ >[ >[ >[ >[ >[ >[ >[ >[ >[ 0/ 0/ Z! G~ M+ B  y| y| y| y@ lY 9;.0/ >[ >[ >[ >[ >[ >[ >[ >[ >[ >[ >[ %| d% +^ Q{ Q{ (_ y( r! Z. H3 l{ ,6 !p !y mO a* Y= u- R- S- R- zN ,, ;* L& :& L% s% |% %% F$ _$ _$ _$ _$ _$ _$ _$ _$ _$ _$ P# /# 5@ *@ n+ N+ =+ K  c. c. B  Z. x  S] |{ 4] )) 4^ 5^ ]( 5=.J*.J;.R~ R~ R~ R~ R~ %#.^;.^;.^;.^;.^;.^;.^;.K;.R~ R~ R~ =-.=-.=-.=-.=-.*;.|-.|-.|-.|-.|-.|-.|-.|-.|-.|-.|-.|-.|-.|-.|-.g-.h-.=-.=-.l;.n;.n;.n;.n;.n;.n;.n;.n;.n;.n;.",
"/-./-./-./-./-./-..;._-._-._-._-._-._-._-._-.b-.f;.0*.0*.0*.0*.}*.:] :] :] N-.W-.W-.W-.W-.W-.W-.W-.W-.W-.W-.W-.W-.W-.W-.W-.W-.W-.W-.W-.W-.W-.W-.W-.W-.W-.W-.W-.W-.:~ s] t] )) 4] u] +~ v  x  y  A  D  c. h+ =+ M+ N+ ^# =@ 5@ /# /# P# _$ _$ _$ _$ _$ _$ `$ &% }% t% J% R& m& w& R> M- s- U; (; K- 2O w@.<* K& bu <d xr Ze ~9 [2 }2 ]~ r! 8) Y$ m~ >[ >[ >[ >[ >[ >[ >[ >[ >[ >[ y/ G4 S' B< Q{ d;.*+ y| Dx 0] L=.!%.>[ >[ >[ >[ >[ >[ >[ >[ >[ >[ >[ >[ >[ >[ >[ >[ >[ >[ >[ >[ y/ y/ D*.D*.o+.|% 46 fx Y] W( W( Q{ Q{ Q{ b/ 4Q [% %| }{ }{ >[ ^^ >[ >[ >[ >[ >[ >[ >[ >[ >[ >[ >[ >[ >[ >[ >[ >[ >[ >[ >[ >[ >[ >[ >[ >[ >[ >[ >[ >[ >[ >[ >[ >[ >[ >[ >[ >[ >[ >[ >[ >[ >[ >[ >[ >[ >[ >[ >[ >[ >[ >[ >[ >[ >[ >[ >[ >[ >[ >[ >[ >[ >[ >[ >[ >[ >[ >[ >[ >[ >[ >[ >[ >[ >[ >[ >[ >[ >[ >[ >[ >[ >[ >[ >[ >[ >[ >[ >[ >[ >[ >[ >[ >[ >[ >[ >[ >[ >[ >[ >[ >[ >[ >[ >[ >[ >[ >[ >[ >[ >[ >[ >[ >[ >[ >[ >[ >[ >[ >[ >[ >[ >[ >[ >[ >[ >[ >[ >[ >[ >[ >[ >[ >[ >[ >[ >[ >[ >[ >[ >[ >[ >[ >[ >[ >[ >[ >[ >[ >[ >[ >[ >[ >[ >[ >[ >[ >[ >[ >[ y/ >[ }% fx X^ Q{ Q{ Q{ Q{ W( W( W( L;.Y] !x p%.%..46 f% SO [q [q &e &e %| >[ }{ y/ C;.y/ y/ y/ }{ >[ >[ >[ 0/ 0/ Z! G~ M+ B  y| y| y| y@ lY 9;.0/ >[ >[ >[ >[ >[ >[ >[ >[ >[ >[ >[ %| n .La X^ Q{ (_ y( r! ') H3 l{ ][ sC !y mO M;.BM F- R- _; R- zN 7e >* a, ^& L% s% |% %% F$ _$ _$ _$ _$ _$ _$ _$ _$ _$ _$ P# /# 5@ *@ n+ N+ =+ K  c. c. B  Z. x  S] |{ 4] )) 4^ 5^ ]( 5=.J*.N;.R~ R~ R~ R~ R~ r;.^;.^;.^;.^;.^;.^;.^;.^;.R~ R~ R~ &;.=-.=-.=-.=-.1-.|-.|-.|-.|-.|-.|-.|-.|-.|-.|-.|-.|-.|-.1-.*;.=-.=-.=-.=-.s;.O;.n;.n;.n;.n;.n;.n;.n;.n;.n;.",
"/-./-./-./-./-./-./-.k-._-._-._-._-._-._-._-._-.s-.0*.0*.0*.0*.}*.:] :] :] N-.W-.W-.W-.W-.W-.W-.W-.W-.W-.W-.W-.W-.W-.W-.W-.W-.W-.W-.W-.W-.W-.W-.W-.W-.W-.W-.W-.W-.:~ s] t] )) 4] u] +~ v  x  y  A  D  c. h+ =+ M+ N+ ^# =@ 5@ /# /# P# _$ _$ _$ _$ _$ _$ `$ &% }% t% J% R& #* w& R> s- s- <; S- |; 2O X* _* ** bu <d xr Ze H/ [2 }2 ]~ r! 8) Y$ m~ >[ >[ >[ >[ >[ >[ >[ >[ >[ >[ y/ G4 X, B< Q{ d;.*+ y| j4 $$ L=.^^ 0/ 0/ 0/ 0/ 0/ 0/ 0/ 0/ 0/ w[ w[ w[ w[ w[ w[ w[ w[ w[ w[ y/ 0/ /( P;.J8 w..+^ Y] Q{ W( Q{ Q{ Q{ Q{ Q{ W( Q{ fx W' e% e% <% Q` m~ >[ >[ >[ >[ >[ >[ >[ >[ >[ >[ >[ >[ >[ >[ >[ >[ >[ >[ >[ >[ >[ >[ >[ >[ >[ >[ >[ >[ >[ >[ >[ >[ >[ >[ >[ >[ >[ >[ >[ >[ >[ >[ >[ >[ >[ >[ >[ >[ >[ >[ >[ >[ >[ >[ >[ >[ >[ >[ >[ >[ >[ >[ >[ >[ >[ >[ >[ >[ >[ >[ >[ >[ >[ >[ >[ >[ >[ >[ >[ >[ >[ >[ >[ >[ >[ >[ >[ >[ >[ >[ >[ >[ >[ >[ >[ >[ >[ >[ >[ >[ >[ >[ >[ >[ >[ >[ >[ >[ >[ >[ >[ >[ >[ >[ >[ >[ >[ >[ >[ >[ >[ >[ >[ >[ >[ >[ >[ >[ >[ >[ >[ >[ >[ >[ >[ >[ >[ >[ >[ >[ >[ >[ >[ >[ >[ >[ >[ >[ >[ >[ >[ >[ >[ >[ >[ >[ y/ }{ |% La Y] (^ Y] 2^ 2^ 2^ 2^ Y] 2^ Q;.i| Wx L;.c/ x1 =^ R;.4` .# w..1{ W' d% |% .e ha &e ^^ >[ y/ y/ y/ y/ k^ ,[ >[ m&.y@ B  y| y| y| y@ lY 9;.0/ >[ >[ >[ >[ >[ >[ >[ >[ >[ >[ >[ >[ G4 wc b/ Q{ (_ y( r! ') H3 &5 ][ sC 0x bu yN BM F- Q- i; <; S;.N> 0* z& l& L% s% }% %% F$ _$ _$ _$ _$ _$ _$ _$ _$ _$ _$ P# /# 5@ *@ n+ N+ =+ K  c. c. B  Z. x  S] |{ 4] )) 4^ 5^ ]( 5=.9} N;.R~ R~ R~ R~ R~ R~ K;.^;.^;.^;.^;.^;.^;.^;.G;.R~ R~ T;.=-.=-.=-.*;.|-.|-.|-.|-.|-.|-.|-.|-.|-.|-.|-.|-.w;.h-.=-.=-.=-.=-.=-.=-.=-.s;.U;.n;.n;.n;.n;.n;.n;.n;.n;.",
"/-./-./-./-./-./-./-./-.A;._-._-._-._-._-._-._-._-.|*.0*.0*.0*.}*.:] :] :] N-.W-.W-.W-.W-.W-.W-.W-.W-.W-.W-.W-.W-.W-.W-.W-.W-.W-.W-.W-.W-.W-.W-.W-.W-.W-.W-.W-.W-.:~ s] t] )) 4] u] +~ v  x  y  A  D  c. h+ =+ M+ N+ ^# =@ 5@ /# /# P# _$ _$ _$ _$ _$ _$ Z$ &% }% p% I% R& #* w& Q> s- j; P- i; |; O= iN 6* KM xx Ky $s Ze H/ [2 }2 ]~ r! 8) Y$ m~ >[ >[ >[ >[ >[ >[ >[ >[ >[ >[ y/ G4  e B< Q{ d;.<| y| y| :B x< V;.<V <V <V <V <V <V <V %T %T %T %T %T %T %T %T %T %T %T %T <V %T ;a j3 H: Q{ Q{ W( W( i| i| Q{ Q{ Q{ Q{ Q{ W( Q{ B< B< B< *^ X, /p D*.y/ >[ >[ >[ >[ >[ >[ >[ >[ >[ >[ >[ >[ >[ >[ >[ >[ >[ >[ >[ >[ >[ >[ >[ >[ >[ >[ >[ >[ >[ >[ >[ >[ >[ >[ >[ >[ >[ >[ >[ >[ >[ >[ >[ >[ >[ >[ >[ >[ >[ >[ >[ >[ >[ >[ >[ >[ >[ >[ >[ >[ >[ >[ >[ >[ >[ >[ >[ >[ >[ >[ >[ >[ >[ >[ >[ >[ >[ >[ >[ >[ >[ >[ >[ >[ >[ >[ >[ >[ >[ >[ >[ >[ >[ >[ >[ >[ >[ >[ >[ >[ >[ >[ >[ >[ >[ >[ >[ >[ >[ >[ >[ >[ >[ >[ >[ >[ >[ >[ >[ >[ >[ >[ >[ >[ >[ >[ >[ >[ >[ >[ >[ >[ >[ >[ >[ >[ >[ >[ >[ >[ >[ >[ >[ >[ >[ >[ >[ >[ >[ >[ >[ >[ >[ y/ }{ .e a+.X^ Q{ O{ <( :( :( }( }( <( <( 1^ [w [w _^ _^ _^ ~_ d/ _( ![ s{ s{ W;.G/ G/ }: !1 j3 |2 U, C, e_ e_ .< j^ %T ;X Bx H8 <! y| y| y| y@ lY 9;.0/ >[ >[ >[ >[ >[ >[ >[ >[ >[ >[ >[ >[ %| S' X^ Q{ (_ y( r! ^( p2 &5 X< $n 0x bu 3N BM v- <; R- <; 4N N> v* y& ]& L% s% }% %% F$ _$ _$ _$ _$ _$ _$ _$ _$ _$ _$ P# /# 5@ *@ n+ N+ =+ K  c. c. B  Z. x  S] |{ 4] )) 4^ 5^ ]( 5=.X;.N;.R~ R~ R~ R~ R~ R~ R~ >/ ^;.^;.^;.^;.^;.^;.K;.R~ R~ N: =-.=-.=-.g-.|-.|-.|-.|-.|-.|-.|-.|-.|-.|-.|-. ;.=-.=-.=-.=-.=-.=-.=-.=-.=-.=-.=-.-;.Y;.n;.n;.n;.n;.n;.n;.",
"/-./-./-./-./-./-./-./-./-.r-.Z;._-._-._-._-._-._-.s-.0*.0*.0*.<T :] :] :] O-.W-.W-.W-.W-.W-.W-.W-.W-.W-.W-.W-.W-.W-.W-.W-.W-.W-.W-.W-.W-.W-.W-.W-.W-.W-.W-.W-.W-.:~ s] t] )) 4] u] +~ v  x  y  A  D  c. h+ =+ M+ N+ ^# =@ 5@ /# /# P# _$ _$ _$ _$ _$ _$ Z$ &% }% p% 6' *& _& u& R> L- j; P- i; J- na i, (* |J xx Ky $s Ze H/ [2 }2 ]~ r! 8) Y$ m~ >[ >[ >[ >[ >[ >[ >[ >[ >[ >[ y/ bk 4Q M_ Q{ L| <| y| y| y@ @Z kX kX kX kX kX kX kX `;.`;.+Z nX nX nX nX nX nX nX nX nX @X @X +Z xY +;.~9 ~9 H/ z/ G/ b/ b/ Y] 2^ (^ (^ Q{ Q{ Q{ o^ zx zx X^  e G4 y/ y/ >[ >[ >[ >[ >[ >[ >[ >[ >[ >[ >[ >[ >[ >[ >[ >[ >[ >[ >[ >[ >[ >[ >[ >[ >[ >[ >[ >[ >[ >[ >[ >[ >[ >[ >[ >[ >[ >[ >[ >[ >[ >[ >[ >[ >[ >[ >[ >[ >[ >[ >[ >[ >[ >[ >[ >[ >[ >[ >[ >[ >[ >[ >[ >[ >[ >[ >[ >[ >[ >[ >[ >[ >[ >[ >[ >[ >[ >[ >[ >[ >[ >[ >[ >[ >[ >[ >[ >[ >[ >[ >[ >[ >[ >[ >[ >[ >[ >[ >[ >[ >[ >[ >[ >[ >[ >[ >[ >[ >[ >[ >[ >[ >[ >[ >[ >[ >[ >[ >[ >[ >[ >[ >[ >[ >[ >[ >[ >[ >[ >[ >[ >[ >[ >[ >[ >[ >[ >[ >[ >[ >[ >[ >[ >[ >[ >[ >[ >[ >[ >[ >[ >[ >[ >[ e_ UQ M_ Q{ t{ o' B%.B%.Q4 g| tL tL g| a$ ~% ~% ~% ~% ~% ~% ~% o'  & f} f} o2  >.D< .6 zz P{ 3^ w( L' 8; .>.V$ +;.MX :$ ,Y h+ ,5 y| y| y| y@ lY 9;.0/ >[ >[ >[ >[ >[ >[ >[ >[ >[ >[ >[ >[ %| c% H: Q{ (_ y( 8) )t p2 &5 X< $n 0x !u @M +>.v- <; R- P- CM o= DM y& ]& L% s% }% %% D$ _$ _$ _$ _$ _$ _$ _$ _$ _$ _$ P# /# 5@ *@ n+ N+ =+ K  c. c. B  Z. x  S] |{ 4] )) 4^ 5^ ]( 5=.X;.N;.R~ R~ R~ R~ R~ R~ R~ @>.^;.^;.^;.^;.^;.^;.^;.R~ R~ H;.=-.=-.=-./;.g-.|-.|-.|-.|-.|-.|-.|-.k;./;.=-.=-.=-.=-.=-.=-.=-.=-.=-.=-.=-.=-.=-.=-.=-.-;.Y;.n;.n;.n;.n;.",
"/-./-./-./-./-./-./-./-./-.r-.Z;._-._-._-._-._-._-._-.0*.0*.0*.t=.:] :] :] O-.W-.W-.W-.W-.W-.W-.W-.W-.W-.W-.W-.W-.W-.W-.W-.W-.W-.W-.W-.W-.W-.W-.W-.W-.W-.W-.W-.W-.:~ s] t] )) 4] u] +~ v  x  y  A  D  c. h+ =+ M+ N+ ^# =@ 5@ /# /# P# _$ _$ _$ _$ _$ _$ Z$ &% }% p% 6' *& _& u& P> K- K- O- R- I- na i, 6= KM xx Gb xr X, H/ ~% }2 ]~ r! 8) Y$ m~ >[ >[ >[ >[ >[ >[ >[ >[ >[ y/ >[ :% y[ b/ Q{ NX u{ y| #>.4Y <Y [Y [Y [Y [Y [Y [Y [Y $>.$>.[Y [Y [Y [Y [Y [Y [Y [Y [Y RX RX JX *Y %>.KX lX &>.OX J_ *>.e= z] s{ 1^ Q{ Q{ Q{ Q{ Q{ Q{ o^ Q{ +^ d% %| y/ >[ >[ >[ >[ >[ >[ >[ >[ >[ >[ >[ >[ >[ >[ >[ >[ >[ >[ >[ >[ >[ >[ >[ >[ >[ >[ >[ >[ >[ >[ >[ >[ >[ >[ >[ >[ >[ >[ >[ >[ >[ >[ >[ >[ >[ >[ >[ >[ >[ >[ >[ >[ >[ >[ >[ >[ >[ >[ >[ >[ >[ >[ >[ >[ >[ >[ >[ >[ >[ >[ >[ >[ >[ >[ >[ >[ >[ >[ >[ >[ >[ >[ >[ >[ >[ >[ >[ >[ >[ >[ >[ >[ >[ >[ >[ >[ >[ >[ >[ >[ >[ >[ >[ >[ >[ >[ >[ >[ >[ >[ >[ >[ >[ >[ >[ >[ >[ >[ >[ >[ >[ >[ >[ >[ >[ >[ >[ >[ >[ >[ >[ >[ >[ >[ >[ >[ >[ >[ >[ >[ >[ >[ >[ >[ >[ >[ >[ >[ >[ >[ >[ >[ >[ %| Q`  e B< Q{ X^ P{ j+ =>.->.;>.>>.TX }Y }Y >>.>>.:$ :$ :$ :Y ,>.,>.@Z <Y MX MX MX SX 3, 3, 3, PX PX '>.'>.'>.'>.)>.,>.$Z TX %Y !>.y| ,5 B  y| y@ lY 9;.0/ >[ >[ >[ >[ >[ >[ >[ >[ >[ >[ >[ >[ >[ e% 0; X^ (_ y( 8) e+ p2 &5 X< $n Vw !u @M W= w- P- <; P- CM o= b* &* {& L% s% }% ]% D$ _$ _$ _$ _$ _$ _$ _$ _$ _$ _$ P# /# 5@ *@ n+ N+ =+ K  c. c. B  Z. x  S] |{ 4] )) 4^ 5^ ]( 5=.9} N;.R~ R~ R~ R~ R~ R~ R~ R~ >/ ^;.^;.^;.^;.^;.^;.@>.R~ R~ =-.=-.=-.=-.=-.=;.h-.y-. ;./;.h-.=-.=-.=-.=-.=-.=-.=-.=-.=-.=-.=-.=-.=-.=-.=-.=-.=-.=-.=-.=-.x;.U;.n;.n;.",
"/-./-./-./-./-./-./-./-.(;._-._-._-._-._-._-._-._-._-.0*.0*.0*.t=.:] :] :] O-.W-.W-.W-.W-.W-.W-.W-.W-.W-.W-.W-.W-.W-.W-.W-.W-.W-.W-.W-.W-.W-.W-.W-.W-.W-.W-.W-.W-.:~ s] t] )) 4] u] +~ v  x  y  A  D  c. h+ =+ M+ N+ ^# =@ 5@ /# /# P# _$ _$ _$ _$ _$ _$ Z$ &% [% p% 6' ;x ~>.t& P> K- K- O- R- 3; #, := /* a, Zt .b Hq X, H/ ~% }2 ]~ r! 8) Y$ m~ >[ >[ >[ >[ >[ >[ >[ >[ >[ >[ bk S) M_ Q{ Q{ NX U  !>.TX =Y -Y -Y lX lX lX lX lX lX lX lX lX lX lX lX lX lX lX lX lX lX lX lX lX -Y lX lX -Y -Y mX {>.:$ B] H3 2) .6 F/ Q{ Q{ Q{ Q{ Q{ B< S' G4 D*.D*.>[ >[ >[ >[ >[ >[ >[ >[ >[ >[ >[ >[ >[ >[ >[ >[ >[ >[ >[ >[ >[ >[ >[ >[ >[ >[ >[ >[ >[ >[ >[ >[ >[ >[ >[ >[ >[ >[ >[ >[ >[ >[ >[ >[ >[ >[ >[ >[ >[ >[ >[ >[ >[ >[ >[ >[ >[ >[ >[ >[ >[ >[ >[ >[ >[ >[ >[ >[ >[ >[ >[ >[ >[ >[ >[ >[ >[ >[ >[ >[ >[ >[ >[ >[ >[ >[ >[ >[ >[ >[ >[ >[ >[ >[ >[ >[ >[ >[ >[ >[ >[ >[ >[ >[ >[ >[ >[ >[ >[ >[ >[ >[ >[ >[ >[ >[ >[ >[ >[ >[ >[ >[ >[ >[ >[ >[ >[ >[ >[ >[ >[ >[ >[ >[ >[ >[ >[ >[ >[ >[ >[ >[ >[ >[ >[ >[ >[ >[ >[ >[ >[ >[ >[ bk  e B< Q{ Q{ M_ t{ j+ h+ |Y TX JX mX oX oX oX oX oX oX oX oX oX oX oX oX oX oX oX nX +Z +Z +Z nX nX oX oX mX mX oX -Y lX lX *Y :$ ]# h+ Nu y| y@ lY 9;.0/ >[ >[ >[ >[ >[ >[ >[ >[ >[ >[ >[ >[ >[ [q  e X^ z< y( 8) e+ I4 &5 X< $n Vw Zt pL W= 37 P- <; P- CM ]>.b* &* {& K% s% }% ]% D$ _$ _$ _$ _$ _$ _$ _$ _$ _$ _$ P# /# 5@ *@ n+ N+ =+ K  c. c. B  Z. x  S] |{ 4] )) 4^ 5^ ]( 5=.J*.N;.R~ R~ R~ N: R~ R~ R~ R~ R~ };.^;.^;.^;.^;.^;.r;.R~ R~ =-.=-.=-.=-.=-.=-.=-.=-.=-.=-.=-.=-.=-.=-.=-.=-.=-.=-.=-.=-.=-.=-.=-.=-.=-.=-.=-.=-.=-.=-.=-.=-.=-.=-.-;.",
"/-./-./-./-./-./-.^>.Z;._-._-._-._-._-._-._-._-.s-.n- 0*.0*.0*.t=.:] :] :] O-.W-.W-.W-.W-.W-.W-.W-.W-.W-.W-.W-.W-.W-.W-.W-.W-.W-.W-.W-.W-.W-.W-.W-.W-.W-.W-.W-.W-.:~ s] t] )) 4] u] +~ v  x  y  A  D  c. h+ =+ M+ N+ ^# =@ 5@ /# /# P# _$ _$ _$ _$ _$ _$ `$ &% e% o% H% ;x (& N, P> K- K- T; <; 3; L= U* ]* :I Zt .b Hq X, H/ ~% }2 ]~ r! 8) Y$ m~ >[ >[ >[ >[ >[ >[ >[ >[ y/ m~ U' B< Q{ Q{ Q{ f[ t# %Y >Y yY [Y [Y [Y [Y [Y [Y [Y [Y [Y [Y [Y [Y [Y [Y [Y [Y [Y [Y [Y [Y [Y [Y [Y [Y RX RX *Y />.RX 0] !>.h+ Nu g@.H3 F/ (^ Q{ Q{ Q{ X^ La Q` y/ w7 >[ >[ >[ >[ >[ >[ >[ >[ >[ >[ >[ >[ >[ >[ >[ >[ >[ >[ >[ >[ >[ >[ >[ >[ >[ >[ >[ >[ >[ >[ >[ >[ >[ >[ >[ >[ >[ >[ >[ >[ >[ >[ >[ >[ >[ >[ >[ >[ >[ >[ >[ >[ >[ >[ >[ >[ >[ >[ >[ >[ >[ >[ >[ >[ >[ >[ >[ >[ >[ >[ >[ >[ >[ >[ >[ >[ >[ >[ >[ >[ >[ >[ >[ >[ >[ >[ >[ >[ >[ >[ >[ >[ >[ >[ >[ >[ >[ >[ >[ >[ >[ >[ >[ >[ >[ >[ >[ >[ >[ >[ >[ >[ >[ >[ >[ >[ >[ >[ >[ >[ >[ >[ >[ >[ >[ >[ >[ >[ >[ >[ >[ >[ >[ >[ >[ >[ >[ >[ >[ >[ >[ >[ >[ >[ >[ >[ >[ >[ >[ >[ >[ >[ y/ >[ Q` 4Q X^ Q{ Q{ M_ LS Q4 c. y| v] (>.<Y lX oX oX lX *Y *Y *Y *Y *Y *Y *Y *Y *Y *Y *Y *Y *Y *Y *Y *Y =Y *Y *Y *Y *Y *Y =Y =Y =Y xY JX :Y ,Y IX Dx H8 S1 9;.0/ >[ >[ >[ >[ >[ >[ >[ >[ >[ >[ >[ >[ >[ %| W' __ z< y( 8) e+ I4 U} X< 8m Vw et hK W= 37 T; P- P- CM )y I& w& ~& s' t% }% ]% D$ _$ _$ _$ _$ _$ _$ _$ _$ _$ _$ P# /# 5@ *@ n+ N+ =+ K  c. c. B  Z. x  S] |{ 4] )) 4^ 5^ 5^ 5=.J*._>.R~ R~ R~ =-.&;.R~ R~ R~ R~ R~ >/ ^;.^;.^;.^;.K;.R~ R~ &;.=-.=-.=-.=-.=-.=-.=-.=-.=-.=-.=-.=-.=-.=-.=-.=-.=-.=-.=-.=-.=-./;. ;.[+ |=.|=.|=.|=.|=./;.=-.=-.=-.=-.",
"/-./-./-./-.^>.#-._-._-._-._-._-._-._-._-.;;.|*.0*.0*.0*.0*.0*.0*.:] :] :] V-.W-.W-.W-.W-.W-.W-.W-.W-.W-.W-.W-.W-.W-.W-.W-.W-.W-.W-.W-.W-.W-.W-.W-.W-.W-.W-.W-.W-.:~ s] t] )) 4] u] +~ v  x  y  A  D  c. h+ =+ M+ N+ ^# =@ 5@ /# /# P# _$ _$ _$ _$ _$ _$ Z$ &% e% o% H% 2& :& s& P> K- |; N- <; t- :>.[= Q, &* <>.YK Hq X, H/ ~% }2 ]~ r! 8) Y$ m~ >[ >[ >[ >[ >[ >[ >[ >[ >[ [% ][ M^ Q{ Q{ Q{ r{ I1 &Y &Y &Y &Y &Y &Y &Y &Y &Y &Y &Y &Y &Y &Y &Y &Y &Y &Y &Y &Y &Y &Y &Y &Y &Y &Y &Y [Y *Y RX :Y n&.(Y y| y| Nu yw B%.F/ 2^ Q{ Q{ Q{ H: t6 %| y/ y/ >[ >[ >[ >[ >[ >[ >[ >[ >[ >[ >[ >[ >[ >[ >[ >[ >[ >[ >[ >[ >[ >[ >[ >[ >[ >[ >[ >[ >[ >[ >[ >[ >[ >[ >[ >[ >[ >[ >[ >[ >[ >[ >[ >[ >[ >[ >[ >[ >[ >[ >[ >[ >[ >[ >[ >[ >[ >[ >[ >[ >[ >[ >[ >[ >[ >[ >[ >[ >[ >[ >[ >[ >[ >[ >[ >[ >[ >[ >[ >[ >[ >[ >[ >[ >[ >[ >[ >[ >[ >[ >[ >[ >[ >[ >[ >[ >[ >[ >[ >[ >[ >[ >[ >[ >[ >[ >[ >[ >[ >[ >[ >[ >[ >[ >[ >[ >[ >[ >[ >[ >[ >[ >[ >[ >[ >[ >[ >[ >[ >[ >[ >[ >[ >[ >[ >[ >[ >[ >[ >[ >[ >[ >[ >[ >[ >[ >[ >[ >[ >[ >[ >[ y/ }{ bk  e M_ Q{ Q{ M_ t{ H3 c. <! aZ y| IX 0] RX ;Y *Y [>.[>.[Y [Y [Y [Y [Y [Y [Y [Y [Y [Y [Y [Y [Y [Y RX RX RX RX RX RX RX RX RX RX *Y *Y }>.2Y 1Y ]# ei 9;.0/ >[ >[ >[ >[ >[ >[ >[ >[ >[ >[ >[ >[ >[ >[ e% qR (_ y( 8) e+ I4 U} X< 8m #w et hK W= 2; N- O- O- _K L> G& v& ~& J% t% }% ]% D$ _$ _$ _$ _$ _$ _$ _$ _$ _$ _$ P# /# 5@ *@ n+ N+ =+ K  c. c. B  Z. x  S] |{ 4] )) 4^ 5^ 5^ 5=.J*.T+.R~ R~ H;.=-.=-.&;.R~ R~ R~ R~ R~ r;.^;.^;.^;.>/ R~ R~ T;.=-.=-.=-.=-.=-.=-.=-.=-.=-.&;.&;.&;.=-.=-.=-.=-.=-.=-.=-.H+ k= |=.|=.|=.|=.|=.|=.|=.|=.|=.*-.=-.=-.=-.",
"/-./-.|>.#-._-._-._-._-._-._-._-._-._-.w*.f;.0*.0*.0*.0*.0*.0*.0*.E{ :] :] N-.W-.W-.W-.W-.W-.W-.W-.W-.W-.W-.W-.W-.W-.W-.W-.W-.W-.W-.W-.W-.W-.W-.W-.W-.W-.V-.L-.W-.:~ s] t] )) 4] u] +~ v  x  y  A  D  c. h+ =+ M+ N+ ^# =@ 5@ /# /# P# _$ _$ _$ _$ _$ _$ Z$ %% <% o% H% 2& :& r& pK K- |; N- P- H- XK [= Q, &* gK yx Hq X, H/ ~% }2 ]~ r! 8) Y$ m~ >[ >[ >[ >[ >[ >[ >[ >[ [q UQ M_ Q{ Q{ Q{ W( LR 1>.2>.3>.4>.4>.4>.4>.4>.4>.4>.4>.4>.4>.4>.4>.4>.4>.4>.4>.4>.4>.4>.4>.4>.4>.4>.4>.5>.5>.6>.mY 4Y y| ,5 y| y| y| E  B%.![ Y] Q{ Q{ M_  e SO y/ y/ >[ >[ >[ >[ >[ >[ >[ >[ >[ >[ >[ >[ >[ >[ >[ >[ >[ >[ >[ >[ >[ >[ >[ >[ >[ >[ >[ >[ >[ >[ >[ >[ >[ >[ >[ >[ >[ >[ >[ >[ >[ >[ >[ >[ >[ >[ >[ >[ >[ >[ >[ >[ >[ >[ >[ >[ >[ >[ >[ >[ >[ >[ >[ >[ >[ >[ >[ >[ >[ >[ >[ >[ >[ >[ >[ >[ >[ >[ >[ >[ >[ >[ >[ >[ >[ >[ >[ >[ >[ >[ >[ >[ >[ >[ >[ >[ >[ >[ >[ >[ >[ >[ >[ >[ >[ >[ >[ >[ >[ >[ >[ >[ >[ >[ >[ >[ >[ >[ >[ >[ >[ >[ >[ >[ >[ >[ >[ >[ >[ >[ >[ >[ >[ >[ >[ >[ >[ >[ >[ >[ >[ >[ >[ >[ >[ >[ >[ >[ >[ >[ >[ >[ >[ D*.y/ a[ |2 B< Q{ Q{ M_ t{ H3 c. y| y| ,5 ,5 #+ >>.7>.8>.9>.0>.0>.0>.0>.0>.0>.0>.0>.0>.0>.0>.0>.0>.0>.0>.0>.0>.0>.0>.0>.0>.0>.0>.0>.8>.0>.8>.pY *X S1 QX q( Z! /( >[ >[ >[ >[ >[ >[ >[ >[ >[ >[ >[ >[ >[ >[ [% /Y e3 y( 8) e+ I4 U} X< 8m L6 gK hK 3- 2; N- O- N- _K iK J& v& !& J% t% }% R' D$ _$ _$ _$ _$ _$ _$ _$ _$ _$ _$ P# /# 5@ *@ n+ N+ =+ K  c. c. B  Z. x  S] |{ 4] )) 4^ 5^ 5^ 5=.J*.a>.R~ R~ N: =-.=-.=-.N: R~ R~ R~ R~ R~ R~ 0[ >/ R~ R~ R~ R~ R~ N: N: N: N: 5;.H;.R~ R~ R~ R~ R~ &;.=-.=-.=-.=-.=-./;.|=.|=.|=.|=.|=.|=.|=.|=.|=.|=.|=.^  =-.=-.=-.",
"T*.(-._-._-._-._-._-.s-./=./=./=.v*.f;.0*.0*.0*.0*.0*.0*.0*.0*.0*.}*.:] :] W-.W-.W-.W-.W-.W-.W-.W-.W-.W-.W-.W-.W-.W-.W-.W-.W-.W-.W-.W-.W-.W-.W-.W-.W-.V-.:] :] N-.:~ s] t] )) 4] u] +~ v  x  y  A  D  c. h+ =+ M+ N+ ^# =@ 5@ /# /# P# _$ _$ _$ _$ _$ _$ Z$ %% <% o% H% && :& r& pK K- J- M- O- H- K= S* {* &* Os b>.Dp Sf 17 ~% 5) +~ r! 8) Y$ m~ >[ >[ >[ >[ >[ >[ }{ >[ <% +^ b/ Q{ Q{ Q{ _^ kf c>.d>.e>.f>.g>.g>.h>.h>.h>.h>.h>.h>.h>.h>.h>.h>.h>.h>.h>.h>.h>.h>.h>.h>.h>.h>.h>.i>.j>.k>.l>.0] b. ,5 y| y| y| E  B%.![ Y] Q{ X^ fx I;.>[ y/ >[ >[ >[ >[ >[ >[ >[ >[ >[ >[ >[ >[ >[ >[ >[ >[ >[ >[ >[ >[ >[ >[ >[ >[ >[ >[ >[ >[ >[ >[ >[ >[ >[ >[ >[ >[ >[ >[ >[ >[ >[ >[ >[ >[ >[ >[ >[ >[ >[ >[ >[ >[ >[ >[ >[ >[ >[ >[ >[ >[ >[ >[ >[ >[ >[ >[ >[ >[ >[ >[ >[ >[ >[ >[ >[ >[ >[ >[ >[ >[ >[ >[ >[ >[ >[ >[ >[ >[ >[ >[ >[ >[ >[ >[ >[ >[ >[ >[ >[ >[ >[ >[ >[ >[ >[ >[ >[ >[ >[ >[ >[ >[ >[ >[ >[ >[ >[ >[ >[ >[ >[ >[ >[ >[ >[ >[ >[ >[ >[ >[ >[ >[ >[ >[ >[ >[ >[ >[ >[ >[ >[ >[ >[ >[ >[ >[ >[ >[ >[ >[ >[ >[ >[ >[ >[ y/ !%._% H: Q{ Q{ M_ t{ H3 c. y| y| y| b. T` m>.n>.o>.WY ZY p>.p>.p>.p>.p>.p>.p>.p>.p>.p>.p>.p>.p>.p>.p>.p>.p>.p>.p>.p>.p>.p>.p>.q>.ZY r>.s>.V/ x] %T Z! >[ /( >[ >[ >[ >[ >[ >[ >[ >[ >[ >[ >[ >[ >[ >[ C, wc x( y< 8) Y. I4 U} X< 8m -w Os t>.3- u>.M- T; N- _K K> F& u& !& J% +* [% R' C$ _$ _$ _$ _$ _$ _$ _$ _$ _$ _$ P# /# 5@ *@ n+ N+ =+ K  c. c. B  Z. x  S] |{ 4] )) 4^ 5^ 5^ 5=.J*.a>.R~ R~ N: =-.=-.=-.=-.R~ R~ R~ R~ R~ R~ R~ R~ R~ R~ R~ R~ R~ R~ R~ R~ R~ R~ R~ R~ R~ R~ R~ R~ &;.=-.=-.=-.=-.=-.[+ |=.|=.|=.|=.|=.|=.|=.|=.|=.|=.|=.|=.*-.=-.=-.",
"Z;._-._-._-._-.w*.f;.0*.0*.0*.0*.0*.0*.0*.0*.0*.0*.0*.0*.0*.0*.0*.1=.:] :] ~( W-.W-.W-.W-.W-.W-.W-.W-.W-.W-.W-.W-.W-.W-.W-.W-.W-.W-.W-.W-.W-.W-.W-.W-.P-.:] :] N-.:~ s] t] )) 4] u] +~ v  x  y  A  D  c. h+ =+ M+ N+ ^# =@ 5@ /# /# P# _$ _$ _$ _$ _$ _$ Z$ %% <% o% H% && l& p& pK K- J- M- O- G- +, R* z* .K Os Nw Dp Sf 9m ~% U1 +~ r! 8) Y$ m~ >[ >[ >[ >[ >[ >[ >[ &e Ze Y] Q{ Q{ Q{ Q{ _^ @& v>.w>.8Z x>.5Z x>.x>.y>.z>.z>.z>.z>.z>.z>.z>.z>.z>.z>.z>.z>.z>.z>.z>.z>.z>.z>.z>.A>.h` B>.C>._$ b. ,5 y| y| y| E  B%.![ c/ Q{ !x 46 (4 k^ y/ >[ >[ >[ >[ >[ >[ >[ >[ >[ >[ >[ >[ >[ >[ >[ >[ >[ >[ >[ >[ >[ >[ >[ >[ >[ >[ >[ >[ >[ >[ >[ >[ >[ >[ >[ >[ >[ >[ >[ >[ >[ >[ >[ >[ >[ >[ >[ >[ >[ >[ >[ >[ >[ >[ >[ >[ >[ >[ >[ >[ >[ >[ >[ >[ >[ >[ >[ >[ >[ >[ >[ >[ >[ >[ >[ >[ >[ >[ >[ >[ >[ >[ >[ >[ >[ >[ >[ >[ >[ >[ >[ >[ >[ >[ >[ >[ >[ >[ >[ >[ >[ >[ >[ >[ >[ >[ >[ >[ >[ >[ >[ >[ >[ >[ >[ >[ >[ >[ >[ >[ >[ >[ >[ >[ >[ >[ >[ >[ >[ >[ >[ >[ >[ >[ >[ >[ >[ >[ >[ >[ >[ >[ >[ >[ >[ >[ >[ >[ >[ >[ >[ >[ >[ >[ >[ y/ D*.Q` fx b/ Q{ M_ t{ H3 c. y| y| h+ ;[ D>.%X E>.F>.G>.@` H>.H>.H>.H>.H>.H>.H>.H>.H>.H>.H>.H>.H>.H>.H>.H>.H>.H>.H>.H>.H>.H>.H>.I>.@` J>.K>.L>.ha V/ C: 0/ 0/ >[ >[ >[ >[ >[ >[ >[ >[ >[ >[ >[ >[ >[ >[ .e  e e} y< 8) Y. }2 U} X< 8m -w Os rJ 3- 2; M- N- M- r- ', D& t& !& J% p% [% ]% C$ _$ _$ _$ _$ _$ _$ _$ _$ _$ _$ P# /# 5@ *@ n+ N+ =+ K  c. c. B  Z. x  S] |{ 4] )) 4^ 5^ 5^ 5=.J*.a>.R~ R~ &;.=-.=-.=-.=-.H;.R~ R~ R~ R~ R~ R~ G;.M>.[;.M>.M>.){ };.0[ @>.R~ R~ R~ R~ R~ R~ R~ R~ =-.=-.=-.=-.=-.=-.H+ |=.|=.|=.|=.|=.|=.|=.|=.|=.|=.|=.|=.[+ =-.=-.",
"_-._-._-.;;.|*.0*.0*.0*.0*.0*.0*.0*.0*.0*.0*.0*.0*.0*.0*.0*.0*.0*.0*.}*.:] :] P-.N-.W-.W-.W-.W-.W-.W-.W-.W-.W-.W-.W-.W-.W-.W-.W-.W-.W-.W-.W-.W-.W-.V-.:] :] :] W-.:~ s] t] )) 4] u] +~ v  x  y  A  D  c. h+ =+ M+ N+ ^# =@ 5@ /# /# P# _$ _$ _$ _$ _$ _$ b% %% <% n% S% 3& <& p& N>.K- J- M- T; F- I= R* ~* <F Os Nw Dp Sf 9m ~% U1 +~ r! 8) Y$ &e >[ >[ >[ >[ >[ >[ >[ jz rR M^ Q{ Q{ Q{ Q{ _^ O>.P>.Q>.RZ R>.S>.QZ T>.VZ U>.U>.U>.U>.U>.U>.U>.U>.U>.U>.U>.U>.U>.U>.U>.U>.U>.U>.U>.V>.V>.W` l>.P# b. ,5 y| y| y| E  B%.![ (^ X^ 4Q SO 0/ +j D*.>[ >[ >[ >[ >[ >[ >[ >[ >[ >[ >[ >[ >[ >[ >[ >[ >[ >[ >[ >[ >[ >[ >[ >[ >[ >[ >[ >[ >[ >[ >[ >[ >[ >[ >[ >[ >[ >[ >[ >[ >[ >[ >[ >[ >[ >[ >[ >[ >[ >[ >[ >[ >[ >[ >[ >[ >[ >[ >[ >[ >[ >[ >[ >[ >[ >[ >[ >[ >[ >[ >[ >[ >[ >[ >[ >[ >[ >[ >[ >[ >[ >[ >[ >[ >[ >[ >[ >[ >[ >[ >[ >[ >[ >[ >[ >[ >[ >[ >[ >[ >[ >[ >[ >[ >[ >[ >[ >[ >[ >[ >[ >[ >[ >[ >[ >[ >[ >[ >[ >[ >[ >[ >[ >[ >[ >[ >[ >[ >[ >[ >[ >[ >[ >[ >[ >[ >[ >[ >[ >[ >[ >[ >[ >[ >[ >[ >[ >[ >[ >[ >[ >[ >[ >[ >[ D*.D*.[q %..M_ Q{ M_ t{ H3 c. y| y| h+ ,5 T`  ` W>.X>.Y>.Z>.`>.`>.`>.`>.`>.`>.`>.`>.`>.`>.`>.`>.`>.`>.`>.`>.`>.`>.`>.`>.`>.`>. ,.`>.Z>..,.-` +,.a[ C: C: 0/ 0/ 0/ `e >[ >[ >[ >[ >[ >[ >[ >[ >[ >[ >[ >[ [q ^z e} y< 8) Y. }2 U} X< Fk -w }r rJ 1J x- M- N- N- r- b5 D& u& |& I% p% e% ]% c= _$ _$ _$ _$ _$ _$ _$ _$ _$ _$ P# /# 5@ *@ n+ N+ =+ K  c. c. B  Z. x  S] |{ 4] )) 4^ 5^ 5^ 5=.J*.a>.R~ R~ &;.=-.=-.=-.=-.H;.R~ R~ R~ R~ R~ >/ @,.@,.@,.@,.@,.@,.@,.@,.@,.#,.R~ R~ R~ R~ R~ 5;.&;.=-.=-.=-.=-.=-.=-.=-.^  |=.|=.|=.|=.|=.|=.|=.|=.|=.|=.|=.|=.5$ =-.",
"_-._-.t;.f;.0*.0*.0*.0*.0*.0*.0*.0*.0*.0*.0*.0*.0*.0*.0*.0*.0*.0*.0*.0*.E{ :] :] :] L-.N-.W-.W-.W-.W-.W-.W-.W-.W-.W-.W-.W-.W-.W-.W-.W-.W-.W-.W-.W-.O-.:] :] ~( W-.:~ s] t] )) 4] u] +~ v  x  y  A  D  c. h+ =+ M+ N+ ^# =@ 5@ /# /# P# _$ _$ _$ _$ _$ _$ b% $% <% n% S% 3& ]& $* ,, K- I- j; N- F- $,.%,.&,.*,.}r Nw !p wc 3^ ~% U1 +~ r! 8) K| d1 `e `e `e `e `e `e `e SO wc X^ Q{ Q{ Q{ Q{ W( =,.-,.;,.>,.S% ,,.',.'/ d` ),.),.),.),.),.),.),.),.),.),.),.),.),.),.),.),.),.),.),.!_ !_ /~ e` ]# B  y| y| y| y| E  B%.!,.(^ __ t6 ^^ +j 0/ `e `e `e `e `e `e `e `e `e `e `e `e `e `e `e `e `e `e `e `e `e `e `e `e `e `e `e `e `e `e `e `e `e `e `e `e `e `e `e `e `e `e `e `e `e `e `e `e `e `e `e `e `e `e `e `e `e `e `e `e `e `e `e `e `e `e `e `e `e `e `e `e `e `e `e `e `e `e `e `e `e `e `e `e `e `e `e `e `e `e `e `e `e `e `e `e `e `e `e `e `e `e `e `e `e `e `e `e `e `e `e `e `e `e `e `e `e `e `e `e `e `e `e `e `e `e `e `e `e `e `e `e `e `e `e `e `e `e `e `e `e `e `e `e `e `e `e `e `e `e `e `e `e `e `e `e `e gk m` 6; .^ Q{ M_ t{ H3 c. y| y| h+ B  ;[ :$ c< ~,.{,.],.^,.^,.^,.^,.^,.^,.^,.^,.^,.^,.^,.^,.^,.^,.^,.^,.^,.^,.^,.^,.^,.^,.^,.^,.],./,.(,._,.>[ C: 0/ 0/ 0/ 0/ `e `e `e `e `e `e `e `e `e `e `e `e `e &e 46 MS y< 8) Y. }2 97 $^ Fk ev +J |J U= x- L- N- M- @J J> K& 9, |& I% p% <% ]% C$ _$ _$ _$ _$ _$ _$ _$ _$ _$ _$ P# /# 5@ *@ n+ N+ =+ K  c. c. B  Z. x  S] |{ 4] )) 4^ 5^ 5^ 5=.J*.a>.R~ R~ &;.=-.=-.=-.=-.H;.R~ R~ R~ r;.M>.@,.@,.@,.@,.@,.@,.@,.@,.@,.@,.@,.R~ R~ R~ H;.&;.=-.=-.=-.=-.=-.=-.=-.=-.=-.H+ |=.|=.|=.|=.|=.|=.|=.|=.|=.|=.|=.|=.|=.|=.",
"_-.c;.0*.0*.0*.0*.0*.0*.0*.0*.0*.0*.0*.0*.0*.0*.0*.0*.0*.0*.0*.0*.0*.0*.0*.:] :] :] :] :] L-.N-.W-.W-.W-.W-.W-.W-.W-.W-.W-.W-.W-.W-.W-.W-.W-.W-.W-.W-.:] P-.W-.N-.:~ s] t] )) 4] u] +~ v  x  y  A  D  c. h+ =+ M+ N+ ^# =@ 5@ /# /# P# _$ _$ _$ _$ _$ _$ W$ $% <% m% S% 7' {& n& ,, K- l; K- N- v- :,.Q* u, t& }r Nw 1p j3 z] ~% 5) +~ r! 8) K| d1 `e `e `e `e `e `e `e &e U' H: Q{ Q{ Q{ Q{ i_ F/ '] a/ 9; x[ O' $% g} A3 U( U( U( U( U( U( U( U( U( U( U( U( U( U( U( U( U( U( U( +e +e g} _$ H8 y| y| y| y| y| E  B%.!,.L;.+^ |% gk +j `e `e `e `e `e `e `e `e `e `e `e `e `e `e `e `e `e `e `e `e `e `e `e `e `e `e `e `e `e `e `e `e `e `e `e `e `e `e `e `e `e `e `e `e `e `e `e `e `e `e `e `e `e `e `e `e `e `e `e `e `e `e `e `e `e `e `e `e `e `e `e `e `e `e `e `e `e `e `e `e `e `e `e `e `e `e `e `e `e `e `e `e `e `e `e `e `e `e `e `e `e `e `e `e `e `e `e `e `e `e `e `e `e `e `e `e `e `e `e `e `e `e `e `e `e `e `e `e `e `e `e `e `e `e `e `e `e `e `e `e `e `e `e `e `e `e `e `e `e `e `e `e `e `e `e `e `e `e +j 0/ Q` fx b/ X^ t{ H3 c. y| y| y| ,5 ,5 ^# U< `e ,[ 0/ y/ D*.D*.D*.D*.D*.D*.D*.D*.D*.D*.D*.D*.D*.D*.D*.D*.D*.D*.D*.D*.D*.D*.D*.0/ 0/ 0/ 0/ 0/ 0/ 0/ 0/ 0/ 0/ `e `e `e `e `e `e `e `e `e `e `e `e `e Nn <,._4 y< 8) Y. 5) f} $^ Fk ev 2p kd U= y- L- M- M- @J J> B& t& k& I% p% <% @% p' _$ _$ _$ _$ _$ _$ _$ _$ _$ _$ P# /# 5@ *@ n+ N+ =+ K  c. c. B  Z. x  S] |{ 4] )) 4^ 5^ 5^ 5=.J*.a>.R~ R~ |;.=-.=-.=-.=-.H;.R~ R~ >/ @,.@,.@,.@,.@,.@,.@,.@,.@,.@,.@,.@,.]< R~ R~ R~ T;.=-.=-.=-.=-.=-.=-.=-.=-.=-.=-.5$ |=.|=.|=.|=.|=.|=.|=.|=.|=.|=.|=.|=.|=.|=.",
"[,.0*.0*.0*.0*.0*.0*.0*.0*.0*.0*.0*.0*.0*.0*.0*.0*.0*.0*.0*.0*.0*.0*.0*.}*.:] :] :] :] :] :] :] L-.N-.W-.W-.W-.W-.W-.W-.W-.W-.W-.W-.W-.W-.W-.W-.W-.W-.~( :] :] :] 1] s] t] )) 4] u] +~ v  x  y  A  D  c. h+ =+ M+ N+ ^# =@ 5@ /# /# P# _$ _$ _$ _$ _$ _$ W$ $% <% m% @& 7' {& n& ,, K- l; K- M- v- G= }= y* t& },.Vw 1p j3 3^ ~% 5) E) r! 8) K| d1 `e `e `e `e `e `e `e `e SO  e M_ X^ b/ Q{ !x iz P;.w[ V/ W] N{ V/ ,[ ,[ .j .j .j .j .j .j .j .j .j .j .j .j .j .j .j .j .j .j .j ,[ 1>.&e ei 4@ y| y| y| y| y| E  B%.!,.(^ 4` SO ] .+j `e `e `e `e `e `e `e `e `e `e `e `e `e `e `e `e `e `e `e `e `e `e `e `e `e `e `e `e `e `e `e `e `e `e `e `e `e `e `e `e `e `e `e `e `e `e `e `e `e `e `e `e `e `e `e `e `e `e `e `e `e `e `e `e `e `e `e `e `e `e `e `e `e `e `e `e `e `e `e `e `e `e `e `e `e `e `e `e `e `e `e `e `e `e `e `e `e `e `e `e `e `e `e `e `e `e `e `e `e `e `e `e `e `e `e `e `e `e `e `e `e `e `e `e `e `e `e `e `e `e `e `e `e `e `e `e `e `e `e `e `e `e `e `e `e `e `e `e `e `e `e `e `e `e `e `e `e `e +j +j [q wc X^ X^ t{ H3 c. y| y| y| ,5 ;[ y@ (~ &e /( %| %| %| %| %| %| %| %| %| %| %| %| %| %| %| %| %| %| %| %| %| %| %| %| %| %| >[ >[ 0/ 0/ 0/ 0/ 0/ 0/ 0/ `e `e `e `e `e `e `e `e `e `e `e `e `e Nn <,._4 y< 8) Y. 5) f} $^ Fk :4 2p a, <I y- K- M- j; IH ), B& s& d- 6' p% <% +% C$ _$ _$ _$ _$ _$ _$ _$ _$ _$ _$ P# /# 5@ *@ n+ N+ =+ K  c. c. B  Z. x  S] |{ 4] )) 4^ 5^ 5^ 5=.J*.a>.R~ R~ =-.=-.=-.=-.=-.H;.R~ |,.@,.@,.@,.@,.@,.@,.@,.@,.@,.@,.@,.@,.@,.|,.R~ R~ R~ |;.=-.=-.=-.=-.=-.=-.=-.=-.=-.5$ |=.|=.|=.|=.|=.|=.|=.|=.|=.|=.|=.|=.|=.|=.|=.",
"0*.0*.0*.0*.0*.0*.0*.0*.0*.0*.0*.0*.0*.0*.0*.0*.0*.0*.0*.0*.0*.0*.0*.t=.:] :] :] :] :] :] :] :] :] :] ~( W-.W-.W-.W-.W-.W-.W-.W-.W-.W-.W-.W-.W-.W-.W-.N-.:] :] 1,.Y^ s] t] )) 4] u] +~ v  x  y  A  D  c. h+ =+ M+ N+ ^# =@ 5@ /# /# P# _$ _$ _$ _$ _$ _$ W$ $% <% m% @& 7' {& 8, ,d k; t- K- M- v- qI HX y* Az 2p #w 1p j3 3^ ~% 5) a! 6~ 8) K| d1 `e `e `e `e `e `e `e `e `e .e T' 4Q fx l .J8 (4 k^ C: C: 0/ 0/ 0/ 0/ 0/ 0/ 0/ 0/ 0/ 0/ 0/ 0/ 0/ 0/ 0/ 0/ 0/ 0/ 0/ 0/ 0/ 0/ 0/ 0/ ,[ ,[ a[ ei 4@ y| y| y| y| y| E  B%.![ Y] rR 2,..j +j `e `e `e `e `e `e `e `e `e `e `e `e `e `e `e `e `e `e `e `e `e `e `e `e `e `e `e `e `e `e `e `e `e `e `e `e `e `e `e `e `e `e `e `e `e `e `e `e `e `e `e `e `e `e `e `e `e `e `e `e `e `e `e `e `e `e `e `e `e `e `e `e `e `e `e `e `e `e `e `e `e `e `e `e `e `e `e `e `e `e `e `e `e `e `e `e `e `e `e `e `e `e `e `e `e `e `e `e `e `e `e `e `e `e `e `e `e `e `e `e `e `e `e `e `e `e `e `e `e `e `e `e `e `e `e `e `e `e `e `e `e `e `e `e `e `e `e `e `e `e `e `e `e `e `e `e `e `e `e +j d1 au <v X^ t{ H3 c. y| y| y| ,5 ;[ O .x< `e ,[ 0/ 0/ 0/ 0/ 0/ 0/ 0/ 0/ 0/ 0/ 0/ 0/ 0/ 0/ 0/ 0/ 0/ 0/ 0/ 0/ 0/ 0/ 0/ 0/ 0/ 0/ 0/ 0/ 0/ 0/ 0/ 0/ 0/ 0/ 0/ `e `e `e `e `e `e `e `e `e `e `e `e `e Nn Fk _4 y< 8) Y. 5) f} $^ Fk uu 2p :I <I y- K- L- K- IH H> a, r& '& H% o% <% @% C$ _$ _$ _$ _$ _$ _$ _$ _$ _$ _$ P# /# 5@ *@ n+ N+ =+ K  c. c. B  Z. x  S] |{ 4] )) 4^ 5^ 5^ 5=.J*.a>.R~ R~ &;.=-.=-.=-.=-.H;.R~ G;.@,.@,.@,.@,.@,.@,.@,.@,.@,.@,.@,.@,.M>.R~ R~ R~ 5;.=-.=-.=-.=-.=-.=-.=-.=-.=;.5$ |=.|=.|=.|=.|=.|=.|=.|=.|=.|=.|=.|=.|=.|=.|=.|=.",
"0*.0*.0*.0*.0*.0*.0*.0*.0*.0*.0*.0*.0*.0*.0*.0*.0*.0*.0*.0*.0*.0*.0*.:] :] :] :] :] :] :] :] :] :] :] :] :] V-.W-.N-.N-.M-.l] N-.N-.W-.W-.W-.W-.W-.W-.W-.:] :] 3,.Y^ s] t] )) 4] u] +~ v  x  y  A  D  c. h+ =+ M+ N+ ^# =@ 5@ /# /# P# _$ _$ _$ _$ _$ _$ W$ $% <% m% G% O% ~& Q& ,d k; t- K- M- 37 F= e, ,* Az 2p L6 $n j3 3^ ~% %} a! 6~ 8) K| d1 `e `e `e `e `e `e `e `e 0/ 0/ /( [q SO x..0/ C: 0/ 0/ 0/ 0/ 0/ 0/ 0/ 0/ 0/ 0/ 0/ 0/ 0/ 0/ 0/ 0/ 0/ 0/ 0/ 0/ 0/ 0/ 0/ 0/ 0/ 0/ 0/ ,[ ,[ a[ ei 4@ y| y| y| y| y| E  N# <( __ X, &e +j 0/ `e `e `e `e `e `e `e `e `e `e `e `e `e `e `e `e `e `e `e `e `e `e `e `e `e `e `e `e `e `e `e `e `e `e `e `e `e `e `e `e `e `e `e `e `e `e `e `e `e `e `e `e `e `e `e `e `e `e `e `e `e `e `e `e `e `e `e `e `e `e `e `e `e `e `e `e `e `e `e `e `e `e `e `e `e `e `e `e `e `e `e `e `e `e `e `e `e `e `e `e `e `e `e `e `e `e `e `e `e `e `e `e `e `e `e `e `e `e `e `e `e `e `e `e `e `e `e `e `e `e `e `e `e `e `e `e `e `e `e `e `e `e `e `e `e `e `e `e `e `e `e `e `e `e `e `e `e `e `e +j 4,.TQ +^ X^ t{ Q4 c. y| y| y| ,5 ;[ O .U< `e ,[ 0/ 0/ 0/ 0/ 0/ 0/ 0/ 0/ 0/ 0/ 0/ 0/ 0/ 0/ 0/ 0/ 0/ 0/ 0/ 0/ 0/ 0/ 0/ 0/ 0/ 0/ 0/ 0/ 0/ 0/ 0/ 0/ 0/ 0/ 0/ `e `e `e `e `e `e `e `e `e `e `e `e `e Nn Fk _4 y< 8) p~ 5) f} $^ (k uu cH HH <I z- K- L- K- IH H> z& q& ,& H% o% <% +% C$ _$ _$ _$ _$ _$ _$ _$ _$ _$ _$ P# /# 5@ *@ n+ N+ =+ K  c. c. B  Z. x  S] |{ 4] )) 4^ 5^ 5^ 5=.J*.a>.R~ R~ &;.=-.=-.=-.=-.R~ R~ R~ @,.@,.@,.@,.@,.@,.@,.@,.@,.@,.@,.@,.G;.R~ R~ R~ |;.=-.=-.=-.=-.=-.=-.=-.*;.[+ |=.|=.|=.|=.|=.|=.|=.|=.|=.|=.|=.|=.|=.|=.|=.|=.|=.",
"0*.0*.0*.0*.0*.0*.0*.0*.0*.0*.0*.0*.0*.0*.0*.0*.0*.0*.0*.5,. } w$ :] :] :] :] :] :] :] :] :] :] :] :] :] :] :] :] :] :] :] :] :] :] :] P-.L-.O-.N-.W-.W-.L-.:] :] 1] s] t] )) 4] u] +~ v  x  y  A  D  c. h+ =+ M+ N+ ^# =@ 5@ /# /# P# _$ _$ _$ _$ _$ _$ W$ ]% U, l% G% $& !& _& ,d k; t- }; L- aH E= N* ,* |z 6,.L6 $n K6 3^ a$ %} a! 6~ 8) K| d1 `e `e `e `e `e `e `e `e 0/ 0/ C: C: 3..C: k^ 0/ 0/ 0/ 0/ 0/ 0/ 0/ 0/ 0/ 0/ 0/ 0/ 0/ 0/ 0/ 0/ 0/ 0/ 0/ 0/ 0/ 0/ 0/ 0/ 0/ 0/ 0/ 0/ ,[ ,[ a[ ei 4@ y| y| y| y| y| E  N# <( .^ au &e +j `e `e `e `e `e `e `e `e `e `e `e `e `e `e `e `e `e `e `e `e `e `e `e `e `e `e `e `e `e `e `e `e `e `e `e `e `e `e `e `e `e `e `e `e `e `e `e `e `e `e `e `e `e `e `e `e `e `e `e `e `e `e `e `e `e `e `e `e `e `e `e `e `e `e `e `e `e `e `e `e `e `e `e `e `e `e `e `e `e `e `e `e `e `e `e `e `e `e `e `e `e `e `e `e `e `e `e `e `e `e `e `e `e `e `e `e `e `e `e `e `e `e `e `e `e `e `e `e `e `e `e `e `e `e `e `e `e `e `e `e `e `e `e `e `e `e `e `e `e `e `e `e `e `e `e `e `e `e `e `e +j +j g% fx X^ t{ Q4 E  y| y| y| ,5 ;[ O .U< `e ,[ 0/ 0/ 0/ 0/ 0/ 0/ 0/ 0/ 0/ 0/ 0/ 0/ 0/ 0/ 0/ 0/ 0/ 0/ 0/ 0/ 0/ 0/ 0/ 0/ 0/ 0/ 0/ 0/ 0/ 0/ 0/ 0/ 0/ 0/ 0/ `e `e `e `e `e `e `e `e `e `e `e `e `e Nn Fk _4 y< 8) W. 5) f} $^ (k uu Ho &* <I z- K- K- K- IH H> y& p& e* H% o% <% +% C$ _$ _$ _$ _$ _$ _$ _$ _$ _$ _$ P# /# 5@ *@ n+ N+ =+ K  c. c. B  Z. x  S] |{ 4] )) 4^ 5^ 5^ 5=.J*.a>.R~ R~ &;.=-.=-.=-.=-.H;.R~ R~ @,.@,.@,.@,.@,.@,.@,.@,.@,.@,.@,.r;.R~ R~ R~ &;.=-.=-.=-.=-.=-.=-.*-.^  |=.|=.|=.|=.|=.|=.|=.|=.|=.|=.|=.|=.|=.|=.|=.|=.|=.|=.|=.",
"0*.0*.0*.0*.0*.0*.0*.0*.0*.0*.0*.0*.0*.0*.0*.0*.0*.0*.0*.7,.8,.9,.:] :] :] :] :] :] :] :] :] :] :] :] :] :] :] :] :] :] :] :] :] :] :] :] :] :] :] :] :] :] :] :] 1] s] t] )) 4] u] +~ v  x  y  A  D  c. h+ =+ M+ N+ ^# =@ 5@ /# /# P# _$ _$ _$ _$ _$ _$ W$ ]% U, l% G% N% |& _& ,d k; t- }; L- x- D= N* >* %* cH L6 $n K6 3^ a$ /| E) r! 8) K| d1 `e `e `e `e `e `e `e `e 0/ 0/ 0/ 0/ k^ 0/ 0/ 0/ 0/ 0/ 0/ 0/ 0/ 0/ 0/ 0/ 0/ 0/ 0/ 0/ 0/ 0/ 0/ 0/ 0/ 0/ 0/ 0/ 0/ 0/ 0/ 0/ 0/ 0/ 0/ ,[ ,[ a[ ei 4@ y| y| y| y| y| E  N# <( .^ `' d1 +j `e `e `e `e `e `e `e `e `e `e `e `e `e `e `e `e `e `e `e `e `e `e `e `e `e `e `e `e `e `e `e `e `e `e `e `e `e `e `e `e `e `e `e `e `e `e `e `e `e `e `e `e `e `e `e `e `e `e `e `e `e `e `e `e `e `e `e `e `e `e `e `e `e `e `e `e `e `e `e `e `e `e `e `e `e `e `e `e `e `e `e `e `e `e `e `e `e `e `e `e `e `e `e `e `e `e `e `e `e `e `e `e `e `e `e `e `e `e `e `e `e `e `e `e `e `e `e `e `e `e `e `e `e `e `e `e `e `e `e `e `e `e `e `e `e `e `e `e `e `e `e `e `e `e `e `e `e `e `e `e +j +j SO /Y X^ t{ Q4 c. y| y| y| ,5 ;[ O .U< `e ,[ 0/ 0/ 0/ 0/ 0/ 0/ 0/ 0/ 0/ 0/ 0/ 0/ 0/ 0/ 0/ 0/ 0/ 0/ 0/ 0/ 0/ 0/ 0/ 0/ 0/ 0/ 0/ 0/ 0/ 0/ 0/ 0/ 0/ 0/ 0/ `e `e `e `e `e `e `e `e `e `e `e `e `e Nn <,._4 y< 8) W. 5) f} $^ ci uu Sn ]@.T= z- K- K- 4; 0,.7H x& $* e* H% o% <% +% C$ _$ _$ _$ _$ _$ _$ _$ _$ _$ _$ P# /# 5@ *@ n+ N+ =+ K  c. c. B  Z. x  S] |{ 4] )) 4^ 5^ 5^ 5=.J*.a>.R~ R~ &;.=-.=-.=-.=-.5;.R~ R~ M>.@,.@,.@,.@,.@,.@,.@,.@,.@,.r;.R~ R~ R~ &;.=-.=-.=;./;.a,.m$ [+ |=.|=.|=.|=.|=.|=.|=.|=.|=.|=.|=.|=.|=.|=.|=.|=.|=.|=.|=.|=.|=.",
"0*.0*.0*.0*.0*.0*.0*.0*.0*.0*.0*.0*.0*.0*.0*.0*.0*.0*.5$ 8,.b,.:] :] :] :] :] :] :] :] :] :] :] :] :] :] :] :] :] :] :] :] :] :] :] :] :] :] :] :] :] :] :] :] :] 1] s] t] )) 4] u] +~ v  x  y  A  D  c. h+ =+ M+ N+ ^# =@ 5@ /# /# P# _$ _$ _$ _$ _$ _$ D$ +% :% l% G% N% |& _& ,d k; t- J- K- x- bH M* ;* %* Sn L6 $n G} 3^ a$ /| -0 r! 8) K| d1 `e `e `e `e `e `e `e `e 0/ 0/ 0/ 0/ 0/ 0/ 0/ 0/ 0/ 0/ 0/ 0/ 0/ 0/ 0/ 0/ 0/ 0/ 0/ 0/ 0/ 0/ 0/ 0/ 0/ 0/ 0/ 0/ 0/ 0/ 0/ 0/ 0/ 0/ 0/ ,[ ,[ a[ ei 4@ y| y| y| y| y| h+ H3 <( WO f% /( +j `e `e `e `e `e `e `e `e `e `e `e `e `e `e `e `e `e `e `e `e `e `e `e `e `e `e `e `e `e `e `e `e `e `e `e `e `e `e `e `e `e `e `e `e `e `e `e `e `e `e `e `e `e `e `e `e `e `e `e `e `e `e `e `e `e `e `e `e `e `e `e `e `e `e `e `e `e `e `e `e `e `e `e `e `e `e `e `e `e `e `e `e `e `e `e `e `e `e `e `e `e `e `e `e `e `e `e `e `e `e `e `e `e `e `e `e `e `e `e `e `e `e `e `e `e `e `e `e `e `e `e `e `e `e `e `e `e `e `e `e `e `e `e `e `e `e `e `e `e `e `e `e `e `e `e `e `e `e `e `e +j +j [q 4Q X^ t{ H3 c. y| y| y| ,5 ;[ O .U< `e ,[ 0/ 0/ 0/ 0/ 0/ 0/ 0/ 0/ 0/ 0/ 0/ 0/ 0/ 0/ 0/ 0/ 0/ 0/ 0/ 0/ 0/ 0/ 0/ 0/ 0/ 0/ 0/ 0/ 0/ 0/ 0/ 0/ 0/ 0/ 0/ `e `e `e `e `e `e `e `e `e `e `e `e `e Nn <,.MS y< 8) x! U1 f} $^ ci oC Sn JG T= 1; J- K- 4; SD F> w& O& e* H% o% <% +% C$ _$ _$ _$ _$ _$ _$ _$ _$ _$ _$ P# /# 5@ *@ n+ N+ =+ K  c. c. B  Z. x  S] |{ 4] )) 4^ 5^ 5^ 5=.J*.a>.R~ R~ T;.=-.=-.=-.=-.T;.R~ R~ >/ @,.@,.@,.@,.@,.@,.@,.[;.G;.R~ R~ 5;.=-.=-.H+ w$ |=.|=.|=.|=.|=.|=.|=.|=.|=.|=.|=.|=.|=.|=.|=.|=.|=.|=.|=.|=.|=.|=.|=.|=.|=.|=.",
"0*.0*.0*.0*.0*.0*.0*.0*.0*.0*.0*.0*.0*.0*.0*.0*.0*.0*.c,.8,.Y) :] :] :] :] :] :] :] :] :] :] :] :] :] :] :] :] :] :] :] :] :] :] :] :] :] :] :] :] :] :] :] :] :] 1] s] t] )) 4] u] +~ v  x  y  A  D  c. h+ =+ M+ N+ ^# =@ 5@ /# /# P# _$ _$ _$ _$ _$ _$ D$ +% :% k% +& N% |& /& ,d k; t- J- K- x- bH n, 9= %* Sn @v $n G} k{ L2 %} +~ r! 8) K| ^^ 0/ 0/ 0/ 0/ 0/ 0/ 0/ 0/ 0/ 0/ 0/ 0/ 0/ 0/ 0/ 0/ 0/ 0/ 0/ 0/ 0/ 0/ 0/ 0/ 0/ 0/ 0/ 0/ 0/ 0/ 0/ 0/ 0/ 0/ 0/ 0/ 0/ 0/ 0/ 0/ 0/ 0/ 0/ ,[ ,[ a[ ei 4@ y| y| y| y| y| h+ H3 <( 4` |% 0/ C: 0/ 0/ 0/ 0/ 0/ 0/ 0/ 0/ 0/ 0/ 0/ 0/ 0/ 0/ 0/ 0/ 0/ 0/ 0/ 0/ 0/ 0/ 0/ 0/ 0/ 0/ 0/ 0/ 0/ 0/ 0/ 0/ 0/ 0/ 0/ 0/ 0/ 0/ 0/ 0/ 0/ 0/ 0/ 0/ 0/ 0/ 0/ 0/ 0/ 0/ 0/ 0/ 0/ 0/ 0/ 0/ 0/ 0/ 0/ 0/ 0/ 0/ 0/ 0/ 0/ 0/ 0/ 0/ 0/ 0/ 0/ 0/ 0/ 0/ 0/ 0/ 0/ 0/ 0/ 0/ 0/ 0/ 0/ 0/ 0/ 0/ 0/ 0/ 0/ 0/ 0/ 0/ 0/ 0/ 0/ 0/ 0/ 0/ 0/ 0/ 0/ 0/ 0/ 0/ 0/ 0/ 0/ 0/ 0/ 0/ 0/ 0/ 0/ 0/ 0/ 0/ 0/ 0/ 0/ 0/ 0/ 0/ 0/ 0/ 0/ 0/ 0/ 0/ 0/ 0/ 0/ 0/ 0/ 0/ 0/ 0/ 0/ 0/ 0/ 0/ 0/ 0/ 0/ 0/ 0/ 0/ 0/ 0/ 0/ 0/ 0/ 0/ 0/ 0/ 0/ 0/ 0/ 0/ 0/ 0/ 0/ C: ha %..B< d,.N# c. y| y| y| ,5 ;[ O .U< `e ,[ 0/ 0/ 0/ 0/ 0/ 0/ 0/ 0/ 0/ 0/ 0/ 0/ 0/ 0/ 0/ 0/ 0/ 0/ 0/ 0/ 0/ 0/ 0/ 0/ 0/ 0/ 0/ 0/ 0/ 0/ 0/ 0/ 0/ 0/ 0/ 0/ 0/ 0/ 0/ 0/ 0/ 0/ 0/ 0/ 0/ 0/ 0/ 0/ }n ^z e} y< 8) W. 5) f} $^ 1{ oC iF v& T= 1; k; K- 8> SD F> v& O& e* H% o% <%  % B$ _$ _$ _$ _$ _$ _$ _$ _$ _$ _$ P# /# 5@ *@ n+ N+ =+ K  c. c. B  Z. x  S] |{ 4] )) 4^ 5^ 5^ 5=.J*.a>.R~ R~ N: =-.=-.=-.=-.=-.5;.R~ G;.@,.@,.@,.@,.@,.@,.>/ R~ R~ R~ T;.=-.H+ [+ |=.|=.|=.|=.|=.|=.|=.|=.|=.|=.|=.|=.|=.|=.|=.|=.|=.|=.|=.|=.|=.|=.|=.|=.|=.|=.|=.|=.",
"0*.0*.0*.0*.0*.0*.0*.0*.0*.0*.0*.0*.0*.0*.0*.0*.0*.0*.7,.;  :] :] :] :] :] :] :] :] :] :] :] :] :] :] :] :] :] :] :] :] :] :] :] :] :] :] :] :] :] :] :] :] :] :] 1] s] t] )) 4] u] +~ v  x  y  A  D  c. h+ =+ M+ N+ ^# =@ 5@ /# /# P# _$ _$ _$ _$ _$ _$ D$ +% _% k% +& N% d- :& ,d k; G- J- K- x- C= 2= v* Ty Sn @v 8m G} .l L2 %} +~ r! 8)  % >[ 0/ 0/ 0/ 0/ 0/ 0/ 0/ 0/ 0/ 0/ 0/ 0/ 0/ 0/ 0/ 0/ 0/ 0/ 0/ 0/ 0/ 0/ 0/ 0/ 0/ 0/ 0/ 0/ 0/ 0/ 0/ 0/ 0/ 0/ 0/ 0/ 0/ 0/ 0/ 0/ 0/ 0/ 0/ ,[ ,[ a[ ei 4@ y| y| y| y| y| h+ N# _( e,.f,.k^ k^ 0/ 0/ 0/ 0/ 0/ 0/ 0/ 0/ 0/ 0/ 0/ 0/ 0/ 0/ 0/ 0/ 0/ 0/ 0/ 0/ 0/ 0/ 0/ 0/ 0/ 0/ 0/ 0/ 0/ 0/ 0/ 0/ 0/ 0/ 0/ 0/ 0/ 0/ 0/ 0/ 0/ 0/ 0/ 0/ 0/ 0/ 0/ 0/ 0/ 0/ 0/ 0/ 0/ 0/ 0/ 0/ 0/ 0/ 0/ 0/ 0/ 0/ 0/ 0/ 0/ 0/ 0/ 0/ 0/ 0/ 0/ 0/ 0/ 0/ 0/ 0/ 0/ 0/ 0/ 0/ 0/ 0/ 0/ 0/ 0/ 0/ 0/ 0/ 0/ 0/ 0/ 0/ 0/ 0/ 0/ 0/ 0/ 0/ 0/ 0/ 0/ 0/ 0/ 0/ 0/ 0/ 0/ 0/ 0/ 0/ 0/ 0/ 0/ 0/ 0/ 0/ 0/ 0/ 0/ 0/ 0/ 0/ 0/ 0/ 0/ 0/ 0/ 0/ 0/ 0/ 0/ 0/ 0/ 0/ 0/ 0/ 0/ 0/ 0/ 0/ 0/ 0/ 0/ 0/ 0/ 0/ 0/ 0/ 0/ 0/ 0/ 0/ 0/ 0/ 0/ 0/ 0/ 0/ 0/ 0/ k^ C: Nn Ze !x d,.N# c. y| y| y| ,5 ;[ O .U< `e ,[ 0/ 0/ 0/ 0/ 0/ 0/ 0/ 0/ 0/ 0/ 0/ 0/ 0/ 0/ 0/ 0/ 0/ 0/ 0/ 0/ 0/ 0/ 0/ 0/ 0/ 0/ 0/ 0/ 0/ 0/ 0/ 0/ 0/ 0/ 0/ 0/ 0/ 0/ 0/ 0/ 0/ 0/ 0/ 0/ 0/ 0/ 0/ 0/ [q %..x( y< 8) x! U1 f} w( 1{ M2 hk <F T= 1; J- J- J- SD F> N& n& ;& H% n% d% `$ A$ _$ _$ _$ _$ _$ _$ _$ _$ _$ _$ P# /# 5@ *@ n+ N+ =+ K  c. c. B  Z. x  S] |{ 4] )) 4^ 5^ 5^ 5=.J*.a>.R~ R~ 5;.=-.=-.=-.=-.=-.=-.R~ R~ ^;.@,.@,.@,.^;.G;.R~ R~ 5;.=-.=;.m$ |=.|=.|=.|=.|=.|=.<@ f; <T P$ P$ P$ 1=.f; ,# |=.|=.|=.|=.|=.|=.|=.|=.|=.|=.|=.|=.|=.|=.|=.",
"0*.0*.0*.0*.0*.0*.0*.0*.0*.0*.0*.0*.0*.0*.0*.0*.0*.,# 8,.g,.:] :] :] :] :] :] :] :] :] :] :] :] :] :] :] :] :] :] :] :] :] :] :] :] :] :] :] :] :] :] :] :] :] :] 1] s] t] )) 4] u] +~ v  x  y  A  D  c. h+ =+ M+ N+ ^# =@ 5@ /# /# P# _$ _$ _$ _$ _$ _$ D$ +% _% j% T& M% d- h,.24 k; G- J- K- y- 0- +a v* P& hk :4 8m G} P{ 2) }^ +~ r! 8)  % ^^ 0/ 0/ 0/ 0/ 0/ 0/ 0/ 0/ 0/ 0/ 0/ 0/ 0/ 0/ 0/ 0/ 0/ 0/ 0/ 0/ 0/ 0/ 0/ 0/ 0/ 0/ 0/ 0/ 0/ 0/ 0/ 0/ 0/ 0/ 0/ 0/ 0/ 0/ 0/ 0/ 0/ 0/ 0/ ,[ ,[ a[ ei 4@ y| y| y| y| y| h+ N# <( l ..e k^ k^ 0/ 0/ 0/ 0/ 0/ 0/ 0/ 0/ 0/ 0/ 0/ 0/ 0/ 0/ 0/ 0/ 0/ 0/ 0/ 0/ 0/ 0/ 0/ 0/ 0/ 0/ 0/ 0/ 0/ 0/ 0/ 0/ 0/ 0/ 0/ 0/ 0/ 0/ 0/ 0/ 0/ 0/ 0/ 0/ 0/ 0/ 0/ 0/ 0/ 0/ 0/ 0/ 0/ 0/ 0/ 0/ 0/ 0/ 0/ 0/ 0/ 0/ 0/ 0/ 0/ 0/ 0/ 0/ 0/ 0/ 0/ 0/ 0/ 0/ 0/ 0/ 0/ 0/ 0/ 0/ 0/ 0/ 0/ 0/ 0/ 0/ 0/ 0/ 0/ 0/ 0/ 0/ 0/ 0/ 0/ 0/ 0/ 0/ 0/ 0/ 0/ 0/ 0/ 0/ 0/ 0/ 0/ 0/ 0/ 0/ 0/ 0/ 0/ 0/ 0/ 0/ 0/ 0/ 0/ 0/ 0/ 0/ 0/ 0/ 0/ 0/ 0/ 0/ 0/ 0/ 0/ 0/ 0/ 0/ 0/ 0/ 0/ 0/ 0/ 0/ 0/ 0/ 0/ 0/ 0/ 0/ 0/ 0/ 0/ 0/ 0/ 0/ 0/ 0/ 0/ 0/ 0/ 0/ 0/ 0/ 0/ C: Nn ^z !x d,.N# c. y| y| y| ,5 ;[ O .U< `e ,[ 0/ 0/ 0/ 0/ 0/ 0/ 0/ 0/ 0/ 0/ 0/ 0/ 0/ 0/ 0/ 0/ 0/ 0/ 0/ 0/ 0/ 0/ 0/ 0/ 0/ 0/ 0/ 0/ 0/ 0/ 0/ 0/ 0/ 0/ 0/ 0/ 0/ 0/ 0/ 0/ 0/ 0/ 0/ 0/ 0/ 0/ 0/ `e SO l .x( y< 8) x! %} f} ~9 1{ Yt hk 9C S= A- J- J- J- SD D> u& n& *& 8' n% d% `$ A$ _$ _$ _$ _$ _$ _$ _$ _$ _$ _$ P# /# 5@ *@ n+ N+ =+ K  c. c. B  Z. x  S] |{ 4] )) 4^ 5^ 5^ 5=.J*.a>.R~ R~ H;.=-.=-.=-.=-.=-.=-.&;.R~ @>.[;.i,.|,.R~ R~ R~ T;.=-.H+ |=.|=.|=.|=.|=.|=.j,.<T k,.k,.k,.k,.k,.k,.k,.k,.k,.k,.l,.0*.,# |=.|=.|=.|=.|=.|=.[+ |=.|=.|=.|=.",
"0*.0*.0*.0*.0*.0*.0*.0*.0*.0*.0*.0*.0*.0*.0*.0*.0*..$ 8,.9,.:] :] :] :] :] :] :] :] :] :] :] :] :] :] :] :] :] :] :] :] :] :] :] :] :] :] :] :] :] :] :] :] :] :] 1] s] t] )) 4] u] +~ v  x  y  A  D  c. h+ =+ M+ N+ ^# =@ 5@ /# /# P# _$ _$ _$ _$ _$ _$ C$ +% _% j% T& N% '& ]& M> k; G- J- J- z- A= K* b* m,.6B uu Fk V< P{ 2) }^ +~ r! 8)  % ^^ 0/ 0/ 0/ 0/ 0/ 0/ 0/ 0/ 0/ 0/ 0/ 0/ 0/ 0/ 0/ 0/ 0/ 0/ 0/ 0/ 0/ 0/ 0/ 0/ 0/ 0/ 0/ 0/ 0/ 0/ 0/ 0/ 0/ 0/ 0/ 0/ 0/ 0/ 0/ 0/ 0/ 0/ 0/ ,[ ,[ a[ ei 4@ y| y| y| y| y| h+ N# <( l .ha C: C: 0/ 0/ 0/ 0/ 0/ 0/ 0/ 0/ 0/ 0/ 0/ 0/ 0/ 0/ 0/ 0/ 0/ 0/ 0/ 0/ 0/ 0/ 0/ 0/ 0/ 0/ 0/ 0/ 0/ 0/ 0/ 0/ 0/ 0/ 0/ 0/ 0/ 0/ 0/ 0/ 0/ 0/ 0/ 0/ 0/ 0/ 0/ 0/ 0/ 0/ 0/ 0/ 0/ 0/ 0/ 0/ 0/ 0/ 0/ 0/ 0/ 0/ 0/ 0/ 0/ 0/ 0/ 0/ 0/ 0/ 0/ 0/ 0/ 0/ 0/ 0/ 0/ 0/ 0/ 0/ 0/ 0/ 0/ 0/ 0/ 0/ 0/ 0/ 0/ 0/ 0/ 0/ 0/ 0/ 0/ 0/ 0/ 0/ 0/ 0/ 0/ 0/ 0/ 0/ 0/ 0/ 0/ 0/ 0/ 0/ 0/ 0/ 0/ 0/ 0/ 0/ 0/ 0/ 0/ 0/ 0/ 0/ 0/ 0/ 0/ 0/ 0/ 0/ 0/ 0/ 0/ 0/ 0/ 0/ 0/ 0/ 0/ 0/ 0/ 0/ 0/ 0/ 0/ 0/ 0/ 0/ 0/ 0/ 0/ 0/ 0/ 0/ 0/ 0/ 0/ 0/ 0/ 0/ 0/ 0/ 0/ C: (4 46 +^ d,.H3 c. y| y| y| ,5 ;[ O .U< `e ,[ 0/ 0/ 0/ 0/ 0/ 0/ 0/ 0/ 0/ 0/ 0/ 0/ 0/ 0/ 0/ 0/ 0/ 0/ 0/ 0/ 0/ 0/ 0/ 0/ 0/ 0/ 0/ 0/ 0/ 0/ 0/ 0/ 0/ 0/ 0/ 0/ 0/ 0/ 0/ 0/ 0/ 0/ 0/ 0/ 0/ 0/ 0/ /( }% 4` |^ y< 8) x! %} f} H/ 1{ Yt fA 9C S= C- J- J- f> n,.C> t& m& =& @& m% d% `$ A$ _$ _$ _$ _$ _$ _$ _$ _$ _$ _$ P# /# 5@ *@ n+ N+ =+ K  c. c. B  Z. x  S] |{ 4] )) 4^ 5^ 5^ 5=.J*.a>.R~ R~ R~ =-.=-.=;.H+ *-.=-.=-.T;.R~ R~ R~ R~ R~ 5;.=-.=-. ;.|=.|=.|=.|=.,# <T k,.k,.k,.k,.k,.k,.k,.k,.k,.k,.k,.k,.k,.k,.k,.k,.k,.|=.|=.|=.|=.f( o,.p,.|=.|=.|=.",
"0*.0*.0*.0*.0*.0*.0*.0*.0*.0*.0*.0*.0*.0*.0*.0*.0*.9=.8,.q,.:] :] :] :] :] :] :] :] :] :] :] :] :] :] :] :] :] :] :] :] :] :] :] :] :] :] :] :] :] :] :] :] :] :] 1] s] t] )) 4] u] +~ v  x  y  A  D  c. h+ =+ M+ N+ ^# =@ 5@ /# /# P# _$ _$ _$ _$ _$ _$ C$ +% _% j% T& <j '& <& M> 8> G- l; J- z- A= 3= b* #* fA uu Fk V< P{ 2) /| +~ r! 8)  % ^^ 0/ 0/ 0/ 0/ 0/ 0/ 0/ 0/ 0/ 0/ 0/ 0/ 0/ 0/ 0/ 0/ 0/ 0/ 0/ 0/ 0/ 0/ 0/ 0/ 0/ 0/ 0/ 0/ 0/ 0/ 0/ 0/ 0/ 0/ 0/ 0/ 0/ 0/ 0/ 0/ 0/ 0/ 0/ ,[ ,[ a[ ei 4@ y| y| y| y| y| h+ N# ![ w..&e p+.C: 0/ 0/ 0/ 0/ 0/ 0/ 0/ 0/ 0/ 0/ 0/ 0/ 0/ 0/ 0/ 0/ 0/ 0/ 0/ 0/ 0/ 0/ 0/ 0/ 0/ 0/ 0/ 0/ 0/ 0/ 0/ 0/ 0/ 0/ 0/ 0/ 0/ 0/ 0/ 0/ 0/ 0/ 0/ 0/ 0/ 0/ 0/ 0/ 0/ 0/ 0/ 0/ 0/ 0/ 0/ 0/ 0/ 0/ 0/ 0/ 0/ 0/ 0/ 0/ 0/ 0/ 0/ 0/ 0/ 0/ 0/ 0/ 0/ 0/ 0/ 0/ 0/ 0/ 0/ 0/ 0/ 0/ 0/ 0/ 0/ 0/ 0/ 0/ 0/ 0/ 0/ 0/ 0/ 0/ 0/ 0/ 0/ 0/ 0/ 0/ 0/ 0/ 0/ 0/ 0/ 0/ 0/ 0/ 0/ 0/ 0/ 0/ 0/ 0/ 0/ 0/ 0/ 0/ 0/ 0/ 0/ 0/ 0/ 0/ 0/ 0/ 0/ 0/ 0/ 0/ 0/ 0/ 0/ 0/ 0/ 0/ 0/ 0/ 0/ 0/ 0/ 0/ 0/ 0/ 0/ 0/ 0/ 0/ 0/ 0/ 0/ 0/ 0/ 0/ 0/ 0/ 0/ 0/ 0/ 0/ 0/ C: (4 t6 +^ t{ H3 c. y| y| y| ,5 ;[ O .U< `e ,[ 0/ 0/ 0/ 0/ 0/ 0/ 0/ 0/ 0/ 0/ 0/ 0/ 0/ 0/ 0/ 0/ 0/ 0/ 0/ 0/ 0/ 0/ 0/ 0/ 0/ 0/ 0/ 0/ 0/ 0/ 0/ 0/ 0/ 0/ 0/ 0/ 0/ 0/ 0/ 0/ 0/ 0/ 0/ 0/ 0/ 0/ 0/ /( E% .^ (_ y( 8) x! %} f} H/ ^h Yt fA 9C 4- B- J- J- f> N2 ~, 9, m& *& G% l% d% Z$ A$ _$ _$ _$ _$ _$ _$ _$ _$ _$ _$ P# /# 5@ *@ n+ N+ =+ K  c. c. B  Z. x  S] |{ 4] )) 4^ 5^ 5^ 5=.J*.a>.R~ R~ R~ =-.=-.*;.|=.|=.k= /;.=-.T;.R~ R~ R~ N: =-.=;.m$ |=.|=.|=.f; P$ k,.k,.k,.k,.k,.k,.k,.k,.k,.k,.k,.k,.k,.k,.k,.k,.k,.k,.k,.|=.|=.|=.f( o,.o,.r,.|=.|=.|=.",
"0*.0*.0*.0*.0*.0*.0*.0*.0*.0*.0*.0*.0*.0*.0*.0*.0*.0*.8,.g,.:] :] :] :] :] :] :] :] :] :] :] :] :] :] :] :] :] :] :] :] :] :] :] :] :] :] :] :] :] :] :] :] :] :] 1] s] t] )) 4] u] +~ v  x  y  A  D  c. h+ =+ M+ N+ ^# =@ 5@ /# /# P# _$ _$ _$ _$ _$ _$ C$ +% _% j% u% 4& ,& [& M> s,.u- l; J- 1; a- 3= I& >' fA uu Fk V< P{ 2) o4 +~ r! 8)  % ^^ 0/ 0/ 0/ 0/ 0/ 0/ 0/ 0/ 0/ 0/ 0/ 0/ 0/ 0/ 0/ 0/ 0/ 0/ 0/ 0/ 0/ 0/ 0/ 0/ 0/ 0/ 0/ 0/ 0/ 0/ 0/ 0/ 0/ 0/ 0/ 0/ 0/ 0/ 0/ 0/ 0/ 0/ 0/ ,[ ,[ a[ ei 4@ y| y| y| y| y| h+ N# t,.Ze %| 3..C: 0/ 0/ 0/ 0/ 0/ 0/ 0/ 0/ 0/ 0/ 0/ 0/ 0/ 0/ 0/ 0/ 0/ 0/ 0/ 0/ 0/ 0/ 0/ 0/ 0/ 0/ 0/ 0/ 0/ 0/ 0/ 0/ 0/ 0/ 0/ 0/ 0/ 0/ 0/ 0/ 0/ 0/ 0/ 0/ 0/ 0/ 0/ 0/ 0/ 0/ 0/ 0/ 0/ 0/ 0/ 0/ 0/ 0/ 0/ 0/ 0/ 0/ 0/ 0/ 0/ 0/ 0/ 0/ 0/ 0/ 0/ 0/ 0/ 0/ 0/ 0/ 0/ 0/ 0/ 0/ 0/ 0/ 0/ 0/ 0/ 0/ 0/ 0/ 0/ 0/ 0/ 0/ 0/ 0/ 0/ 0/ 0/ 0/ 0/ 0/ 0/ 0/ 0/ 0/ 0/ 0/ 0/ 0/ 0/ 0/ 0/ 0/ 0/ 0/ 0/ 0/ 0/ 0/ 0/ 0/ 0/ 0/ 0/ 0/ 0/ 0/ 0/ 0/ 0/ 0/ 0/ 0/ 0/ 0/ 0/ 0/ 0/ 0/ 0/ 0/ 0/ 0/ 0/ 0/ 0/ 0/ 0/ 0/ 0/ 0/ 0/ 0/ 0/ 0/ 0/ 0/ 0/ 0/ 0/ 0/ 0/ C: m` NO R;.d,.N# c. y| y| y| ,5 ;[ O .U< `e ,[ 0/ 0/ 0/ 0/ 0/ 0/ 0/ 0/ 0/ 0/ 0/ 0/ 0/ 0/ 0/ 0/ 0/ 0/ 0/ 0/ 0/ 0/ 0/ 0/ 0/ 0/ 0/ 0/ 0/ 0/ 0/ 0/ 0/ 0/ 0/ 0/ 0/ 0/ 0/ 0/ 0/ 0/ 0/ 0/ 0/ 0/ 0/ 0/ d% __ z< y( 8) x! %} f} H/ Ze Et +i cA 4- C- l; J- J- N2 ~, r& #* *& G% l% :% Z$ A$ _$ _$ _$ _$ _$ _$ _$ _$ _$ _$ P# /# 5@ *@ n+ N+ =+ K  c. c. B  Z. x  S] |{ 4] )) 4^ 5^ 5^ 5=.J*.a>.R~ R~ R~ &;.=-.=-.k= |=.|=.|=.k= H+ =-.&;.|;.=-.*-.[+ |=.|=.,# P$ k,.k,.k,.k,.k,.k,.k,.k,.k,.k,.k,.k,.k,.k,.k,.k,.k,.k,.k,.k,.E{ |=.|=.u,.o,.o,.o,.o,.|=.|=.|=.",
"0*.0*.0*.0*.0*.0*.0*.0*.0*.0*.0*.v,.}*.}*.o> 0*.0*.0*.w,.x,.:] :] :] :] :] :] :] :] :] :] :] :] :] :] :] :] :] :] :] :] :] :] :] :] :] :] :] :] :] :] :] :] :] :] 1] s] t] )) 4] u] +~ v  x  y  A  D  c. h+ =+ M+ N+ ^# =@ 5@ /# /# P# _$ _$ _$ _$ _$ _$ B$  % _% j% u% L% >& }& 24 J- u- l; J- 1; y= H* G& ~x y,.M2 (k _1 P{ z,.)t +~ r! 8)  % ^^ 0/ 0/ 0/ 0/ 0/ 0/ 0/ 0/ 0/ 0/ 0/ 0/ 0/ 0/ 0/ 0/ 0/ 0/ 0/ 0/ 0/ 0/ 0/ 0/ 0/ 0/ 0/ 0/ 0/ 0/ 0/ 0/ 0/ 0/ 0/ 0/ 0/ 0/ 0/ 0/ 0/ 0/ 0/ ,[ ,[ a[ ei 4@ y| y| y| y| y| E  N# m^ ^z %| 3..k^ 0/ 0/ 0/ 0/ 0/ 0/ 0/ 0/ 0/ 0/ 0/ 0/ 0/ 0/ 0/ 0/ 0/ 0/ 0/ 0/ 0/ 0/ 0/ 0/ 0/ 0/ 0/ 0/ 0/ 0/ 0/ 0/ 0/ 0/ 0/ 0/ 0/ 0/ 0/ 0/ 0/ 0/ 0/ 0/ 0/ 0/ 0/ 0/ 0/ 0/ 0/ 0/ 0/ 0/ 0/ 0/ 0/ 0/ 0/ 0/ 0/ 0/ 0/ 0/ 0/ 0/ 0/ 0/ 0/ 0/ 0/ 0/ 0/ 0/ 0/ 0/ 0/ 0/ 0/ 0/ 0/ 0/ 0/ 0/ 0/ 0/ 0/ 0/ 0/ 0/ 0/ 0/ 0/ 0/ 0/ 0/ 0/ 0/ 0/ 0/ 0/ 0/ 0/ 0/ 0/ 0/ 0/ 0/ 0/ 0/ 0/ 0/ 0/ 0/ 0/ 0/ 0/ 0/ 0/ 0/ 0/ 0/ 0/ 0/ 0/ 0/ 0/ 0/ 0/ 0/ 0/ 0/ 0/ 0/ 0/ 0/ 0/ 0/ 0/ 0/ 0/ 0/ 0/ 0/ 0/ 0/ 0/ 0/ 0/ 0/ 0/ 0/ 0/ 0/ 0/ 0/ 0/ 0/ 0/ 0/ 0/ C: /( E% 4` t{ H3 c. y| y| y| ,5 ;[ O .U< `e ,[ 0/ 0/ 0/ 0/ 0/ 0/ 0/ 0/ 0/ 0/ 0/ 0/ 0/ 0/ 0/ 0/ 0/ 0/ 0/ 0/ 0/ 0/ 0/ 0/ 0/ 0/ 0/ 0/ 0/ 0/ 0/ 0/ 0/ 0/ 0/ 0/ 0/ 0/ 0/ 0/ 0/ 0/ 0/ 0/ 0/ 0/ 0/ /( 6; __ z< y( 8) x! /|  & H/ Ze $z +i Az S= C- l; J- l; Q3 ~, r& Q& *& G% l% _% Z$ A$ _$ _$ _$ _$ _$ _$ _$ _$ _$ _$ P# /# 5@ *@ n+ N+ =+ K  c. c. B  Z. x  S] |{ 4] )) 4^ 5^ 5^ 5=.J*.a>.R~ R~ R~ T;.=-.=-.*;.k= |=.|=.|=.|=.5$ =;.=-.*;.|=.|=.|=.f; k,.k,.k,.k,.k,.k,.k,.k,.k,.k,.k,.k,.k,.k,.k,.k,.k,.k,.k,.k,.k,.k,.A,.|=.|=.r,.o,.o,.o,.o,.|=.|=.|=.",
"0*.0*.0*.0*.0*.0*.0*.0*.o> B,.C,.C,.C,.C,.C,.j= 0*.0*.5,.8,.g,.:] :] :] :] :] :] :] :] :] :] :] :] :] :] :] :] :] :] :] :] :] :] :] :] :] :] :] :] :] :] :] :] :] 1] s] t] )) 4] u] +~ v  x  y  A  D  c. h+ =+ M+ N+ ^# =@ 5@ /# /# P# _$ _$ _$ _$ _$ _$ A$  % _% j% u% L% ;& !& 24 k; u- t- J- D- y= D,.J& ~x +i M2 (k _1 k{ N# e+ +~ r! 8)  % ^^ 0/ 0/ 0/ 0/ 0/ 0/ 0/ 0/ 0/ 0/ 0/ 0/ 0/ 0/ 0/ 0/ 0/ 0/ 0/ 0/ 0/ 0/ 0/ 0/ 0/ 0/ 0/ 0/ 0/ 0/ 0/ 0/ 0/ 0/ 0/ 0/ 0/ 0/ 0/ 0/ 0/ 0/ 0/ ,[ ,[ a[ ei 4@ y| y| y| y| y| E  0$ m^ E,.(4 C: k^ 0/ 0/ 0/ 0/ 0/ 0/ 0/ 0/ 0/ 0/ 0/ 0/ 0/ 0/ 0/ 0/ 0/ 0/ 0/ 0/ 0/ 0/ 0/ 0/ 0/ 0/ 0/ 0/ 0/ 0/ 0/ 0/ 0/ 0/ 0/ 0/ 0/ 0/ 0/ 0/ 0/ 0/ 0/ 0/ 0/ 0/ 0/ 0/ 0/ 0/ 0/ 0/ 0/ 0/ 0/ 0/ 0/ 0/ 0/ 0/ 0/ 0/ 0/ 0/ 0/ 0/ 0/ 0/ 0/ 0/ 0/ 0/ 0/ 0/ 0/ 0/ 0/ 0/ 0/ 0/ 0/ 0/ 0/ 0/ 0/ 0/ 0/ 0/ 0/ 0/ 0/ 0/ 0/ 0/ 0/ 0/ 0/ 0/ 0/ 0/ 0/ 0/ 0/ 0/ 0/ 0/ 0/ 0/ 0/ 0/ 0/ 0/ 0/ 0/ 0/ 0/ 0/ 0/ 0/ 0/ 0/ 0/ 0/ 0/ 0/ 0/ 0/ 0/ 0/ 0/ 0/ 0/ 0/ 0/ 0/ 0/ 0/ 0/ 0/ 0/ 0/ 0/ 0/ 0/ 0/ 0/ 0/ 0/ 0/ 0/ 0/ 0/ 0/ 0/ 0/ 0/ 0/ 0/ 0/ 0/ 0/ C: /( J8 R;.d,.N# c. y| y| y| ,5 ;[ O .U< `e ,[ 0/ 0/ 0/ 0/ 0/ 0/ 0/ 0/ 0/ 0/ 0/ 0/ 0/ 0/ 0/ 0/ 0/ 0/ 0/ 0/ 0/ 0/ 0/ 0/ 0/ 0/ 0/ 0/ 0/ 0/ 0/ 0/ 0/ 0/ 0/ 0/ 0/ 0/ 0/ 0/ 0/ 0/ 0/ 0/ 0/ 0/ 0/ /( 46 __ z< y( 8) x! /|  & H/ Ze $s }z |z F,.C- l; l; l; Q3 G,.q& (& f* G% l% _% X$ _$ _$ _$ _$ _$ _$ _$ _$ _$ _$ _$ P# /# 5@ *@ n+ N+ =+ K  c. c. B  Z. x  S] |{ 4] )) 4^ 5^ 5^ 5=.J*.a>.R~ R~ R~ N: =-.=-.=-.=;.5$ |=.|=.|=.|=.|=.^  |=.|=.|=.i) k,.k,.k,.k,.k,.k,.k,.k,.k,.k,.k,.k,.k,.k,.k,.k,.k,.k,.k,.k,.k,.k,.H,.<@ |=.u,.o,.o,.o,.o,.I,.|=.|=.|=.",
"0*.0*.0*.0*.0*.0*.0*.k,.C,.C,.C,.C,.C,.C,.C,.C,.0*.0*.,# L[ L[ J,.:] :] :] :] :] :] :] :] :] :] :] :] :] :] :] :] :] :] :] :] :] :] :] :] :] :] :] :] :] :] :] :] 1] s] t] )) 4] u] +~ v  x  y  A  D  c. h+ =+ M+ N+ ^# =@ 5@ /# /# P# _$ _$ _$ _$ _$ _$ _$  % _% i% u% L% ;& |& 24 k; u- t- J- D- y= d, F& (& +i Yt ci X< k{ I4 Y. +~ r! 8)  % ^^ 0/ 0/ 0/ 0/ 0/ 0/ 0/ 0/ 0/ 0/ 0/ 0/ 0/ 0/ 0/ 0/ 0/ 0/ 0/ 0/ 0/ 0/ 0/ 0/ 0/ 0/ 0/ 0/ 0/ 0/ 0/ 0/ 0/ 0/ 0/ 0/ 0/ 0/ 0/ 0/ 0/ 0/ 0/ ,[ ,[ a[ ei 4@ y| y| y| y| y| c. 0$ u( NO m` C: 0/ 0/ 0/ 0/ 0/ 0/ 0/ 0/ 0/ 0/ 0/ 0/ 0/ 0/ 0/ 0/ 0/ 0/ 0/ 0/ 0/ 0/ 0/ 0/ 0/ 0/ 0/ 0/ 0/ 0/ 0/ 0/ 0/ 0/ 0/ 0/ 0/ 0/ 0/ 0/ 0/ 0/ 0/ 0/ 0/ 0/ 0/ 0/ 0/ 0/ 0/ 0/ 0/ 0/ 0/ 0/ 0/ 0/ 0/ 0/ 0/ 0/ 0/ 0/ 0/ 0/ 0/ 0/ 0/ 0/ 0/ 0/ 0/ 0/ 0/ 0/ 0/ 0/ 0/ 0/ 0/ 0/ 0/ 0/ 0/ 0/ 0/ 0/ 0/ 0/ 0/ 0/ 0/ 0/ 0/ 0/ 0/ 0/ 0/ 0/ 0/ 0/ 0/ 0/ 0/ 0/ 0/ 0/ 0/ 0/ 0/ 0/ 0/ 0/ 0/ 0/ 0/ 0/ 0/ 0/ 0/ 0/ 0/ 0/ 0/ 0/ 0/ 0/ 0/ 0/ 0/ 0/ 0/ 0/ 0/ 0/ 0/ 0/ 0/ 0/ 0/ 0/ 0/ 0/ 0/ 0/ 0/ 0/ 0/ 0/ 0/ 0/ 0/ 0/ 0/ 0/ 0/ 0/ 0/ 0/ 0/ 0/ C: 0/ f% K,.d,.N# c. y| y| y| ,5 ;[ O .U< `e ,[ 0/ 0/ 0/ 0/ 0/ 0/ 0/ 0/ 0/ 0/ 0/ 0/ 0/ 0/ 0/ 0/ 0/ 0/ 0/ 0/ 0/ 0/ 0/ 0/ 0/ 0/ 0/ 0/ 0/ 0/ 0/ 0/ 0/ 0/ 0/ 0/ 0/ 0/ 0/ 0/ 0/ 0/ 0/ 0/ 0/ 0/ 0/ /( 6; __ A/ y( 8) ]^ /|  & H/ Ze $s {z !X 5- C- t- l; t- @4 1z O& /& 2& G% l% _% X$ _$ _$ _$ _$ _$ _$ _$ _$ _$ _$ _$ P# /# 5@ *@ n+ N+ =+ K  c. c. B  Z. x  S] |{ 4] )) 4^ 5^ 5^ 5=.J*.a>.R~ R~ R~ H;.=-.=-.=-.=-.=-.*-.[+ |=.|=.|=.|=.|=.|=.|=.H,.k,.k,.k,.k,.k,.k,.k,.k,.k,.k,.k,.k,.k,.k,.k,.k,.k,.k,.k,.k,.k,.k,.,# |=.|=.L,.o,.o,.o,.o,.f( |=.|=.|=.",
"0*.0*.0*.0*.0*.0*.H,.C,.C,.C,.C,.C,.C,.C,.C,.C,.0*.0*.0*.M,.8,. } :] :] :] :] :] :] :] :] :] :] :] :] :] :] :] :] :] :] :] :] :] :] :] :] :] :] :] :] :] :] :] :] 1] s] t] )) 4] u] +~ v  x  y  A  D  c. h+ =+ M+ N+ ^# =@ 5@ /# /# P# _$ _$ _$ _$ _$ _$ _$  % _% i% u% 5& M, |& 24 J- u- t- l; N,.p= F* F& zw }z Yt ci X< k{ I4 Y. L! r! 8)  % ^^ 0/ 0/ 0/ 0/ 0/ 0/ 0/ 0/ 0/ 0/ 0/ 0/ 0/ 0/ 0/ 0/ 0/ 0/ 0/ 0/ 0/ 0/ 0/ 0/ 0/ 0/ 0/ 0/ 0/ 0/ 0/ 0/ 0/ 0/ 0/ 0/ 0/ 0/ 0/ 0/ 0/ 0/ 0/ ,[ ,[ a[ ei 4@ y| y| y| y| y| c. 0$ V( NO m` C: 0/ 0/ 0/ 0/ 0/ 0/ 0/ 0/ 0/ 0/ 0/ 0/ 0/ 0/ 0/ 0/ 0/ 0/ 0/ 0/ 0/ 0/ 0/ 0/ 0/ 0/ 0/ 0/ 0/ 0/ 0/ 0/ 0/ 0/ 0/ 0/ 0/ 0/ 0/ 0/ 0/ 0/ 0/ 0/ 0/ 0/ 0/ 0/ 0/ 0/ 0/ 0/ 0/ 0/ 0/ 0/ 0/ 0/ 0/ 0/ 0/ 0/ 0/ 0/ 0/ 0/ 0/ 0/ 0/ 0/ 0/ 0/ 0/ 0/ 0/ 0/ 0/ 0/ 0/ 0/ 0/ 0/ 0/ 0/ 0/ 0/ 0/ 0/ 0/ 0/ 0/ 0/ 0/ 0/ 0/ 0/ 0/ 0/ 0/ 0/ 0/ 0/ 0/ 0/ 0/ 0/ 0/ 0/ 0/ 0/ 0/ 0/ 0/ 0/ 0/ 0/ 0/ 0/ 0/ 0/ 0/ 0/ 0/ 0/ 0/ 0/ 0/ 0/ 0/ 0/ 0/ 0/ 0/ 0/ 0/ 0/ 0/ 0/ 0/ 0/ 0/ 0/ 0/ 0/ 0/ 0/ 0/ 0/ 0/ 0/ 0/ 0/ 0/ 0/ 0/ 0/ 0/ 0/ 0/ 0/ 0/ 0/ k^ 0/ }% 4` d,.N# c. y| y| y| ,5 ;[ O .U< `e ,[ 0/ 0/ 0/ 0/ 0/ 0/ 0/ 0/ 0/ 0/ 0/ 0/ 0/ 0/ 0/ 0/ 0/ 0/ 0/ 0/ 0/ 0/ 0/ 0/ 0/ 0/ 0/ 0/ 0/ 0/ 0/ 0/ 0/ 0/ 0/ 0/ 0/ 0/ 0/ 0/ 0/ 0/ 0/ 0/ 0/ 0/ 0/ /( 46 x1 A/ y( 8) ]^ o4  & H/ X, xr 0b %* #3 C- t- l; t- J4 z> $* :& && +& k% _% X$ _$ _$ _$ _$ _$ _$ _$ _$ _$ _$ _$ P# /# 5@ *@ n+ N+ =+ K  c. c. B  Z. x  S] |{ 4] )) 4^ 5^ 5^ 5=.J*.a>.R~ R~ R~ R~ =-.=-.=-.=-.=-.=-.=-.a,.|=.|=.|=.|=.|=.|=.k,.k,.k,.k,.k,.k,.k,.k,.k,.k,.k,.k,.k,.k,.k,.k,.k,.k,.k,.k,.k,.k,.f; |=.|=.|=.O,.o,.o,.o,.P,.|=.|=.|=.|=.",
"0*.0*.0*.0*.0*.t=.C,.C,.C,.C,.C,.C,.C,.C,.C,.C,.0*.0*.0*.9=.8,.8,.Q,.:] :] :] :] :] :] :] :] :] :] :] :] :] :] :] :] :] :] :] :] :] :] :] :] :] :] :] :] :] :] :] 1] s] t] )) 4] u] +~ v  x  y  A  D  c. h+ =+ M+ N+ ^# =@ 5@ /# /# P# _$ _$ _$ _$ _$ _$ _$  % _% 4% t% 5& R& k& ]>.J- u- t- l; C- p= D* t* ^& 0b Et ci X< k{ I4 W. L! r! 8)  % ^^ 0/ 0/ 0/ 0/ 0/ 0/ 0/ 0/ 0/ 0/ 0/ 0/ 0/ 0/ 0/ 0/ 0/ 0/ 0/ 0/ 0/ 0/ 0/ 0/ 0/ 0/ 0/ 0/ 0/ 0/ 0/ 0/ 0/ 0/ 0/ 0/ 0/ 0/ 0/ 0/ 0/ 0/ 0/ ,[ ,[ a[ ei 4@ y| y| y| y| y| c. 2) }: J8 /( C: 0/ 0/ 0/ 0/ 0/ 0/ 0/ 0/ 0/ 0/ 0/ 0/ 0/ 0/ 0/ 0/ 0/ 0/ 0/ 0/ 0/ 0/ 0/ 0/ 0/ 0/ 0/ 0/ 0/ 0/ 0/ 0/ 0/ 0/ 0/ 0/ 0/ 0/ 0/ 0/ 0/ 0/ 0/ 0/ 0/ 0/ 0/ 0/ 0/ 0/ 0/ 0/ 0/ 0/ 0/ 0/ 0/ 0/ 0/ 0/ 0/ 0/ 0/ 0/ 0/ 0/ 0/ 0/ 0/ 0/ 0/ 0/ 0/ 0/ 0/ 0/ 0/ 0/ 0/ 0/ 0/ 0/ 0/ 0/ 0/ 0/ 0/ 0/ 0/ 0/ 0/ 0/ 0/ 0/ 0/ 0/ 0/ 0/ 0/ 0/ 0/ 0/ 0/ 0/ 0/ 0/ 0/ 0/ 0/ 0/ 0/ 0/ 0/ 0/ 0/ 0/ 0/ 0/ 0/ 0/ 0/ 0/ 0/ 0/ 0/ 0/ 0/ 0/ 0/ 0/ 0/ 0/ 0/ 0/ 0/ 0/ 0/ 0/ 0/ 0/ 0/ 0/ 0/ 0/ 0/ 0/ 0/ 0/ 0/ 0/ 0/ 0/ 0/ 0/ 0/ 0/ 0/ 0/ 0/ 0/ 0/ 0/ k^ 0/ }% 4` d,.N# c. y| y| y| ,5 ;[ O .U< `e ,[ 0/ 0/ 0/ 0/ 0/ 0/ 0/ 0/ 0/ 0/ 0/ 0/ 0/ 0/ 0/ 0/ 0/ 0/ 0/ 0/ 0/ 0/ 0/ 0/ 0/ 0/ 0/ 0/ 0/ 0/ 0/ 0/ 0/ 0/ 0/ 0/ 0/ 0/ 0/ 0/ 0/ 0/ 0/ 0/ 0/ 0/ 0/ /( W' x1 A/ y( 8) +~ o4 [2 17 X, xr <d %z #3 C- t- l; l; &z z> $* :& && T& k% _% X$ _$ _$ _$ _$ _$ _$ _$ _$ _$ _$ _$ P# /# 5@ *@ n+ N+ =+ K  c. c. B  Z. x  S] |{ 4] )) 4^ 5^ 5^ 5=.CU a>.R~ R~ R~ R~ =-.=-.=-.=-.=-.=-.=-.=-.[+ |=.|=.|=.|=.|=.k,.k,.k,.k,.k,.k,.k,.k,.k,.k,.k,.k,.k,.k,.k,.k,.k,.k,.k,.k,.k,.m- |=.|=.|=.|=.O,.o,.o,.o,.[+ |=.|=.|=.|=.",
"0*.0*.0*.0*.0*.o! C,.C,.C,.C,.C,.C,.C,.C,.C,.R,.0*.0*.0*.0*.S,.8,.8,.Y) :] :] :] :] :] :] :] :] :] :] :] :] :] :] :] :] :] :] :] :] :] :] :] :] :] :] :] :] :] :] 1] s] t] )) 4] u] +~ v  x  y  A  D  c. h+ =+ M+ N+ ^# =@ 5@ /# /# P# _$ _$ _$ _$ _$ _$ _$ `$ c% 4% t% J% *& '& )y J- u- t- l; N,.p= D* K& #z <d $z 1{ F: k{ I4 x! L! r! 8)  % ^^ 0/ 0/ 0/ 0/ 0/ 0/ 0/ 0/ 0/ 0/ 0/ 0/ 0/ 0/ 0/ 0/ 0/ 0/ 0/ 0/ 0/ 0/ 0/ 0/ 0/ 0/ 0/ 0/ 0/ 0/ 0/ 0/ 0/ 0/ 0/ 0/ 0/ 0/ 0/ 0/ 0/ 0/ 0/ ,[ ,[ a[ ei 4@ y| y| y| y| y| c. b$ #^ f% /( C: 0/ 0/ 0/ 0/ 0/ 0/ 0/ 0/ 0/ 0/ 0/ 0/ 0/ 0/ 0/ 0/ 0/ 0/ 0/ 0/ 0/ 0/ 0/ 0/ 0/ 0/ 0/ 0/ 0/ 0/ 0/ 0/ 0/ 0/ 0/ 0/ 0/ 0/ 0/ 0/ 0/ 0/ 0/ 0/ 0/ 0/ 0/ 0/ 0/ 0/ 0/ 0/ 0/ 0/ 0/ 0/ 0/ 0/ 0/ 0/ 0/ 0/ 0/ 0/ 0/ 0/ 0/ 0/ 0/ 0/ 0/ 0/ 0/ 0/ 0/ 0/ 0/ 0/ 0/ 0/ 0/ 0/ 0/ 0/ 0/ 0/ 0/ 0/ 0/ 0/ 0/ 0/ 0/ 0/ 0/ 0/ 0/ 0/ 0/ 0/ 0/ 0/ 0/ 0/ 0/ 0/ 0/ 0/ 0/ 0/ 0/ 0/ 0/ 0/ 0/ 0/ 0/ 0/ 0/ 0/ 0/ 0/ 0/ 0/ 0/ 0/ 0/ 0/ 0/ 0/ 0/ 0/ 0/ 0/ 0/ 0/ 0/ 0/ 0/ 0/ 0/ 0/ 0/ 0/ 0/ 0/ 0/ 0/ 0/ 0/ 0/ 0/ 0/ 0/ 0/ 0/ 0/ 0/ 0/ 0/ 0/ 0/ k^ 0/ }% 4` d,.N# c. y| y| y| ,5 ;[ O .U< `e ,[ 0/ 0/ 0/ 0/ 0/ 0/ 0/ 0/ 0/ 0/ 0/ 0/ 0/ 0/ 0/ 0/ 0/ 0/ 0/ 0/ 0/ 0/ 0/ 0/ 0/ 0/ 0/ 0/ 0/ 0/ 0/ 0/ 0/ 0/ 0/ 0/ 0/ 0/ 0/ 0/ 0/ 0/ 0/ 0/ 0/ 0/ 0/ /( 46 __ A/ y( 8) +~ o4 [2 17 X, xr <d OU #3 C- t- t- t- J4 Ly n& :& && u% j% _% X$ _$ _$ _$ _$ _$ _$ _$ _$ _$ _$ _$ P# /# 5@ *@ n+ N+ =+ K  c. c. B  Z. x  S] |{ 4] )) 4^ 5^ 5^ 5=. S J*.R~ R~ R~ R~ &;.=-.=-.=-.=-.=-.=-.=-.5$ |=.|=.|=.|=.|=.<T k,.k,.k,.k,.k,.k,.k,.k,.k,.k,.k,.k,.k,.k,.k,.k,.k,.k,.k,.k,.<@ |=.T,.U,.V,.W,.o,.o,.f( |=.|=.|=.|=.|=.",
"0*.0*.0*.0*.H,.C,.C,.C,.C,.C,.C,.C,.C,.C,.C,.o! 0*.0*.0*.0*.X,.Y,.8,.Z,.:] :] :] :] :] :] :] :] :] :] :] :] :] :] :] :] :] :] :] :] :] :] :] :] :] :] :] :] :] :] 1] s] t] )) 4] u] +~ v  x  y  A  D  c. h+ =+ M+ N+ ^# =@ 5@ /# /# P# _$ _$ _$ _$ _$ _$ _$ `$ c% 4% t% J% *& '& )y J- v- t- l; a0 v= D* B& fv <d $s 1{ F: k{ I4 a. L! r! 8) N' ^^ 0/ 0/ 0/ 0/ 0/ 0/ 0/ 0/ 0/ 0/ 0/ 0/ 0/ 0/ 0/ 0/ 0/ 0/ 0/ 0/ 0/ 0/ 0/ 0/ 0/ 0/ 0/ 0/ 0/ 0/ 0/ 0/ 0/ 0/ 0/ 0/ 0/ 0/ 0/ 0/ 0/ 0/ 0/ ,[ ,[ a[ ei 4@ y| y| y| y| y| c. b$ |: |% 0/ C: 0/ 0/ 0/ 0/ 0/ 0/ 0/ 0/ 0/ 0/ 0/ 0/ 0/ 0/ 0/ 0/ 0/ 0/ 0/ 0/ 0/ 0/ 0/ 0/ 0/ 0/ 0/ 0/ 0/ 0/ 0/ 0/ 0/ 0/ 0/ 0/ 0/ 0/ 0/ 0/ 0/ 0/ 0/ 0/ 0/ 0/ 0/ 0/ 0/ 0/ 0/ 0/ 0/ 0/ 0/ 0/ 0/ 0/ 0/ 0/ 0/ 0/ 0/ 0/ 0/ 0/ 0/ 0/ 0/ 0/ 0/ 0/ 0/ 0/ 0/ 0/ 0/ 0/ 0/ 0/ 0/ 0/ 0/ 0/ 0/ 0/ 0/ 0/ 0/ 0/ 0/ 0/ 0/ 0/ 0/ 0/ 0/ 0/ 0/ 0/ 0/ 0/ 0/ 0/ 0/ 0/ 0/ 0/ 0/ 0/ 0/ 0/ 0/ 0/ 0/ 0/ 0/ 0/ 0/ 0/ 0/ 0/ 0/ 0/ 0/ 0/ 0/ 0/ 0/ 0/ 0/ 0/ 0/ 0/ 0/ 0/ 0/ 0/ 0/ 0/ 0/ 0/ 0/ 0/ 0/ 0/ 0/ 0/ 0/ 0/ 0/ 0/ 0/ 0/ 0/ 0/ 0/ 0/ 0/ 0/ 0/ 0/ k^ 0/ }% 4` d,.N# c. y| y| y| ,5 ;[ O .U< `e ,[ 0/ 0/ 0/ 0/ 0/ 0/ 0/ 0/ 0/ 0/ 0/ 0/ 0/ 0/ 0/ 0/ 0/ 0/ 0/ 0/ 0/ 0/ 0/ 0/ 0/ 0/ 0/ 0/ 0/ 0/ 0/ 0/ 0/ 0/ 0/ 0/ 0/ 0/ 0/ 0/ 0/ 0/ 0/ 0/ 0/ 0/ 0/ /( W' x1 A/ y( 8) +~ M6 [2 17 Sf xr Ky P& 5- C- t- l; l; Cy Ly m& ]& 3& u% j% _% X$ _$ _$ _$ _$ _$ _$ _$ _$ _$ _$ _$ P# /# 5@ *@ n+ N+ =+ K  c. c. B  Z. x  S] |{ 4] )) 4^ 5^ 5^ `,.TT J*.R~ R~ R~ R~ T;.=-.=-.=-.=-.=-.=-.=-.a,.|=.|=.|=.|=.|=. '.k,.k,.k,.k,.k,.k,.k,.k,.k,.k,.k,.k,.k,.k,.k,.k,.k,.k,.k,.A,.|=..'.hS hS hS y&.o,.L,.|=.|=.|=.|=.|=.|=.",
"0*.0*.0*.t=.+'.C,.C,.C,.C,.C,.C,.C,.C,.C,.C,.j= 0*.0*.0*.0*.X! C,.@'.9=.:] :] :] :] :] :] :] :] :] :] :] :] :] :] :] :] :] :] :] :] :] :] :] :] :] :] :] :] :] :] 1] s] t] )) 4] u] +~ v  x  y  A  D  c. h+ =+ M+ N+ ^# =@ 5@ /# /# P# _$ _$ _$ _$ _$ _$ &$ Z$ c% 4% t% J% *& ,& )y J- v- G- t- Jv u= 2* B& fv <d $s 1{ 39 k{ I4 x! L! r! 8) W, ^^ 0/ 0/ 0/ 0/ 0/ 0/ 0/ 0/ 0/ 0/ 0/ 0/ 0/ 0/ 0/ 0/ 0/ 0/ 0/ 0/ 0/ 0/ 0/ 0/ 0/ 0/ 0/ 0/ 0/ 0/ 0/ 0/ 0/ 0/ 0/ 0/ 0/ 0/ 0/ 0/ 0/ 0/ 0/ ,[ ,[ a[ ei 4@ y| y| y| y| y| c. 2) |: |% 0/ C: 0/ 0/ 0/ 0/ 0/ 0/ 0/ 0/ 0/ 0/ 0/ 0/ 0/ 0/ 0/ 0/ 0/ 0/ 0/ 0/ 0/ 0/ 0/ 0/ 0/ 0/ 0/ 0/ 0/ 0/ 0/ 0/ 0/ 0/ 0/ 0/ 0/ 0/ 0/ 0/ 0/ 0/ 0/ 0/ 0/ 0/ 0/ 0/ 0/ 0/ 0/ 0/ 0/ 0/ 0/ 0/ 0/ 0/ 0/ 0/ 0/ 0/ 0/ 0/ 0/ 0/ 0/ 0/ 0/ 0/ 0/ 0/ 0/ 0/ 0/ 0/ 0/ 0/ 0/ 0/ 0/ 0/ 0/ 0/ 0/ 0/ 0/ 0/ 0/ 0/ 0/ 0/ 0/ 0/ 0/ 0/ 0/ 0/ 0/ 0/ 0/ 0/ 0/ 0/ 0/ 0/ 0/ 0/ 0/ 0/ 0/ 0/ 0/ 0/ 0/ 0/ 0/ 0/ 0/ 0/ 0/ 0/ 0/ 0/ 0/ 0/ 0/ 0/ 0/ 0/ 0/ 0/ 0/ 0/ 0/ 0/ 0/ 0/ 0/ 0/ 0/ 0/ 0/ 0/ 0/ 0/ 0/ 0/ 0/ 0/ 0/ 0/ 0/ 0/ 0/ 0/ 0/ 0/ 0/ 0/ 0/ 0/ C: 0/ f% K,.d,.N# c. y| y| y| ,5 ;[ O .U< `e ,[ 0/ 0/ 0/ 0/ 0/ 0/ 0/ 0/ 0/ 0/ 0/ 0/ 0/ 0/ 0/ 0/ 0/ 0/ 0/ 0/ 0/ 0/ 0/ 0/ 0/ 0/ 0/ 0/ 0/ 0/ 0/ 0/ 0/ 0/ 0/ 0/ 0/ 0/ 0/ 0/ 0/ 0/ 0/ 0/ 0/ 0/ 0/ w[ d% __ A/ y( 8) +~ M6 ~% 3^ wc By .b jy 5- C- t- t- l; Cy #'.8, ]& 3& u% j% _% X$ _$ _$ _$ _$ _$ _$ _$ _$ _$ _$ _$ P# /# 5@ *@ n+ N+ =+ K  c. c. B  Z. x  S] |{ 4] )) 4^ 5^ 5^ $'.TT J*.R~ R~ R~ R~ R~ R~ T;.=-.=-.=-.=-.=-./;.|=.|=.|=.|=.|=.|=.,# P$ k,.k,.k,.k,.k,.k,.k,.k,.k,.k,.k,.k,.k,.k,.k,.k,.k,. '..'.hS hS hS hS '} O,.%'.|=.|=.|=.|=.|=.|=.",
"0*.0*.0*.B,.C,.C,.C,.C,.C,.C,.C,.C,.C,.C,.C,.}*.0*.0*.0*.&'.C,.C,.C,.C,.C,.R,.6/ :] :] :] :] :] :] :] :] :] :] :] :] :] :] :] :] :] :] :] :] :] :] :] :] :] :] :] 1] s] t] )) 4] u] +~ v  x  y  A  D  c. h+ =+ M+ N+ ^# =@ 5@ /# /# P# _$ _$ _$ _$ _$ _$ _$ Z$ c% 4% t% H% f* >& )y J- v- G- t- C- r= 2* L& }& Gb $s ^h $^ k{ }2 x! L! r! 7~ 8; %| 0/ 0/ 0/ 0/ 0/ 0/ 0/ 0/ 0/ 0/ 0/ 0/ 0/ 0/ 0/ 0/ 0/ 0/ 0/ 0/ 0/ 0/ 0/ 0/ 0/ 0/ 0/ 0/ 0/ 0/ 0/ 0/ 0/ 0/ 0/ 0/ 0/ 0/ 0/ 0/ 0/ 0/ 0/ ,[ ,[ a[ ei 4@ y| y| y| y| y| c. 2) g[ h% 0/ C: 0/ 0/ 0/ 0/ 0/ 0/ 0/ 0/ 0/ 0/ 0/ 0/ 0/ 0/ 0/ 0/ 0/ 0/ 0/ 0/ 0/ 0/ 0/ 0/ 0/ 0/ 0/ 0/ 0/ 0/ 0/ 0/ 0/ 0/ 0/ 0/ 0/ 0/ 0/ 0/ 0/ 0/ 0/ 0/ 0/ 0/ 0/ 0/ 0/ 0/ 0/ 0/ 0/ 0/ 0/ 0/ 0/ 0/ 0/ 0/ 0/ 0/ 0/ 0/ 0/ 0/ 0/ 0/ 0/ 0/ 0/ 0/ 0/ 0/ 0/ 0/ 0/ 0/ 0/ 0/ 0/ 0/ 0/ 0/ 0/ 0/ 0/ 0/ 0/ 0/ 0/ 0/ 0/ 0/ 0/ 0/ 0/ 0/ 0/ 0/ 0/ 0/ 0/ 0/ 0/ 0/ 0/ 0/ 0/ 0/ 0/ 0/ 0/ 0/ 0/ 0/ 0/ 0/ 0/ 0/ 0/ 0/ 0/ 0/ 0/ 0/ 0/ 0/ 0/ 0/ 0/ 0/ 0/ 0/ 0/ 0/ 0/ 0/ 0/ 0/ 0/ 0/ 0/ 0/ 0/ 0/ 0/ 0/ 0/ 0/ 0/ 0/ 0/ 0/ 0/ 0/ 0/ 0/ 0/ 0/ 0/ 0/ C: /( J8 K,.d,.N# c. y| y| y| ,5 ;[ O .U< `e ,[ 0/ 0/ 0/ 0/ 0/ 0/ 0/ 0/ 0/ 0/ 0/ 0/ 0/ 0/ 0/ 0/ 0/ 0/ 0/ 0/ 0/ 0/ 0/ 0/ 0/ 0/ 0/ 0/ 0/ 0/ 0/ 0/ 0/ 0/ 0/ 0/ 0/ 0/ 0/ 0/ 0/ 0/ 0/ 0/ 0/ 0/ 0/ 0/ d% __ A/ y( 8) +~ M6 ~% 3^ wc By .b jy Q= Jv G- t- l; ky {y _& {& 7' u% i% _% X$ _$ _$ _$ _$ _$ _$ _$ _$ _$ _$ _$ P# /# 5@ *@ n+ N+ =+ K  c. c. B  Z. x  S] |{ 4] )) 4^ 5^ 5^ *'.TT x&.R~ R~ R~ R~ R~ R~ R~ N: =-.=-.=-.=-.=;.|=.|=.|=.|=.|=.|=.|=.|=.f; }*.k,.k,.k,.k,.k,.k,.k,.k,.k,.k,.k,.k,.k,.k,.k,..'.hS hS hS hS ='.o,.-'.|=.|=.|=.|=.|=.|=.|=.",
"0*.0*.}*.C,.C,.C,.C,.C,.C,.C,.C,.C,.C,.C,.C,.v,.0*.0*.}*.C,.C,.C,.C,.C,.C,.C,.C,.C,.+'._=.6/ j= :] :] :] :] :] :] P-.;'.;'.;'.;'.;'.;'.;'._=.:] :] :] :] :] :] :] 1] s] t] )) 4] u] +~ v  x  y  A  D  c. h+ =+ M+ N+ ^# =@ 5@ /# /# P# _$ _$ _$ _$ _$ _$ _$ Z$ &% 4% t% H% && ;& )y J- v- H- t- a0 r= ae a, >'..b xr Ze $^ l{ }2 x! L! r! 7~ K' %| 0/ 0/ 0/ 0/ 0/ 0/ 0/ 0/ 0/ 0/ 0/ 0/ 0/ 0/ 0/ 0/ 0/ 0/ 0/ 0/ 0/ 0/ 0/ 0/ 0/ 0/ 0/ 0/ 0/ 0/ 0/ 0/ 0/ 0/ 0/ 0/ 0/ 0/ 0/ 0/ 0/ 0/ 0/ ,[ ,[ a[ ei 4@ y| y| y| y| y| c. 2) ][ i% 0/ 0/ 0/ 0/ 0/ 0/ 0/ 0/ 0/ 0/ 0/ 0/ 0/ 0/ 0/ 0/ 0/ 0/ 0/ 0/ 0/ 0/ 0/ 0/ 0/ 0/ 0/ 0/ 0/ 0/ 0/ 0/ 0/ 0/ 0/ 0/ 0/ 0/ 0/ 0/ 0/ 0/ 0/ 0/ 0/ 0/ 0/ 0/ 0/ 0/ 0/ 0/ 0/ 0/ 0/ 0/ 0/ 0/ 0/ 0/ 0/ 0/ 0/ 0/ 0/ 0/ 0/ 0/ 0/ 0/ 0/ 0/ 0/ 0/ 0/ 0/ 0/ 0/ 0/ 0/ 0/ 0/ 0/ 0/ 0/ 0/ 0/ 0/ 0/ 0/ 0/ 0/ 0/ 0/ 0/ 0/ 0/ 0/ 0/ 0/ 0/ 0/ 0/ 0/ 0/ 0/ 0/ 0/ 0/ 0/ 0/ 0/ 0/ 0/ 0/ 0/ 0/ 0/ 0/ 0/ 0/ 0/ 0/ 0/ 0/ 0/ 0/ 0/ 0/ 0/ 0/ 0/ 0/ 0/ 0/ 0/ 0/ 0/ 0/ 0/ 0/ 0/ 0/ 0/ 0/ 0/ 0/ 0/ 0/ 0/ 0/ 0/ 0/ 0/ 0/ 0/ 0/ 0/ 0/ 0/ 0/ 0/ 0/ 0/ C: m` NO R;.d,.N# c. y| y| y| ,5 ;[ O .U< `e ,[ 0/ 0/ 0/ 0/ 0/ 0/ 0/ 0/ 0/ 0/ 0/ 0/ 0/ 0/ 0/ 0/ 0/ 0/ 0/ 0/ 0/ 0/ 0/ 0/ 0/ 0/ 0/ 0/ 0/ 0/ 0/ 0/ 0/ 0/ 0/ 0/ 0/ 0/ 0/ 0/ 0/ 0/ 0/ 0/ 0/ 0/ 0/ 0/ d% !x A/ y( 8) +~ M6 ~% 3^ wc Dp !y xC Q= Jv G- t- t- &7 {y _& ~& $& =' i% _% X$ _$ _$ _$ _$ _$ _$ _$ _$ _$ _$ _$ P# /# 5@ *@ n+ N+ =+ K  c. c. B  Z. x  S] |{ 4] )) 4^ 5^ 5^ *'.TT *  R~ R~ R~ R~ R~ R~ R~ R~ N: =-.=-.=-.=-.[+ |=.|=.|=.|=.|=.|=.|=.|=.|=. '.0*.H,.k,.k,.k,.k,.k,.k,.k,.k,.k,.k,.k,.,'.hS hS hS hS hS ''.)'.|=.|=.|=.|=.|=.|=.|=.|=.",
"0*.v,.C,.C,.C,.C,.C,.C,.C,.C,.C,.C,.C,.C,.C,.0*.0*.v,.C,.C,.C,.C,.C,.C,.C,.C,.C,.C,.C,.!'.~'.~'.~'.~'.~'.i( {'.]'.^'.^'.^'.^'.]'.{'.{'.{'.{'.{'.{'.{'.{'./'.('._'.]( s] t] )) 4] u] +~ v  x  y  A  D  c. h+ =+ M+ N+ ^# =@ 5@ /# /# P# _$ _$ _$ _$ _$ _$ _$ Z$ &% 4% q% #& && ;& )y J- v- H- t- a0 r= |* z& $v .b xr Ze $^ l{ }2 x! L! r! 7~ K' %| 0/ 0/ 0/ 0/ 0/ 0/ 0/ 0/ 0/ 0/ 0/ 0/ 0/ 0/ 0/ 0/ 0/ 0/ 0/ 0/ 0/ 0/ 0/ 0/ 0/ 0/ 0/ 0/ 0/ 0/ 0/ 0/ 0/ 0/ 0/ 0/ 0/ 0/ 0/ 0/ 0/ 0/ 0/ ,[ ,[ a[ ei 4@ y| y| y| y| y| c. 2) 0; x..C: 0/ 0/ 0/ 0/ 0/ 0/ 0/ 0/ 0/ 0/ 0/ 0/ 0/ 0/ 0/ 0/ 0/ 0/ 0/ 0/ 0/ 0/ 0/ 0/ 0/ 0/ 0/ 0/ 0/ 0/ 0/ 0/ 0/ 0/ 0/ 0/ 0/ 0/ 0/ 0/ 0/ 0/ 0/ 0/ 0/ 0/ 0/ 0/ 0/ 0/ 0/ 0/ 0/ 0/ 0/ 0/ 0/ 0/ 0/ 0/ 0/ 0/ 0/ 0/ 0/ 0/ 0/ 0/ 0/ 0/ 0/ 0/ 0/ 0/ 0/ 0/ 0/ 0/ 0/ 0/ 0/ 0/ 0/ 0/ 0/ 0/ 0/ 0/ 0/ 0/ 0/ 0/ 0/ 0/ 0/ 0/ 0/ 0/ 0/ 0/ 0/ 0/ 0/ 0/ 0/ 0/ 0/ 0/ 0/ 0/ 0/ 0/ 0/ 0/ 0/ 0/ 0/ 0/ 0/ 0/ 0/ 0/ 0/ 0/ 0/ 0/ 0/ 0/ 0/ 0/ 0/ 0/ 0/ 0/ 0/ 0/ 0/ 0/ 0/ 0/ 0/ 0/ 0/ 0/ 0/ 0/ 0/ 0/ 0/ 0/ 0/ 0/ 0/ 0/ 0/ 0/ 0/ 0/ 0/ 0/ 0/ 0/ k^ C: Nn ^z  @.d,.N# c. y| y| y| ,5 ;[ O .U< `e ,[ 0/ 0/ 0/ 0/ 0/ 0/ 0/ 0/ 0/ 0/ 0/ 0/ 0/ 0/ 0/ 0/ 0/ 0/ 0/ 0/ 0/ 0/ 0/ 0/ 0/ 0/ 0/ 0/ 0/ 0/ 0/ 0/ 0/ 0/ 0/ 0/ 0/ 0/ 0/ 0/ 0/ 0/ 0/ 0/ 0/ 0/ 0/ 0/ f%  @.(_ y( 8) +~ 8] ~% 3^ wc Dp 0x ~y Q= Jv G- G- G- &7 x> /& ~& O% u% h% _% X$ _$ _$ _$ _$ _$ _$ _$ _$ _$ _$ _$ P# /# 5@ *@ n+ N+ =+ K  c. c. B  Z. x  S] |{ 4] )) 4^ 5^ 5^ *'.TT *  R~ R~ R~ R~ R~ R~ R~ R~ R~ T;.=-.=-.=-./;.|=.|=.|=.|=.|=.|=.|=.|=.|=.|=.|=.|=.i) }*.k,.k,.k,.k,.k,.k,.k,.k,.k,.$: 'p hS hS hS hS :'.%'.|=.|=.|=.|=.|=.|=.|=.|=.",
"}*.C,.C,.C,.C,.C,.C,.C,.C,.C,.C,.C,.C,.C,.C,.t=.&'.C,.C,.C,.C,.~'.<'.['.d_ CU KT }'.}'.}'.}'.}'.}'.}'.}'.}'.}'.}'.}'.}'.}'.}'.}'.}'.}'.}'.}'.}'.}'.}'.}'.}'.}'.}'.5^ s] t] )) 4] u] +~ v  x  y  A  D  c. h+ =+ M+ N+ ^# =@ 5@ /# /# P# _$ _$ _$ _$ _$ _$ _$ Z$ &% 4% q% #& && M, L> J- v- G- t- a0 q=  =.y& $v !y By Ze $^ l{ }2 +~ L! r! 7~ w( %| 0/ 0/ 0/ 0/ 0/ 0/ 0/ 0/ 0/ 0/ 0/ 0/ 0/ 0/ 0/ 0/ 0/ 0/ 0/ 0/ 0/ 0/ 0/ 0/ 0/ 0/ 0/ 0/ 0/ 0/ 0/ 0/ 0/ 0/ 0/ 0/ 0/ 0/ 0/ 0/ 0/ 0/ 0/ ,[ ,[ a[ ei 4@ y| y| y| y| y| c. b$ S) Nn C: k^ 0/ 0/ 0/ 0/ 0/ 0/ 0/ 0/ 0/ 0/ 0/ 0/ 0/ 0/ 0/ 0/ 0/ 0/ 0/ 0/ 0/ 0/ 0/ 0/ 0/ 0/ 0/ 0/ 0/ 0/ 0/ 0/ 0/ 0/ 0/ 0/ 0/ 0/ 0/ 0/ 0/ 0/ 0/ 0/ 0/ 0/ 0/ 0/ 0/ 0/ 0/ 0/ 0/ 0/ 0/ 0/ 0/ 0/ 0/ 0/ 0/ 0/ 0/ 0/ 0/ 0/ 0/ 0/ 0/ 0/ 0/ 0/ 0/ 0/ 0/ 0/ 0/ 0/ 0/ 0/ 0/ 0/ 0/ 0/ 0/ 0/ 0/ 0/ 0/ 0/ 0/ 0/ 0/ 0/ 0/ 0/ 0/ 0/ 0/ 0/ 0/ 0/ 0/ 0/ 0/ 0/ 0/ 0/ 0/ 0/ 0/ 0/ 0/ 0/ 0/ 0/ 0/ 0/ 0/ 0/ 0/ 0/ 0/ 0/ 0/ 0/ 0/ 0/ 0/ 0/ 0/ 0/ 0/ 0/ 0/ 0/ 0/ 0/ 0/ 0/ 0/ 0/ 0/ 0/ 0/ 0/ 0/ 0/ 0/ 0/ 0/ 0/ 0/ 0/ 0/ 0/ 0/ 0/ 0/ 0/ 0/ 0/ w[ |% fx M_ d,.B%.c. y| y| y| ,5 ;[ O .U< `e ,[ 0/ 0/ 0/ 0/ 0/ 0/ 0/ 0/ 0/ 0/ 0/ 0/ 0/ 0/ 0/ 0/ 0/ 0/ 0/ 0/ 0/ 0/ 0/ 0/ 0/ 0/ 0/ 0/ 0/ 0/ 0/ 0/ 0/ 0/ 0/ 0/ 0/ 0/ 0/ 0/ 0/ 0/ 0/ 0/ 0/ 0/ 0/ /( E% R;.|^ y< 8) +~ 8] ~% }6 wc Dp Nw gx Q= Jv G- G- G- &7 w> :& ~& N% s% 4% _% X$ _$ _$ _$ _$ _$ _$ _$ _$ _$ _$ _$ P# /# 5@ *@ n+ N+ =+ K  c. c. B  Z. x  S] |{ 4] )) 4^ 5^ 5^ *'.TT *  |'.R~ R~ R~ R~ R~ R~ R~ R~ H;.=-.=-.=-.=;.|=.|=.|=.|=.|=.|=.|=.|=.|=.|=.|=.|=.|=.|=.f; 1'.1'.k,.k,.k,.k,.k,.k,.2'.TT J( o: hS hS |=.|=.|=.|=.|=.|=.|=.|=.|=.|=.",
"C,.C,.C,.C,.C,.C,.C,.C,.C,.C,.C,.C,.C,.C,.3'.~'._'.4'.CU 5'.}'.}'.}'.}'.}'.}'.}'.}'.}'.}'.}'.}'.}'.}'.}'.}'.}'.}'.}'.}'.}'.}'.}'.}'.}'.}'.}'.}'.}'.}'.}'.}'.}'.}'.5^ s] t] )) 4] u] +~ v  x  y  A  D  c. h+ =+ M+ N+ ^# =@ 5@ /# /# P# _$ _$ _$ _$ _$ _$ _$ Z$ &% g% wx #& Ho *& |w J- v- G- G- a0 =, [* x& xx yx Hq X, $^ U} ^B +~ L! r! 7~ W/ ^^ 0/ 0/ 0/ 0/ 0/ 0/ 0/ 0/ 0/ 0/ 0/ 0/ 0/ 0/ 0/ 0/ 0/ 0/ 0/ 0/ 0/ 0/ 0/ 0/ 0/ 0/ 0/ 0/ 0/ 0/ 0/ 0/ 0/ 0/ 0/ 0/ 0/ 0/ 0/ 0/ 0/ 0/ 0/ ,[ ,[ a[ ei 4@ y| y| y| y| y| c. b$ S) Nn C: k^ 0/ 0/ 0/ 0/ 0/ 0/ 0/ 0/ 0/ 0/ 0/ 0/ 0/ 0/ 0/ 0/ 0/ 0/ 0/ 0/ 0/ 0/ 0/ 0/ 0/ 0/ 0/ 0/ 0/ 0/ 0/ 0/ 0/ 0/ 0/ 0/ 0/ 0/ 0/ 0/ 0/ 0/ 0/ 0/ 0/ 0/ 0/ 0/ 0/ 0/ 0/ 0/ 0/ 0/ 0/ 0/ 0/ 0/ 0/ 0/ 0/ 0/ 0/ 0/ 0/ 0/ 0/ 0/ 0/ 0/ 0/ 0/ 0/ 0/ 0/ 0/ 0/ 0/ 0/ 0/ 0/ 0/ 0/ 0/ 0/ 0/ 0/ 0/ 0/ 0/ 0/ 0/ 0/ 0/ 0/ 0/ 0/ 0/ 0/ 0/ 0/ 0/ 0/ 0/ 0/ 0/ 0/ 0/ 0/ 0/ 0/ 0/ 0/ 0/ 0/ 0/ 0/ 0/ 0/ 0/ 0/ 0/ 0/ 0/ 0/ 0/ 0/ 0/ 0/ 0/ 0/ 0/ 0/ 0/ 0/ 0/ 0/ 0/ 0/ 0/ 0/ 0/ 0/ 0/ 0/ 0/ 0/ 0/ 0/ 0/ 0/ 0/ 0/ 0/ 0/ 0/ 0/ 0/ 0/ 0/ 0/ 0/ [q Ze __ X^ t{ Q4 c. y| y| y| ,5 ;[ O .U< `e ,[ 0/ 0/ 0/ 0/ 0/ 0/ 0/ 0/ 0/ 0/ 0/ 0/ 0/ 0/ 0/ 0/ 0/ 0/ 0/ 0/ 0/ 0/ 0/ 0/ 0/ 0/ 0/ 0/ 0/ 0/ 0/ 0/ 0/ 0/ 0/ 0/ 0/ 0/ 0/ 0/ 0/ 0/ 0/ 0/ 0/ 0/ 0/ /( f% WO |^ y< 8) +~ 8] +4 }6 K6 !p Nw gx Q= Jv G- G- G- &7 {x l& |& N% t% 4% c% W$ _$ _$ _$ _$ _$ _$ _$ _$ _$ _$ _$ P# /# 5@ *@ n+ N+ =+ K  c. c. B  Z. x  S] |{ 4] )) 4^ 5^ 5^ *'.TT gW *  7_ O[ 6'.6'.7'.R~ R~ R~ R~ =-.=-.=-.D-.1=.@$ ,# |=.|=.|=.|=.|=.|=.|=.|=.|=.8'.~'.9'.TT TT  S _'.6/ k,.k,.2B TT TT TT TT 0'.hS a'.|=.|=.|=.|=.|=.|=.|=.|=.+'.",
"C,.C,.C,.C,.C,.C,.!'.~'.~'._'.['.b'.CU }'.}'.}'.}'.}'.}'.}'.c'.d'.As As q/ >q >q q/ As e'.d'.f'.f'.f'.f'.f'.f'.f'.f~ *  c'.g'.U,.*  }'.}'.}'.}'.}'.}'.}'.}'.}'.}'.5^ s] t] )) 4] u] +~ v  x  y  A  D  c. h+ =+ M+ N+ ^# =@ 5@ /# /# P# _$ _$ _$ _$ _$ _$ _$ Z$ &% g% o% H% 7' *& |w J- v- G- G- h'.=, [* w& k& 0x Hq X, $^ U} U1 u] L! r! r( H/ ^^ 0/ 0/ 0/ 0/ 0/ 0/ 0/ 0/ 0/ 0/ 0/ 0/ 0/ 0/ 0/ 0/ 0/ 0/ 0/ 0/ 0/ 0/ 0/ 0/ 0/ 0/ 0/ 0/ 0/ 0/ 0/ 0/ 0/ 0/ 0/ 0/ 0/ 0/ 0/ 0/ 0/ 0/ 0/ ,[ ,[ a[ ei 4@ y| y| y| y| y| c. b$ <~ i'.C: k^ 0/ 0/ 0/ 0/ 0/ 0/ 0/ 0/ 0/ 0/ 0/ 0/ 0/ 0/ 0/ 0/ 0/ 0/ 0/ 0/ 0/ 0/ 0/ 0/ 0/ 0/ 0/ 0/ 0/ 0/ 0/ 0/ 0/ 0/ 0/ 0/ 0/ 0/ 0/ 0/ 0/ 0/ 0/ 0/ 0/ 0/ 0/ 0/ 0/ 0/ 0/ 0/ 0/ 0/ 0/ 0/ 0/ 0/ 0/ 0/ 0/ 0/ 0/ 0/ 0/ 0/ 0/ 0/ 0/ 0/ 0/ 0/ 0/ 0/ 0/ 0/ 0/ 0/ 0/ 0/ 0/ 0/ 0/ 0/ 0/ 0/ 0/ 0/ 0/ 0/ 0/ 0/ 0/ 0/ 0/ 0/ 0/ 0/ 0/ 0/ 0/ 0/ 0/ 0/ 0/ 0/ 0/ 0/ 0/ 0/ 0/ 0/ 0/ 0/ 0/ 0/ 0/ 0/ 0/ 0/ 0/ 0/ 0/ 0/ 0/ 0/ 0/ 0/ 0/ 0/ 0/ 0/ 0/ 0/ 0/ 0/ 0/ 0/ 0/ 0/ 0/ 0/ 0/ 0/ 0/ 0/ 0/ 0/ 0/ 0/ 0/ 0/ 0/ 0/ 0/ 0/ 0/ 0/ 0/ 0/ +j ^^ 6; .^ M^ X^ t{ H3 c. y| y| y| ,5 ;[ O .U< `e ,[ 0/ 0/ 0/ 0/ 0/ 0/ 0/ 0/ 0/ 0/ 0/ 0/ 0/ 0/ 0/ 0/ 0/ 0/ 0/ 0/ 0/ 0/ 0/ 0/ 0/ 0/ 0/ 0/ 0/ 0/ 0/ 0/ 0/ 0/ 0/ 0/ 0/ 0/ 0/ 0/ 0/ 0/ 0/ 0/ 0/ 0/ 0/ /( }% 4` |^ y< 8) +~ 8] ~% }6 G} !p Nw Ww Q= C- G- G- G- &7 {x ]& |& M% t% 4% c% W$ _$ _$ _$ _$ _$ _$ _$ _$ _$ _$ _$ P# /# 5@ *@ n+ N+ =+ K  c. c. B  Z. x  S] |{ 4] )) 4^ 5^ 5^ *'.TT TT TT TT TT TT TT TT TT TT j'.G^ 7_ k'.l'.l'.l'.l'.l'.l'.l'.l'.l'.m'.k'.n'.@..TT TT TT TT TT TT TT TT 2'.4*.o'.TT TT TT TT TT TT 9'.hS p'.c'.w&.@8  S TT TT TT TT ",
"}'.}'.}'.}'.}'.}'.}'.}'.}'.}'.}'.}'.}'.}'.}'.o: l: 5s v' }I }I }I }I }I }I }I }I }I q'.$! 2$ 2$ 2$ 2$ 2$ 2$ 2$ 2$ 2$ L] k# X# X# r'.A% }'.}'.}'.}'.}'.}'.}'.}'.}'.5^ s] t] )) 4] u] +~ v  x  y  A  D  c. h+ =+ M+ N+ ^# =@ 5@ /# /# P# _$ _$ _$ _$ _$ _$ _$ X$ &% }% o% H% 7' 2& s'.J- v- G- G- h'.=, :* v& t'.0x Dp Sf ~9 U} U1 a! L! r! r( z] &e 0/ 0/ 0/ 0/ 0/ 0/ 0/ 0/ 0/ 0/ 0/ 0/ 0/ 0/ 0/ 0/ 0/ 0/ 0/ 0/ 0/ 0/ 0/ 0/ 0/ 0/ 0/ 0/ 0/ 0/ 0/ 0/ 0/ 0/ 0/ 0/ 0/ 0/ 0/ 0/ 0/ 0/ 0/ ,[ ,[ a[ ei 4@ y| y| y| y| y| c. a$ P' m` C: k^ 0/ 0/ 0/ 0/ 0/ 0/ 0/ 0/ 0/ 0/ 0/ 0/ 0/ 0/ 0/ 0/ 0/ 0/ 0/ 0/ 0/ 0/ 0/ 0/ 0/ 0/ 0/ 0/ 0/ 0/ 0/ 0/ 0/ 0/ 0/ 0/ 0/ 0/ 0/ 0/ 0/ 0/ 0/ 0/ 0/ 0/ 0/ 0/ 0/ 0/ 0/ 0/ 0/ 0/ 0/ 0/ 0/ 0/ 0/ 0/ 0/ 0/ 0/ 0/ 0/ 0/ 0/ 0/ 0/ 0/ 0/ 0/ 0/ 0/ 0/ 0/ 0/ 0/ 0/ 0/ 0/ 0/ 0/ 0/ 0/ 0/ 0/ 0/ 0/ 0/ 0/ 0/ 0/ 0/ 0/ 0/ 0/ 0/ 0/ 0/ 0/ 0/ 0/ 0/ 0/ 0/ 0/ 0/ 0/ 0/ 0/ 0/ 0/ 0/ 0/ 0/ 0/ 0/ 0/ 0/ 0/ 0/ 0/ 0/ 0/ 0/ 0/ 0/ 0/ 0/ 0/ 0/ 0/ 0/ 0/ 0/ 0/ 0/ 0/ 0/ 0/ 0/ 0/ 0/ 0/ 0/ 0/ 0/ 0/ 0/ 0/ 0/ 0/ 0/ 0/ 0/ 0/ 0/ 0/ k^ (4 6; qR (^ Q{ X^ t{ H3 c. y| y| y| ,5 ;[ O .U< `e ,[ 0/ 0/ 0/ 0/ 0/ 0/ 0/ 0/ 0/ 0/ 0/ 0/ 0/ 0/ 0/ 0/ 0/ 0/ 0/ 0/ 0/ 0/ 0/ 0/ 0/ 0/ 0/ 0/ 0/ 0/ 0/ 0/ 0/ 0/ 0/ 0/ 0/ 0/ 0/ 0/ 0/ 0/ 0/ 0/ 0/ 0/ 0/ `e g% .# u'.y< 8) +~ 8] a$ }6 G} $n #w Ww Q= Aw G- G- G- r2 v'.]& )& M% t% 4% c% F$ _$ _$ _$ _$ _$ _$ _$ _$ _$ _$ _$ P# /# 5@ *@ n+ N+ =+ K  c. c. B  Z. x  S] |{ 4] )) 4^ 5^ 5^ *'.TT TT TT TT TT TT TT TT TT TT TT TT TT TT TT TT TT TT w'.TT TT TT TT TT TT TT TT TT TT TT TT TT TT TT TT TT TT TT TT TT TT TT TT TT TT  S x'.TT TT TT TT TT TT TT TT ",
"}'.}'.}'.}'.}'.}'.}'.}'.}'.}'.}'.A% d'..v Xd }I }I }I }I }I }I }I }I }I }I }I }I *# y'.2$ 2$ 2$ 2$ 2$ 2$ 2$ 2$ 2$ 2$ 2$ 2$ c^ X# X# z'.}'.}'.}'.}'.}'.A'.B'.f' $< _| s] t] )) 4] u] +~ v  x  y  A  D  c. h+ =+ M+ N+ ^# =@ 5@ /# /# P# _$ _$ _$ _$ _$ _$ _$ W$ &% }% o% 4, O% 2& |w J- v- G- G- +v >x :* v& et Nw Dp Sf ~9 U} U1 a! L! r! r( t{ jz 0/ 0/ 0/ 0/ 0/ 0/ 0/ 0/ 0/ 0/ 0/ 0/ 0/ 0/ 0/ 0/ 0/ 0/ 0/ 0/ 0/ 0/ 0/ 0/ 0/ 0/ 0/ 0/ 0/ 0/ 0/ 0/ 0/ 0/ 0/ 0/ 0/ 0/ 0/ 0/ 0/ 0/ 0/ ,[ ,[ a[ ei 4@ y| y| y| y| y| c. ($ R' m` 3..k^ 0/ 0/ 0/ 0/ 0/ 0/ 0/ 0/ 0/ 0/ 0/ 0/ 0/ 0/ 0/ 0/ 0/ 0/ 0/ 0/ 0/ 0/ 0/ 0/ 0/ 0/ 0/ 0/ 0/ 0/ 0/ 0/ 0/ 0/ 0/ 0/ 0/ 0/ 0/ 0/ 0/ 0/ 0/ 0/ 0/ 0/ 0/ 0/ 0/ 0/ 0/ 0/ 0/ 0/ 0/ 0/ 0/ 0/ 0/ 0/ 0/ 0/ 0/ 0/ 0/ 0/ 0/ 0/ 0/ 0/ 0/ 0/ 0/ 0/ 0/ 0/ 0/ 0/ 0/ 0/ 0/ 0/ 0/ 0/ 0/ 0/ 0/ 0/ 0/ 0/ 0/ 0/ 0/ 0/ 0/ 0/ 0/ 0/ 0/ 0/ 0/ 0/ 0/ 0/ 0/ 0/ 0/ 0/ 0/ 0/ 0/ 0/ 0/ 0/ 0/ 0/ 0/ 0/ 0/ 0/ 0/ 0/ 0/ 0/ 0/ 0/ 0/ 0/ 0/ 0/ 0/ 0/ 0/ 0/ 0/ 0/ 0/ 0/ 0/ 0/ 0/ 0/ 0/ 0/ 0/ 0/ 0/ 0/ 0/ 0/ 0/ 0/ 0/ 0/ 0/ 0/ 0/ 0/ C: /( J8 +^ M^ Q{ Q{ M_ t{ H3 c. y| y| y| ,5 ;[ O .U< `e ,[ 0/ 0/ 0/ 0/ 0/ 0/ 0/ 0/ 0/ 0/ 0/ 0/ 0/ 0/ 0/ 0/ 0/ 0/ 0/ 0/ 0/ 0/ 0/ 0/ 0/ 0/ 0/ 0/ 0/ 0/ 0/ 0/ 0/ 0/ 0/ 0/ 0/ 0/ 0/ 0/ 0/ 0/ 0/ 0/ 0/ 0/ 0/ `e SO w..x( y< 8) +~ 8] ~% P{ G} $n L6 zw P= Aw G- G- G- r2 u> }& d- 4& q% 4% c% F$ _$ _$ _$ _$ _$ _$ _$ _$ _$ _$ _$ P# /# 5@ *@ n+ N+ =+ K  c. c. B  Z. x  S] |{ 4] )) 4^ 5^ _| *'.TT TT TT TT TT TT TT TT TT TT TT TT TT TT TT TT TT TT TT TT TT TT TT TT TT TT TT TT TT TT TT TT TT TT TT TT TT TT TT TT TT TT TT TT TT TT TT TT TT TT TT TT TT TT TT ",
"}'.}'.}'.}'.}'.}'.}'.A% d'.5s v' }I }I }I }I }I }I }I }I 8z C'.C'.C'.C'.C'.C'.$! D'.D'.E'.2$ 2$ 2$ 2$ 2$ 2$ 2$ 2$ 2$ 2$ F'.X# X# X# X# G'.}'.}'.}'.}'.G< G< G< G< H'.5^ t] )) 4] u] +~ v  x  y  A  D  c. h+ =+ M+ N+ ^# =@ 5@ /# /# P# _$ _$ _$ _$ _$ _$ _$ W$ &% }% .& G% N% 7' |w J- v- G- G- +v @w jN t& ,& 27 Dp wc H/ 97 >5 a! L! r! t( zz e% /( 0/ 0/ 0/ 0/ 0/ 0/ 0/ 0/ 0/ 0/ 0/ 0/ 0/ 0/ 0/ 0/ 0/ 0/ 0/ 0/ 0/ 0/ 0/ 0/ 0/ 0/ 0/ 0/ 0/ 0/ 0/ 0/ 0/ 0/ 0/ 0/ 0/ 0/ 0/ 0/ 0/ 0/ ,[ ,[ a[ ei 4@ y| y| y| y| y| q~  { R' m` C: k^ 0/ 0/ 0/ 0/ 0/ 0/ 0/ 0/ 0/ 0/ 0/ 0/ 0/ 0/ 0/ 0/ 0/ 0/ 0/ 0/ 0/ 0/ 0/ 0/ 0/ 0/ 0/ 0/ 0/ 0/ 0/ 0/ 0/ 0/ 0/ 0/ 0/ 0/ 0/ 0/ 0/ 0/ 0/ 0/ 0/ 0/ 0/ 0/ 0/ 0/ 0/ 0/ 0/ 0/ 0/ 0/ 0/ 0/ 0/ 0/ 0/ 0/ 0/ 0/ 0/ 0/ 0/ 0/ 0/ 0/ 0/ 0/ 0/ 0/ 0/ 0/ 0/ 0/ 0/ 0/ 0/ 0/ 0/ 0/ 0/ 0/ 0/ 0/ 0/ 0/ 0/ 0/ 0/ 0/ 0/ 0/ 0/ 0/ 0/ 0/ 0/ 0/ 0/ 0/ 0/ 0/ 0/ 0/ 0/ 0/ 0/ 0/ 0/ 0/ 0/ 0/ 0/ 0/ 0/ 0/ 0/ 0/ 0/ 0/ 0/ 0/ 0/ 0/ 0/ 0/ 0/ 0/ 0/ 0/ 0/ 0/ 0/ 0/ 0/ 0/ 0/ 0/ 0/ 0/ 0/ 0/ 0/ 0/ 0/ 0/ 0/ 0/ 0/ 0/ 0/ 0/ 0/ C: 0/ jz w..Y] Q{ Q{ Q{ M_ t{ H3 c. y| y| y| ,5 ;[ O .U< `e ,[ 0/ 0/ 0/ 0/ 0/ 0/ 0/ 0/ 0/ 0/ 0/ 0/ 0/ 0/ 0/ 0/ 0/ 0/ 0/ 0/ 0/ 0/ 0/ 0/ 0/ 0/ 0/ 0/ 0/ 0/ 0/ 0/ 0/ 0/ 0/ 0/ 0/ 0/ 0/ 0/ 0/ 0/ 0/ 0/ 0/ 0/ 0/ 0/ [q Ze e} y< 8) +~ e+ ~% k{ G} 8m -w 7w P= Aw G- G- G- !- u> !& ,& 4& q% 4% c% F$ _$ _$ _$ _$ _$ _$ _$ _$ _$ _$ _$ P# /# 5@ *@ n+ N+ =+ K  c. c. B  Z. x  S] |{ 4] )) 4^ 5^ I'.*'.TT TT TT TT TT TT TT TT TT TT TT TT TT TT TT TT TT TT TT TT TT TT TT TT TT TT TT TT TT TT TT TT TT TT TT TT TT TT TT TT TT TT TT TT TT TT TT TT TT TT TT TT TT TT TT ",
"}'.2'.c'.J'.As q/ Xd }I }I }I }I }I }I }I }I }I }I }I }I K'.L'.L'.L'.L'.L'.L'.L'.L'.L'.L'.L'.K'.M'.N'.O'.P'.T! Q'.C_ K) X# X# X# X# X# g'.}'.}'.}'.}'.G< G< G< G< R'.5^ t] )) 4] u] +~ v  x  y  A  D  c. h+ =+ M+ N+ ^# =@ 5@ /# /# P# _$ _$ _$ _$ _$ _$ _$ W$ &% }% .& G% N% 7' |w J- v- u- G- +v @w jN t& ls #w 1p j3 H/ f} %} a! L! r! t( D< |2 i'.0/ 0/ 0/ 0/ 0/ 0/ 0/ 0/ 0/ 0/ 0/ 0/ 0/ 0/ 0/ 0/ 0/ 0/ 0/ 0/ 0/ 0/ 0/ 0/ 0/ 0/ 0/ 0/ 0/ 0/ 0/ 0/ 0/ 0/ 0/ 0/ 0/ 0/ 0/ 0/ 0/ 0/ ,[ ,[ a[ ei 4@ y| y| y| y| y| c.  { %% /( C: 0/ 0/ 0/ 0/ 0/ 0/ 0/ 0/ 0/ 0/ 0/ 0/ 0/ 0/ 0/ 0/ 0/ 0/ 0/ 0/ 0/ 0/ 0/ 0/ 0/ 0/ 0/ 0/ 0/ 0/ 0/ 0/ 0/ 0/ 0/ 0/ 0/ 0/ 0/ 0/ 0/ 0/ 0/ 0/ 0/ 0/ 0/ 0/ 0/ 0/ 0/ 0/ 0/ 0/ 0/ 0/ 0/ 0/ 0/ 0/ 0/ 0/ 0/ 0/ 0/ 0/ 0/ 0/ 0/ 0/ 0/ 0/ 0/ 0/ 0/ 0/ 0/ 0/ 0/ 0/ 0/ 0/ 0/ 0/ 0/ 0/ 0/ 0/ 0/ 0/ 0/ 0/ 0/ 0/ 0/ 0/ 0/ 0/ 0/ 0/ 0/ 0/ 0/ 0/ 0/ 0/ 0/ 0/ 0/ 0/ 0/ 0/ 0/ 0/ 0/ 0/ 0/ 0/ 0/ 0/ 0/ 0/ 0/ 0/ 0/ 0/ 0/ 0/ 0/ 0/ 0/ 0/ 0/ 0/ 0/ 0/ 0/ 0/ 0/ 0/ 0/ 0/ 0/ 0/ 0/ 0/ 0/ 0/ 0/ 0/ 0/ 0/ 0/ 0/ 0/ 0/ 0/ 0/ C: w[ d% .^ Q{ Q{ Q{ Q{ M_ t{ H3 c. y| y| y| ,5 ;[ O .U< `e ,[ 0/ 0/ 0/ 0/ 0/ 0/ 0/ 0/ 0/ 0/ 0/ 0/ 0/ 0/ 0/ 0/ 0/ 0/ 0/ 0/ 0/ 0/ 0/ 0/ 0/ 0/ 0/ 0/ 0/ 0/ 0/ 0/ 0/ 0/ 0/ 0/ 0/ 0/ 0/ 0/ 0/ 0/ 0/ 0/ 0/ 0/ 0/ 0/ ha ^z e} y< 8) -0 Y. L2 k{ G} 8m -w ;w P= Ou G- G- G- !- u> |& ,& 4& q% g% c% F$ _$ _$ _$ _$ _$ _$ _$ _$ _$ _$ _$ P# /# 5@ *@ n+ N+ =+ K  c. c. B  Z. x  S] |{ 4] )) 4^ 5^ w) *'.TT TT TT TT TT TT TT TT TT TT TT TT TT TT TT TT TT TT TT TT TT TT TT TT TT TT TT TT TT TT TT TT TT TT TT TT TT TT TT TT TT TT TT TT TT TT TT TT TT TT TT TT TT TT TT ",
"}I }I }I }I }I }I }I }I }I }I }I }I }I }I }I }I }I }I }I S'.C'.C'.S'./' T'.T'.T'.T'.T'.T'.T'.T'.21 21 21 21 21 +' X# X# X# X# X# X# X# U'.}'.}'.}'.}'.zp G< G< H< R'.5^ t] )) 4] u] +~ v  x  y  A  D  c. h+ =+ M+ N+ ^# =@ 5@ /# /# P# _$ _$ _$ _$ _$ _$ _$ W$ &% }% .& G% N% 7' |w J- v- G- G- +v @w 6* s& Os #w 1p j3 H/ f} %} -0 L! r! t( MS X, Nn 0/ 0/ 0/ 0/ 0/ 0/ 0/ 0/ 0/ 0/ 0/ 0/ 0/ 0/ 0/ 0/ 0/ 0/ 0/ 0/ 0/ 0/ 0/ 0/ 0/ 0/ 0/ 0/ 0/ 0/ 0/ 0/ 0/ 0/ 0/ 0/ 0/ 0/ 0/ 0/ 0/ 0/ ,[ ,[ a[ ei 4@ y| y| y| y| y| c. [# %% /( C: 0/ 0/ 0/ 0/ 0/ 0/ 0/ 0/ 0/ 0/ 0/ 0/ 0/ 0/ 0/ 0/ 0/ 0/ 0/ 0/ 0/ 0/ 0/ 0/ 0/ 0/ 0/ 0/ 0/ 0/ 0/ 0/ 0/ 0/ 0/ 0/ 0/ 0/ 0/ 0/ 0/ 0/ 0/ 0/ 0/ 0/ 0/ 0/ 0/ 0/ 0/ 0/ 0/ 0/ 0/ 0/ 0/ 0/ 0/ 0/ 0/ 0/ 0/ 0/ 0/ 0/ 0/ 0/ 0/ 0/ 0/ 0/ 0/ 0/ 0/ 0/ 0/ 0/ 0/ 0/ 0/ 0/ 0/ 0/ 0/ 0/ 0/ 0/ 0/ 0/ 0/ 0/ 0/ 0/ 0/ 0/ 0/ 0/ 0/ 0/ 0/ 0/ 0/ 0/ 0/ 0/ 0/ 0/ 0/ 0/ 0/ 0/ 0/ 0/ 0/ 0/ 0/ 0/ 0/ 0/ 0/ 0/ 0/ 0/ 0/ 0/ 0/ 0/ 0/ 0/ 0/ 0/ 0/ 0/ 0/ 0/ 0/ 0/ 0/ 0/ 0/ 0/ 0/ 0/ 0/ 0/ 0/ 0/ 0/ 0/ 0/ 0/ 0/ 0/ 0/ 0/ 0/ 0/ C: 0/ g% 4Q X^ Q{ Q{ Q{ M_ t{ H3 c. y| y| y| ,5 ;[ O .U< `e ,[ 0/ 0/ 0/ 0/ 0/ 0/ 0/ 0/ 0/ 0/ 0/ 0/ 0/ 0/ 0/ 0/ 0/ 0/ 0/ 0/ 0/ 0/ 0/ 0/ 0/ 0/ 0/ 0/ 0/ 0/ 0/ 0/ 0/ 0/ 0/ 0/ 0/ 0/ 0/ 0/ 0/ 0/ 0/ 0/ 0/ 0/ 0/ 0/ (4 <,.MS y< 8) u] Y. 2) k{ V< 8m ev ;w 6- Ou u- G- G- !- u> ;' ,& L% q% g% c% F$ _$ _$ _$ _$ _$ _$ _$ _$ _$ _$ _$ P# /# 5@ *@ n+ N+ =+ K  c. c. B  Z. x  S] |{ 4] )) 4^ 5^ V'.i< d@  S TT TT TT TT TT TT TT TT TT TT TT TT TT TT TT TT TT TT TT TT TT TT TT TT TT WS @..@..@..@..@..@..@..@..8( TT TT TT TT TT TT TT TT TT TT TT TT TT TT TT W'.]o (+ ",
"}I }I }I }I }I }I }I }I }I }I }I }I }I }I }I }I }I }I }I }I Ry X'.T'.T'.T'.T'.T'.T'.T'.T'.T'.ur 21 21 21 21 21 b^ X# X# X# X# X# X# X# Y'.}'.}'.}'.}'.I*.$< H< -S Z'.`'.t] )) 4] u] +~ v  x  y  A  D  c. h+ =+ M+ N+ ^# =@ 5@ /# /# P# _$ _$ _$ _$ _$ _$ _$ W$ %% }% m% G% N% O% K> J- v- u- G- ^k LU 6Y r& Os #w 1p j3 H/ f} %} +~ L! r! t( MS  e Nn 0/ 0/ 0/ 0/ 0/ 0/ 0/ 0/ 0/ 0/ 0/ 0/ 0/ 0/ 0/ 0/ 0/ 0/ 0/ 0/ 0/ 0/ 0/ 0/ 0/ 0/ 0/ 0/ 0/ 0/ 0/ 0/ 0/ 0/ 0/ 0/ 0/ 0/ 0/ 0/ 0/ 0/ ,[ ,[ a[ ei 4@ y| y| y| y| y| h+ V@ &% /( C: 0/ 0/ 0/ 0/ 0/ 0/ 0/ 0/ 0/ 0/ 0/ 0/ 0/ 0/ 0/ 0/ 0/ 0/ 0/ 0/ 0/ 0/ 0/ 0/ 0/ 0/ 0/ 0/ 0/ 0/ 0/ 0/ 0/ 0/ 0/ 0/ 0/ 0/ 0/ 0/ 0/ 0/ 0/ 0/ 0/ 0/ 0/ 0/ 0/ 0/ 0/ 0/ 0/ 0/ 0/ 0/ 0/ 0/ 0/ 0/ 0/ 0/ 0/ 0/ 0/ 0/ 0/ 0/ 0/ 0/ 0/ 0/ 0/ 0/ 0/ 0/ 0/ 0/ 0/ 0/ 0/ 0/ 0/ 0/ 0/ 0/ 0/ 0/ 0/ 0/ 0/ 0/ 0/ 0/ 0/ 0/ 0/ 0/ 0/ 0/ 0/ 0/ 0/ 0/ 0/ 0/ 0/ 0/ 0/ 0/ 0/ 0/ 0/ 0/ 0/ 0/ 0/ 0/ 0/ 0/ 0/ 0/ 0/ 0/ 0/ 0/ 0/ 0/ 0/ 0/ 0/ 0/ 0/ 0/ 0/ 0/ 0/ 0/ 0/ 0/ 0/ 0/ 0/ 0/ 0/ 0/ 0/ 0/ 0/ 0/ 0/ 0/ 0/ 0/ 0/ 0/ 0/ 0/ 0/ C: m` W' !x Q{ Q{ Q{ M_ t{ H3 c. y| y| y| ,5 ;[ O .U< `e ,[ 0/ 0/ 0/ 0/ 0/ 0/ 0/ 0/ 0/ 0/ 0/ 0/ 0/ 0/ 0/ 0/ 0/ 0/ 0/ 0/ 0/ 0/ 0/ 0/ 0/ 0/ 0/ 0/ 0/ 0/ 0/ 0/ 0/ 0/ 0/ 0/ 0/ 0/ 0/ 0/ 0/ 0/ 0/ 0/ 0/ 0/ 0/ 0/ (4 i&.MS y< 8) u] X. 2) k{ _1 Fk ev [v 6- Ou G- G- G- !- )= )& e* L% p% |% &% 3, _$ _$ _$ _$ _$ _$ _$ _$ _$ _$ _$ P# /# 5@ *@ n+ N+ =+ K  c. c. B  Z. x  S] |{ 4] )) 4^ 5^  )..).B^ B^ B^ Z7 67 #n I%.W'.x'.TT TT TT TT TT TT TT TT TT TT TT TT TT TT }b :g r5 L< Bt Bt Bt Bt Bt Bt Bt Bt Bt D@.+).+).+).+).=_ TT TT TT TT TT TT TT TT 2+.(+ u+ u+ u+ ",
"}I }I }I }I }I }I }I }I }I }I }I }I }I }I }I }I }I }I Ry X'.T'.T'.T'.T'.T'.T'.T'.T'.T'.T'.T'.<z 21 21 21 21 21 b^ X# X# X# X# X# X# X# X# }'.}'.}'.}'.}'.I*.$< G< @).I'.{) )) 4] u] +~ v  x  y  A  D  c. h+ =+ M+ N+ ^# =@ 5@ /# /# P# _$ _$ _$ _$ _$ _$ _$ W$ %% }% l% F% M% N% P4 J- v- u- G- ^k ^3 /* p& 5q -w 8m j3 H/  & /| -0 L! r! t( MS S' Nn 0/ 0/ 0/ 0/ 0/ 0/ 0/ 0/ 0/ 0/ 0/ 0/ 0/ 0/ 0/ 0/ 0/ 0/ 0/ 0/ 0/ 0/ 0/ 0/ 0/ 0/ 0/ 0/ 0/ 0/ 0/ 0/ 0/ 0/ 0/ 0/ 0/ 0/ 0/ 0/ 0/ 0/ ,[ ,[ a[ ei 4@ y| y| y| y| y| h+ V@ (% /( C: 0/ 0/ 0/ 0/ 0/ 0/ 0/ 0/ 0/ 0/ 0/ 0/ 0/ 0/ 0/ 0/ 0/ 0/ 0/ 0/ 0/ 0/ 0/ 0/ 0/ 0/ 0/ 0/ 0/ 0/ 0/ 0/ 0/ 0/ 0/ 0/ 0/ 0/ 0/ 0/ 0/ 0/ 0/ 0/ 0/ 0/ 0/ 0/ 0/ 0/ 0/ 0/ 0/ 0/ 0/ 0/ 0/ 0/ 0/ 0/ 0/ 0/ 0/ 0/ 0/ 0/ 0/ 0/ 0/ 0/ 0/ 0/ 0/ 0/ 0/ 0/ 0/ 0/ 0/ 0/ 0/ 0/ 0/ 0/ 0/ 0/ 0/ 0/ 0/ 0/ 0/ 0/ 0/ 0/ 0/ 0/ 0/ 0/ 0/ 0/ 0/ 0/ 0/ 0/ 0/ 0/ 0/ 0/ 0/ 0/ 0/ 0/ 0/ 0/ 0/ 0/ 0/ 0/ 0/ 0/ 0/ 0/ 0/ 0/ 0/ 0/ 0/ 0/ 0/ 0/ 0/ 0/ 0/ 0/ 0/ 0/ 0/ 0/ 0/ 0/ 0/ 0/ 0/ 0/ 0/ 0/ 0/ 0/ 0/ 0/ 0/ 0/ 0/ 0/ 0/ 0/ 0/ 0/ 0/ C: 0/ [q %..Y] Q{ Q{ M_ t{ H3 c. y| y| y| ,5 ;[ O .U< `e ,[ 0/ 0/ 0/ 0/ 0/ 0/ 0/ 0/ 0/ 0/ 0/ 0/ 0/ 0/ 0/ 0/ 0/ 0/ 0/ 0/ 0/ 0/ 0/ 0/ 0/ 0/ 0/ 0/ 0/ 0/ 0/ 0/ 0/ 0/ 0/ 0/ 0/ 0/ 0/ 0/ 0/ 0/ 0/ 0/ 0/ 0/ 0/ 0/ /( J8 MS y< 8) -0 X. 2) k{ X< Fk :4 [v 6- Ou u- u- G- Y9 ,= '& M, 5& o% }% &% D$ _$ _$ _$ _$ _$ _$ _$ _$ _$ _$ _$ P# /# 5@ *@ n+ N+ =+ K  c. c. B  Z. x  S] |{ 4] )) 4^ 5^ #).$).$4 B^ B^ B^ B^ B^ B^ B^ B^ K< $4 6@.6@.6_ f&.f&.f&.J` ^$.^$.S..wn -d %).#H &).&).&).&).&).&).&).&).&).&).&).&).&).&).&).&).&).to TT TT TT TT TT 2+.=p u+ u+ u+ u+ u+ ",
"}I }I }I }I }I }I }I }I }I }I }I }I }I }I }I }I +z X'.T'.T'.T'.T'.T'.T'.T'.T'.T'.T'.T'.T'.ur 21 21 21 21 21 21 +' X# X# X# X# X# X# X# X# G'.}'.}'.}'.}'.}'.}'.w&.@).*).=).)) 4] u] +~ v  x  y  A  D  c. h+ =+ M+ N+ ^# =@ 5@ /# /# P# _$ _$ _$ _$ _$ _$ _$ W$ %% }% l% u% M% Q% K> J- v- u- u- +v ^3 /* p& 5q @v 8m K6 17 ~% /| +~ L! r! t( L| W' m` 0/ 0/ 0/ 0/ 0/ 0/ 0/ 0/ 0/ 0/ 0/ 0/ 0/ 0/ 0/ 0/ 0/ 0/ 0/ 0/ 0/ 0/ 0/ 0/ 0/ 0/ 0/ 0/ 0/ 0/ 0/ 0/ 0/ 0/ 0/ 0/ 0/ 0/ 0/ 0/ 0/ 0/ ,[ ,[ a[ ei 4@ y| y| y| y| y| h+ =$ =| `e C: 0/ 0/ 0/ 0/ 0/ 0/ 0/ 0/ 0/ 0/ 0/ 0/ 0/ 0/ 0/ 0/ 0/ 0/ 0/ 0/ 0/ 0/ 0/ 0/ 0/ 0/ 0/ 0/ 0/ 0/ 0/ 0/ 0/ 0/ 0/ 0/ 0/ 0/ 0/ 0/ 0/ 0/ 0/ 0/ 0/ 0/ 0/ 0/ 0/ 0/ 0/ 0/ 0/ 0/ 0/ 0/ 0/ 0/ 0/ 0/ 0/ 0/ 0/ 0/ 0/ 0/ 0/ 0/ 0/ 0/ 0/ 0/ 0/ 0/ 0/ 0/ 0/ 0/ 0/ 0/ 0/ 0/ 0/ 0/ 0/ 0/ 0/ 0/ 0/ 0/ 0/ 0/ 0/ 0/ 0/ 0/ 0/ 0/ 0/ 0/ 0/ 0/ 0/ 0/ 0/ 0/ 0/ 0/ 0/ 0/ 0/ 0/ 0/ 0/ 0/ 0/ 0/ 0/ 0/ 0/ 0/ 0/ 0/ 0/ 0/ 0/ 0/ 0/ 0/ 0/ 0/ 0/ 0/ 0/ 0/ 0/ 0/ 0/ 0/ 0/ 0/ 0/ 0/ 0/ 0/ 0/ 0/ 0/ 0/ 0/ 0/ 0/ 0/ 0/ 0/ 0/ 0/ 0/ 0/ 0/ C: m` t6 __ Q{ Q{ M_ t{ H3 c. y| y| y| ,5 ;[ O .U< `e ,[ 0/ 0/ 0/ 0/ 0/ 0/ 0/ 0/ 0/ 0/ 0/ 0/ 0/ 0/ 0/ 0/ 0/ 0/ 0/ 0/ 0/ 0/ 0/ 0/ 0/ 0/ 0/ 0/ 0/ 0/ 0/ 0/ 0/ 0/ 0/ 0/ 0/ 0/ 0/ 0/ 0/ 0/ 0/ 0/ 0/ 0/ 0/ 0/ /( J8 MS y< 8) -0 Y. H3 k{ X< Fk uu mO 6- Ou u- u- G- Y9 ,= '& M, 5& o% }% &% C$ _$ _$ _$ _$ _$ _$ _$ _$ _$ _$ _$ P# /# 5@ *@ n+ N+ =+ K  c. c. B  Z. x  S] |{ 4] )) 4^ 5^ -).;).=W <, P: B^ B^ B^ j# l| [9 [9 [9 [9 [9 [9 [9 [9 [9 [9 [9 [9 [9 [9 cs %).>).&).&).&).&).&).&).&).&).&).&).&).&).&).&).&).&).&).i..i= &. b@ b@ &. Ds u+ u+ u+ u+ u+ u+ ",
"}I }I }I }I }I }I }I }I }I }I }I }I }I }I }I /' T'.T'.T'.T'.T'.T'.T'.T'.T'.T'.T'.T'.T'.T'.,y 21 21 21 21 21 21 +' X# X# X# X# X# X# X# X# v_ }'.}'.}'.}'.}'.}'.}'.,).V'.=).)) 4] u] +~ v  x  y  A  D  c. h+ =+ M+ N+ ^# =@ 5@ /# /# P# _$ _$ _$ _$ _$ _$ _$ V$ %% e% l% u% L% L% ', J- v- u- u- ^k V> ]* O& 5q @v 8m K6 3^ a$ M6 +~ L! r! t( zz e% /( 0/ 0/ 0/ 0/ 0/ 0/ 0/ 0/ 0/ 0/ 0/ 0/ 0/ 0/ 0/ 0/ 0/ 0/ 0/ 0/ 0/ 0/ 0/ 0/ 0/ 0/ 0/ 0/ 0/ 0/ 0/ 0/ 0/ 0/ 0/ 0/ 0/ 0/ 0/ 0/ 0/ 0/ ,[ ,[ a[ ei 4@ y| y| y| y| y| h+ =$ A3 0/ C: 0/ 0/ 0/ 0/ 0/ 0/ 0/ 0/ 0/ 0/ 0/ 0/ 0/ 0/ 0/ 0/ 0/ 0/ 0/ 0/ 0/ 0/ 0/ 0/ 0/ 0/ 0/ 0/ 0/ 0/ 0/ 0/ 0/ 0/ 0/ 0/ 0/ 0/ 0/ 0/ 0/ 0/ 0/ 0/ 0/ 0/ 0/ 0/ 0/ 0/ 0/ 0/ 0/ 0/ 0/ 0/ 0/ 0/ 0/ 0/ 0/ 0/ 0/ 0/ 0/ 0/ 0/ 0/ 0/ 0/ 0/ 0/ 0/ 0/ 0/ 0/ 0/ 0/ 0/ 0/ 0/ 0/ 0/ 0/ 0/ 0/ 0/ 0/ 0/ 0/ 0/ 0/ 0/ 0/ 0/ 0/ 0/ 0/ 0/ 0/ 0/ 0/ 0/ 0/ 0/ 0/ 0/ 0/ 0/ 0/ 0/ 0/ 0/ 0/ 0/ 0/ 0/ 0/ 0/ 0/ 0/ 0/ 0/ 0/ 0/ 0/ 0/ 0/ 0/ 0/ 0/ 0/ 0/ 0/ 0/ 0/ 0/ 0/ 0/ 0/ 0/ 0/ 0/ 0/ 0/ 0/ 0/ 0/ 0/ 0/ 0/ 0/ 0/ 0/ 0/ 0/ 0/ 0/ 0/ 0/ C: /( 6; !x Q{ Q{ M_ t{ H3 c. y| y| y| ,5 ;[ O .U< `e ,[ 0/ 0/ 0/ 0/ 0/ 0/ 0/ 0/ 0/ 0/ 0/ 0/ 0/ 0/ 0/ 0/ 0/ 0/ 0/ 0/ 0/ 0/ 0/ 0/ 0/ 0/ 0/ 0/ 0/ 0/ 0/ 0/ 0/ 0/ 0/ 0/ 0/ 0/ 0/ 0/ 0/ 0/ 0/ 0/ 0/ 0/ 0/ 0/ /( J8 MS y< 8) +~ Y. I4 l{ X< Fk uu $v O= Ou u- G- G- Y9 ,= ,& =& J% o% }% &% C$ _$ _$ _$ _$ _$ _$ _$ _$ _$ _$ _$ P# /# 5@ *@ n+ N+ =+ K  c. c. B  Z. x  S] |{ 4] )) 4^ 5^ -).').=W =W [9 $W a^ [9 [9 [9 [9 [9 [9 [9 [9 [9 [9 [9 [9 [9 [9 [9 [9 [9 ]! %).)).&).&).&).&).&).&).&).&).&).&).&).&).&).&).&).&).&).=+.!).!).&. b@ b@ b@ &. Ds u+ u+ u+ u+ ",
"}I }I }I }I }I }I +z }I }I }I }I }I }I Ry T'.T'.T'.T'.T'.T'.T'.T'.T'.T'.T'.T'.T'.T'.T'.<z 21 21 21 21 21 21 21 +' X# X# X# X# X# X# X# X# k'.}'.}'.}'.}'.}'.}'.}'.,).~).{).)) 4] u] +~ v  x  y  A  D  c. h+ =+ M+ N+ ^# =@ 5@ /# /# P# _$ _$ _$ _$ _$ _$ _$ E$ $% <% l% u% L% L% ', J- v- u- G- ^k V> ]* o& Ho uu Fk G} 3^ a$ 8] +~ L! r! t( r{ SO `e 0/ 0/ 0/ 0/ 0/ 0/ 0/ 0/ 0/ 0/ 0/ 0/ 0/ 0/ 0/ 0/ 0/ 0/ 0/ 0/ 0/ 0/ 0/ 0/ 0/ 0/ 0/ 0/ 0/ 0/ 0/ 0/ 0/ 0/ 0/ 0/ 0/ 0/ 0/ 0/ 0/ 0/ ,[ ,[ a[ ei 4@ y| y| y| y| y| h+ Y@ @m 0/ C: 0/ 0/ 0/ 0/ 0/ 0/ 0/ 0/ 0/ 0/ 0/ 0/ 0/ 0/ 0/ 0/ 0/ 0/ 0/ 0/ 0/ 0/ 0/ 0/ 0/ 0/ 0/ 0/ 0/ 0/ 0/ 0/ 0/ 0/ 0/ 0/ 0/ 0/ 0/ 0/ 0/ 0/ 0/ 0/ 0/ 0/ 0/ 0/ 0/ 0/ 0/ 0/ 0/ 0/ 0/ 0/ 0/ 0/ 0/ 0/ 0/ 0/ 0/ 0/ 0/ 0/ 0/ 0/ 0/ 0/ 0/ 0/ 0/ 0/ 0/ 0/ 0/ 0/ 0/ 0/ 0/ 0/ 0/ 0/ 0/ 0/ 0/ 0/ 0/ 0/ 0/ 0/ 0/ 0/ 0/ 0/ 0/ 0/ 0/ 0/ 0/ 0/ 0/ 0/ 0/ 0/ 0/ 0/ 0/ 0/ 0/ 0/ 0/ 0/ 0/ 0/ 0/ 0/ 0/ 0/ 0/ 0/ 0/ 0/ 0/ 0/ 0/ 0/ 0/ 0/ 0/ 0/ 0/ 0/ 0/ 0/ 0/ 0/ 0/ 0/ 0/ 0/ 0/ 0/ 0/ 0/ 0/ 0/ 0/ 0/ 0/ 0/ 0/ 0/ 0/ 0/ 0/ 0/ 0/ 0/ C: /( <% !x Q{ Q{ M_ t{ H3 c. y| y| y| ,5 ;[ O .U< `e ,[ 0/ 0/ 0/ 0/ 0/ 0/ 0/ 0/ 0/ 0/ 0/ 0/ 0/ 0/ 0/ 0/ 0/ 0/ 0/ 0/ 0/ 0/ 0/ 0/ 0/ 0/ 0/ 0/ 0/ 0/ 0/ 0/ 0/ 0/ 0/ 0/ 0/ 0/ 0/ 0/ 0/ 0/ 0/ 0/ 0/ 0/ 0/ 0/ /( E% D< y< 8) +~ W. }2 &5 X< (k oC bu O= V0 u- u- G- Y9 >= ;& *& i& o% }% &% C$ _$ _$ _$ _$ _$ _$ _$ _$ _$ _$ _$ P# /# 5@ *@ n+ N+ =+ K  c. c. B  Z. x  S] |{ 4] )) 4^ 5^ -).').=W ]).^).%).%).%).]! [9 [9 [9 [9 [9 [9 [9 [9 [9 [9 [9 [9 [9 bY 75 %).%).&).&).&).&).&).-+.-+.-+.-+.-+.-+.-+.9i &).&).&).&).&).We !).!).b@ b@ b@ b@ b@ b@ &. u+ u+ u+ ",
"}I }I }I }I }I T'.T'.w~ }I }I }I }I /' T'.T'.T'.T'.T'.T'.T'.T'.T'.T'.T'.T'.T'.T'.T'.Ls 21 21 21 21 21 21 21 21 +' X# X# X# X# X# X# X# X# m'.}'.}'.}'.}'.}'.}'.}'.,).,)./).t] 4] u] +~ v  x  y  A  D  c. h+ =+ M+ N+ ^# =@ 5@ /# /# P# _$ _$ _$ _$ _$ _$ _$ D$ ]% <% k% u% L% L% K> J- v- u- G- ^k qS {* m& Ho uu Fk V< 3^ a$ 8] +~ L! r! r( z] &e 0/ 0/ 0/ 0/ 0/ 0/ 0/ 0/ 0/ 0/ 0/ 0/ 0/ 0/ 0/ 0/ 0/ 0/ 0/ 0/ 0/ 0/ 0/ 0/ 0/ 0/ 0/ 0/ 0/ 0/ 0/ 0/ 0/ 0/ 0/ 0/ 0/ 0/ 0/ 0/ 0/ 0/ 0/ ,[ ,[ a[ ei 4@ y| y| y| y| y| h+ y# +e ] .C: 0/ 0/ 0/ 0/ 0/ 0/ 0/ 0/ 0/ 0/ 0/ 0/ 0/ 0/ 0/ 0/ 0/ 0/ 0/ 0/ 0/ 0/ 0/ 0/ 0/ 0/ 0/ 0/ 0/ 0/ 0/ 0/ 0/ 0/ 0/ 0/ 0/ 0/ 0/ 0/ 0/ 0/ 0/ 0/ 0/ 0/ 0/ 0/ 0/ 0/ 0/ 0/ 0/ 0/ 0/ 0/ 0/ 0/ 0/ 0/ 0/ 0/ 0/ 0/ 0/ 0/ 0/ 0/ 0/ 0/ 0/ 0/ 0/ 0/ 0/ 0/ 0/ 0/ 0/ 0/ 0/ 0/ 0/ 0/ 0/ 0/ 0/ 0/ 0/ 0/ 0/ 0/ 0/ 0/ 0/ 0/ 0/ 0/ 0/ 0/ 0/ 0/ 0/ 0/ 0/ 0/ 0/ 0/ 0/ 0/ 0/ 0/ 0/ 0/ 0/ 0/ 0/ 0/ 0/ 0/ 0/ 0/ 0/ 0/ 0/ 0/ 0/ 0/ 0/ 0/ 0/ 0/ 0/ 0/ 0/ 0/ 0/ 0/ 0/ 0/ 0/ 0/ 0/ 0/ 0/ 0/ 0/ 0/ 0/ 0/ 0/ 0/ 0/ 0/ 0/ 0/ 0/ 0/ 0/ 0/ C: 0/ e% .^ Q{ Q{ M_ t{ H3 c. y| y| y| ,5 ;[ O .U< `e ,[ 0/ 0/ 0/ 0/ 0/ 0/ 0/ 0/ 0/ 0/ 0/ 0/ 0/ 0/ 0/ 0/ 0/ 0/ 0/ 0/ 0/ 0/ 0/ 0/ 0/ 0/ 0/ 0/ 0/ 0/ 0/ 0/ 0/ 0/ 0/ 0/ 0/ 0/ 0/ 0/ 0/ 0/ 0/ 0/ 0/ 0/ 0/ 0/ `e }% [6 y< 8) +~ W. 5) &5 X< 1{ M2 xx O= V0 u- u- u- Y9 >= 'y f* H% m% }% &% C$ _$ _$ _$ _$ _$ _$ _$ _$ _$ _$ _$ P# /# 5@ *@ n+ N+ =+ K  c. c. B  Z. x  S] |{ 4] )) 4^ 5^ ()._).=W :).]).<).[).%).%).}).|).[9 [9 [9 [9 [9 [9 [9 o/ |).1).%).%).%).%).%).5+.2).`9 !).!).!).!).!).!).!).!).!).!).!).!).!).!).!).!).b#.i= b@ b@ b@ b@ b@ b@ b@ &. u+ u+ ",
"}I }I }I }I X'.T'.T'.T'.X'.+z +z X'.T'.T'.T'.T'.T'.T'.T'.T'.T'.T'.T'.T'.T'.T'.T'.k: 21 21 21 21 21 21 21 21 21 +' X# X# X# X# X# X# X# X# 3).}'.4).5).}'.}'.}'.}'.,).~).#).{) 4] u] +~ v  x  y  A  D  c. h+ =+ M+ N+ ^# =@ 5@ /# /# P# _$ _$ _$ _$ _$ _$ _$ D$ ]% <% j% u% j& J% b5 J- v- u- u- ^k qS {* m& Ho [3 Fk V< 3^ a$ e+ +~ L! r! r( H/ ^^ 0/ 0/ 0/ 0/ 0/ 0/ 0/ 0/ 0/ 0/ 0/ 0/ 0/ 0/ 0/ 0/ 0/ 0/ 0/ 0/ 0/ 0/ 0/ 0/ 0/ 0/ 0/ 0/ 0/ 0/ 0/ 0/ 0/ 0/ 0/ 0/ 0/ 0/ 0/ 0/ 0/ 0/ 0/ ,[ ,[ a[ ei 4@ y| y| y| y| y| h+ y# !j ] .C: 0/ 0/ 0/ 0/ 0/ 0/ 0/ 0/ 0/ 0/ 0/ 0/ 0/ 0/ 0/ 0/ 0/ 0/ 0/ 0/ 0/ 0/ 0/ 0/ 0/ 0/ 0/ 0/ 0/ 0/ 0/ 0/ 0/ 0/ 0/ 0/ 0/ 0/ 0/ 0/ 0/ 0/ 0/ 0/ 0/ 0/ 0/ 0/ 0/ 0/ 0/ 0/ 0/ 0/ 0/ 0/ 0/ 0/ 0/ 0/ 0/ 0/ 0/ 0/ 0/ 0/ 0/ 0/ 0/ 0/ 0/ 0/ 0/ 0/ 0/ 0/ 0/ 0/ 0/ 0/ 0/ 0/ 0/ 0/ 0/ 0/ 0/ 0/ 0/ 0/ 0/ 0/ 0/ 0/ 0/ 0/ 0/ 0/ 0/ 0/ 0/ 0/ 0/ 0/ 0/ 0/ 0/ 0/ 0/ 0/ 0/ 0/ 0/ 0/ 0/ 0/ 0/ 0/ 0/ 0/ 0/ 0/ 0/ 0/ 0/ 0/ 0/ 0/ 0/ 0/ 0/ 0/ 0/ 0/ 0/ 0/ 0/ 0/ 0/ 0/ 0/ 0/ 0/ 0/ 0/ 0/ 0/ 0/ 0/ 0/ 0/ 0/ 0/ 0/ 0/ 0/ 0/ 0/ 0/ 0/ C: 0/ |% fx Q{ Q{ M_ t{ H3 c. y| y| y| ,5 ;[ O .U< `e ,[ 0/ 0/ 0/ 0/ 0/ 0/ 0/ 0/ 0/ 0/ 0/ 0/ 0/ 0/ 0/ 0/ 0/ 0/ 0/ 0/ 0/ 0/ 0/ 0/ 0/ 0/ 0/ 0/ 0/ 0/ 0/ 0/ 0/ 0/ 0/ 0/ 0/ 0/ 0/ 0/ 0/ 0/ 0/ 0/ 0/ 0/ 0/ 0/ `e b8 6).y< 8) +~ W. 5) &5 39 au Yt !u O= V0 u- u- u- Y9 >= *& 2& H% m% [% %% l2 _$ _$ _$ _$ _$ _$ _$ _$ _$ _$ _$ P# /# 5@ *@ n+ N+ =+ K  c. c. B  Z. x  S] |{ 4] )) 4^ 5^ #).7).=W Yd ]).]).8).9).%).%).%).%).O5 bY [9 [9 [9 ]! %).%).%).%).%).%).%).1).!).!).!).!).!).!).!).!).!).!).!).!).!).!).!).!).!).!).b#.&. b@ b@ b@ b@ b@ b@ b@ b@ b@ Z& u+ ",
"}I }I ]' T'.T'.T'.T'.T'.T'.T'.T'.T'.T'.T'.T'.T'.T'.T'.T'.T'.T'.T'.T'.T'.T'.T'.T'.21 21 21 21 21 21 21 21 21 21 {' X# X# X# X# X# X# X# X# E_ }'.}'.0).a).b).b).b).@).~).c).=).4] u] +~ v  x  y  A  D  c. h+ =+ M+ N+ ^# =@ 5@ /# /# P# _$ _$ _$ _$ _$ _$ _$ C$ ]% <% j% u% j& J% J> J- v- u- u- ^k ]3 P, _& 7' M2 (k V< 3^ 2) Y. +~ L! r! 7~ w( ^^ 0/ 0/ 0/ 0/ 0/ 0/ 0/ 0/ 0/ 0/ 0/ 0/ 0/ 0/ 0/ 0/ 0/ 0/ 0/ 0/ 0/ 0/ 0/ 0/ 0/ 0/ 0/ 0/ 0/ 0/ 0/ 0/ 0/ 0/ 0/ 0/ 0/ 0/ 0/ 0/ 0/ 0/ 0/ ,[ ,[ a[ ei 4@ y| y| y| y| y| h+ y# Gk ] .k^ 0/ 0/ 0/ 0/ 0/ 0/ 0/ 0/ 0/ 0/ 0/ 0/ 0/ 0/ 0/ 0/ 0/ 0/ 0/ 0/ 0/ 0/ 0/ 0/ 0/ 0/ 0/ 0/ 0/ 0/ 0/ 0/ 0/ 0/ 0/ 0/ 0/ 0/ 0/ 0/ 0/ 0/ 0/ 0/ 0/ 0/ 0/ 0/ 0/ 0/ 0/ 0/ 0/ 0/ 0/ 0/ 0/ 0/ 0/ 0/ 0/ 0/ 0/ 0/ 0/ 0/ 0/ 0/ 0/ 0/ 0/ 0/ 0/ 0/ 0/ 0/ 0/ 0/ 0/ 0/ 0/ 0/ 0/ 0/ 0/ 0/ 0/ 0/ 0/ 0/ 0/ 0/ 0/ 0/ 0/ 0/ 0/ 0/ 0/ 0/ 0/ 0/ 0/ 0/ 0/ 0/ 0/ 0/ 0/ 0/ 0/ 0/ 0/ 0/ 0/ 0/ 0/ 0/ 0/ 0/ 0/ 0/ 0/ 0/ 0/ 0/ 0/ 0/ 0/ 0/ 0/ 0/ 0/ 0/ 0/ 0/ 0/ 0/ 0/ 0/ 0/ 0/ 0/ 0/ 0/ 0/ 0/ 0/ 0/ 0/ 0/ 0/ 0/ 0/ 0/ 0/ 0/ 0/ 0/ 0/ C: k^ B, %..X^ Q{ X^ t{ H3 c. y| y| y| ,5 ;[ O .U< `e ,[ 0/ 0/ 0/ 0/ 0/ 0/ 0/ 0/ 0/ 0/ 0/ 0/ 0/ 0/ 0/ 0/ 0/ 0/ 0/ 0/ 0/ 0/ 0/ 0/ 0/ 0/ 0/ 0/ 0/ 0/ 0/ 0/ 0/ 0/ 0/ 0/ 0/ 0/ 0/ 0/ 0/ 0/ 0/ 0/ 0/ 0/ 0/ 0/ 0/ g% q{ s  8) +~ x! |) &5 $^ ^h Et Zt N= V0 u- u- G- Y9 {= f* f* #& l% e% $% l2 _$ _$ _$ _$ _$ _$ _$ _$ _$ _$ _$ P# /# 5@ *@ n+ N+ =+ K  c. c. B  Z. x  S] |{ 4] )) 4^ 5^ #).7).=W 1s d).]).]).]).e).%).%).%).%).%).%).f).}).%).%).%).g).h).i).j).k).l| b@ &. i= ;$.7t b#.!).!).!).!).!).!).!).!).!).!).!).L#.&. b@ b@ b@ b@ b@ b@ b@ b@ b@ b@ {+ u+ ",
"T'.T'.T'.T'.T'.T'.T'.9H >q Ls J} ,y ,y 21 21 21 21 ,y J} Ls 9H T'.T'.T'.T'.T'.<z 21 21 21 21 21 21 21 21 21 21 a1 X# X# X# X# X# X# X# X# E_ }'.}'.l).G'.x*.==.==.m).~).n).o).3] u] +~ v  x  y  A  D  c. h+ =+ M+ N+ ^# =@ 5@ /# /# P# _$ _$ _$ _$ _$ _$ _$ C$ ]% <% j% s% J% J% Xt k; v- u- u- ^k ]3 z* Q& #m M2 (k _1 }6 2) Y. +~ L! r! 7~ K' %| 0/ 0/ 0/ 0/ 0/ 0/ 0/ 0/ 0/ 0/ 0/ 0/ 0/ 0/ 0/ 0/ 0/ 0/ 0/ 0/ 0/ 0/ 0/ 0/ 0/ 0/ 0/ 0/ 0/ 0/ 0/ 0/ 0/ 0/ 0/ 0/ 0/ 0/ 0/ 0/ 0/ 0/ 0/ ,[ ,[ a[ ei 4@ y| y| y| y| B  c. x# ,/ p).0/ 0/ 0/ 0/ 0/ 0/ 0/ 0/ 0/ 0/ 0/ 0/ 0/ 0/ 0/ 0/ 0/ 0/ 0/ 0/ 0/ 0/ 0/ 0/ 0/ 0/ 0/ 0/ 0/ 0/ 0/ 0/ 0/ 0/ 0/ 0/ 0/ 0/ 0/ 0/ 0/ 0/ 0/ 0/ 0/ 0/ 0/ 0/ 0/ 0/ 0/ 0/ 0/ 0/ 0/ 0/ 0/ 0/ 0/ 0/ 0/ 0/ 0/ 0/ 0/ 0/ 0/ 0/ 0/ 0/ 0/ 0/ 0/ 0/ 0/ 0/ 0/ 0/ 0/ 0/ 0/ 0/ 0/ 0/ 0/ 0/ 0/ 0/ 0/ 0/ 0/ 0/ 0/ 0/ 0/ 0/ 0/ 0/ 0/ 0/ 0/ 0/ 0/ 0/ 0/ 0/ 0/ 0/ 0/ 0/ 0/ 0/ 0/ 0/ 0/ 0/ 0/ 0/ 0/ 0/ 0/ 0/ 0/ 0/ 0/ 0/ 0/ 0/ 0/ 0/ 0/ 0/ 0/ 0/ 0/ 0/ 0/ 0/ 0/ 0/ 0/ 0/ 0/ 0/ 0/ 0/ 0/ 0/ 0/ 0/ 0/ 0/ 0/ 0/ 0/ 0/ 0/ 0/ 0/ 0/ 0/ 0/ C: /( 6; !x W( X^ t{ H3 c. y| y| y| ,5 ;[ O .U< `e ,[ 0/ 0/ 0/ 0/ 0/ 0/ 0/ 0/ 0/ 0/ 0/ 0/ 0/ 0/ 0/ 0/ 0/ 0/ 0/ 0/ 0/ 0/ 0/ 0/ 0/ 0/ 0/ 0/ 0/ 0/ 0/ 0/ 0/ 0/ 0/ 0/ 0/ 0/ 0/ 0/ 0/ 0/ 0/ 0/ 0/ 0/ 0/ 0/ 0/ [q }6 W< 8) +~ x! %} &5 $^ Ze $z et N= V0 u- u- G- Y9 q).&& && H% l% e% $% p' _$ _$ _$ _$ _$ _$ _$ _$ _$ _$ _$ P# /# 5@ *@ n+ N+ =+ K  c. c. B  Z. x  S] |{ 4] )) 4^ 5^ #).r).i= i= XW s).]).]).h).%).%).%).%).%).%).%).%).%).t).u).]).]).s).s. b@ b@ b@ b@ b@ b@ b@ b@ b@ i= Z& L#.!).!).!).!).!).!).7t b@ b@ b@ b@ b@ b@ b@ b@ b@ b@ b@ b@ u+ u+ ",
"T'.9H k: Ls ,y 21 21 21 21 21 21 21 21 21 21 21 21 21 21 21 21 21 q/ 9H T'.T'.21 21 21 21 21 21 21 21 21 21 21 a1 X# X# X# X# X# X# X# X# E_ }'.}'.v).G'.7*.==.==.m).~).w).x) ^) u] +~ v  x  y  A  D  c. h+ =+ M+ N+ ^# =@ 5@ /# /# P# _$ _$ _$ _$ _$ _$ _$ C$ ]% <% j% s% J% I% Xt k; v- u- u- ^k T> ~* Dt #m M2 ci _1 }6 2) e+ +~ L! r! 7~ 8; %| 0/ 0/ 0/ 0/ 0/ 0/ 0/ 0/ 0/ 0/ 0/ 0/ 0/ 0/ 0/ 0/ 0/ 0/ 0/ 0/ 0/ 0/ 0/ 0/ 0/ 0/ 0/ 0/ 0/ 0/ 0/ 0/ 0/ 0/ 0/ 0/ 0/ 0/ 0/ 0/ 0/ 0/ 0/ ,[ ,[ a[ ei 4@ y| y| y| y| B  q~ %$ .< ,[ 0/ 0/ 0/ 0/ 0/ 0/ 0/ 0/ 0/ 0/ 0/ 0/ 0/ 0/ 0/ 0/ 0/ 0/ 0/ 0/ 0/ 0/ 0/ 0/ 0/ 0/ 0/ 0/ 0/ 0/ 0/ 0/ 0/ 0/ 0/ 0/ 0/ 0/ 0/ 0/ 0/ 0/ 0/ 0/ 0/ 0/ 0/ 0/ 0/ 0/ 0/ 0/ 0/ 0/ 0/ 0/ 0/ 0/ 0/ 0/ 0/ 0/ 0/ 0/ 0/ 0/ 0/ 0/ 0/ 0/ 0/ 0/ 0/ 0/ 0/ 0/ 0/ 0/ 0/ 0/ 0/ 0/ 0/ 0/ 0/ 0/ 0/ 0/ 0/ 0/ 0/ 0/ 0/ 0/ 0/ 0/ 0/ 0/ 0/ 0/ 0/ 0/ 0/ 0/ 0/ 0/ 0/ 0/ 0/ 0/ 0/ 0/ 0/ 0/ 0/ 0/ 0/ 0/ 0/ 0/ 0/ 0/ 0/ 0/ 0/ 0/ 0/ 0/ 0/ 0/ 0/ 0/ 0/ 0/ 0/ 0/ 0/ 0/ 0/ 0/ 0/ 0/ 0/ 0/ 0/ 0/ 0/ 0/ 0/ 0/ 0/ 0/ 0/ 0/ 0/ 0/ 0/ 0/ 0/ 0/ 0/ 0/ C: k^ Q` +^ Q{ X^ t{ H3 c. y| y| y| ,5 ;[ O .U< `e ,[ 0/ 0/ 0/ 0/ 0/ 0/ 0/ 0/ 0/ 0/ 0/ 0/ 0/ 0/ 0/ 0/ 0/ 0/ 0/ 0/ 0/ 0/ 0/ 0/ 0/ 0/ 0/ 0/ 0/ 0/ 0/ 0/ 0/ 0/ 0/ 0/ 0/ 0/ 0/ 0/ 0/ 0/ 0/ 0/ 0/ 0/ 0/ 0/ 0/ }n 3^ W< 8) +~ x! /| &5 $^ Ze $s et N= V0 u- u- G- Y9 q> && && H% l% <% ]% 7; _$ _$ _$ _$ _$ _$ _$ _$ _$ _$ _$ P# /# 5@ *@ n+ N+ =+ K  c. c. B  Z. x  S] |{ 4] )) 4^ 5^ #).$).b@ X1 _/ Ds ]).]).Ut %).%).%).%).%).%).%).x).y).]).]).z).s. b@ b@ b@ b@ b@ b@ b@ *. 3# 3# E@ b@ b@ b@ b@ i= ;$.%t b#.;$.b@ b@ b@ b@ b@ b@ b@ b@ b@ b@ b@ b@ Ds u+ u+ ",
"21 21 21 21 21 21 21 21 21 21 21 21 21 21 21 21 21 21 21 21 21 21 21 21 ur ur 21 21 21 21 21 21 21 21 21 21 21 =5 X# X# X# X# X# X# X# X# E_ }'.}'.}'.U5 G'.A).==.m).~).w).B).C).u] +~ v  x  y  A  D  c. h+ =+ M+ N+ ^# =@ 5@ /# /# P# _$ _$ _$ _$ _$ _$ _$ B$ ]% <% i% t% J% H% J> k; v- u- u- ^k T> 8= :& <j Yt 1{ X< }6 2) Y. +~ L! r! 7~ 8; ^^ 0/ 0/ 0/ 0/ 0/ 0/ 0/ 0/ 0/ 0/ 0/ 0/ 0/ 0/ 0/ 0/ 0/ 0/ 0/ 0/ 0/ 0/ 0/ 0/ 0/ 0/ 0/ 0/ 0/ 0/ 0/ 0/ 0/ 0/ 0/ 0/ 0/ 0/ 0/ 0/ 0/ 0/ 0/ ,[ ,[ a[ ei 4@ y| y| y| y| B  q~ ,>.j^ ,[ 0/ 0/ 0/ 0/ 0/ 0/ 0/ 0/ 0/ 0/ 0/ 0/ 0/ 0/ 0/ 0/ 0/ 0/ 0/ 0/ 0/ 0/ 0/ 0/ 0/ 0/ 0/ 0/ 0/ 0/ 0/ 0/ 0/ 0/ 0/ 0/ 0/ 0/ 0/ 0/ 0/ 0/ 0/ 0/ 0/ 0/ 0/ 0/ 0/ 0/ 0/ 0/ 0/ 0/ 0/ 0/ 0/ 0/ 0/ 0/ 0/ 0/ 0/ 0/ 0/ 0/ 0/ 0/ 0/ 0/ 0/ 0/ 0/ 0/ 0/ 0/ 0/ 0/ 0/ 0/ 0/ 0/ 0/ 0/ 0/ 0/ 0/ 0/ 0/ 0/ 0/ 0/ 0/ 0/ 0/ 0/ 0/ 0/ 0/ 0/ 0/ 0/ 0/ 0/ 0/ 0/ 0/ 0/ 0/ 0/ 0/ 0/ 0/ 0/ 0/ 0/ 0/ 0/ 0/ 0/ 0/ 0/ 0/ 0/ 0/ 0/ 0/ 0/ 0/ 0/ 0/ 0/ 0/ 0/ 0/ 0/ 0/ 0/ 0/ 0/ 0/ 0/ 0/ 0/ 0/ 0/ 0/ 0/ 0/ 0/ 0/ 0/ 0/ 0/ 0/ 0/ 0/ 0/ 0/ 0/ 0/ 0/ C: C: .e LR X^ X^ t{ H3 c. y| y| y| ,5 ;[ O .U< `e ,[ 0/ 0/ 0/ 0/ 0/ 0/ 0/ 0/ 0/ 0/ 0/ 0/ 0/ 0/ 0/ 0/ 0/ 0/ 0/ 0/ 0/ 0/ 0/ 0/ 0/ 0/ 0/ 0/ 0/ 0/ 0/ 0/ 0/ 0/ 0/ 0/ 0/ 0/ 0/ 0/ 0/ 0/ 0/ 0/ 0/ 0/ 0/ 0/ 0/ Nn 9m W< 8) +~ +~ /| U} $^ !t $s ,& N= V0 u- u- G- Y9 p> && 7' H% k% <% ]% 7; _$ _$ _$ _$ _$ _$ _$ _$ _$ _$ _$ P# /# 5@ *@ n+ N+ =+ K  c. c. B  Z. x  S] |{ 4] )) 4^ 5^ #).rc _/ _/ _/ _/ y+ ]).u).%).%).%).%).%).[).D).]).]). 8 iW b@ b@ b@ b@ b@ b@ b@ b@ X1 _/ _/ _/ _/ _/ E@ b@ b@ b@ b@ b@ b@ b@ b@ b@ b@ b@ b@ b@ b@ b@ b@ b@ b@ i= u+ u+ u+ ",
"21 21 21 21 21 21 21 21 21 21 21 21 21 21 21 21 21 21 21 21 21 21 21 21 <z ur <z J} 21 21 21 21 21 21 21 21 21 <z X# X# X# X# X# X# X# X# m'.}'.}'.}'.7# G'.E).F).m).~).w). ).1] u] +~ v  x  y  A  D  c. h+ =+ M+ N+ ^# =@ 5@ /# /# P# _$ _$ _$ _$ _$ _$ _$ A$ ]% _% h% t% I% H% J> k; v- u- u- ^k &2 !* :& <j 2c 1{ F: }6 2) Y. +~ L! r! 8)  % ^^ 0/ 0/ 0/ 0/ 0/ 0/ 0/ 0/ 0/ 0/ 0/ 0/ 0/ 0/ 0/ 0/ 0/ 0/ 0/ 0/ 0/ 0/ 0/ 0/ 0/ 0/ 0/ 0/ 0/ 0/ 0/ 0/ 0/ 0/ 0/ 0/ 0/ 0/ 0/ 0/ 0/ 0/ 0/ ,[ ,[ a[ ei 4@ y| y| y| y| B  q~ 7; %T ,[ 0/ 0/ 0/ 0/ 0/ 0/ 0/ 0/ 0/ 0/ 0/ 0/ 0/ 0/ 0/ 0/ 0/ 0/ 0/ 0/ 0/ 0/ 0/ 0/ 0/ 0/ 0/ 0/ 0/ 0/ 0/ 0/ 0/ 0/ 0/ 0/ 0/ 0/ 0/ 0/ 0/ 0/ 0/ 0/ 0/ 0/ 0/ 0/ 0/ 0/ 0/ 0/ 0/ 0/ 0/ 0/ 0/ 0/ 0/ 0/ 0/ 0/ 0/ 0/ 0/ 0/ 0/ 0/ 0/ 0/ 0/ 0/ 0/ 0/ 0/ 0/ 0/ 0/ 0/ 0/ 0/ 0/ 0/ 0/ 0/ 0/ 0/ 0/ 0/ 0/ 0/ 0/ 0/ 0/ 0/ 0/ 0/ 0/ 0/ 0/ 0/ 0/ 0/ 0/ 0/ 0/ 0/ 0/ 0/ 0/ 0/ 0/ 0/ 0/ 0/ 0/ 0/ 0/ 0/ 0/ 0/ 0/ 0/ 0/ 0/ 0/ 0/ 0/ 0/ 0/ 0/ 0/ 0/ 0/ 0/ 0/ 0/ 0/ 0/ 0/ 0/ 0/ 0/ 0/ 0/ 0/ 0/ 0/ 0/ 0/ 0/ 0/ 0/ 0/ 0/ 0/ 0/ 0/ 0/ 0/ 0/ 0/ 0/ +j B, %..B< X^ t{ H3 c. y| y| y| ,5 ;[ O .U< `e ,[ 0/ 0/ 0/ 0/ 0/ 0/ 0/ 0/ 0/ 0/ 0/ 0/ 0/ 0/ 0/ 0/ 0/ 0/ 0/ 0/ 0/ 0/ 0/ 0/ 0/ 0/ 0/ 0/ 0/ 0/ 0/ 0/ 0/ 0/ 0/ 0/ 0/ 0/ 0/ 0/ 0/ 0/ 0/ 0/ 0/ 0/ 0/ 0/ 0/ m` J' W< 8) +~ +~ M6 U} $^ X, xr ls N= V0 u- u- G- ;c p> 7' 7' G% k% <% @% A$ _$ _$ _$ _$ _$ _$ _$ _$ _$ _$ _$ P# /# 5@ *@ n+ N+ =+ K  c. c. B  Z. x  S] |{ 4] )) 4^ 5^ #).rc _/ _/ _/ _/ _/ 5B ]).x).%).%).x).D).8).]).j).iW b@ b@ b@ b@ b@ b@ b@ b@ b@ X1 _/ _/ _/ _/ _/ _/ _/ _/ *. b@ b@ b@ b@ b@ b@ b@ b@ b@ b@ b@ b@ b@ b@ b@ b@ u+ u+ u+ u+ ",
"21 21 21 21 21 21 21 21 21 21 21 21 21 21 21 21 21 21 21 21 21 21 21 21 21 U{ T'.T'.J} 21 21 21 21 21 21 21 21 <z X# X# X# X# X# X# X# X# m'.}'.}'.}'.5'.G'.G'.G).m).~).w).w).H).a! +~ v  x  y  A  D  c. h+ =+ M+ N+ ^# =@ 5@ /# /# P# _$ _$ _$ _$ _$ _$ _$ _$ ]% _% 4% t% #& @& z9 k; v- u- u- ^k &2 u, l& <j 2c 1{ F: P{ I4 W. +~ L! r! 8)  % ^^ 0/ 0/ 0/ 0/ 0/ 0/ 0/ 0/ 0/ 0/ 0/ 0/ 0/ 0/ 0/ 0/ 0/ 0/ 0/ 0/ 0/ 0/ 0/ 0/ 0/ 0/ 0/ 0/ 0/ 0/ 0/ 0/ 0/ 0/ 0/ 0/ 0/ 0/ 0/ 0/ 0/ 0/ 0/ ,[ ,[ a[ ei 4@ y| y| y| y| B  q~ 7; %T ,[ 0/ 0/ 0/ 0/ 0/ 0/ 0/ 0/ 0/ 0/ 0/ 0/ 0/ 0/ 0/ 0/ 0/ 0/ 0/ 0/ 0/ 0/ 0/ 0/ 0/ 0/ 0/ 0/ 0/ 0/ 0/ 0/ 0/ 0/ 0/ 0/ 0/ 0/ 0/ 0/ 0/ 0/ 0/ 0/ 0/ 0/ 0/ 0/ 0/ 0/ 0/ 0/ 0/ 0/ 0/ 0/ 0/ 0/ 0/ 0/ 0/ 0/ 0/ 0/ 0/ 0/ 0/ 0/ 0/ 0/ 0/ 0/ 0/ 0/ 0/ 0/ 0/ 0/ 0/ 0/ 0/ 0/ 0/ 0/ 0/ 0/ 0/ 0/ 0/ 0/ 0/ 0/ 0/ 0/ 0/ 0/ 0/ 0/ 0/ 0/ 0/ 0/ 0/ 0/ 0/ 0/ 0/ 0/ 0/ 0/ 0/ 0/ 0/ 0/ 0/ 0/ 0/ 0/ 0/ 0/ 0/ 0/ 0/ 0/ 0/ 0/ 0/ 0/ 0/ 0/ 0/ 0/ 0/ 0/ 0/ 0/ 0/ 0/ 0/ 0/ 0/ 0/ 0/ 0/ 0/ 0/ 0/ 0/ 0/ 0/ 0/ 0/ 0/ 0/ 0/ 0/ 0/ 0/ 0/ 0/ 0/ 0/ 0/ +j i'.Fk !x X^ t{ Q4 c. y| y| y| ,5 ;[ O .U< `e ,[ 0/ 0/ 0/ 0/ 0/ 0/ 0/ 0/ 0/ 0/ 0/ 0/ 0/ 0/ 0/ 0/ 0/ 0/ 0/ 0/ 0/ 0/ 0/ 0/ 0/ 0/ 0/ 0/ 0/ 0/ 0/ 0/ 0/ 0/ 0/ 0/ 0/ 0/ 0/ 0/ 0/ 0/ 0/ 0/ 0/ 0/ 0/ 0/ 0/ /( J' W< 8) +~ +~ M6 &5 ~9 X, xr Os na V0 u- u- G- ;c (, 7' 7' G% j% <% @% A$ _$ _$ _$ _$ _$ _$ _$ _$ _$ _$ _$ P# /# 5@ *@ n+ N+ =+ K  c. c. B  Z. x  S] |{ 4] )) 4^ 5^ #).rc _/ _/ _/ _/ _/ _/ ^).]).]).]).]).]).]).I).b@ b@ b@ b@ b@ b@ b@ b@ b@ <1 _/ _/ _/ _/ _/ _/ _/ _/ _/ _/ _/ X1 *. b@ b@ b@ b@ b@ b@ b@ b@ b@ b@ b@ b@ b@ F# u+ u+ u+ u+ ",
"21 21 21 21 21 21 21 21 21 21 21 21 21 21 21 21 21 21 21 21 21 21 21 21 21 J} T'.T'.>q 21 21 21 21 21 21 -y J).<z X# X# X# X# X# X# X# X# k'.}'.}'.}'.}'.G'.G'.G).K).~).w).c).L).4] +~ v  x  y  A  D  c. h+ =+ M+ N+ ^# =@ 5@ /# /# P# _$ _$ _$ _$ _$ _$ _$ _$ ]% _% 4% p% H% G% z9 k; v- u- u- ^k S> aS ]& ui $s ^h 39 P{ I4 x! +~ L! r! 8)  % ^^ 0/ 0/ 0/ 0/ 0/ 0/ 0/ 0/ 0/ 0/ 0/ 0/ 0/ 0/ C: C;.D;.+j 0/ 0/ 0/ 0/ 0/ 0/ 0/ 0/ 0/ 0/ 0/ 0/ 0/ 0/ 0/ 0/ 0/ 0/ 0/ 0/ 0/ 0/ 0/ 0/ 0/ ,[ ,[ a[ ei 4@ y| y| y| y| B  q~ 7; %T ,[ 0/ 0/ 0/ 0/ 0/ 0/ 0/ 0/ 0/ 0/ 0/ 0/ 0/ 0/ 0/ 0/ 0/ 0/ 0/ 0/ 0/ 0/ 0/ 0/ 0/ 0/ 0/ 0/ 0/ 0/ 0/ 0/ 0/ 0/ 0/ 0/ 0/ 0/ 0/ 0/ 0/ 0/ 0/ 0/ 0/ 0/ 0/ 0/ 0/ 0/ 0/ 0/ 0/ 0/ 0/ 0/ 0/ 0/ 0/ 0/ 0/ 0/ 0/ 0/ 0/ 0/ 0/ 0/ 0/ 0/ 0/ 0/ 0/ 0/ 0/ 0/ 0/ 0/ 0/ 0/ 0/ 0/ 0/ 0/ 0/ 0/ 0/ 0/ 0/ 0/ 0/ 0/ 0/ 0/ 0/ 0/ 0/ 0/ 0/ 0/ 0/ 0/ 0/ 0/ 0/ 0/ 0/ 0/ 0/ 0/ 0/ 0/ 0/ 0/ 0/ 0/ 0/ 0/ 0/ 0/ 0/ 0/ 0/ 0/ 0/ 0/ 0/ 0/ 0/ 0/ 0/ 0/ 0/ 0/ 0/ 0/ 0/ 0/ 0/ 0/ 0/ 0/ 0/ 0/ 0/ 0/ 0/ 0/ 0/ 0/ 0/ 0/ 0/ 0/ 0/ 0/ 0/ 0/ 0/ 0/ 0/ 0/ 0/ 0/ `e f% +^ X^ t{ Q4 E  y| y| y| ,5 ;[ O .U< `e ,[ 0/ 0/ 0/ 0/ 0/ 0/ 0/ 0/ 0/ 0/ 0/ 0/ 0/ 0/ 0/ 0/ 0/ 0/ 0/ 0/ 0/ 0/ 0/ 0/ 0/ 0/ 0/ 0/ 0/ 0/ 0/ 0/ 0/ 0/ 0/ 0/ 0/ 0/ 0/ 0/ 0/ 0/ 0/ 0/ 0/ 0/ 0/ 0/ 0/ /( e- W< 8) +~ +~ M6 &5 ~9 Sf 8a Os na V0 u- u- G- ;c (, 7' 7' G% j% <% +% A$ _$ _$ _$ _$ _$ _$ _$ _$ _$ _$ _$ P# /# 5@ *@ n+ N+ =+ K  c. c. B  Z. x  S] |{ 4] )) 4^ 5^ #).rc _/ _/ _/ _/ _/ _/ X1 2$.]).]).]).]).M).b@ b@ b@ b@ b@ b@ b@ b@ *. X1 _/ _/ _/ _/ _/ _/ _/ _/ _/ _/ _/ _/ _/ _/ 3# b@ b@ b@ b@ b@ b@ b@ b@ b@ b@ b@ b@ u+ u+ u+ u+ u+ ",
"q. J} 21 21 21 21 21 21 21 21 21 21 21 21 21 21 21 21 21 21 21 21 21 21 21 21 <z T'.9H 21 21 21 21 .z J).J).J)./r X# X# X# X# X# X# X# X# v_ }'.}'.}'.}'.N).F3 G).w).~).w).c).O).3] +~ v  x  y  A  D  c. h+ =+ M+ N+ ^# =@ 5@ /# /# P# _$ _$ _$ _$ _$ _$ _$ _$ .% _% 4% p% H% G% J> k; v- u- u- ^k S> '* {& +i $s ^h 39 P{ I4 x! +~ L! r! 8)  % ^^ 0/ 0/ 0/ 0/ 0/ 0/ 0/ 0/ 0/ 0/ 0/ 0/ 0/ C: /( d% X, U, %| 0/ 0/ 0/ 0/ 0/ 0/ 0/ 0/ 0/ 0/ 0/ 0/ 0/ 0/ 0/ 0/ 0/ 0/ 0/ 0/ 0/ 0/ 0/ 0/ ,[ ,[ a[ ei 4@ y| y| y| y| B  q~ 7; %T ,[ 0/ 0/ 0/ 0/ 0/ 0/ 0/ 0/ 0/ 0/ 0/ 0/ 0/ 0/ 0/ 0/ 0/ 0/ 0/ 0/ 0/ 0/ 0/ 0/ 0/ 0/ 0/ 0/ 0/ 0/ 0/ 0/ 0/ 0/ 0/ 0/ 0/ 0/ 0/ 0/ 0/ 0/ 0/ 0/ 0/ 0/ 0/ 0/ 0/ 0/ 0/ 0/ 0/ 0/ 0/ 0/ 0/ 0/ 0/ 0/ 0/ 0/ 0/ 0/ 0/ 0/ 0/ 0/ 0/ 0/ 0/ 0/ 0/ 0/ 0/ 0/ 0/ 0/ 0/ 0/ 0/ 0/ 0/ 0/ 0/ 0/ 0/ 0/ 0/ 0/ 0/ 0/ 0/ 0/ 0/ 0/ 0/ 0/ 0/ 0/ 0/ 0/ 0/ 0/ 0/ 0/ 0/ 0/ 0/ 0/ 0/ 0/ 0/ 0/ 0/ 0/ 0/ 0/ 0/ 0/ 0/ 0/ 0/ 0/ 0/ 0/ 0/ 0/ 0/ 0/ 0/ 0/ 0/ 0/ 0/ 0/ 0/ 0/ 0/ 0/ 0/ 0/ 0/ 0/ 0/ 0/ 0/ 0/ 0/ 0/ 0/ 0/ 0/ 0/ 0/ 0/ 0/ 0/ 0/ 0/ 0/ 0/ 0/ C: C: SO /Y X^ t{ Q4 c. y| y| y| ,5 ;[ O .U< `e ,[ 0/ 0/ 0/ 0/ 0/ 0/ 0/ 0/ 0/ 0/ 0/ 0/ 0/ 0/ 0/ 0/ 0/ 0/ 0/ 0/ 0/ 0/ 0/ 0/ 0/ 0/ 0/ 0/ 0/ 0/ 0/ 0/ 0/ 0/ 0/ 0/ 0/ 0/ 0/ 0/ 0/ 0/ 0/ 0/ 0/ 0/ 0/ 0/ 0/ 0/ e- W< 8) +~ +~ 8] &5 ~9 G3 Hq }r na V0 u- u- u- ;c (, N% O% G% j% <%  % A$ _$ _$ _$ _$ _$ _$ _$ _$ _$ _$ _$ P# /# 5@ *@ n+ N+ =+ K  c. c. B  Z. x  S] |{ 4] )) 4^ 5^ #).rc _/ _/ _/ _/ _/ _/ _/ {+ P).]).]).:c b@ *. *. b@ b@ b@ b@ b@ *. _/ _/ _/ _/ _/ _/ _/ _/ _/ _/ _/ _/ _/ _/ _/ _/ _/ X1 b@ b@ b@ b@ b@ b@ b@ b@ b@ b@ F# u+ u+ u+ u+ u+ ",
"#/ #/ ~' 21 21 21 21 21 21 21 21 21 21 21 21 21 21 21 21 21 21 21 21 21 21 21 21 J} k: 21 21 21 -y J).J).J).J).Q).X# X# X# X# X# X# X# X# c'.}'.}'.}'.}'.N).R).G).w).~).w).c).S).^) +~ v  x  y  A  D  c. h+ =+ M+ N+ ^# =@ 5@ /# /# P# _$ _$ _$ _$ _$ _$ _$ %$ +% _% 4% p% H% g*  c k; v- u- u- ^k S> '* {& K% xr Ze 39 P{ I4 x! +~ L! r! 8)  % ^^ 0/ 0/ 0/ 0/ 0/ 0/ 0/ 0/ 0/ 0/ 0/ 0/ C: D;.bk G} X^ @^ :% %| 0/ 0/ 0/ 0/ 0/ 0/ 0/ 0/ 0/ 0/ 0/ 0/ 0/ 0/ 0/ 0/ 0/ 0/ 0/ 0/ 0/ 0/ 0/ ,[ ,[ a[ ei 4@ y| y| y| y| B  q~ 7; %T ,[ 0/ 0/ 0/ 0/ 0/ 0/ 0/ 0/ 0/ 0/ 0/ 0/ 0/ 0/ 0/ 0/ 0/ 0/ 0/ 0/ 0/ 0/ 0/ 0/ 0/ 0/ 0/ 0/ 0/ 0/ 0/ 0/ 0/ 0/ 0/ 0/ 0/ 0/ 0/ 0/ 0/ 0/ 0/ 0/ 0/ 0/ 0/ 0/ 0/ 0/ 0/ 0/ 0/ 0/ 0/ 0/ 0/ 0/ 0/ 0/ 0/ 0/ 0/ 0/ 0/ 0/ 0/ 0/ 0/ 0/ 0/ 0/ 0/ 0/ 0/ 0/ 0/ 0/ 0/ 0/ 0/ 0/ 0/ 0/ 0/ 0/ 0/ 0/ 0/ 0/ 0/ 0/ 0/ 0/ 0/ 0/ 0/ 0/ 0/ 0/ 0/ 0/ 0/ 0/ 0/ 0/ 0/ 0/ 0/ 0/ 0/ 0/ 0/ 0/ 0/ 0/ 0/ 0/ 0/ 0/ 0/ 0/ 0/ 0/ 0/ 0/ 0/ 0/ 0/ 0/ 0/ 0/ 0/ 0/ 0/ 0/ 0/ 0/ 0/ 0/ 0/ 0/ 0/ 0/ 0/ 0/ 0/ 0/ 0/ 0/ C: C: 0/ 0/ 0/ 0/ 0/ 0/ 0/ 0/ 0/ 0/ 0/ k^ C: [q w..B< t{ H3 c. y| y| y| ,5 ;[ O .x< 0/ ,[ 0/ 0/ 0/ 0/ 0/ 0/ 0/ 0/ 0/ 0/ 0/ 0/ 0/ 0/ 0/ 0/ 0/ 0/ 0/ 0/ 0/ 0/ 0/ 0/ 0/ 0/ 0/ 0/ 0/ 0/ 0/ 0/ 0/ 0/ 0/ 0/ 0/ 0/ 0/ 0/ 0/ 0/ 0/ 0/ 0/ 0/ 0/ 0/ 0/ 0/ V$ k3 8) +~ +~ 8] f} H/ G3 Hq +J N= V0 G- u- u- ;c T).M% U).G% j% d% *% A$ _$ _$ _$ _$ _$ _$ _$ _$ _$ _$ _$ P# /# 5@ *@ n+ N+ =+ K  c. c. B  Z. x  S] |{ 4] )) 4^ 5^ #).rc _/ _/ _/ _/ _/ _/ _/ _/ v#.]).P).3# _/ _/ _/ _/ X1 b@ b@ b@ _/ _/ _/ _/ _/ _/ _/ _/ _/ _/ _/ _/ _/ _/ _/ _/ _/ _/ _/ _/ b@ b@ b@ b@ b@ b@ b@ b@ &. u+ u+ u+ u+ u+ u+ ",
"#/ #/ #/ #/ J} 21 21 21 21 21 21 21 21 21 21 21 21 21 21 21 21 21 21 21 21 21 21 21 21 21 0( gy J).J).J).J).J).J).X# X# X# X# X# X# X# X# c'.}'.}'.}'.}'.!^ G).G).w).~).w).c).V).1] |{ x! x  y  A  D  c. h+ =+ M+ N+ ^# =@ 5@ /# /# P# _$ _$ _$ _$ _$ _$ _$ _$  % _% 4% p% H% T&  c k; v- u- u- ^k ;, v, ~& 0b Hq X, $^ k{ I4 x! +~ L! r! 8)  % ^^ 0/ 0/ 0/ 0/ 0/ 0/ 0/ 0/ 0/ 0/ 0/ 0/ C: %| T' H: Q{ Q{ fx [% /( 0/ 0/ 0/ 0/ 0/ 0/ 0/ 0/ 0/ 0/ 0/ 0/ 0/ 0/ 0/ 0/ 0/ 0/ 0/ 0/ 0/ 0/ ,[ ,[ a[ ei 4@ y| y| y| y| B  q~ 7; %T ,[ 0/ 0/ 0/ 0/ 0/ 0/ 0/ 0/ 0/ 0/ 0/ 0/ 0/ 0/ 0/ 0/ 0/ 0/ 0/ 0/ 0/ 0/ 0/ 0/ 0/ 0/ 0/ 0/ 0/ 0/ 0/ 0/ 0/ 0/ 0/ 0/ 0/ 0/ 0/ 0/ 0/ 0/ 0/ 0/ 0/ 0/ 0/ 0/ 0/ 0/ 0/ 0/ 0/ 0/ 0/ 0/ 0/ 0/ 0/ 0/ 0/ 0/ 0/ 0/ 0/ 0/ 0/ 0/ 0/ 0/ 0/ 0/ 0/ 0/ 0/ 0/ 0/ 0/ 0/ 0/ 0/ 0/ 0/ 0/ 0/ 0/ 0/ 0/ 0/ 0/ 0/ 0/ 0/ 0/ 0/ 0/ 0/ 0/ 0/ 0/ 0/ 0/ 0/ 0/ 0/ 0/ 0/ 0/ 0/ 0/ 0/ 0/ 0/ 0/ 0/ 0/ 0/ 0/ 0/ 0/ 0/ 0/ 0/ 0/ 0/ 0/ 0/ 0/ 0/ 0/ 0/ 0/ 0/ 0/ 0/ 0/ 0/ 0/ 0/ 0/ 0/ 0/ 0/ 0/ 0/ 0/ 0/ 0/ 0/ k^ }{ .@.>[ +j 0/ 0/ 0/ 0/ 0/ 0/ 0/ 0/ 0/ 0/ C: Nn Ze .^ t{ H3 c. y| y| y| ,5 aZ ]# `: G4 0/ 3..3..C: D;.C: k^ 0/ 0/ 0/ 0/ 0/ 0/ 0/ 0/ 0/ 0/ 0/ 0/ 0/ 0/ 0/ 0/ 0/ 0/ 0/ 0/ 0/ 0/ 0/ 0/ 0/ 0/ 0/ 0/ 0/ 0/ 0/ 0/ 0/ 0/ 0/ 0/ 0/ 0/ 0/ 0/ 0/ 0/ 0/ 0/ V$ I&.8) +~ +~ e+  & H/ j3 Hq 5q na V0 u- G- G- ;c (, L% M% u% 34 d% Z$ _$ _$ _$ _$ _$ _$ _$ _$ _$ _$ _$ _$ P# /# 5@ *@ n+ N+ =+ K  c. c. B  Z. x  S] |{ 4] )) 4^ 5^ #).rc _/ _/ _/ _/ _/ _/ _/ _/ _/ y+ v#._/ _/ _/ _/ _/ _/ 3# b@ 3# _/ _/ _/ _/ _/ _/ _/ _/ _/ _/ _/ _/ _/ _/ _/ _/ _/ _/ _/ _/ 3# b@ b@ b@ b@ b@ b@ b@ Z& u+ u+ u+ u+ u+ u+ ",
"#/ #/ #/ #/ #/ T# 21 21 21 21 21 21 21 21 21 21 21 21 21 21 21 21 21 21 21 21 21 21 21 /r J).J).J).J).J).J).J).J).%  X# X# X# X# X# X# X# c'.}'.}'.}'.}'.$: G).G).w).~).w).c).V).y) :{ x! x  y  A  D  c. h+ =+ M+ N+ ^# =@ 5@ /# /# P# _$ _$ _$ _$ _$ _$ _$ &$  % _% 4% p% H% u%  c k; v- G- G- ^k ;, ,* |& 0b Hq X, $^ k{ I4 x! +~ L! r! 8)  % ^^ 0/ 0/ 0/ 0/ 0/ 0/ 0/ 0/ 0/ 0/ 0/ 0/ k^ N .La X^ Q{ W( X^ S' [q 0/ 0/ 0/ 0/ 0/ 0/ 0/ 0/ 0/ 0/ 0/ 0/ 0/ 0/ 0/ 0/ 0/ 0/ 0/ 0/ 0/ 0/ ,[ ,[ a[ ei 4@ y| y| y| y| B  q~ 7; %T ,[ 0/ 0/ 0/ 0/ 0/ 0/ 0/ 0/ 0/ 0/ 0/ 0/ 0/ 0/ 0/ 0/ 0/ 0/ 0/ 0/ 0/ 0/ 0/ 0/ 0/ 0/ 0/ 0/ 0/ 0/ 0/ 0/ 0/ 0/ 0/ 0/ 0/ 0/ 0/ 0/ 0/ 0/ 0/ 0/ 0/ 0/ 0/ 0/ 0/ 0/ 0/ 0/ 0/ 0/ 0/ 0/ 0/ 0/ 0/ 0/ 0/ 0/ 0/ 0/ 0/ 0/ 0/ 0/ 0/ 0/ 0/ 0/ 0/ 0/ 0/ 0/ 0/ 0/ 0/ 0/ 0/ 0/ 0/ 0/ 0/ 0/ 0/ 0/ 0/ 0/ 0/ 0/ 0/ 0/ 0/ 0/ 0/ 0/ 0/ 0/ 0/ 0/ 0/ 0/ 0/ 0/ 0/ 0/ 0/ 0/ 0/ 0/ 0/ 0/ 0/ 0/ 0/ 0/ 0/ 0/ 0/ 0/ 0/ 0/ 0/ 0/ 0/ 0/ 0/ 0/ 0/ 0/ 0/ 0/ 0/ 0/ 0/ 0/ 0/ 0/ 0/ 0/ 0/ 0/ 0/ 0/ 0/ 0/ y/ G4 c%  e 46 .e w[ 0/ 0/ 0/ 0/ 0/ 0/ 0/ 0/ 0/ C: (4 Fk qR t{ H3 c. y| y| y| ,5 Nu *@ {% UQ b+.d% SO jz Q` |% %| 0/ C: 0/ 0/ 0/ 0/ 0/ 0/ 0/ 0/ 0/ 0/ 0/ 0/ 0/ 0/ 0/ 0/ 0/ 0/ 0/ 0/ 0/ 0/ 0/ 0/ 0/ 0/ 0/ 0/ 0/ 0/ 0/ 0/ 0/ 0/ 0/ 0/ 0/ 0/ 0/ 0/ 0/ 0/ {% I&.8) +~ +~ e+  & H/ j3 Dp 5q N= V0 u- G- G- ;c (, L% M% u% 34 d% Z$ _$ _$ _$ _$ _$ _$ _$ _$ _$ _$ _$ _$ P# /# 5@ *@ n+ N+ =+ K  c. c. B  Z. x  S] |{ 4] )) 4^ 5^ #).rc _/ _/ _/ _/ _/ _/ _/ _/ _/ _/ _/ _/ _/ _/ _/ _/ _/ _/ 3# _/ _/ _/ _/ _/ _/ _/ _/ _/ _/ _/ _/ _/ _/ _/ _/ _/ _/ _/ _/ _/ _/ *. b@ b@ b@ b@ &. Z& u+ u+ u+ u+ u+ u+ u+ ",
"#/ #/ #/ #/ #/ #/ J} 21 21 21 21 21 21 21 21 21 21 21 21 21 21 21 21 21 21 21 21 21 {@ J).J).J).J).J).J).J).J).J).r'.X# X# X# X# X# X# X# }'.}'.}'.}'.}'.G).G).G).n).~).w).c).V).W).2] x! x  y  A  D  c. h+ =+ M+ N+ ^# =@ 5@ /# /# P# _$ _$ _$ _$ _$ _$ _$ &$  % _% |% o% @& v% z9 k; v- u- G- ^k R> ,* |& I% Dp Sf w( k{ I4 +~ +~ L! r! 8)  % ^^ 0/ 0/ 0/ 0/ 0/ 0/ 0/ 0/ 0/ 0/ 0/ k^ y/ n .@^ Q{ Q{ Q{ Q{ fx [% `e C: 0/ 0/ 0/ 0/ 0/ 0/ 0/ 0/ 0/ 0/ 0/ 0/ 0/ 0/ 0/ 0/ 0/ 0/ 0/ 0/ ,[ ,[ a[ ei 4@ y| y| y| y| B  q~ 7; %T ,[ 0/ 0/ 0/ 0/ 0/ 0/ 0/ 0/ 0/ 0/ 0/ 0/ 0/ 0/ 0/ 0/ 0/ 0/ 0/ 0/ 0/ 0/ 0/ 0/ 0/ 0/ 0/ 0/ 0/ 0/ 0/ 0/ 0/ 0/ 0/ 0/ 0/ 0/ 0/ 0/ 0/ 0/ 0/ 0/ 0/ 0/ 0/ 0/ 0/ 0/ 0/ 0/ 0/ 0/ 0/ 0/ 0/ 0/ 0/ 0/ 0/ 0/ 0/ 0/ 0/ 0/ 0/ 0/ 0/ 0/ 0/ 0/ 0/ 0/ 0/ 0/ 0/ 0/ 0/ 0/ 0/ 0/ 0/ 0/ 0/ 0/ 0/ 0/ 0/ 0/ 0/ 0/ 0/ 0/ 0/ 0/ 0/ 0/ 0/ 0/ 0/ 0/ 0/ 0/ 0/ 0/ 0/ 0/ 0/ 0/ 0/ 0/ 0/ 0/ 0/ 0/ 0/ 0/ 0/ 0/ 0/ 0/ 0/ 0/ 0/ 0/ 0/ 0/ 0/ 0/ 0/ 0/ 0/ 0/ 0/ 0/ 0/ 0/ 0/ 0/ 0/ 0/ 0/ 0/ 0/ 0/ 0/ C: D*.U, @^ X^ __ m..f,.0/ 0/ 0/ 0/ 0/ 0/ 0/ 0/ 0/ 0/ /( E% K,.d,.N# c. y| y| y| ,5 Nu *@ 8; p%.Y] H: La 4Q fx LR g% 0/ C: 0/ 0/ 0/ 0/ 0/ 0/ 0/ 0/ 0/ 0/ 0/ 0/ 0/ 0/ 0/ 0/ 0/ 0/ 0/ 0/ 0/ 0/ 0/ 0/ 0/ 0/ 0/ 0/ 0/ 0/ 0/ 0/ 0/ 0/ 0/ 0/ 0/ 0/ 0/ 0/ 0/ 0/ Y$ 0| 8) +~ +~ Y.  & 9m j3 Dp 2p M= a0 u- u- G- ;c T).5& 4& u% 4% _% b% _$ _$ _$ _$ _$ _$ _$ _$ _$ _$ _$ _$ P# /# 5@ *@ n+ N+ =+ K  c. c. B  Z. x  S] |{ 4] )) 4^ 5^ R'.rc _/ _/ _/ _/ _/ _/ _/ _/ _/ _/ _/ _/ _/ _/ _/ _/ _/ _/ _/ _/ _/ _/ _/ _/ _/ _/ _/ _/ _/ _/ _/ _/ _/ _/ _/ _/ _/ _/ _/ _/ _/ X1 b@ b@ b@ b@ {+ u+ u+ u+ u+ u+ u+ u+ u+ ",
"#/ #/ #/ #/ #/ #/ #/ 21 21 21 21 21 21 21 21 21 21 21 21 21 21 21 21 21 21 21 0( Q).J).J).J).J).J).J).J).J).J).J).r'.X# X# X# X# X# X# X# }'.}'.}'.}'.A% G).G).G).n).~).w).c).X).X).Y^ v  x  y  A  D  c. h+ =+ M+ N+ ^# =@ 5@ /# /# P# _$ _$ _$ _$ _$ _$ _$ _$ `$ (% |% m% G% s%  c k; v- u- G- V; Q> ;* d- Gb !p wc ~9 k{ }2 +~ +~ L! r! 8)  % ^^ 0/ 0/ 0/ 0/ 0/ 0/ 0/ 0/ 0/ 0/ 0/ k^ D*.U, @^ Q{ Q{ Q{ Q{ X^ S' &e 0/ 0/ 0/ 0/ 0/ 0/ 0/ 0/ 0/ 0/ 0/ 0/ 0/ 0/ 0/ 0/ 0/ 0/ 0/ 0/ 0/ ,[ ,[ a[ ei 4@ y| y| y| y| B  q~ 7; %T ,[ 0/ 0/ 0/ 0/ 0/ 0/ 0/ 0/ 0/ 0/ 0/ 0/ 0/ 0/ 0/ 0/ 0/ 0/ 0/ 0/ 0/ 0/ 0/ 0/ 0/ 0/ 0/ 0/ 0/ 0/ 0/ 0/ 0/ 0/ 0/ 0/ 0/ 0/ 0/ 0/ 0/ 0/ 0/ 0/ 0/ 0/ 0/ 0/ 0/ 0/ 0/ 0/ 0/ 0/ 0/ 0/ 0/ 0/ 0/ 0/ 0/ 0/ 0/ 0/ 0/ 0/ 0/ 0/ 0/ 0/ 0/ 0/ 0/ 0/ 0/ 0/ 0/ 0/ 0/ 0/ 0/ 0/ 0/ 0/ 0/ 0/ 0/ 0/ 0/ 0/ 0/ 0/ 0/ 0/ 0/ 0/ 0/ 0/ 0/ 0/ 0/ 0/ 0/ 0/ 0/ 0/ 0/ 0/ 0/ 0/ 0/ 0/ 0/ 0/ 0/ 0/ 0/ 0/ 0/ 0/ 0/ 0/ 0/ 0/ 0/ 0/ 0/ 0/ 0/ 0/ 0/ 0/ 0/ 0/ 0/ 0/ 0/ 0/ 0/ 0/ 0/ 0/ 0/ 0/ 0/ 0/ 0/ 0/ ha X, X^ Q{ Q{ M_ LR Q` >[ 0/ 0/ 0/ 0/ 0/ 0/ 0/ 0/ 0/ g% e,.t{ H3 c. y| y| y| ,5 Nu *@ 8; +^ (^ Q{ X^ X^ b/ +^ J8 R` C: 0/ 0/ 0/ 0/ 0/ 0/ 0/ 0/ 0/ 0/ 0/ 0/ 0/ 0/ 0/ 0/ 0/ 0/ 0/ 0/ 0/ 0/ 0/ 0/ 0/ 0/ 0/ 0/ 0/ 0/ 0/ 0/ 0/ 0/ 0/ 0/ 0/ 0/ 0/ 0/ 0/ 0/ Y$ 0| 8) +~ a! Y. [2 9m K6 1p Ho vi V0 u- u- G- ;c E4 J% j& u% 4% _% b% _$ _$ _$ _$ _$ _$ _$ _$ _$ _$ _$ _$ P# /# 5@ *@ n+ N+ =+ K  c. c. B  Z. x  S] |{ 4] )) 4^ 5^ R'.rc _/ _/ _/ _/ _/ _/ _/ _/ _/ _/ _/ _/ _/ _/ _/ _/ _/ _/ _/ _/ _/ _/ _/ _/ _/ _/ _/ _/ _/ _/ _/ _/ _/ _/ _/ _/ _/ _/ _/ _/ _/ _/ X1 b@ b@ b@ &. u+ u+ u+ u+ u+ u+ u+ u+ ",
"#/ #/ #/ #/ #/ #/ #/ h$ 21 21 21 21 21 21 21 21 21 21 21 21 21 21 21 21 21 21 J).J).J).J).J).J).J).J).J).J).J).J).x. X# X# X# X# X# X# X# }'.}'.}'.}'.@] G).G).G).n).~).w).c).X).X).A) ]^ x  y  A  D  c. h+ =+ M+ N+ ^# =@ 5@ /# /# P# _$ _$ _$ _$ _$ _$ _$ _$ Z$ (% }% m% G% s%  c k; v- u- u- V; R> ;* '& Gb !p wc H/ l{ 5) +~ +~ L! r! 8)  % ^^ 0/ 0/ 0/ 0/ 0/ 0/ 0/ 0/ 0/ 0/ 0/ C: ^^ _% *^ Q{ Q{ Q{ Q{ Q{ +^ d% m` k^ 0/ 0/ 0/ 0/ 0/ 0/ 0/ 0/ 0/ 0/ 0/ 0/ 0/ 0/ 0/ 0/ 0/ 0/ 0/ ,[ ,[ a[ ei 4@ y| y| y| y| B  q~ 7; %T ,[ 0/ 0/ 0/ 0/ 0/ 0/ 0/ 0/ 0/ 0/ 0/ 0/ 0/ 0/ 0/ 0/ 0/ 0/ 0/ 0/ 0/ 0/ 0/ 0/ 0/ 0/ 0/ 0/ 0/ 0/ 0/ 0/ 0/ 0/ 0/ 0/ 0/ 0/ 0/ 0/ 0/ 0/ 0/ 0/ 0/ 0/ 0/ 0/ 0/ 0/ 0/ 0/ 0/ 0/ 0/ 0/ 0/ 0/ 0/ 0/ 0/ 0/ 0/ 0/ 0/ 0/ 0/ 0/ 0/ 0/ 0/ 0/ 0/ 0/ 0/ 0/ 0/ 0/ 0/ 0/ 0/ 0/ 0/ 0/ 0/ 0/ 0/ 0/ 0/ 0/ 0/ 0/ 0/ 0/ 0/ 0/ 0/ 0/ 0/ 0/ 0/ 0/ 0/ 0/ 0/ 0/ 0/ 0/ 0/ 0/ 0/ 0/ 0/ 0/ 0/ 0/ 0/ 0/ 0/ 0/ 0/ 0/ 0/ 0/ 0/ 0/ 0/ 0/ 0/ 0/ 0/ 0/ 0/ 0/ 0/ 0/ 0/ 0/ 0/ 0/ 0/ 0/ 0/ 0/ 0/ 0/ C: y/ [% *1 Q{ Q{ Q{ Q{ X^ 4Q N ./( 0/ 0/ 0/ 0/ 0/ 0/ k^ C: [q w..t{ A( c. y| y| y| ,5 Nu *@ 8; qR 2^ o^ Q{ Q{ Q{ x1 46 m` C: 0/ 0/ 0/ 0/ 0/ 0/ 0/ 0/ 0/ 0/ 0/ 0/ 0/ 0/ 0/ 0/ 0/ 0/ 0/ 0/ 0/ 0/ 0/ 0/ 0/ 0/ 0/ 0/ 0/ 0/ 0/ 0/ 0/ 0/ 0/ 0/ 0/ 0/ 0/ 0/ 0/ /( V$ Y).8) +~ B( p~ a$ 9m Go $n Sn vi V0 u- u- G- ;c 12 J% j& u% 4% _% Z$ _$ _$ _$ _$ _$ _$ _$ _$ _$ _$ _$ _$ P# /# 5@ *@ n+ N+ =+ K  c. c. B  Z. x  S] |{ 4] )) 4^ 5^ R'.rc _/ _/ _/ _/ _/ _/ _/ _/ _/ _/ _/ _/ _/ _/ _/ _/ _/ _/ _/ _/ _/ _/ _/ _/ _/ _/ _/ _/ _/ _/ _/ _/ _/ _/ _/ _/ _/ _/ _/ _/ _/ _/ _/ _/ *. b@ b@ `, u+ u+ u+ u+ u+ u+ u+ ",
"#/ #/ #/ #/ #/ #/ #/ q. 21 21 21 21 21 21 21 21 21 21 21 21 21 21 21 21 21 21 gy J).J).J).J).J).J).J).J).J).J).J).vr %  X# X# X# X# X# Z).}'.}'.}'.}'.`).G).G). !..!.~).w).c).X).().+!.t  y  y  A  D  c. h+ =+ M+ N+ ^# =@ 5@ /# /# P# _$ _$ _$ _$ _$ _$ _$ _$ Z$ (% }% m% G% t% H> k; v- u- u- V; R> 9= '& Gb $n j3 H/ &5 5) +~ +~ L! r! 8)  % ^^ 0/ 0/ 0/ 0/ 0/ 0/ 0/ 0/ 0/ 0/ 0/ C: &e |2 B< Q{ Q{ Q{ Q{ W( Q{ wc [q k^ k^ 0/ 0/ 0/ 0/ 0/ 0/ 0/ 0/ 0/ 0/ 0/ 0/ 0/ 0/ 0/ 0/ 0/ 0/ ,[ ,[ a[ ei 4@ y| y| y| y| B  q~ 7; %T ,[ 0/ 0/ 0/ 0/ 0/ 0/ 0/ 0/ 0/ 0/ 0/ 0/ 0/ 0/ 0/ 0/ 0/ 0/ 0/ 0/ 0/ 0/ 0/ 0/ 0/ 0/ 0/ 0/ 0/ 0/ 0/ 0/ 0/ 0/ 0/ 0/ 0/ 0/ 0/ 0/ 0/ 0/ 0/ 0/ 0/ 0/ 0/ 0/ 0/ 0/ 0/ 0/ 0/ 0/ 0/ 0/ 0/ 0/ 0/ 0/ 0/ 0/ 0/ 0/ 0/ 0/ 0/ 0/ 0/ 0/ 0/ 0/ 0/ 0/ 0/ 0/ 0/ 0/ 0/ 0/ 0/ 0/ 0/ 0/ 0/ 0/ 0/ 0/ 0/ 0/ 0/ 0/ 0/ 0/ 0/ 0/ 0/ 0/ 0/ 0/ 0/ 0/ 0/ 0/ 0/ 0/ 0/ 0/ 0/ 0/ 0/ 0/ 0/ 0/ 0/ 0/ 0/ 0/ 0/ 0/ 0/ 0/ 0/ 0/ 0/ 0/ 0/ 0/ 0/ 0/ 0/ 0/ 0/ 0/ 0/ 0/ 0/ 0/ 0/ 0/ 0/ 0/ 0/ 0/ 0/ 0/ C: >[ _% B< Q{ Q{ Q{ Q{ Q{ __ S' [q `e 0/ 0/ 0/ 0/ 0/ 0/ k^ Nn ^z z] U  c. y| y| y| ,5 Nu *@ 8; qR 2^ o^ Q{ Q{ W( X^ S' ^^ C: 0/ 0/ 0/ 0/ 0/ 0/ 0/ 0/ 0/ 0/ 0/ 0/ 0/ 0/ 0/ 0/ 0/ 0/ 0/ 0/ 0/ 0/ 0/ 0/ 0/ 0/ 0/ 0/ 0/ 0/ 0/ 0/ 0/ 0/ 0/ 0/ 0/ 0/ 0/ 0/ 0/ %| @!.0| 8) +~ +~ Y. L2 3^ _1 8m 6n ,n a0 G- u- G- ;c 12 #& 5& s* 4% _% Y$ _$ _$ _$ _$ _$ _$ _$ _$ _$ _$ _$ _$ P# /# 5@ *@ n+ N+ =+ K  c. c. B  Z. x  S] |{ 4] )) 4^ 5^ R'.rc _/ _/ _/ _/ _/ _/ _/ _/ _/ _/ _/ _/ _/ _/ _/ _/ _/ _/ _/ _/ _/ _/ _/ _/ _/ _/ _/ _/ _/ _/ _/ _/ _/ _/ _/ _/ _/ _/ _/ _/ _/ _/ _/ _/ _/ E@ b@ b@ Ds u+ u+ u+ u+ u+ u+ ",
"#/ #/ #/ #/ #/ #/ #/ #/ 21 21 21 21 21 21 21 21 21 21 21 21 21 21 21 21 21 21 Q).J).J).J).J).J).J).J).J).J).J).J).J).J).~] X# X# X# X# #!.}'.}'.}'.}'.$!.G).G).k< .!.~).w).c).X).().%!.9. y  y  A  D  c. h+ =+ M+ N+ ^# =@ 5@ /# /# P# _$ _$ _$ _$ _$ _$ _$ _$ Y$ &% }% m% G% p% H> K- u- u- u- V; Q> -* >& @& $n j3 H/ &5 >5 a! +~ L! r! 8)  % ^^ 0/ 0/ 0/ 0/ 0/ 0/ 0/ 0/ 0/ 0/ 0/ C: &e X, B< Q{ Q{ Q{ Q{ o^ o^ @^ d% .@.k^ 0/ 0/ 0/ 0/ 0/ 0/ 0/ 0/ 0/ 0/ 0/ 0/ 0/ 0/ 0/ 0/ 0/ 0/ ,[ ,[ a[ ei 4@ y| y| y| y| B  q~ 7; %T ,[ 0/ 0/ 0/ 0/ 0/ 0/ 0/ 0/ 0/ 0/ 0/ 0/ 0/ 0/ 0/ 0/ 0/ 0/ 0/ 0/ 0/ 0/ 0/ 0/ 0/ 0/ 0/ 0/ 0/ 0/ 0/ 0/ 0/ 0/ 0/ 0/ 0/ 0/ 0/ 0/ 0/ 0/ 0/ 0/ 0/ 0/ 0/ 0/ 0/ 0/ 0/ 0/ 0/ 0/ 0/ 0/ 0/ 0/ 0/ 0/ 0/ 0/ 0/ 0/ 0/ 0/ 0/ 0/ 0/ 0/ 0/ 0/ 0/ 0/ 0/ 0/ 0/ 0/ 0/ 0/ 0/ 0/ 0/ 0/ 0/ 0/ 0/ 0/ 0/ 0/ 0/ 0/ 0/ 0/ 0/ 0/ 0/ 0/ 0/ 0/ 0/ 0/ 0/ 0/ 0/ 0/ 0/ 0/ 0/ 0/ 0/ 0/ 0/ 0/ 0/ 0/ 0/ 0/ 0/ 0/ 0/ 0/ 0/ 0/ 0/ 0/ 0/ 0/ 0/ 0/ 0/ 0/ 0/ 0/ 0/ 0/ 0/ 0/ 0/ 0/ 0/ 0/ 0/ 0/ 0/ 0/ C: ^^ |2 q} Q{ Q{ Q{ Q{ Q{ Q{ .^ <% m` 0/ 0/ 0/ 0/ 0/ 0/ 0/ m` E% Y( Q4 c. y| y| y| ,5 Nu *@ 8; qR 2^ o^ Q{ Q{ i_ b/ G} bk 0/ C: 0/ 0/ 0/ 0/ 0/ 0/ 0/ 0/ 0/ 0/ 0/ 0/ 0/ 0/ 0/ 0/ 0/ 0/ 0/ 0/ 0/ 0/ 0/ 0/ 0/ 0/ 0/ 0/ 0/ 0/ 0/ 0/ 0/ 0/ 0/ 0/ 0/ 0/ 0/ 0/ &e e- 0| 8) +~ +~ Y. L2 3^ _1 ad 6n M= a0 G- u- G- ;c 12 H% J% t% 4% _% W$ _$ _$ _$ _$ _$ _$ _$ _$ _$ _$ _$ _$ P# /# 5@ *@ n+ N+ =+ K  c. c. B  Z. x  S] |{ 4] )) 4^ 5^ R'.rc _/ _/ _/ _/ _/ _/ _/ _/ _/ _/ _/ _/ _/ _/ _/ _/ _/ _/ _/ _/ _/ _/ _/ _/ _/ _/ _/ _/ _/ _/ _/ _/ _/ _/ _/ _/ _/ _/ _/ _/ _/ _/ _/ _/ _/ _/ b@ b@ b@ u+ u+ u+ u+ u+ u+ ",
"#/ #/ #/ #/ #/ #/ #/ #/ 21 21 21 21 21 21 21 21 21 21 21 21 21 21 21 21 21 21 Q).J).J).J).J).J).J).J).J).J).J).&!.*!.=!.J).-!.X# X# X# d'.}'.}'.}'.}'.;!. !.P[ >!..!.~).w).c).X).().,!.o  x  y  A  D  c. h+ =+ M+ N+ ^# =@ 5@ /# /# P# _$ _$ _$ _$ _$ _$ _$ _$ W$ &% }% m% u% o% H> K- u- u- u- V; Cn v* ;& @& $n K6 H/ 97 >5 a! +~ L! r! 8)  % ^^ 0/ 0/ 0/ 0/ 0/ 0/ 0/ 0/ 0/ 0/ 0/ C: &e X, B< Q{ Q{ Q{ Q{ Q{ Q{ Q{ ][ e% R` k^ k^ k^ k^ C: C: C: C: C: 0/ 0/ 0/ 0/ 0/ 0/ 0/ 0/ 0/ ,[ ,[ a[ ei 4@ y| y| y| y| B  q~ 7; %T ,[ 0/ 0/ 0/ 0/ 0/ 0/ 0/ 0/ 0/ 0/ 0/ 0/ 0/ 0/ 0/ 0/ 0/ 0/ 0/ 0/ 0/ 0/ 0/ 0/ 0/ 0/ 0/ 0/ 0/ 0/ 0/ 0/ 0/ 0/ 0/ 0/ 0/ 0/ 0/ 0/ 0/ 0/ 0/ 0/ 0/ 0/ 0/ 0/ 0/ 0/ 0/ 0/ 0/ 0/ 0/ 0/ 0/ 0/ 0/ 0/ 0/ 0/ 0/ 0/ 0/ 0/ 0/ 0/ 0/ 0/ 0/ 0/ 0/ 0/ 0/ 0/ 0/ 0/ 0/ 0/ 0/ 0/ 0/ 0/ 0/ 0/ 0/ 0/ 0/ 0/ 0/ 0/ 0/ 0/ 0/ 0/ 0/ 0/ 0/ 0/ 0/ 0/ 0/ 0/ 0/ 0/ 0/ 0/ 0/ 0/ 0/ 0/ 0/ 0/ 0/ 0/ 0/ 0/ 0/ 0/ 0/ 0/ 0/ 0/ 0/ 0/ 0/ 0/ 0/ 0/ 0/ 0/ 0/ 0/ 0/ 0/ 0/ 0/ 0/ 0/ 0/ 0/ 0/ 0/ 0/ 0/ C: &e X, X^ Q{ Q{ Q{ Q{ Q{ o^ Q{ 4Q '+.w[ 0/ 0/ 0/ 0/ 0/ 0/ ] .[q 8; U  c. y| y| y| ,5 Nu *@ 8; qR 2^ o^ Q{ Q{ Q{ Q{ B< X, ha C: C: 0/ 0/ 0/ 0/ 0/ 0/ 0/ 0/ 0/ 0/ 0/ 0/ 0/ 0/ 0/ 0/ 0/ 0/ 0/ 0/ 0/ 0/ 0/ 0/ 0/ 0/ 0/ 0/ 0/ 0/ 0/ 0/ 0/ 0/ 0/ 0/ 0/ 0/ 0/ [q e= Y).8) +~ +~ Y. 2) 3^ _1 ad hk na a0 G- G- G- ;c 12 S% J% t% 4% _% W$ _$ _$ _$ _$ _$ _$ _$ _$ _$ _$ _$ _$ P# /# 5@ *@ n+ N+ =+ K  c. c. B  Z. x  S] |{ 4] )) 4^ 5^ X).rc _/ _/ _/ _/ _/ _/ _/ _/ _/ _/ _/ _/ _/ _/ _/ _/ _/ _/ _/ _/ _/ _/ _/ _/ _/ _/ _/ _/ _/ _/ _/ _/ _/ _/ _/ _/ _/ _/ _/ _/ _/ _/ _/ _/ _/ _/ b@ b@ b@ F# u+ u+ u+ u+ u+ ",
"#/ #/ #/ #/ #/ #/ #/ ~' 21 21 21 21 21 21 21 21 21 21 21 21 21 21 21 21 21 21 Q).J).J).J).J).J).J).J).J).J).J).'!.)!.)!.}S K@ X# X# !!.*  }'.}'.}'.}'.~!.{!.>!.>!..!.~).w).c).X).().,!.n  w  y  A  D  c. h+ =+ M+ N+ ^# =@ 5@ /# /# P# _$ _$ _$ _$ _$ _$ _$ _$ F$ &% }% m% u% .& H> k; v- G- u- ^k Cn a* -& {9 $n G} 17 f} %} a! +~ L! r! 8)  % ^^ 0/ 0/ 0/ 0/ 0/ 0/ 0/ 0/ 0/ 0/ 0/ C: ha wc B< Q{ Q{ Q{ Q{ Q{ Q{ o^ Q{ p%.J8 ha (4 (4 (4 /( k^ k^ k^ C: C: 0/ 0/ 0/ 0/ 0/ 0/ 0/ 0/ ,[ ,[ a[ ei 4@ y| y| y| y| B  q~ 7; %T ,[ 0/ 0/ 0/ 0/ 0/ 0/ 0/ 0/ 0/ 0/ 0/ 0/ 0/ 0/ 0/ 0/ 0/ 0/ 0/ 0/ 0/ 0/ 0/ 0/ 0/ 0/ 0/ 0/ 0/ 0/ 0/ 0/ 0/ 0/ 0/ 0/ 0/ 0/ 0/ 0/ 0/ 0/ 0/ 0/ 0/ 0/ 0/ 0/ 0/ 0/ 0/ 0/ 0/ 0/ 0/ 0/ 0/ 0/ 0/ 0/ 0/ 0/ 0/ 0/ 0/ 0/ 0/ 0/ 0/ 0/ 0/ 0/ 0/ 0/ 0/ 0/ 0/ 0/ 0/ 0/ 0/ 0/ 0/ 0/ 0/ 0/ 0/ 0/ 0/ 0/ 0/ 0/ 0/ 0/ 0/ 0/ 0/ 0/ 0/ 0/ 0/ 0/ 0/ 0/ 0/ 0/ 0/ 0/ 0/ 0/ 0/ 0/ 0/ 0/ 0/ 0/ 0/ 0/ 0/ 0/ 0/ 0/ 0/ 0/ 0/ 0/ 0/ 0/ 0/ 0/ 0/ 0/ 0/ 0/ 0/ 0/ 0/ 0/ 0/ 0/ 0/ 0/ 0/ 0/ 0/ 0/ 0/ .e a+.X^ Q{ Q{ Q{ Q{ Q{ Q{ W( X^ UQ .e /( 0/ 0/ 0/ 0/ 0/ V/ ^^  % ,+ c. y| y| y| ,5 Nu *@ 8; qR 2^ o^ Q{ Q{ Q{ Q{ Q{ !x 46 %| 3..C: 0/ 0/ 0/ 0/ 0/ 0/ 0/ 0/ 0/ 0/ 0/ 0/ 0/ 0/ 0/ 0/ 0/ 0/ 0/ 0/ 0/ 0/ 0/ 0/ 0/ 0/ 0/ 0/ 0/ 0/ 0/ 0/ 0/ 0/ 0/ 0/ 0/ /( [q e= Y).8) +~ +~ Y. H3 -^ _1 Fk hk na a0 G- G- G- ;c se @& J% t% 4% :> F$ _$ _$ _$ _$ _$ _$ _$ _$ _$ _$ _$ _$ P# /# 5@ *@ n+ N+ =+ K  c. c. B  Z. x  S] |{ 4] )) 4^ 5^ R'.rc _/ _/ _/ _/ _/ _/ _/ _/ _/ _/ _/ _/ _/ _/ _/ _/ _/ _/ _/ _/ _/ _/ _/ _/ _/ _/ _/ _/ _/ _/ _/ _/ _/ _/ _/ _/ _/ _/ _/ _/ _/ _/ _/ _/ _/ (+ b@ b@ b@ b@ u+ u+ u+ u+ u+ ",
"#/ #/ #/ #/ #/ #/ #/ J} 21 21 21 21 21 21 21 21 21 21 21 21 21 21 21 21 21 21 Q).J).J).J).J).J).J).J).J).J).]!.)!.)!.)!.)!.L@ k@ X# +q }'.}'.}'.}'.}'.>!.>!.>!.>!.@).~).w).c).X).().,!.m  u  y  A  D  c. h+ =+ M+ N+ ^# =@ 5@ /# /# P# _$ _$ _$ _$ _$ _$ _$ _$ F$ &% e% k% T& m% H> K- u- G- u- ^k Il a* R& g* 8m G} 3^  & /| u] +~ L! r! 8)  % ^^ 0/ 0/ 0/ 0/ 0/ 0/ 0/ 0/ 0/ 0/ 0/ +j [q LR M_ Q{ Q{ Q{ Q{ Q{ Q{ Q{ W( Q{ !x 4` 4` 4` 4` .# b+.^!./!.P;./( 0/ k^ k^ k^ 0/ 0/ 0/ 0/ ,[ ,[ a[ ei 4@ y| y| y| y| B  q~ 7; %T ,[ 0/ 0/ 0/ 0/ 0/ 0/ 0/ 0/ 0/ 0/ 0/ 0/ 0/ 0/ 0/ 0/ 0/ 0/ 0/ 0/ 0/ 0/ 0/ 0/ 0/ 0/ 0/ 0/ 0/ 0/ 0/ 0/ 0/ 0/ 0/ 0/ 0/ 0/ 0/ 0/ 0/ 0/ 0/ 0/ 0/ 0/ 0/ 0/ 0/ 0/ 0/ 0/ 0/ 0/ 0/ 0/ 0/ 0/ 0/ 0/ 0/ 0/ 0/ 0/ 0/ 0/ 0/ 0/ 0/ 0/ 0/ 0/ 0/ 0/ 0/ 0/ 0/ 0/ 0/ 0/ 0/ 0/ 0/ 0/ 0/ 0/ 0/ 0/ 0/ 0/ 0/ 0/ 0/ 0/ 0/ 0/ 0/ 0/ 0/ 0/ 0/ 0/ 0/ 0/ 0/ 0/ 0/ 0/ 0/ 0/ 0/ 0/ 0/ 0/ 0/ 0/ 0/ 0/ 0/ 0/ 0/ 0/ 0/ 0/ 0/ 0/ 0/ 0/ 0/ 0/ 0/ 0/ 0/ 0/ 0/ 0/ 0/ 0/ 0/ 0/ 0/ 0/ 0/ 0/ 0/ 0/ }{ N .0; X^ Q{ Q{ Q{ Q{ Q{ Q{ o^ zx !x d% (4 0/ 0/ 0/ 0/ 0/ ,[ /( b= m+ c. y| y| y| ,5 Nu *@ 8; qR 2^ o^ Q{ Q{ Q{ Q{ Q{ Q{ !x ^z [q 0/ 3..C: C: 0/ 0/ 0/ 0/ 0/ 0/ 0/ 0/ 0/ 0/ 0/ 0/ 0/ 0/ 0/ 0/ 0/ 0/ 0/ 0/ 0/ 0/ 0/ 0/ 0/ 0/ 0/ 0/ 0/ 0/ 0/ 0/ 0/ 0/ (4 SO e= Y).8) +~ +~ x! }2 .l F: Fk hk M= a0 G- G- G- '- (!.G% #& q% 4% (% D$ _$ _$ _$ _$ _$ _$ _$ _$ _$ _$ _$ _$ P# /# 5@ *@ n+ N+ =+ K  c. c. B  Z. x  S] |{ 4] )) 4^ 5^ R'.rc _/ _/ _/ _/ _/ _/ _/ _/ _/ _/ _/ _/ _/ _/ _/ _/ _/ _/ _/ _/ _/ _/ _/ _/ _/ _/ _/ _/ _/ _/ _/ _/ _/ _/ _/ _/ _/ _/ _/ _/ _/ _/ _/ _/ _/ 3# b@ b@ b@ b@ {+ u+ u+ u+ u+ ",
"#/ #/ #/ #/ #/ #/ #/ 21 21 21 21 21 21 21 21 21 21 21 21 21 21 21 21 21 21 21 J).J).J).J).J).J).J).J).J).J).z% )!.)!.)!.)!._!.>r :!.*  }'.}'.}'.}'.}'.>!.>!.>!.>!.@).~).w).c).X).().,!.i  <!.y  A  D  c. h+ =+ M+ N+ ^# =@ 5@ /# /# P# _$ _$ _$ _$ _$ _$ _$ _$ F$ &% e% k% u% m% H> K- v- G- G- ^k Il b* *& 27 ad G} 3^  & /| +~ +~ L! r! 8)  % ^^ 0/ 0/ 0/ 0/ 0/ 0/ 0/ 0/ 0/ 0/ 0/ k^ .e La M_ Q{ Q{ Q{ Q{ Q{ Q{ Q{ Q{ Q{ Q{ W( W( W( W( i_ Q{ x1 !x 4` %..f% (4 C: 3..C: 0/ 0/ 0/ ,[ ,[ a[ ei 4@ y| y| y| y| B  q~ 7; %T ,[ 0/ 0/ 0/ 0/ 0/ 0/ 0/ 0/ 0/ 0/ 0/ 0/ 0/ 0/ 0/ 0/ 0/ 0/ 0/ 0/ 0/ 0/ 0/ 0/ 0/ 0/ 0/ 0/ 0/ 0/ 0/ 0/ 0/ 0/ 0/ 0/ 0/ 0/ 0/ 0/ 0/ 0/ 0/ 0/ 0/ 0/ 0/ 0/ 0/ 0/ 0/ 0/ 0/ 0/ 0/ 0/ 0/ 0/ 0/ 0/ 0/ 0/ 0/ 0/ 0/ 0/ 0/ 0/ 0/ 0/ 0/ 0/ 0/ 0/ 0/ 0/ 0/ 0/ 0/ 0/ 0/ 0/ 0/ 0/ 0/ 0/ 0/ 0/ 0/ 0/ 0/ 0/ 0/ 0/ 0/ 0/ 0/ 0/ 0/ 0/ 0/ 0/ 0/ 0/ 0/ 0/ 0/ 0/ 0/ 0/ 0/ 0/ 0/ 0/ 0/ 0/ 0/ 0/ 0/ 0/ 0/ 0/ 0/ 0/ 0/ 0/ 0/ 0/ 0/ 0/ 0/ 0/ 0/ 0/ 0/ 0/ 0/ 0/ 0/ 0/ 0/ 0/ 0/ 0/ 0/ C: y/ U, @^ X^ Q{ Q{ Q{ Q{ Q{ Q{ Q{ W( b/ UQ [q 0/ 0/ 0/ 0/ 0/ ,[ /( g} =@ q~ y| y| y| ,5 Nu *@ 8; qR 2^ o^ Q{ Q{ Q{ Q{ Q{ Q{ Q{ Y] /Y f% /( [!.[!.C: C: k^ 0/ 0/ 0/ 0/ 0/ 0/ 0/ 0/ 0/ 0/ 0/ 0/ 0/ 0/ 0/ 0/ 0/ 0/ 0/ 0/ 0/ 0/ 0/ 0/ 0/ 0/ 0/ 0/ 0/ 0/ 0/ %| Q` J' Y).8) +~ +~ x! ^B k{ F: (k hk M= a0 G- G- t- '- }!.T& H% p% 2% (% D$ _$ _$ _$ _$ _$ _$ _$ _$ _$ _$ _$ _$ P# /# 5@ *@ n+ N+ =+ K  c. c. B  Z. x  S] |{ 4] )) 4^ 5^ R'.|!._/ _/ _/ _/ _/ _/ _/ _/ _/ _/ _/ _/ _/ _/ _/ _/ _/ _/ _/ _/ _/ _/ _/ _/ _/ _/ _/ _/ _/ _/ _/ _/ _/ _/ _/ _/ _/ _/ _/ _/ _/ _/ _/ _/ _/ *. b@ b@ b@ b@ i= u+ u+ u+ u+ ",
"#/ #/ #/ #/ #/ #/ h$ 21 21 21 21 21 21 21 21 21 21 21 21 21 21 21 21 21 21 0( J).J).J).J).J).J).J).J).J).J).'!.)!.)!.)!._!.1!.2!.2!.}'.}'.}'.}'.}'.3!.>!.>!.>!.>!.@).~).w).c).X).().4!.s+.p  y  A  D  c. h+ =+ M+ N+ ^# =@ 5@ /# /# P# _$ _$ _$ _$ _$ _$ _$ _$ F$ %% e% k% =' m% H> K- v- G- G- ^k Il I& *& 27 Fk V< 3^ [2 /| +~ +~ L! r! 8)  % ^^ 0/ 0/ 0/ 0/ 0/ 0/ 0/ 0/ 0/ 0/ 0/ k^ .e La X^ Q{ Q{ Q{ Q{ Q{ Q{ Q{ Q{ Q{ Q{ Q{ Q{ Q{ Q{ Q{ Q{ Q{ Q{ Q{ Q{ !x LR 6; '+.(4 +j C: k^ ,[ ,[ a[ ei 4@ y| y| y| y| B  q~ 7; %T ,[ 0/ 0/ 0/ 0/ 0/ 0/ 0/ 0/ 0/ 0/ 0/ 0/ 0/ 0/ 0/ 0/ 0/ 0/ 0/ 0/ 0/ 0/ 0/ 0/ 0/ 0/ 0/ 0/ 0/ 0/ 0/ 0/ 0/ 0/ 0/ 0/ 0/ 0/ 0/ 0/ 0/ 0/ 0/ 0/ 0/ 0/ 0/ 0/ 0/ 0/ 0/ 0/ 0/ 0/ 0/ 0/ 0/ 0/ 0/ 0/ 0/ 0/ 0/ 0/ 0/ 0/ 0/ 0/ 0/ 0/ 0/ 0/ 0/ 0/ 0/ 0/ 0/ 0/ 0/ 0/ 0/ 0/ 0/ 0/ 0/ 0/ 0/ 0/ 0/ 0/ 0/ 0/ 0/ 0/ 0/ 0/ 0/ 0/ 0/ 0/ 0/ 0/ 0/ 0/ 0/ 0/ 0/ 0/ 0/ 0/ 0/ 0/ 0/ 0/ 0/ 0/ 0/ 0/ 0/ 0/ 0/ 0/ 0/ 0/ 0/ 0/ 0/ 0/ 0/ 0/ 0/ 0/ 0/ 0/ 0/ 0/ 0/ 0/ 0/ 0/ 0/ 0/ 0/ C: 3..3..[q wc X^ Q{ Q{ Q{ Q{ Q{ Q{ Q{ Q{ Q{ Q{ fx [% 0/ C: 0/ 0/ 0/ ,[ 0/ 5] 5@ h+ y| y| y| ,5 Nu *@ 8; qR 2^ o^ Q{ Q{ Q{ Q{ Q{ Q{ Q{ Q{ M^ .^  e d% SO m` 0/ 3..[!.[!.3..3..C: C: C: 0/ 0/ 0/ 0/ 0/ 0/ 0/ 0/ 0/ 0/ 0/ 0/ 0/ 0/ 0/ 0/ 0/ 0/ 0/ 0/ 0/ 0/ 0/ 0/ }n <% 01 Y).8) +~ +~ x! ^B k{ 39 1{ hk ,n a0 G- G- G- h0 %= T& H% o% 2% (% D$ _$ _$ _$ _$ _$ _$ _$ _$ _$ _$ _$ _$ P# /# 5@ *@ n+ N+ =+ K  c. c. B  Z. x  S] |{ 4] )) 4^ 5^ R'.|!._/ _/ _/ _/ _/ _/ _/ _/ _/ _/ _/ _/ _/ _/ _/ _/ _/ _/ _/ _/ _/ _/ _/ _/ _/ _/ _/ _/ _/ _/ _/ _/ _/ _/ _/ _/ _/ _/ _/ _/ _/ _/ _/ _/ _/ <1 b@ b@ b@ b@ &. u+ u+ u+ u+ ",
"#/ #/ #/ #/ #/ #/ 21 21 21 21 21 21 21 21 21 21 21 21 21 21 21 21 21 21 21 q: J).J).J).J).J).J).J).J).J).&!.)!.)!.)!.5!.6!.2!.2!.2!.}'.}'.}'.}'.}'.7!.>!.>!.>!.>!.,).~).w).c).X).().4!.8!.o  x  A  D  c. h+ =+ M+ N+ ^# =@ 5@ /# /# P# _$ _$ _$ _$ _$ _$ _$ _$ F$ %% <% j% s% k%  c K- u- G- G- ^k <K H& f* 27 Fk V< 3^ ~% M6 +~ +~ L! r! 8)  % ^^ 0/ 0/ 0/ 0/ 0/ 0/ 0/ 0/ 0/ 0/ 0/ k^ '+.9!.b/ Q{ Q{ Q{ Q{ Q{ Q{ Q{ Q{ Q{ Q{ Q{ Q{ Q{ Q{ Q{ Q{ Q{ Q{ Q{ Q{ Q{ Q{ M_ p%.LR `' B, w[ ,[ ,[ a[ ei 4@ y| y| y| y| B  q~ 7; %T ,[ 0/ 0/ 0/ 0/ 0/ 0/ 0/ 0/ 0/ 0/ 0/ 0/ 0/ 0/ 0/ 0/ 0/ 0/ 0/ 0/ 0/ 0/ 0/ 0/ 0/ 0/ 0/ 0/ 0/ 0/ 0/ 0/ 0/ 0/ 0/ 0/ 0/ 0/ 0/ 0/ 0/ 0/ 0/ 0/ 0/ 0/ 0/ 0/ 0/ 0/ 0/ 0/ 0/ 0/ 0/ 0/ 0/ 0/ 0/ 0/ 0/ 0/ 0/ 0/ 0/ 0/ 0/ 0/ 0/ 0/ 0/ 0/ 0/ 0/ 0/ 0/ 0/ 0/ 0/ 0/ 0/ 0/ 0/ 0/ 0/ 0/ 0/ 0/ 0/ 0/ 0/ 0/ 0/ 0/ 0/ 0/ 0/ 0/ 0/ 0/ 0/ 0/ 0/ 0/ 0/ 0/ 0/ 0/ 0/ 0/ 0/ 0/ 0/ 0/ 0/ 0/ 0/ 0/ 0/ 0/ 0/ 0/ 0/ 0/ 0/ 0/ 0/ 0/ 0/ 0/ 0/ 0/ 0/ 0/ 0/ 0/ 0/ 0/ 0/ 0/ 0/ 0/ C: C: `e g% %..__ Q{ Q{ Q{ Q{ Q{ Q{ Q{ Q{ Q{ Q{ i_  @.<% m` 0/ 0/ 0/ 0/ ,[ 0/ 5] 5@ h+ y| y| y| ,5 Nu *@ 8; qR 2^ o^ Q{ Q{ Q{ Q{ Q{ Q{ Q{ Q{ Q{ Q{ X^ __ fx %..L .6; <% [% SO ha %| 0/ 3..[!.3..C: k^ 0/ 0/ 0/ 0/ 0/ 0/ 0/ 0/ 0/ 0/ 0/ 0/ 0/ 0/ 0/ 0/ 0/ 0/ 0/ /( '+.6; 9m Y).8) +~ +~ x! 5) k{ $^ 1{ <j M= a0 G- G- B;.'- %= T& H% o% 2% &% D$ _$ _$ _$ _$ _$ _$ _$ _$ _$ _$ _$ _$ P# /# 5@ *@ n+ N+ =+ K  c. c. B  Z. x  S] |{ 4] )) 4^ 5^ V'.|!._/ _/ _/ _/ _/ _/ _/ _/ _/ _/ _/ _/ _/ _/ _/ _/ _/ _/ _/ _/ _/ _/ _/ _/ _/ _/ _/ _/ _/ _/ _/ _/ _/ _/ _/ _/ _/ _/ _/ _/ _/ _/ _/ _/ _/ b@ b@ b@ b@ b@ i= u+ u+ u+ u+ ",
"#/ #/ #/ #/ #/ ~' 21 21 21 21 21 21 21 21 21 21 21 21 21 21 21 21 21 21 21 -. J).J).J).J).J).J).J).J).J).0!.)!.)!.k: 2!.2!.2!.2!.2!.}'.}'.}'.}'.}'.7!.>!.>!.>!.>!.,).~).w).c).X).().4!.8!.^9 ]^ A  D  c. h+ =+ M+ N+ ^# =@ 5@ /# /# P# _$ _$ _$ _$ _$ _$ _$ _$ F$ $% <% j% t% j%  c K- u- G- G- ^k ,, H& 2& /k (k _1 3^ :v 8] +~ +~ L! r! 8)  % ^^ 0/ 0/ 0/ 0/ 0/ 0/ 0/ 0/ 0/ 0/ 0/ 0/ Q` p%.b/ Q{ (^ (^ (^ (^ (^ (^ (^ (^ (^ (^ (^ (^ (^ (^ (^ (^ (^ (^ (^ (^ (^ (^ (^ M^ !x e,.<,.B, 9e >[ lY !>.y| y| y| y| B  q~ 7; %T ,[ 0/ 0/ 0/ 0/ 0/ 0/ 0/ 0/ 0/ 0/ 0/ 0/ 0/ 0/ 0/ 0/ 0/ 0/ 0/ 0/ 0/ 0/ 0/ 0/ 0/ 0/ 0/ 0/ 0/ 0/ 0/ 0/ 0/ 0/ 0/ 0/ 0/ 0/ 0/ 0/ 0/ 0/ 0/ 0/ 0/ 0/ 0/ 0/ 0/ 0/ 0/ 0/ 0/ 0/ 0/ 0/ 0/ 0/ 0/ 0/ 0/ 0/ 0/ 0/ 0/ 0/ 0/ 0/ 0/ 0/ 0/ 0/ 0/ 0/ 0/ 0/ 0/ 0/ 0/ 0/ 0/ 0/ 0/ 0/ 0/ 0/ 0/ 0/ 0/ 0/ 0/ 0/ 0/ 0/ 0/ 0/ 0/ 0/ 0/ 0/ 0/ 0/ 0/ 0/ 0/ 0/ 0/ 0/ 0/ 0/ 0/ 0/ 0/ 0/ 0/ 0/ 0/ 0/ 0/ 0/ 0/ 0/ 0/ 0/ 0/ 0/ 0/ 0/ 0/ 0/ 0/ 0/ 0/ 0/ 0/ 0/ 0/ 0/ 0/ 0/ 0/ C: >[ C, 1{ qR X^ Q{ Q{ Q{ Q{ Q{ Q{ Q{ Q{ Q{ Q{ W( b/  e .e /( 0/ 0/ 0/ 0/ ,[ 0/ 5] 5@ h+ y| y| y| ,5 aZ v{ M' H..3: 2^ Y] Y] Y] 2^ 2^ 2^ 2^ 2^ 2^ (^ (^ (^ Y] Y] x1 x1 H: @^ fx l .%..L .d% |% &e 0/ N{ N{ V/ ,[ ,[ 0/ 0/ 0/ 0/ 0/ 0/ 0/ 0/ 0/ 0/ 0/ 0/ 0/ 0/ 0/ 0/ |% L .-^ p~ 8) +~ +~ x! 5) k{ $^ 1{ <j M= a0 G- G- t- ;c :3 T& H% o% |% &% B$ _$ _$ _$ _$ _$ _$ _$ _$ _$ _$ _$ _$ P# /# 5@ *@ n+ N+ =+ K  c. c. B  Z. x  S] |{ 4] )) 4^ 5^ V'.|!._/ _/ _/ _/ _/ _/ _/ _/ _/ _/ _/ _/ _/ _/ _/ _/ _/ _/ _/ _/ _/ _/ _/ _/ _/ _/ _/ _/ _/ _/ _/ _/ _/ _/ _/ _/ _/ _/ _/ _/ _/ _/ _/ _/ X1 b@ b@ b@ b@ b@ u+ u+ u+ u+ u+ ",
"#/ #/ #/ #/ #/ J} 21 21 21 21 21 21 21 21 21 21 21 21 21 21 21 21 21 21 21 J).J).J).J).J).J).J).J).J).J).a!.a5 -p 2!.2!.2!.2!.2!.2!.I*.}'.}'.}'.}'.7!.>!.>!.>!.>!.,).~).w).c).X).().4!.8!.i  r  A  D  c. h+ =+ M+ N+ ^# =@ 5@ /# /# P# _$ _$ _$ _$ _$ _$ _$ _$ D$ $% <% j% s% j% H> 0H G- G- G- ^k ,, G& && /k ci X< }6 L2 e+ +~ +~ L! r! 8)  % ^^ 0/ 0/ 0/ 0/ 0/ 0/ 0/ 0/ 0/ 0/ 0/ 0/ [% @^ Q{ Q{ Q{ Q{ Q{ Q{ M^ M^ X^ X^ X^ X^ X^ b/ b/ X^ X^ X^ X^ X^ X^ X^ X^ Y] Y] X^ X^ X^ M_ La 6; :% F$ y@ y| y| y| y| B  q~ 7; %T ,[ 0/ 0/ 0/ 0/ 0/ 0/ 0/ 0/ 0/ 0/ 0/ 0/ 0/ 0/ 0/ 0/ 0/ 0/ 0/ 0/ 0/ 0/ 0/ 0/ 0/ 0/ 0/ 0/ 0/ 0/ 0/ 0/ 0/ 0/ 0/ 0/ 0/ 0/ 0/ 0/ 0/ 0/ 0/ 0/ 0/ 0/ 0/ 0/ 0/ 0/ 0/ 0/ 0/ 0/ 0/ 0/ 0/ 0/ 0/ 0/ 0/ 0/ 0/ 0/ 0/ 0/ 0/ 0/ 0/ 0/ 0/ 0/ 0/ 0/ 0/ 0/ 0/ 0/ 0/ 0/ 0/ 0/ 0/ 0/ 0/ 0/ 0/ 0/ 0/ 0/ 0/ 0/ 0/ 0/ 0/ 0/ 0/ 0/ 0/ 0/ 0/ 0/ 0/ 0/ 0/ 0/ 0/ 0/ 0/ 0/ 0/ 0/ 0/ 0/ 0/ 0/ 0/ 0/ 0/ 0/ 0/ 0/ 0/ 0/ 0/ 0/ 0/ 0/ 0/ 0/ 0/ 0/ 0/ 0/ 0/ 0/ 0/ 0/ 0/ 0/ C: >[ <% fx M_ Q{ Q{ Q{ Q{ Q{ Q{ Q{ Q{ Q{ Q{ Q{ Q{ W( x1 6; m` 0/ 0/ 0/ 0/ 0/ ,[ 0/ 5] 5@ h+ y| y| y| B  y| *@ e- @^ M^ O{ O{ O{ m^ m^ m^ m^ b/ b/ b/ X^ X^ X^ X^ X^ X^ X^ M_ M_ M_ H: H: H: *^ /Y 1{ <% bk %| >[ }{ w[ 0/ 0/ 0/ 0/ 0/ 0/ 0/ 0/ 0/ 0/ 0/ 0/ 0/ 0/ 0/ 0/ e% S' -^ p~ 8) +~ +~ x! U1 &5 $^ 1{ ui M= a0 G- G- t- ;c b!.s% 8' n% |% %% B$ _$ _$ _$ _$ _$ _$ _$ _$ _$ _$ _$ _$ P# /# 5@ *@ n+ N+ =+ K  c. c. B  Z. x  S] |{ 4] )) 4^ 5^ V'.|!._/ _/ _/ _/ _/ _/ _/ _/ _/ _/ _/ _/ _/ _/ _/ _/ _/ _/ _/ _/ _/ _/ _/ _/ _/ _/ _/ _/ _/ _/ _/ _/ _/ _/ _/ _/ _/ _/ _/ _/ _/ _/ _/ _/ E@ b@ b@ b@ b@ F# u+ u+ u+ u+ u+ ",
"#/ #/ #/ #/ #/ 21 21 21 21 21 21 21 21 21 21 21 21 21 21 21 21 21 21 21 21 .z J).J).J).J).J).J).J).J).J).c!.2!.2!.2!.2!.2!.2!.2!.2!.4).}'.}'.}'.}'.7!.>!.>!.>!.>!.,).~).w).c).X).().4!.8!.s+.o  Z. D  c. h+ =+ M+ N+ ^# =@ 5@ /# /# P# _$ _$ _$ _$ _$ _$ _$ _$ C$ $% <% j% s% i% H> K- u- G- G- V; ,, F& 7' r% ci X< }6 2) e+ +~ +~ L! r! 8)  % ^^ 0/ 0/ 0/ 0/ 0/ 0/ 0/ 0/ 0/ 0/ k^ y/ @m .^ Q{ <( NX .6 o2 o2 +4 +4 3) 3) 3) 3) T$ q- z$ 4) 4) 4) 4) 9$ 9$ 9$ 9$ p} p} p} d!.>: 7$ L_ 4) H3 f{ c. y| j4 j4 y| B  q~ 7; %T ,[ 0/ 0/ 0/ 0/ 0/ 0/ 0/ 0/ 0/ 0/ 0/ 0/ 0/ 0/ 0/ 0/ 0/ 0/ 0/ 0/ 0/ 0/ 0/ 0/ 0/ 0/ 0/ 0/ 0/ 0/ 0/ 0/ 0/ 0/ 0/ 0/ 0/ 0/ 0/ 0/ 0/ 0/ 0/ 0/ 0/ 0/ 0/ 0/ 0/ 0/ 0/ 0/ 0/ 0/ 0/ 0/ 0/ 0/ 0/ 0/ 0/ 0/ 0/ 0/ 0/ 0/ 0/ 0/ 0/ 0/ 0/ 0/ 0/ 0/ 0/ 0/ 0/ 0/ 0/ 0/ 0/ 0/ 0/ 0/ 0/ 0/ 0/ 0/ 0/ 0/ 0/ 0/ 0/ 0/ 0/ 0/ 0/ 0/ 0/ 0/ 0/ 0/ 0/ 0/ 0/ 0/ 0/ 0/ 0/ 0/ 0/ 0/ 0/ 0/ 0/ 0/ 0/ 0/ 0/ 0/ 0/ 0/ 0/ 0/ 0/ 0/ 0/ 0/ 0/ 0/ 0/ 0/ 0/ 0/ 0/ 0/ 0/ 0/ 0/ 0/ /( e% fx X^ Q{ Q{ Q{ Q{ Q{ Q{ Q{ Q{ Q{ Q{ Q{ Q{ Q{ W( x1 6; m` +j 0/ 0/ 0/ 0/ ,[ 0/ 5] 5@ h+ y| y| y| y| B  <! e!.f!.g!.>: >: >: >: >: >: >: >: e$ e$ d$ ~[ ~[ ~[ d!.f!.h!.h!.p} p} p} p} p} L_ h!.Y! :v  & U$ G$ n= ji /( ,[ 0/ 0/ 0/ 0/ 0/ 0/ 0/ 0/ 0/ 0/ 0/ 0/ 0/ /( d% wc k{ p~ 8) +~ +~ x! U1 U} w( ^h ui M= a0 G- G- B;.h0 i!.j!.G% m% }% %% A$ _$ _$ _$ _$ _$ _$ _$ _$ _$ _$ _$ _$ P# /# 5@ *@ n+ N+ =+ K  c. c. B  Z. x  S] |{ 4] )) 4^ 5^ V'.|!._/ _/ _/ _/ _/ _/ _/ _/ _/ _/ _/ _/ _/ _/ _/ _/ _/ _/ _/ _/ _/ _/ _/ _/ _/ _/ _/ _/ _/ _/ _/ _/ _/ _/ _/ _/ _/ _/ _/ _/ _/ (+ (+ _/ <1 b@ b@ b@ &. u+ u+ u+ u+ u+ u+ ",
"#/ #/ #/ #/ #/ 21 21 21 21 21 21 21 21 21 21 21 21 21 21 21 21 21 21 21 21 21 21 -y J).J).J).J).J).J).l# 2!.2!.2!.2!.2!.2!.2!.2!.d&.k!.}'.}'.}'.}'.7!.>!.>!.>!.>!.,).~).w).c).X).().4!.8!.s+.n  W. D  c. h+ =+ M+ N+ ^# =@ 5@ /# /# P# _$ _$ _$ _$ _$ _$ _$ _$ C$ $% <% j% r% 4% H> 0H G- G- G- V; ,, F& O% r% 1{ F: }6 H3 Y. +~ +~ L! r! 8)  % ^^ 0/ 0/ 0/ 0/ 0/ 0/ 0/ 0/ 0/ 0/ k^ >[ _% !x Q{ MS :F Y. p~ W. x! ]^ ]^ @< @< @< T[ :{ () B/ `( `( 7~ t( t( t( -] -] :~ :~ :~ f/ f/ f/ f/ F~ w] q! 44 y| j4 y| B  q~ 7; %T ,[ 0/ 0/ 0/ 0/ 0/ 0/ 0/ 0/ 0/ 0/ 0/ 0/ 0/ 0/ 0/ 0/ 0/ 0/ 0/ 0/ 0/ 0/ 0/ 0/ 0/ 0/ 0/ 0/ 0/ 0/ 0/ 0/ 0/ 0/ 0/ 0/ 0/ 0/ 0/ 0/ 0/ 0/ 0/ 0/ 0/ 0/ 0/ 0/ 0/ 0/ 0/ 0/ 0/ 0/ 0/ 0/ 0/ 0/ 0/ 0/ 0/ 0/ 0/ 0/ 0/ 0/ 0/ 0/ 0/ 0/ 0/ 0/ 0/ 0/ 0/ 0/ 0/ 0/ 0/ 0/ 0/ 0/ 0/ 0/ 0/ 0/ 0/ 0/ 0/ 0/ 0/ 0/ 0/ 0/ 0/ 0/ 0/ 0/ 0/ 0/ 0/ 0/ 0/ 0/ 0/ 0/ 0/ 0/ 0/ 0/ 0/ 0/ 0/ 0/ 0/ 0/ 0/ 0/ 0/ 0/ 0/ 0/ 0/ 0/ 0/ 0/ 0/ 0/ 0/ 0/ 0/ 0/ 0/ 0/ 0/ 0/ 0/ 0/ 0/ 0/ .e wc X^ Q{ Q{ Q{ Q{ Q{ Q{ Q{ Q{ Q{ Q{ Q{ Q{ Q{ Q{ W( X^ 46 &e 0/ 0/ 0/ 0/ 0/ ,[ 0/ 5] 5@ h+ y| y| j4 ;[ E) F< q*.%1 *| -] -] -] f/ f/ f/ f/ f/ f/ f/ f/ :~ :~ :~ :~ w] w] w] w] w] w] w] :~ -] t( t( t( -] t( :{ $+ D: >[ ,[ 0/ 0/ 0/ 0/ 0/ 0/ 0/ 0/ 0/ 0/ 0/ 0/ 0/ %| 46 4Q k{ p~ 8) +~ +~ x! /| U} ~9 Ze ui M= a0 G- G- G- h0 i!.l!.G% m% }% $% B$ _$ _$ _$ _$ _$ _$ _$ _$ _$ _$ _$ _$ P# /# 5@ *@ n+ N+ =+ K  c. c. B  Z. x  S] |{ 4] )) 4^ 5^ V'.|!._/ _/ _/ _/ _/ _/ 3# E@ X1 _/ _/ _/ _/ _/ _/ _/ _/ _/ _/ _/ _/ _/ _/ _/ _/ _/ _/ _/ _/ _/ _/ _/ _/ _/ _/ _/ _/ _/ X1 *. b@ b@ b@ b@ b@ b@ b@ b@ u+ u+ u+ u+ u+ u+ u+ ",
"#/ #/ #/ #/ #/ 21 21 21 21 21 21 21 21 21 21 21 21 21 21 21 21 21 21 21 21 21 21 21 0( {@ {@ -y J).m!.2!.2!.2!.2!.2!.2!.2!.2!.n!.o!.p!.}'.}'.}'.}'.7!.>!.>!.>!.>!.,).~).w).c).X).().4!.8!.s+.^9 U. D  c. h+ =+ M+ N+ ^# =@ 5@ /# /# P# _$ _$ _$ _$ _$ _$ _$ _$ A$ @% <% h% p% 2% H> M- G- G- G- bi c- t* O% r% 1{ F: 3^ H3 Y. +~ +~ L! r! 8)  % ^^ 0/ 0/ 0/ 0/ 0/ 0/ 0/ 0/ 0/ 0/ C: &e S' __ Q{ q!.W< +! ,! `) `) ,! ,! `) `) `) .~ .~ @{ @{ k) k) k) D) Q) Q) Q) Q) Q) Q) Q) Q) Q) Q) Q) Q)  ! .~ r! 44 y| j4 <! q~ 7; %T ,[ 0/ 0/ 0/ 0/ 0/ 0/ 0/ 0/ 0/ 0/ 0/ 0/ 0/ 0/ 0/ 0/ 0/ 0/ 0/ 0/ 0/ 0/ 0/ 0/ 0/ 0/ 0/ 0/ 0/ 0/ 0/ 0/ 0/ 0/ 0/ 0/ 0/ 0/ 0/ 0/ 0/ 0/ 0/ 0/ 0/ 0/ 0/ 0/ 0/ 0/ 0/ 0/ 0/ 0/ 0/ 0/ 0/ 0/ 0/ 0/ 0/ 0/ 0/ 0/ 0/ 0/ 0/ 0/ 0/ 0/ 0/ 0/ 0/ 0/ 0/ 0/ 0/ 0/ 0/ 0/ 0/ 0/ 0/ 0/ 0/ 0/ 0/ 0/ 0/ 0/ 0/ 0/ 0/ 0/ 0/ 0/ 0/ 0/ 0/ 0/ 0/ 0/ 0/ 0/ 0/ 0/ 0/ 0/ 0/ 0/ 0/ 0/ 0/ 0/ 0/ 0/ 0/ 0/ 0/ 0/ 0/ 0/ 0/ 0/ 0/ 0/ 0/ 0/ 0/ 0/ 0/ 0/ 0/ 0/ 0/ 0/ 0/ 0/ 0/ }{ d% !x Q{ Q{ Q{ Q{ Q{ Q{ Q{ Q{ Q{ Q{ Q{ Q{ Q{ Q{ Q{ W( X^ S' [q 0/ 0/ 0/ 0/ 0/ ,[ 0/ 5] 5@ h+ y| yw b. a! +! C/ D) Q) Q) Q) Q) Q) Q) Q) Q) Q) Q) Q) Q) Q) Q) Q) Q) Q) Q) Q) Q) Q) Q) Q) Q) Q) Q) Q) Q) D) Q) k) r! #+ G~ [%.,[ 0/ 0/ 0/ 0/ 0/ 0/ 0/ 0/ 0/ 0/ 0/ 0/ 0/ [q  e 4Q -^ p~ 8) +~ +~ +~ M6 U} ~9 X, +i na a0 G- G- G- h0 r!.!a g* m% }% ]% _$ _$ _$ _$ _$ _$ _$ _$ _$ _$ _$ _$ _$ P# /# 5@ *@ n+ N+ =+ K  c. c. B  Z. x  S] |{ 4] )) 4^ 5^ V'.|!._/ _/ _/ _/ _/ _/ 3# b@ b@ b@ *. 3# _/ _/ _/ _/ _/ _/ _/ _/ _/ _/ _/ _/ _/ _/ _/ _/ _/ _/ _/ _/ _/ _/ _/ _/ _/ *. b@ b@ b@ b@ b@ b@ b@ b@ b@ Z& u+ u+ u+ u+ u+ u+ u+ ",
"#/ #/ #/ #/ #/ 21 21 21 21 21 21 21 21 21 21 21 21 21 21 21 21 21 21 21 21 21 21 21 21 21 21 /r J).^&.2!.2!.2!.2!.2!.2!.s!.t!.u!.v!.w!.}'.}'.}'.}'.3~ >!.>!.>!.>!.x!.~).w).c).X).().4!.8!.s+.m  R. D  c. h+ =+ M+ N+ ^# =@ 5@ /# /# P# _$ _$ _$ _$ _$ _$ _$ _$ _$ @% d% 4% m% y!.H> M- G- G- G- V; z!.KO $& B3 1{ 39 }6 H3 W. +~ +~ L! r! 8)  % ^^ 0/ 0/ 0/ 0/ 0/ 0/ 0/ 0/ 0/ 0/ k^ .e LR Y] O{ Y! W< `) i^  !  ! k) k) k) k) k) k) k) k) k) k) k) k) k) k) k) k) k) k) k) k) k) k) k) k) k)  ! k) C( r! [B y| y| h+ 7; %T ,[ 0/ 0/ 0/ 0/ 0/ 0/ 0/ 0/ 0/ 0/ 0/ 0/ 0/ 0/ 0/ 0/ 0/ 0/ 0/ 0/ 0/ 0/ 0/ 0/ 0/ 0/ 0/ 0/ 0/ 0/ 0/ 0/ 0/ 0/ 0/ 0/ 0/ 0/ 0/ 0/ 0/ 0/ 0/ 0/ 0/ 0/ 0/ 0/ 0/ 0/ 0/ 0/ 0/ 0/ 0/ 0/ 0/ 0/ 0/ 0/ 0/ 0/ 0/ 0/ 0/ 0/ 0/ 0/ 0/ 0/ 0/ 0/ 0/ 0/ 0/ 0/ 0/ 0/ 0/ 0/ 0/ 0/ 0/ 0/ 0/ 0/ 0/ 0/ 0/ 0/ 0/ 0/ 0/ 0/ 0/ 0/ 0/ 0/ 0/ 0/ 0/ 0/ 0/ 0/ 0/ 0/ 0/ 0/ 0/ 0/ 0/ 0/ 0/ 0/ 0/ 0/ 0/ 0/ 0/ 0/ 0/ 0/ 0/ 0/ 0/ 0/ 0/ 0/ 0/ 0/ 0/ 0/ 0/ 0/ 0/ 0/ 0/ 0/ 0/ c3 a+.X^ Q{ Q{ Q{ Q{ Q{ Q{ Q{ Q{ Q{ Q{ Q{ Q{ Q{ Q{ Q{ Q{ X^ wc bk 0/ 0/ 0/ 0/ 0/ ,[ 0/ 5] 5@ E  0u [B }B 5^ k)  ! k) k) k) k) k) k) k) k) k) k) k) k) k) k) k) k) k) k) k) k) k) k) k) k) k) k) k) k) k) D) k) ~) A!.!>.di [%.,[ 0/ 0/ 0/ 0/ 0/ 0/ 0/ 0/ 0/ 0/ 0/ 0/ w[ I;.La 4Q -^ p~ 8) +~ +~ +~ M6 U} H/ X, K% na C- G- G- G- h0 B!.>z r% l% f% @% _$ _$ _$ _$ _$ _$ _$ _$ _$ _$ _$ _$ _$ P# /# 5@ *@ n+ N+ =+ K  c. c. B  Z. x  S] |{ 4] )) 4^ 5^ C!.|!._/ _/ _/ _/ _/ _/ 3# b@ b@ b@ b@ b@ b@ *. X1 _/ _/ _/ _/ _/ _/ _/ _/ _/ _/ _/ _/ _/ _/ _/ _/ _/ _/ _/ _/ _/ _/ E@ <1 b@ b@ b@ b@ b@ b@ b@ {+ u+ u+ u+ u+ u+ u+ u+ u+ ",
"#/ #/ #/ #/ #/ h$ 21 21 21 21 21 21 21 21 21 21 21 21 21 21 21 21 21 21 21 21 0( ;( m| m| m| D!.Bz 2!.2!.2!.2!.2!.d&.E!.F!.G!.v!.v!.v!.}'.}'.}'.}'.}'.H!.I!.>!.>!.x!.~).w).c).X).().4!.8!.s+.i  8. D  c. h+ =+ M+ N+ ^# =@ 5@ /# /# P# _$ _$ _$ _$ _$ _$ _$ _$ _$ +% d% 4% m% =0 H> M- G- G- G- V; z!.D& N% B3 ^h $^ }6 H3 x! +~ +~ L! r! 8)  % ^^ 0/ 0/ 0/ 0/ 0/ 0/ 0/ 0/ 0/ 0/ k^ N .p%.c/ O{ +4 e+ w] k)  ! k) k) k) k) k) k) k) k) k) k) k) k) k) k) k) k) k) k) k) k) k) k) @{ @{ @{ @{ @{ @{ @{ `) ~) g{ ,5 i+ 7; %T ,[ 0/ 0/ 0/ 0/ 0/ 0/ 0/ 0/ 0/ 0/ 0/ 0/ 0/ 0/ 0/ 0/ 0/ 0/ 0/ 0/ 0/ 0/ 0/ 0/ 0/ 0/ 0/ 0/ 0/ 0/ 0/ 0/ 0/ 0/ 0/ 0/ 0/ 0/ 0/ 0/ 0/ 0/ 0/ 0/ 0/ 0/ 0/ 0/ 0/ 0/ 0/ 0/ 0/ 0/ 0/ 0/ 0/ 0/ 0/ 0/ 0/ 0/ 0/ 0/ 0/ 0/ 0/ 0/ 0/ 0/ 0/ 0/ 0/ 0/ 0/ 0/ 0/ 0/ 0/ 0/ 0/ 0/ 0/ 0/ 0/ 0/ 0/ 0/ 0/ 0/ 0/ 0/ 0/ 0/ 0/ 0/ 0/ 0/ 0/ 0/ 0/ 0/ 0/ 0/ 0/ 0/ 0/ 0/ 0/ 0/ 0/ 0/ 0/ 0/ 0/ 0/ 0/ 0/ 0/ 0/ 0/ 0/ 0/ 0/ 0/ 0/ 0/ 0/ 0/ 0/ 0/ 0/ 0/ 0/ 0/ 0/ 0/ 0/ /( c+.J!.b/ Q{ Q{ Q{ Q{ Q{ Q{ Q{ Q{ Q{ Q{ Q{ Q{ Q{ Q{ Q{ Q{ Q{ +^ [% `e C: 0/ 0/ 0/ ,[ 0/ 4| v# B  r*.!) ,! @{ @{ k) k) k) k) k) k) k) k) k) k) k) k) k) k) k) k) k) k) k) k) k) k) k) k) k) k) k) k) k) k) k) w] g{ y| {# di [%.,[ 0/ 0/ 0/ 0/ 0/ 0/ 0/ 0/ 0/ 0/ 0/ 0/ w[ 0&.H: fx -^ p~ 8) +~ +~ +~ 8] 97 H/ Sf re N= C- t- G- t- '- B!.'z pC l% <% .% _$ _$ _$ _$ _$ _$ _$ _$ _$ _$ _$ _$ _$ P# /# 5@ *@ n+ N+ =+ K  c. c. B  Z. x  S] |{ 4] )) 4^ 5^ C!.|!._/ _/ _/ _/ _/ _/ 3# b@ b@ b@ b@ b@ b@ b@ b@ b@ E@ _/ _/ _/ _/ _/ _/ _/ _/ _/ _/ _/ _/ _/ _/ _/ _/ _/ _/ _/ _/ _/ _/ _/ <1 b@ b@ b@ b@ b@ u+ u+ u+ u+ u+ u+ u+ u+ u+ ",
"#/ #/ #/ #/ #/ #/ T# 21 21 21 21 21 21 21 21 21 21 21 21 21 21 21 21 21 6s =S 2!.2!.2!.2!.2!.2!.2!.2!.2!.2!.2!.K!.L!.M!.N!.v!.v!.v!.O!.E).}'.}'.}'.}'.P!.Q!.A&.>!.x!.~).w).c).X).().4!.8!.s+.i  O. d+ c. h+ =+ M+ N+ ^# =@ 5@ /# /# P# _$ _$ _$ _$ _$ _$ _$ _$ _$  % d% 4% ld J8 H> M- G- G- G- V; z!.D& N% kf Ze $^ k{ }2 x! +~ +~ L! r! 8)  % ^^ 0/ 0/ 0/ 0/ 0/ 0/ 0/ 0/ 0/ k^ C;.n .y[ (^ F/ ~*./| q! ~/ k) k) k)  !  !  ! i^ i^ i^ i^ i^ i^ Q) Q) Q) Q) Q) Q) J! J! J! {/ {/ {/ {/ {/ {/ {/ {/ .! T] {/ `) (! R!.P# %T ,[ 0/ 0/ 0/ 0/ 0/ 0/ 0/ 0/ 0/ 0/ 0/ 0/ 0/ 0/ 0/ 0/ 0/ 0/ 0/ 0/ 0/ 0/ 0/ 0/ 0/ 0/ 0/ 0/ 0/ 0/ 0/ 0/ 0/ 0/ 0/ 0/ 0/ 0/ 0/ 0/ 0/ 0/ 0/ 0/ 0/ 0/ 0/ 0/ 0/ 0/ 0/ 0/ 0/ 0/ 0/ 0/ 0/ 0/ 0/ 0/ 0/ 0/ 0/ 0/ 0/ 0/ 0/ 0/ 0/ 0/ 0/ 0/ 0/ 0/ 0/ 0/ 0/ 0/ 0/ 0/ 0/ 0/ 0/ 0/ 0/ 0/ 0/ k^ k^ k^ 0/ 0/ 0/ 0/ 0/ 0/ 0/ 0/ 0/ 0/ 0/ 0/ 0/ 0/ 0/ 0/ 0/ 0/ 0/ 0/ 0/ 0/ 0/ 0/ 0/ 0/ 0/ 0/ 0/ 0/ 0/ 0/ 0/ 0/ 0/ 0/ 0/ 0/ 0/ 0/ 0/ 0/ 0/ 0/ 0/ 0/ 0/ 0/ /( S!.b/ i_ Q{ Q{ Q{ Q{ Q{ Q{ Q{ Q{ Q{ Q{ Q{ Q{ Q{ Q{ Q{ Q{ W( M_ W' %| 0/ 0/ 0/ 0/ ,[ 0/ r} M+ r! T!.Q) {/ {/ l) l) J! J! J! J! Q) Q) Q) Q) Q) Q) Q) Q) i^ i^ i^ i^ i^ i^ i^ i^  !  !  !  !  ! k) k) k) k) +! L! B  yw {# di [%.,[ 0/ 0/ 0/ 0/ 0/ 0/ 0/ 0/ 0/ 0/ 0/ 0/ /( L .X^ fx -^ p~ 8) +~ +~ +~ e+ 97 17 wc re N= C- t- G- l; ;c U!.V!.W!.j% <% +% _$ _$ _$ _$ _$ _$ _$ _$ _$ _$ _$ _$ _$ P# /# 5@ *@ n+ N+ =+ K  c. c. B  Z. x  S] |{ 4] )) 4^ 5^ X!.|!._/ _/ _/ _/ _/ _/ *. b@ b@ b@ b@ b@ b@ b@ b@ b@ b@ b@ E@ _/ _/ _/ _/ _/ _/ _/ _/ X1 _/ _/ _/ _/ _/ _/ _/ _/ _/ _/ _/ _/ *. b@ b@ b@ b@ b@ u+ u+ u+ u+ u+ u+ u+ u+ u+ ",
"#/ #/ #/ #/ #/ #/ #/ q. J} 21 21 21 21 21 21 21 21 21 21 21 21 21 0( :g 2!.2!.2!.2!.2!.2!.2!.2!.2!.2!.2!.:!.Y!.F!.M!.Z!.v!.v!.v!.`!.`!. ~.}'.}'.}'.}'.:;.Q!..~.>!.x!.~).w).c).X).().4!.8!.s+.i  h  9+ c. h+ =+ M+ N+ ^# =@ 5@ /# /# P# _$ _$ _$ _$ _$ _$ _$ _$ Q#  % _% 4% `d NO Nh M- G- G- G- bi Ye ** 4& M2 X, w( k{ }2 +~ +~ +~ L! r! 8)  % ^^ 0/ 0/ 0/ 0/ 0/ 0/ 0/ 0/ 0/ k^ >[ _% H: (^ F/  z f{ 44 +~.k) i^ Q) Q) Q) Q) Q) Q) Q) i^ i^ i^ Q) Q) Q) Q) Q) Q) Q) Q) Q) Q) J! J! J! J! J! J! {/ {/ l) l) Q) /_ E) n{ a[ ,[ 0/ 0/ 0/ 0/ 0/ 0/ 0/ 0/ 0/ 0/ 0/ 0/ 0/ 0/ 0/ 0/ 0/ 0/ 0/ 0/ 0/ 0/ 0/ 0/ 0/ 0/ 0/ 0/ 0/ 0/ 0/ 0/ 0/ 0/ 0/ 0/ 0/ 0/ 0/ 0/ 0/ 0/ 0/ 0/ 0/ 0/ 0/ 0/ 0/ 0/ 0/ 0/ 0/ 0/ 0/ 0/ 0/ 0/ 0/ 0/ 0/ 0/ 0/ 0/ 0/ 0/ C: C: C: C: C: C: C: C: C: C: 0/ 0/ 0/ 0/ 0/ 0/ 0/ 0/ 0/ 0/ 0/ 0/ k^ k^ k^ 0/ 0/ 0/ 0/ 0/ 0/ 0/ 0/ 0/ 0/ 0/ 0/ 0/ 0/ 0/ 0/ 0/ 0/ 0/ 0/ 0/ 0/ 0/ 0/ 0/ 0/ 0/ 0/ 0/ 0/ 0/ 0/ 0/ 0/ 0/ 0/ 0/ 0/ 0/ 0/ 0/ 0/ 0/ 0/ 0/ 0/ 0/ /( L .c/ i_ Q{ Q{ Q{ Q{ Q{ Q{ Q{ Q{ Q{ Q{ Q{ Q{ Q{ o^ W( W( zx o^ LR SO /( 0/ 0/ 0/ ,[ m` X$ Y. k) {/ J! J! J! J! Q) Q) Q) Q) Q) Q) Q) Q) Q) Q) Q) Q) Q) i^ i^ i^ i^ i^ Q) Q) Q) Q) Q) Q) J! Q) Q) Q) D) ~/ q! ;[ yw y| y@ di [%.,[ 0/ 0/ 0/ 0/ 0/ 0/ 0/ 0/ 0/ 0/ 0/ 0/ (4 ^z b/ fx -^ p~ 8) +~ +~ +~ Z. 97 17 j3 re N= C- t- t- l; h0 @~.#~.!a 8a :% Z$ _$ _$ _$ _$ _$ _$ _$ _$ _$ _$ _$ _$ _$ P# /# 5@ *@ n+ N+ =+ K  c. c. B  Z. x  S] |{ 4] )) 4^ 5^ X!.|!._/ _/ _/ _/ _/ X1 b@ b@ b@ b@ b@ b@ b@ b@ b@ b@ b@ b@ b@ b@ E@ _/ _/ _/ 3# *. b@ b@ *. _/ _/ _/ _/ _/ _/ _/ _/ _/ _/ _/ b@ b@ b@ b@ b@ b@ u+ u+ u+ u+ u+ u+ u+ u+ u+ ",
"#/ #/ #/ #/ #/ #/ #/ #/ #/ q. J} 21 21 21 21 21 21 21 21 21 21 21 $~.2!.2!.2!.2!.2!.2!.2!.2!.2!.2!.2!.%~.&~.*~.F!.Z!.v!.v!.v!.v!.`!.`!. ~.}'.}'.}'.}'.F^ Q!.=~.>!.-~.~).w).c).X).().4!.8!.s+.i  4. M. c. h+ =+ M+ N+ ^# =@ 5@ /# /# P# _$ _$ _$ _$ _$ _$ _$ _$ Q# Z$ _% 4% kb <,.J> T; G- t- G- bi N> B& L% M2 X, ~9 k{ }2 +~ +~ +~ L! r! 8)  % ^^ 0/ 0/ 0/ 0/ 0/ 0/ 0/ 0/ 0/ C: ha  e X^ (^ F/ +4 *+ 0u -0 r! 8) :{ :{ L! +~ ]^ ]^ ]~ W. p~ p~ Y. Y. )t )t ;~.>~.,~.,~.,~.o1 M{ %+ u{ u{ (1 (1 A( A( U  U/ U/ U/ o{ `: Z! C: 0/ 0/ 0/ 0/ 0/ 0/ 0/ 0/ 0/ 0/ 0/ 0/ 0/ 0/ 0/ 0/ 0/ 0/ 0/ 0/ 0/ 0/ 0/ 0/ 0/ 0/ 0/ 0/ 0/ 0/ 0/ 0/ 0/ 0/ 0/ 0/ 0/ 0/ 0/ 0/ 0/ 0/ 0/ 0/ 0/ 0/ 0/ 0/ 0/ 0/ 0/ 0/ 0/ 0/ 0/ 0/ 0/ 0/ 0/ 0/ 0/ 0/ k^ C: C: C: C: C: k^ k^ k^ C: C: C: C: C: k^ k^ k^ 0/ 0/ 0/ 0/ 0/ C: 0/ [q f% SO /( C: C: 0/ 0/ 0/ 0/ 0/ 0/ 0/ 0/ 0/ 0/ 0/ 0/ 0/ 0/ 0/ 0/ 0/ 0/ 0/ 0/ 0/ 0/ 0/ 0/ 0/ 0/ 0/ 0/ 0/ 0/ 0/ 0/ 0/ 0/ 0/ 0/ 0/ 0/ 0/ 0/ 0/ 0/ 0/ 0/ 0/ 0/ /( |% %..La B< Q{ Q{ Q{ Q{ Q{ Q{ Q{ Q{ Q{ W( W( o^ W( W( W( zx ]z H: <% >[ C: 0/ 0/ ] .}n *% q| %+ %+ u{ '~.M{ q~ ,~.,~.,~.>~.>~.82 8] ^( )t )t )t Y. Y. Y. p~ p~ 0| 0| ]^ ]^ ]^ +~ +~ L! :{ :{ :{ 8) 6~ )~.!~.~~.j4 y| y@ di [%.,[ 0/ 0/ 0/ 0/ 0/ 0/ 0/ 0/ 0/ 0/ 0/ 0/ &e wc Q{ fx -^ p~ 8) +~ +~ +~ e+ f} z] j3 0b N= D- t- t- l; h0 @~.#~.Tx {~._% Z$ _$ _$ _$ _$ _$ _$ _$ _$ _$ _$ _$ _$ _$ P# /# 5@ *@ n+ N+ =+ K  c. c. B  Z. x  S] |{ 4] )) 4^ 5^ X!.|!._/ _/ 3# E@ *. b@ b@ b@ b@ b@ b@ b@ b@ b@ b@ b@ b@ b@ b@ b@ b@ b@ b@ b@ b@ b@ b@ b@ b@ b@ 3# _/ _/ _/ _/ _/ _/ _/ _/ *. b@ b@ b@ b@ b@ b@ Z& u+ u+ u+ u+ u+ u+ u+ u+ ",
"#/ #/ #/ #/ #/ #/ #/ #/ #/ #/ #/ T# 21 21 21 21 21 21 21 21 21 ]~.2!.2!.2!.2!.2!.2!.2!.2!.2!.2!.2!.^~.&~.&~./~.F!.v!.v!.v!.v!.v!.`!.`!. ~.}'.}'.}'.}'.Q!.Q!.=~.>!.x!.~).w).c).X).().4!.8!.s+.i  4. 5+ .+ h+ $+ *+ M+ ^# =@ 5@ /# /# P# _$ _$ _$ _$ _$ _$ _$ _$ _$ Z$ _% 4% kb ^z J> T; t- t- t- vc N> B& L% 'd Sf ~9 k{ }2 +~ +~ +~ L! r! 8)  % ^^ 0/ 0/ 0/ 0/ 0/ 0/ 0/ 0/ k^ k^ g% fx Q{ (^ F/ +4 u{ y| ,5 %+ o{ [! E$ F$ F$ E$ W$ X$ *% (( +% +% [: b= b= b} ^% F} F} K5 K5 4| p( p( p( Ax Gk +{ ,/ .< G4 m~ M .m~ ^^ y/ C: 0/ 0/ 0/ 0/ 0/ 0/ 0/ 0/ 0/ 0/ 0/ 0/ 0/ 0/ 0/ 0/ 0/ 0/ 0/ 0/ 0/ 0/ 0/ 0/ 0/ 0/ 0/ 0/ 0/ 0/ 0/ 0/ 0/ 0/ 0/ 0/ 0/ 0/ 0/ 0/ 0/ 0/ 0/ 0/ 0/ 0/ 0/ 0/ 0/ 0/ 0/ 0/ 0/ 0/ 0/ 0/ 0/ 0/ 0/ 0/ C: C: C: 3..k^ %| .e |% m .(~.0&.d% E% E% }% h% R` k^ N$.k^ 0/ 0/ 0/ C: C: m` W' +^ w..jz k^ N$.k^ 0/ 0/ 0/ 0/ 0/ 0/ 0/ 0/ 0/ 0/ 0/ 0/ 0/ 0/ 0/ 0/ 0/ 0/ 0/ 0/ 0/ 0/ 0/ 0/ 0/ 0/ 0/ 0/ 0/ 0/ 0/ 0/ 0/ 0/ 0/ 0/ 0/ 0/ 0/ 0/ 0/ 0/ 0/ 0/ 0/ 0/ /( %| bk S' B< Q{ Q{ Q{ Q{ Q{ Q{ Q{ Q{ $-.W( Q{ !x /Y wc wc p%.p%.6; m` k^ k^ 0/ 0/ ^^ G4 Ax `! `! ;a U( 4| 4| 4| F} :| :| 9| U< b} b= b= b= b= [: [: (( `: *% _~.Y$ W$ W$ F$ F$ F$ F$ E$ E$ E$ H$ U@ Dx aZ Dx y| y| y@ di [%.,[ 0/ 0/ 0/ 0/ 0/ 0/ 0/ 0/ 0/ 0/ 0/ 0/ [q wc X^ fx -^ p~ 8) +~ +~ +~ Y. f} 3^ K6 0b N= C- t- t- l; h0 @~.S+.)a T{ _% X$ _$ _$ _$ _$ _$ _$ _$ _$ _$ _$ _$ _$ _$ P# /# 5@ *@ n+ N+ =+ K  c. c. B  Z. x  S] |{ 4] )) 4^ 5^ X!.:~._/ _/ b@ b@ b@ b@ b@ b@ b@ b@ b@ b@ b@ b@ b@ b@ b@ b@ b@ b@ b@ b@ b@ b@ b@ b@ b@ b@ b@ b@ b@ *. _/ _/ _/ _/ _/ X1 <1 b@ b@ b@ b@ b@ b@ b@ {+ u+ u+ u+ u+ u+ u+ u+ u+ ",
"#/ #/ #/ #/ #/ #/ #/ #/ #/ #/ #/ F, 21 21 21 21 21 21 21 21 21 $~.2!.2!.2!.2!.2!.2!.2!.2!.2!.2!.2!.<~.&~.&~.[~.F!.}~.v!.v!.v!.v!.|~.`!. ~.}'.}'.}'.}'.Q!.Q!.#' >!.1~.~).w).c).X).().4!.8!.s+.i  4. |. b+ 8] }^ <) U1 U/ t# 5@ /# /# P# _$ _$ _$ _$ _$ _$ _$ _$ _$ Z$ _% |% 2~.Ze J> O- t- t- t- vc ,d B& L% ld wc H/ k{ }2 +~ +~ +~ L! r! 8)  % ^^ 0/ 0/ 0/ 0/ 0/ 0/ 0/ 0/ k^ 0/ e% H: Q{ (^ F/ +4 u{ <! j4 e# 4| >[ 0/ 0/ 0/ /( /( 0/ 0/ 0/ 0/ ] .] .] .+j +j .j ,[ ,[ ,[ ,[ ,[ V/ N{ N{ N{ N{ V/ V/ ,[ $5 $5 $5 ,[ ,[ 0/ 0/ 0/ 0/ 0/ 0/ 0/ 0/ 0/ 0/ 0/ 0/ 0/ 0/ 0/ 0/ 0/ 0/ 0/ 0/ 0/ 0/ 0/ 0/ 0/ 0/ 0/ 0/ 0/ 0/ 0/ 0/ 0/ 0/ 0/ 0/ 0/ 0/ 0/ 0/ 0/ 0/ 0/ 0/ 0/ 0/ 0/ 0/ 0/ 0/ 0/ 0/ 0/ 0/ 0/ 0/ 0/ 0/ 0/ C: [!.C: 0/ ^^ [q Q` d% ^h /Y .^ Y] (^ Q{ (^ (^ Y] __ K,.^z n .%| 0/ C: C: 0/ C: 0/ SO 4Q Q{ __ 6; %| N$.k^ 0/ 0/ 0/ 0/ 0/ 0/ 0/ 0/ 0/ 0/ 0/ C: C: C: C: C: C: C: k^ 0/ 0/ 0/ 0/ 0/ 0/ 0/ 0/ 0/ 0/ 0/ 0/ 0/ 0/ 0/ 0/ 0/ 0/ 0/ 0/ 0/ 0/ 0/ 0/ 0/ 0/ 0/ C: C: C: Q` +^ Q{ Q{ Q{ Q{ Q{ Q{ o^ X^ !x e,.^z f% [q ^^ %| '+.E% h% /( 0/ 0/ 0/ 0/ w[ k^ ,[ N{ N{ ,[ ,[ ,[ ,[ ,[ ,[ ,[ ,[ ,[ +j .j .j .j +j 0/ ] .] .0/ 0/ 0/ 0/ 0/ /( /( /( 0/ 0/ 0/ 0/ 0/ ,[ %| (( N+ B  y| y| y| y@ di [%.,[ 0/ 0/ 0/ 0/ 0/ 0/ 0/ 0/ 0/ 0/ 0/ 0/ '+.LR X^ fx -^ p~ 8) +~ +~ +~ W. [2 3^ K6 <d N= D- l; t- J- '- 3~.h+.>z oz _% V$ _$ _$ _$ _$ _$ _$ _$ _$ _$ _$ _$ _$ _$ P# /# 5@ *@ n+ N+ =+ K  c. c. B  Z. x  S] |{ 4] )) 4^ 5^ c).4~._/ _/ E@ b@ b@ b@ b@ b@ b@ b@ b@ b@ b@ b@ b@ b@ b@ b@ b@ b@ b@ b@ b@ b@ b@ b@ b@ b@ b@ b@ b@ b@ b@ 3# X1 E@ b@ b@ b@ b@ b@ b@ b@ b@ b@ b@ F# u+ u+ u+ u+ u+ u+ u+ u+ ",
"#/ #/ #/ #/ #/ #/ #/ #/ #/ #/ T# 21 21 21 21 21 21 21 21 21 21 :g 2!.2!.2!.2!.2!.2!.2!.2!.2!.2!.2!.l# &~.&~.5~.F!.6~.v!.v!.v!.v!.|~.`!. ~.}'.}'.}'.}'.+).Q!.Q!.>!.7~.~).w).c).X).().4!.8!.s+.i  4. N. |. #@ d  @@ :. <^ ,+ 5@ /# /# P# _$ _$ _$ _$ _$ _$ _$ _$ _$ X$ _% |% Dp %..J> O- l; t- t- vc ,d a, L% 'd wc H/ k{ U1 a! +~ +~ L! r! 8)  % ^^ 0/ 0/ 0/ 0/ 0/ 0/ 0/ 0/ 0/ 0/ d% H: Q{ (^ O{ o2 u{ <! j4 :$ x] C: N{ N{ N{ ,[ ,[ ,[ ,[ ,[ ,[ ,[ ,[ ,[ ,[ ,[ ,[ ,[ ,[ ,[ ,[ ,[ ,[ C: C: C: C: C: k^ 0/ 0/ 0/ 0/ 0/ 0/ 0/ 0/ 0/ 0/ 0/ 0/ 0/ 0/ 0/ 0/ 0/ 0/ 0/ 0/ 0/ 0/ 0/ 0/ 0/ 0/ 0/ 0/ 0/ 0/ 0/ 0/ 0/ 0/ 0/ 0/ 0/ 0/ 0/ 0/ 0/ 0/ 0/ 0/ 0/ 0/ 0/ 0/ 0/ 0/ 0/ 0/ 0/ 0/ 0/ 0/ 0/ 0/ 0/ 0/ 0/ 0/ C: C: C: 3..y/ a[ e% S' /Y .^ X^ X^ Q{ o^ zx zx zx zx zx W( W( W( Q{ H: wc }% /( C: C: C: %| S' B< W( o^ fx Q` y/ [!.C: 0/ 0/ 0/ 0/ C: C: C: 3..3..C: 0/ m` &e [q %| `e C: 3..3..C: C: k^ 0/ 0/ 0/ 0/ 0/ 0/ 0/ 0/ 0/ 0/ 0/ 0/ 0/ 0/ 0/ 0/ 0/ 0/ 0/ 0/ 0/ 0/ 0/ 0/ 0/ C: C, .^ Q{ Q{ Q{ Q{ o^ Q{ !x Ze }% Nn m` 0/ 0/ C: C: 0/ `e `e 0/ 0/ 0/ 0/ 0/ k^ C: C: C: C: ,[ ,[ ,[ ,[ ,[ ,[ ,[ ,[ ,[ ,[ ,[ ,[ ,[ ,[ ,[ ,[ ,[ ,[ ,[ ,[ ,[ ,[ ,[ ,[ ,[ N{ N{ N{ N{ N{ /^ `e U] y@ B  y| y| y| y@ di [%.,[ 0/ 0/ 0/ 0/ 0/ 0/ 0/ 0/ 0/ 0/ 0/ 0/ SO LR X^ fx -^ p~ 8) +~ +~ +~ x! a$ 3^ G} <d N= D- l; t- J- ;c 3~.h+.>z J$  e ,' _$ _$ _$ _$ _$ _$ _$ _$ _$ _$ _$ _$ _$ P# /# 5@ *@ n+ N+ =+ K  c. c. B  Z. x  S] |{ 4] )) 4^ 5^ c).48 _/ _/ _/ b@ b@ b@ b@ b@ b@ b@ b@ b@ b@ b@ b@ b@ b@ b@ b@ b@ b@ b@ b@ b@ b@ i= {+ {+ F# F# i= &. &. b@ b@ b@ b@ b@ b@ b@ b@ b@ b@ b@ b@ b@ i= u+ u+ u+ u+ u+ u+ u+ u+ ",
"#/ #/ #/ #/ #/ #/ #/ #/ #/ ~' 21 21 21 21 21 21 21 21 21 21 21 0( yp 2!.2!.2!.2!.2!.2!.2!.2!.2!.^~.8~.&~.&~.&~.9~.0~.v!.v!.v!.v!.|~.`!. ~.}'.}'.}'.}'.a~.Q!.Q!.)< b~.~).w).c).X).().4!.8!.s+.i  4. N. |. |. e  @@ S@ 7  ~[ t# /# /# P# _$ _$ _$ _$ _$ _$ _$ _$ _$ F$ (% g% Dp w..z9 O- l; t- t- vc ,d a, J% q2 wc H/ &5 %} a! +~ +~ L! r! 8) N' ^^ 0/ 0/ 0/ 0/ 0/ 0/ 0/ 0/ 0/ /( 6; H: Q{ (^ O{ o2 u{ <! yw P# =X 0/ 0/ 0/ 0/ 0/ 0/ 0/ 0/ 0/ 0/ 0/ 0/ 0/ 0/ 0/ 0/ 0/ 0/ 0/ 0/ 0/ 0/ 0/ 0/ 0/ 0/ 0/ 0/ 0/ 0/ 0/ 0/ 0/ 0/ 0/ 0/ 0/ 0/ 0/ 0/ 0/ 0/ 0/ 0/ 0/ 0/ 0/ 0/ 0/ 0/ C: C: C: C: C: C: C: 3..3..C: 3..C: C: C: C: C: 0/ 0/ 0/ 0/ 0/ 0/ 0/ 0/ 0/ 0/ 0/ 0/ 0/ 0/ 0/ 0/ 0/ 0/ 0/ 0/ 0/ C: 3..C: C: 0/ %| e_ _% 4Q H: X^ Q{ W( W( W( Q{ Q{ Q{ Q{ Q{ Q{ Q{ Q{ Q{ o^ o^ W( Q{ WO E% o&.N{ >[ _% <v o^ Q{ W( X^ wc g% 0/ 3..3..3..3..C: 0/ /( (4 ha .e |% J8 ^z l .LR wc t6 Q` ha %| `e C: 3..[!.3..C: C: C: 0/ 0/ 0/ 0/ 0/ 0/ 0/ 0/ 0/ 0/ 0/ 0/ 0/ 0/ 0/ 0/ 0/ 0/ 0/ 0/ C: C, qR Q{ Q{ Q{ o^ o^ !x NO Nn `e C: C: C: 0/ 0/ k^ C: C: 0/ 0/ 0/ 0/ 0/ 0/ 0/ 0/ 0/ 0/ 0/ 0/ 0/ 0/ 0/ 0/ 0/ 0/ 0/ 0/ 0/ 0/ 0/ 0/ 0/ 0/ 0/ 0/ 0/ 0/ 0/ 0/ 0/ 0/ 0/ 0/ 0/ 0/ 0/ 0/ ,[ ,[ ^^ `: Q[ B  y| y| y| y@ di [%.,[ 0/ 0/ 0/ 0/ 0/ 0/ 0/ 0/ 0/ 0/ 0/ 0/ h% l .X^ fx -^ p~ 8) +~ +~ +~ x! a$ }6 G} Ic N= D- l; t- l; j0 3~.c~.'a rz 4Q C$ _$ _$ _$ _$ _$ _$ _$ _$ _$ _$ _$ _$ _$ P# /# 5@ *@ n+ N+ =+ K  c. c. B  Z. x  S] |{ 4] )) 4^ 5^ c).48 `| _/ _/ _/ *. b@ b@ b@ b@ b@ b@ b@ b@ b@ b@ b@ b@ b@ b@ b@ b@ b@ b@ i= u+ u+ u+ u+ u+ u+ u+ u+ u+ %t {+ Ds i= &. b@ b@ b@ b@ b@ b@ b@ b@ &. u+ u+ u+ u+ u+ u+ u+ u+ ",
"#/ #/ #/ #/ #/ #/ #/ #/ #/ 21 21 21 21 0( .v Wt Wt q: 21 21 21 21 d~.^~.2!.2!.2!.2!.2!.2!.$~. | 21 e~.&~.&~.&~./~.f~.v!.v!.v!.v!.g~.`!. ~.}'.}'.}'.}'.h~.Q!.Q!.i~.j~.~).w).c).X).().4!.8!.s+.i  4. N. |. |. e  @@ S@ 7  /. Q4 /# /# P# _$ _$ _$ _$ _$ _$ _$ _$ _$ C$ $% g% rC .# z9 O- l; t- t- vc N> z& J% .c K6 17 [6 %} a! +~ +~ L! r! 8) N' ^^ 0/ 0/ 0/ 0/ 0/ 0/ 0/ 0/ 0/ /( 6; H: Q{ (^ F/ +4 u{ <! yw P# =X >[ 0/ 0/ 0/ 0/ 0/ 0/ 0/ 0/ 0/ 0/ 0/ 0/ 0/ 0/ 0/ 0/ 0/ 0/ 0/ 0/ 0/ 0/ 0/ 0/ 0/ 0/ 0/ 0/ 0/ 0/ 0/ 0/ 0/ 0/ 0/ 0/ 0/ 0/ 0/ 0/ 0/ C: C: C: 3..3..[!.3..3..C: k^ 0/ /( ^^ ^^ ^^ %| %| &e %| %| >[ 0/ 0/ +j C: C: p+.[!.[!.3..3..C: C: C: C: C: C: C: C: C: C: C: 3..[!.C: C: `e &e bk 6; wc ][ B< Q{ W( Q{ Q{ Q{ Q{ Q{ Q{ Q{ Q{ Q{ Q{ Q{ Q{ Q{ Q{ Q{ Q{ o^ o^ Q{ .# SO Nn <% *1 M^ Q{ Q{ Q{ Q{ Y] .# J8 c3 ha [q .e '+.e% W' Ze .# p%.!x x1 X^ M^ X^ X^ M_ *^ La X, `' C, [q %| >[ /( C: [!.$5 V/ C: C: 0/ 0/ 0/ 0/ 0/ 0/ 0/ 0/ 0/ 0/ 0/ 0/ 0/ 0/ 0/ 0/ 0/ &e |2 B< zx zx Q{ +^ i&.(4 C: C: 0/ 0/ 0/ 0/ 0/ 0/ 0/ 0/ 0/ 0/ 0/ 0/ 0/ 0/ 0/ 0/ 0/ 0/ 0/ 0/ 0/ 0/ 0/ 0/ 0/ 0/ 0/ 0/ 0/ 0/ 0/ 0/ 0/ 0/ 0/ 0/ 0/ 0/ 0/ 0/ 0/ 0/ 0/ 0/ 0/ 0/ 0/ 0/ ,[ ,[ ^^ `: Q[ B  y| y| y| y@ di [%.,[ 0/ 0/ 0/ 0/ 0/ 0/ 0/ 0/ 0/ 0/ 0/ 0/ x..w..b/ fx -^ p~ 8) +~ +~ +~ x! H3 P{ V< Gb N= z- J- l; J- ;c 3~.c~.'a tz +^ C$ _$ _$ _$ _$ _$ _$ _$ _$ _$ _$ _$ _$ _$ P# /# 5@ *@ n+ N+ =+ K  c. c. B  Z. x  S] |{ 4] )) 4^ 5^ c).48 t2 _/ _/ _/ _/ X1 <1 b@ b@ b@ b@ b@ b@ b@ b@ b@ b@ b@ b@ b@ `, {+ u+ u+ u+ u+ u+ u+ XW %t 0& $t *+.*+.*+.XW u+ u+ u+ {+ F# &. b@ b@ b@ b@ &. u+ u+ u+ u+ u+ u+ u+ u+ ",
"#/ #/ #/ #/ #/ #/ #/ #/ h$ 21 21 21 q: )u )u )u )u )u )u Wt 0( 21 21 21 D!.m| m| m| D!.0( 21 21 Wt &~.&~.&~.&~.k~.M!.v!.v!.v!.v!.l~.`!. ~.}'.}'.}'.}'.}'.m~.n~.#: o~.~).w).c).X).().4!.8!.s+.i  4. N. |. |. e  @@ S@ 7  _. N# 6@ P# P# _$ _$ _$ _$ _$ _$ _$ _$ _$ C$ $% }% sC .# z9 O- J- l; l; vc N> y& J% |b G} 3^  & o4 a! +~ +~ L! r! 8) N' ^^ 0/ 0/ 0/ 0/ 0/ 0/ 0/ 0/ 0/ `e E% !x Q{ (^ F/ +4 u{ <! yw P# =X >[ 0/ 0/ 0/ 0/ 0/ 0/ 0/ 0/ 0/ 0/ 0/ 0/ 0/ 0/ 0/ 0/ 0/ 0/ 0/ 0/ 0/ 0/ 0/ 0/ 0/ 0/ 0/ 0/ 0/ 0/ 0/ C: C: C: C: C: C: [!.[!.V/ k^ k^ 0/ /( %| %| &e [q e_ Q` e% <% 6; 46 |2 X, X, wc LR  e X, |2 6; <% [% bk G4 ha %| %| ^^ >[ >[ >[ 0/ k^ k^ k^ k^ k^ 0/ 0/ /( .@.%| /p [% t6 wc @^ B< M^ o^ o^ Q{ Q{ Q{ Q{ Q{ Q{ Q{ Q{ Q{ Q{ Q{ Q{ Q{ Q{ Q{ Q{ Q{ Q{ Q{ o^ W( M_ LR %..+^ Q{ Q{ Q{ Q{ Q{ Q{ Q{ (^ !x La 4Q fx +^  @.!x X^ X^ M^ o^ W( W( o^ o^ Q{ Q{ o^ W( Q{ X^ B< *^ fx LR S' 6; Q` jz ha (4 0/ C: C: 3..[!.[!.[!.[!.[!.[!.[!.[!.[!.[!.[!.[!.[!.[!.[!.[!.d1 U' fx p%.S' |% /( k^ C: C: C: C: C: C: C: C: C: C: C: C: C: C: C: C: C: C: k^ k^ 0/ 0/ 0/ 0/ 0/ 0/ 0/ 0/ 0/ 0/ 0/ 0/ 0/ 0/ 0/ 0/ 0/ 0/ 0/ 0/ 0/ 0/ 0/ 0/ 0/ 0/ 0/ 0/ 0/ 0/ ,[ ,[ ^^ `: Q[ B  y| y| y| y@ di [%.,[ 0/ 0/ 0/ 0/ 0/ 0/ 0/ 0/ 0/ 0/ 0/ 0/ (4 %..b/ fx -^ p~ 8) +~ +~ +~ x! H3 k{ _1 Gb O= z- J- l; k; Y9 g3 c~.'a p~.x1 G$ _$ _$ _$ _$ _$ _$ _$ _$ _$ _$ _$ _$ _$ P# /# 5@ *@ n+ N+ =+ K  c. c. B  Z. x  S] |{ 4] )) 4^ 5^ X!.48 q~._/ _/ _/ _/ _/ _/ b@ b@ b@ b@ b@ b@ b@ b@ b@ b@ b@ i= u+ u+ u+ u+ u+ u+ u+ r~.*+.*+.*+.*+.*+.*+.*+.*+.%t u+ u+ u+ u+ u+ u+ {+ &. b@ b@ &. u+ u+ u+ u+ u+ u+ u+ u+ ",
"#/ #/ #/ #/ #/ #/ #/ #/ 21 21 21 21 )u )u )u )u )u )u )u >y e~.>y s~..v .v .v .v .v .v .v >y t~.&~.&~.&~.&~.&~.t~.F!.u~.v!.v!.v!.l~.`!. ~.}'.}'.}'.}'.}'.v~.w~.w~.x!.~).w).c).X).().4!.8!.s+.i  4. N. |. |. e  @@ S@ 7  _. 1) V@ P# P# _$ _$ _$ _$ _$ _$ _$ _$ _$ C$ ]% E% x~.fx J> <; I- l; l; V0 N> y& i& .c G} 3^  & 8] a! +~ +~ L! r! 8) N' ^^ 0/ 0/ 0/ 0/ 0/ 0/ 0/ 0/ k^ 0/ f% !x Q{ (^ F/ +4 u{ <! yw P# =X >[ 0/ 0/ 0/ 0/ 0/ 0/ 0/ 0/ 0/ 0/ 0/ 0/ 0/ 0/ 0/ 0/ 0/ V/ _,._,._,._,.1>.1>.1>.N{ V/ V/ N{ [!.C: C: C: +j 0/ /( /( D*./( (4 P;.|% e% 6; ^z w...# fx p%.+^ +^ .^ .^ !x x1 Y] Y] Y] 2^ Y] x1 __ !x +^ +^ p%.fx La l .%..^z 1{ t6 d% }% |% '+.'+.'+.'+.|% f% J8 L .w..fx qR !x Y] (^ 2^ 2^ 2^ 2^ Y] Y] Y] Y] Y] Y] Y] Y] Y] Y] Y] Y] Y] Y] Y] Y] Y] Y] Y] Y] Y] C< !x __ Y] Y] Y] Y] Y] Y] Y] Y] Y] Y] Y] Y] 2^ i| (^ (^ 2^ 2^ 2^ Y] c/ c/ Y] Y] Y] Y] Y] c/ c/ Y] 2^ (^ Q;.n^ =,.R;.4` 4` l .E,.I;.x..y~.] .] .,[ ,[ ,[ .j .j ] .] .] .] .] .] .] .] .,[ ,[ .j ~4 P;.P;.~4 ] .z~.,[ ,[ ,[ ,[ ,[ ,[ ,[ ,[ $5 $5 N{ N{ N{ N{ 1>.1>.1>.1>.1>.1>.1>.1>._,._,._,._,._,._,._,._,._,.N{ ,[ 0/ 0/ 0/ 0/ 0/ 0/ 0/ 0/ 0/ 0/ 0/ 0/ 0/ 0/ 0/ 0/ 0/ 0/ ,[ ,[ ^^ `: Q[ B  y| y| y| y@ di [%.,[ 0/ 0/ 0/ 0/ 0/ 0/ 0/ 0/ 0/ 0/ 0/ 0/ m` ^z Q{ qR -^ p~ 8) +~ +~ +~ x! }2 k{ _1 Gb N= z- J- l; k; Y9 A~.uz 'a p~.c/ Y  _$ _$ _$ _$ _$ _$ _$ _$ _$ _$ _$ _$ _$ P# /# 5@ *@ n+ N+ =+ K  c. c. B  Z. x  S] |{ 4] )) 4^ 5^ X!.48 K$ _/ _/ _/ _/ _/ _/ b@ b@ b@ b@ b@ b@ b@ b@ b@ &. Z& u+ u+ u+ u+ u+ u+ %t *+.*+.*+.*+.*+.*+.*+.*+.*+.*+.u+ u+ u+ u+ u+ u+ u+ u+ u+ Ds i= u+ u+ u+ u+ u+ u+ u+ u+ u+ ",
"#/ #/ #/ #/ #/ #/ #/ W# 21 21 21 q: )u )u )u )u )u )u t~.&~.&~.&~.&~.&~.&~.&~.&~.&~.&~.&~.&~.&~.&~.&~.&~.&~.&~.&~.*~.B~.v!.v!.v!.C~.`!. ~.}'.}'.}'.}'.}'.D~.w~.w~.x!.~).w).c).X).().4!.8!.s+.i  4. N. |. |. e  @@ S@ 7  6  ~[ [# P# P# _$ _$ _$ _$ _$ _$ _$ _$ _$ c= ]% <% T{ p%.J> <; J- l; l; V0 N> y& H% |b G} 3^ a$ ') -0 +~ +~ L! r! 8) Y$ ^^ 0/ 0/ 0/ 0/ 0/ 0/ 0/ 0/ 0/ 0/ |% qR X^ (^ F/ +4 u{ <! yw P# =X >[ 0/ 0/ 0/ 0/ 0/ 0/ 0/ 0/ 0/ 0/ 0/ 0/ 0/ 0/ 0/ C: 0/ >[ a[ e_ e_ )W ha &e &e %| o+.o+.(4 ^^ ^^ }n jz g% m .i&.<,.^z %..w...# p%. @.__ Y] (^ Q{ W( W( Wx (^ (^ (^ (^ (^ Wx Wx W( W( W( W( i_ Q{ Q{ Q{ W( W( W( Q{ b/ X^ q} B< H: +^  @. @. @. @. @. @.!x _&.X^ Q{ W( o^ Q{ Q{ Q{ Q{ Q{ Q{ Q{ Q{ Q{ Q{ Q{ Q{ Q{ Q{ Q{ Q{ Q{ Q{ Q{ Q{ Q{ Q{ Q{ Q{ o^ o^ o^ o^ W( W( W( i_ i_ 1^ 1^ 1^ 1^ 1^ 1^ 1^ F/ 1^ 1^ Z( 1^ 1^ 1^ F/ F/ F/ F/ 1^ 1^ 1^ 1^ 1^ 1^ 1^ 1^ 1^ 1^ 1^ 1^ 1^ 1^ 1^ 1^ 1^ _^ E~.O{ }: g[ 0; LR UQ U' &% /% /% R' Q' Q' P' P' P'  e  e UQ UQ R' U' U' T' c% W' _% c% c% c% c% c% _% _% :% :% :% U, U, @m @m @m @m [% Q` Q` N .bk bk bk bk e_ e_ e_ e_ e_ e_ e_ .< a[ >[ 0/ C: 0/ 0/ 0/ 0/ 0/ 0/ 0/ 0/ 0/ 0/ 0/ 0/ 0/ 0/ 0/ 0/ ,[ ,[ ^^ `: Q[ B  y| y| y| y@ di [%.,[ 0/ 0/ 0/ 0/ 0/ 0/ 0/ 0/ 0/ 0/ 0/ 0/ /( S!.b/ fx -^ p~ 8) +~ +~ +~ x! U1 k{ X< O0 N= z- J- J- k; Y9 F~.p~.'z p~.Q{ z$ x# _$ _$ _$ _$ _$ _$ _$ _$ _$ _$ _$ _$ P# /# 5@ *@ n+ N+ =+ K  c. c. B  Z. x  S] |{ 4] )) 4^ 5^ X!.48 K$ _/ _/ _/ _/ _/ _/ b@ b@ b@ b@ b@ b@ b@ b@ i= u+ u+ u+ %t %t G~.G~.$t *+.*+.*+.*+.*+.S0 H~.`9 *+.*+.m/ u+ u+ u+ u+ u+ u+ u+ u+ u+ u+ u+ u+ u+ u+ u+ u+ u+ u+ u+ u+ ",
"#/ #/ #/ #/ #/ #/ #/ F, 21 21 21 Wt )u )u )u )u )u t~.&~.&~.&~.&~.&~.&~.&~.&~.&~.&~.&~.&~.&~.&~.&~.&~.&~.&~.&~.&~.I~.f~.v!.v!.v!.O!.`!. ~.}'.}'.}'.}'.}'.J~.w~.w~.x!.~).w).c).X).().4!.8!.s+.i  4. N. |. |. e  @@ S@ 7  L+ Z~ [# P# P# _$ _$ _$ _$ _$ _$ _$ _$ _$ _$ .% t6 mz fx J> <; J- J- l; V0 <%.x& H% 8a G} 3^ a$ Y. +~ +~ +~ L! r! 8) Y$ ^^ 0/ 0/ 0/ 0/ 0/ 0/ 0/ 0/ 0/ 0/ g% 4Q X^ (^ F/ +4 u{ <! j4 P# 7] >[ 0/ 0/ 0/ 0/ 0/ 0/ 0/ 0/ 0/ 0/ 0/ 0/ 0/ 0/ k^ ,[ >[ U< n{ U  *+ U  g|  { T1 md R{ w^ W/ K' w( W/ 17 t{ f< f[ [( X/ ^} W^ ^} ^} g< d< d< K~.|^ |^ |^ K~.^} ^} ^} ^} K~.K~.|^ |^ |^ |^ |^ |^ |^ |^ |^ |^ L~.L~.|^ (_ (_ (_ z< (_ :^ A/ A/ p^ p^ A/ A/ A/ A/ A/ A/ r* r* r* =: =: =: r* r* r* r* r* r* r* r* r* r* r* r* S$ S$ S$ S$ S$ L_ L_ L_ L_ M~.M~.7$ |  |  |  E~ E~ |  |  |  |  |  |  r@ Z~ |  |  e$ e$ e$ e$ E~ Z~ Z~ r@ r@ r@ r@ r@ r@ r@ r@ r@ r@ r@ r@ r@ r@ r@ <^ <^ 2( 2( 2( 2( 2( 2( 2( 3  r@ s# s# &1 &1 <^ <^ <^ 2( 2( 2( 2( ^_ <^ <^ :) N~.&1 s# |) s# s# s# s# :F :F :F %} %} %} %} >5 >5 O~.O~.e!.e!.e!.U1 U1 U1 u{ (1 (1 P~.P~.A( A( A( x@ *+ *+ *+ Q[ _$ 4| +j N{ 0/ 0/ 0/ 0/ 0/ 0/ 0/ 0/ 0/ 0/ 0/ 0/ 0/ 0/ 0/ 0/ ,[ ,[ ^^ `: Q[ B  y| y| y| y@ di [%.,[ 0/ 0/ 0/ 0/ 0/ 0/ 0/ 0/ 0/ 0/ 0/ 0/ w[ (~.x1 fx -^ p~ 8) +~ +~ +~ x! U1 k{ X< O0 na z- J- J- K- !- F~.p~.@@.Q~.W( _  y# _$ _$ _$ _$ _$ _$ _$ _$ _$ _$ _$ _$ P# /# 5@ *@ n+ N+ =+ K  c. c. B  Z. x  S] |{ 4] )) 4^ 5^ X!.48 q~._/ _/ _/ _/ _/ _/ b@ b@ b@ b@ b@ b@ b@ &. u+ u+ m/ *+.*+.*+.*+.*+.*+.*+.*+.*+.`9 R~.R~.R~.S~.S0 $t u+ u+ u+ u+ u+ u+ u+ u+ u+ u+ u+ u+ u+ u+ u+ u+ u+ u+ u+ u+ u+ ",
"#/ #/ #/ #/ #/ #/ q. 21 21 21 0( )u )u )u )u )u )u &~.&~.&~.&~.&~.&~.&~.&~.&~.&~.&~.&~.&~.&~.&~.&~.&~.&~.&~.&~.&~.T~.F!.v!.v!.v!.O!.`!. ~.}'.}'.}'.}'.}'.J~.w~.U~.x!.~).w).c).X).().4!.8!.s+.i  4. N. |. |. e  @@ S@ 7  L+ r@ ($ P# P# _$ _$ _$ _$ _$ _$ _$ _$ _$ _$ +% 1{ oz fx J> <; J- J- J- V0 U8 w& H% 8a V< 3^ H3 W. +~ +~ +~ L! r! 8) {% ^^ 0/ 0/ 0/ 0/ 0/ 0/ 0/ 0/ 0/ 0/ [q wc M_ (^ F/ +4 u{ <! j4 P# 7] >[ 0/ 0/ 0/ 0/ 0/ 0/ 0/ 0/ 0/ 0/ 0/ 0/ 0/ 0/ C: N{ %| D$ B  V~.@{ W~.i^  ! L: f/ Z/ y( $( `/ `/ `/ `/ `/ `/ `/ `/ $( y( f_ O^ O^ O^ X~.`/ `/ `/ `/ `/ `/ `/ `/ `/ `/ `/ d} y( y( y( y( y( y( y( y( y( y( y( y( y( y( y( y( y( Q. Q. {[ {[ {[ {[ {[ {[ {[ {[ q  q  B/ `( `( `( `( `( `( `( `( `( `( `( `( `( `( `( `( `( (| (| (| (| (| Y~.t( t( t( t( t( t( -] -] -] -] -] -] -] -] -] -] -] -] -] -] -] -] -] -] -] -] -] -] -] f/ f/ f/ f/ F~ F~ F~ F~ F~ 1( 1( 1( 1( 1( ,! ,! ,! ,! 1( ,! +! `) `) L: L: L: I~ I~ I~ I~ I~ I~ I~ I~ Z~.I~ I~ I~ I~ k)  ! c} c} c} c} `~.`~.i^ Q) Q) Q) s( s( s( s( C/ C/ D) D) D) D) D) D) Q) Q) Q) Q) Q) Q) Q) Q) Q) Q) J!  {.i^ C( (! (Y `: 0/ N{ 0/ 0/ 0/ 0/ 0/ 0/ 0/ 0/ 0/ 0/ 0/ 0/ 0/ 0/ 0/ 0/ ,[ ,[ ^^ `: Q[ B  y| y| y| y@ di [%.,[ 0/ 0/ 0/ 0/ 0/ 0/ 0/ 0/ 0/ 0/ 0/ 0/ w[ J8 =,.fx -^ p~ 8) +~ +~ +~ +~ o4 k{ X< O0 N= >a k; J- k; Y9 F~..{.@@.`] 1^ |+ U$ _$ _$ _$ _$ _$ _$ _$ _$ _$ _$ _$ _$ P# /# 5@ *@ n+ N+ =+ K  c. c. B  Z. x  S] |{ 4] )) 4^ 5^ X!.48 `| _/ _/ _/ _/ _/ (+ b@ b@ b@ b@ b@ b@ b@ {+ u+ XW *+.*+.*+.*+.*+.*+.*+.*+.*+.*+.+{.R~.R~.R~.R~.H~.u+ u+ u+ u+ u+ u+ u+ u+ u+ u+ u+ u+ u+ u+ u+ u+ u+ u+ u+ u+ u+ u+ ",
"#/ #/ #/ #/ #/ #/ h$ 21 21 21 .v )u )u )u )u )u >y &~.&~.&~.&~.&~.&~.&~.&~.&~.&~.&~.&~.&~.&~.&~.&~.&~.&~.&~.&~.&~.&~.F!.@{.v!.v!.O!.`!. ~.}'.}'.}'.}'.}'.J~. Y /1 x!.~).w).c).X).().4!.8!.s+.i  4. N. |. |. e  @@ S@ 7  L+ I. ($ P# P# _$ _$ _$ _$ _$ _$ _$ _$ _$ Q# +% ^z h+.g[ J> <; J- J- J- V0 *0 x& q' 8a X< }6 I4 x! +~ +~ +~ L! r! 7~ 8; %| 0/ 0/ 0/ 0/ 0/ 0/ 0/ 0/ 0/ 0/ %| |2 B< (^ F/ +4 u{ <! j4 e# 4| >[ 0/ 0/ 0/ 0/ 0/ 0/ 0/ 0/ 0/ 0/ 0/ 0/ 0/ 0/ C: N{ %| F$ #+ [B a! 5^ {/ #{.#{.D/ ${.O) E*.E*.O) O) O) O) O) .! .! %{.%{.%{.J! Q) J! J! {/ {/ {/ {/ {/ {/ {/ {/ {/ {/ {/ {/ {/ .! .! .! .! .! .! .! .! .! .! .! .! .! .! .! .! .! .! .! .! .! .! .! .! .! .! {/ {/ .! .! .! .! .! .! .! .! .! .! .! .! .! .! .! .! .! .! .! .! .! .! .! .! .! .! .! .! .! .! .! .! .! .! .! .! .! .! .! .! .! .! .! .! .! .! .! .! .! .! .! .! .! .! .! .! .! .! .! .! .! .! E*.E*.E*.E*.E*.E*.E*.E*.E*.E*.E*..! .! .! .! .! .! .! .! .! .! .! .! .! .! .! .! .! .! .! .! E*.E*.E*.E*.E*.O) O) O) O) O) O) O) O) O) O) O) O) O) O) O) O) O) O) O) O) O) O) O) O) ${.${.${.${.O) Q) F< -0 T` H8 (~ w[ V/ 0/ 0/ 0/ 0/ 0/ 0/ 0/ 0/ 0/ 0/ 0/ 0/ 0/ 0/ 0/ 0/ ,[ ,[ ^^ `: Q[ B  y| y| y| y@ di [%.,[ 0/ 0/ 0/ 0/ 0/ 0/ 0/ 0/ 0/ 0/ 0/ 0/ /( f% +^ /Y -^ p~ 8) +~ +~ +~ +~ 8] k{ 39 O0 N= >a k; J- k; Y9 F~.yz @@.`] :( |+ o' x# _$ _$ _$ _$ _$ _$ _$ _$ _$ _$ _$ P# /# 5@ *@ n+ N+ =+ K  c. c. B  Z. x  S] |{ 4] )) 4^ 5^ X!.48 _/ _/ _/ _/ _/ _/ 3# b@ b@ b@ b@ b@ b@ b@ F# u+ %t *+.*+.*+.*+.*+.*+.*+.*+.*+.`9 S~.R~.R~.R~.&{.u+ u+ u+ u+ u+ u+ u+ u+ u+ u+ u+ u+ u+ u+ u+ u+ u+ u+ u+ u+ u+ u+ u+ ",
"#/ #/ #/ #/ #/ #/ 21 21 21 21 )u )u )u )u )u )u )u :z &~.&~.&~.&~.&~.&~.&~.&~.&~.&~.&~.&~.&~.&~.&~.&~.&~.&~.&~.&~.&~.*{.G!.v!.v!.w!.`!.gW }'.}'.}'.}'.}'.J~.={./1 -{.~).w).c).X).().4!.8!.s+.i  4. N. |. |. e  @@ S@ 7  L+ ^. ($ P# P# _$ _$ _$ _$ _$ _$ _$ _$ _$ _$ (( %..;{.g[ J> Q- J- J- J- a0 24 x& G% 3% X< }6 }2 +~ +~ +~ +~ L! r! 7~ 8; %| 0/ 0/ 0/ 0/ 0/ 0/ 0/ 0/ 0/ 0/ >[ :% H: (^ F/ +4 u{ <! y| /# 5] >[ 0/ 0/ 0/ 0/ 0/ 0/ 0/ 0/ 0/ 0/ 0/ 0/ 0/ 0/ C: N{ %| b% N+ j4 Dx b. B( :~ k) .! O) C) C) O) O) O) O) O) O) O) O) O) O) O) O) O) O) O) O) O) O) O) O) O) O) O) O) O) O) O) O) O) O) O) O) O) O) O) O) O) O) O) O) O) O) O) O) O) O) O) O) O) O) O) O) O) O) O) O) C) C) C) C) C) C) C) C) C) C) C) C) C) C) C) C) C) C) O) O) O) O) O) O) O) O) O) O) E*.E*.E*.E*.E*.E*.E*.E*.E*.E*.E*.E*.E*.E*.E*.E*.E*.E*.E*.E*.E*.E*.E*.E*.E*.E*.E*.E*.E*.E*.E*.E*.E*.E*.E*.E*.E*.E*.E*.E*.E*.E*.E*.E*.E*.E*.E*.E*..! {/ {/ {/ {/ {/ {/ {/ {/ {/ {/ {/ {/ {/ {/ {/ {/ {/ {/ {/ {/ {/ {/ {/ {/ {/ {/ {/ {/ {/ {/ {/ {/ {/ {/ {/ {/ {/ {/ {/ {/ {/ {/ {/ {/ {/ {/ {/ Q) &} {) +~ ;[ Dx j4 O .(~ w[ V/ 0/ 0/ 0/ 0/ 0/ 0/ 0/ 0/ 0/ 0/ 0/ 0/ 0/ 0/ 0/ 0/ ,[ ,[ ^^ `: Q[ B  y| y| y| y@ di [%.,[ 0/ 0/ 0/ 0/ 0/ 0/ 0/ 0/ 0/ 0/ 0/ 0/ /( |% 4Q 4Q -^ p~ 8) +~ +~ +~ +~ e+ &5 $^ O0 O= x- K- k; K- Y9 F~.`] @@.`] :( |+ T$ x# _$ _$ _$ _$ _$ _$ _$ _$ _$ _$ _$ P# /# 5@ *@ n+ N+ =+ K  c. c. B  Z. x  S] |{ 4] )) 4^ 5^ X!.G( _/ _/ _/ _/ _/ _/ *. b@ b@ b@ b@ b@ b@ b@ Ds u+ u+ *+.*+.*+.*+.*+.*+.*+.*+.*+.>{.R~.R~.R~.,{.u+ u+ u+ u+ u+ u+ u+ u+ u+ u+ u+ u+ u+ u+ u+ u+ u+ u+ u+ u+ u+ u+ u+ u+ ",
"#/ #/ #/ #/ #/ #/ 21 21 21 q: )u )u )u )u )u )u )u )u &~.&~.&~.&~.&~.&~.&~.&~.&~.&~.&~.&~.&~.&~.&~.&~.&~.&~.&~.&~.&~.I~.'{.v!.v!.v!.`!.}'.}'.}'.}'.}'.}'.J~.={./1 @).~).w).c).X).().4!.8!.s+.i  4. N. |. |. e  @@ S@ 7  L+ /. ($ P# P# _$ _$ _$ _$ _$ _$ _$ _$ _$ _$ (( w..tz g[ J> Q- J- J- J- C- 24 w& G% X' X< P{ 5) +~ +~ +~ +~ L! r! 7~ 8; %| 0/ 0/ 0/ 0/ 0/ 0/ 0/ 0/ 0/ 0/ 0/ n ..^ (^ F/ +4 f{ <! y| /# 5] >[ 0/ 0/ 0/ 0/ 0/ 0/ 0/ 0/ 0/ 0/ 0/ 0/ 0/ 0/ C: N{ %| b% M+ y| yw =+ 5@ x# V@ A( M{ M{ M{ M{ M{ M{ M{ M{ M{ M{ M{ M{ M{ M{ M{ M{ M{ M{ M{ M{ M{ M{ M{ M{ M{ M{ M{ M{ M{ M{ M{ M{ M{ M{ M{ M{ M{ M{ M{ M{ M{ M{ M{ M{ M{ M{ M{ M{ M{ M{ M{ M{ M{ M{ M{ M{ M{ M{ M{ M{ M{ M{ M{ M{ M{ M{ M{ M{ M{ M{ M{ M{ M{ M{ M{ M{ M{ o1 o1 o1 o1 o1 o1 o1 o1 o1 o1 o1 o1 o1 o1 o1 o1 o1 o1 o1 o1 o1 o1 o1 o1 o1 o1 o1 o1 o1 o1 o1 o1 o1 o1 o1 o1 o1 o1 o1 o1 o1 o1 o1 o1 o1 o1 o1 o1 o1 o1 o1 o1 o1 o1 o1 o1 o1 o1 o1 o1 o1 o1 o1 o1 o1 o1 o1 o1 o1 o1 o1 o1 o1 o1 o1 o1 o1 o1 o1 o1 o1 o1 o1 o1 o1 o1 o1 o1 o1 o1 o1 o1 o1 o1 o1 o1 o1 o1 o1 o1 o1 o1 o1 o1 o1 U1 U  n{ A$ x# U@ q~ aZ !>.(~ w[ V/ 0/ 0/ 0/ 0/ 0/ 0/ 0/ 0/ 0/ 0/ 0/ 0/ 0/ 0/ 0/ 0/ ,[ ,[ ^^ `: Q[ B  y| y| y| y@ di [%.,[ 0/ 0/ 0/ 0/ 0/ 0/ 0/ 0/ 0/ 0/ 0/ 0/ 0/ .e %..4Q -^ p~ 8) +~ +~ +~ +~ Y. l{ $^ {9 O= x- K- k; K- Y9 F~.Z] h+.`] :( _  q- x# _$ _$ _$ _$ _$ _$ _$ _$ _$ _$ _$ P# /# 5@ *@ n+ N+ =+ K  c. c. B  Z. x  S] |{ 4] )) 4^ 5^ X!.|!._/ _/ _/ _/ _/ X1 b@ b@ b@ b@ b@ b@ b@ b@ u+ u+ u+ 6U *+.*+.*+.*+.*+.*+.*+.*+.){.R~.R~.S~.r~.u+ u+ u+ u+ u+ u+ u+ u+ u+ u+ u+ u+ u+ u+ u+ u+ u+ u+ u+ u+ u+ u+ u+ u+ ",
"#/ #/ #/ #/ #/ q. 21 21 21 q: )u )u )u )u )u )u )u )u >y &~.&~.&~.&~.&~.&~.&~.&~.&~.&~.&~.&~.&~.&~.&~.&~.&~.&~.&~.&~.T~.F!.}~.v!.v!.`!.}'.}'.}'.}'.}'.}'.J~.!{./1 @).~).w).c).X).().4!.8!.s+.i  4. N. |. |. e  @@ S@ 7  L+ /. ($ P# P# _$ _$ _$ _$ _$ _$ _$ _$ _$ &$ Z$ 4Q uz @^ z9 <; 4; k; J- C- 24 v& g* X' X< P{ U1 +~ +~ +~ +~ L! r! 7~ 8; %| 0/ 0/ 0/ 0/ 0/ 0/ 0/ 0/ 0/ 0/ k^ SO fx (^ F/ ~{.f{ B  y| o{ F} }{ k^ 0/ 0/ 0/ 0/ 0/ 0/ 0/ 0/ 0/ 0/ 0/ 0/ 0/ C: N{ %| b% M+ B  0u {# (~ `e $j .j m` d1 d1 d1 d1 d1 d1 d1 d1 d1 d1 d1 d1 d1 d1 d1 d1 d1 d1 d1 d1 d1 d1 d1 d1 d1 d1 d1 d1 d1 d1 d1 d1 d1 d1 d1 d1 d1 d1 d1 d1 d1 d1 d1 d1 d1 d1 d1 d1 d1 d1 d1 d1 d1 d1 d1 d1 d1 d1 d1 d1 d1 d1 d1 d1 d1 d1 d1 d1 d1 d1 d1 d1 d1 d1 d1 d1 d1 d1 d1 d1 d1 d1 d1 d1 d1 d1 d1 d1 d1 d1 d1 d1 d1 d1 d1 d1 d1 d1 d1 d1 d1 d1 d1 d1 d1 d1 d1 d1 d1 d1 d1 d1 d1 d1 d1 d1 d1 d1 d1 d1 d1 d1 d1 d1 d1 d1 d1 d1 d1 d1 d1 d1 d1 d1 d1 d1 d1 d1 d1 d1 d1 d1 d1 d1 d1 d1 d1 d1 d1 d1 d1 d1 d1 d1 d1 d1 d1 d1 d1 d1 d1 d1 d1 d1 d1 d1 d1 d1 d1 d1 d1 d1 d1 d1 d1 d1 d1 d1 d1 d1 d1 ^^ .j i{ b< %T %$ c. ,5 4@ (~ w[ V/ 0/ 0/ 0/ 0/ 0/ 0/ 0/ 0/ 0/ 0/ 0/ 0/ 0/ 0/ 0/ 0/ ,[ ,[ ^^ `: Q[ B  y| y| y| y@ di [%.,[ 0/ 0/ 0/ 0/ 0/ 0/ 0/ 0/ 0/ 0/ 0/ 0/ 0/ (4 ^z 4Q k{ p~ 8) +~ +~ +~ +~ x! &5 $^ {9 N= x- K- K- K- Y9 F~.Z] h+. ^ m_ _  T$ x# _$ _$ _$ _$ _$ _$ _$ _$ _$ _$ _$ P# /# 5@ *@ n+ N+ =+ K  c. c. B  Z. x  S] |{ 4] )) 4^ 5^ X!.|!._/ _/ _/ _/ _/ b@ b@ b@ b@ b@ b@ b@ b@ Ds u+ u+ u+ 6U *+.*+.*+.*+.*+.*+.*+.dd R~.R~.R~.!o u+ u+ u+ u+ u+ u+ u+ u+ u+ u+ u+ u+ u+ u+ u+ u+ u+ u+ u+ u+ u+ u+ u+ u+ u+ ",
"#/ #/ #/ #/ #/ #/ 21 21 21 21 )u )u )u )u )u )u )u )u )u {{.&~.&~.&~.&~.&~.&~.&~.&~.&~.&~.&~.)z t~.&~.&~.&~.&~.&~.&~.&~.F!.]{.v!.v!.`!.}'.}'.}'.}'.}'.}'.^{.R~ /1 @).~).w).c).X).().4!.8!.s+.i  4. N. |. |. e  @@ S@ 7  L+ L+ b$ P# P# _$ _$ _$ _$ _$ _$ _$ _$ _$ _$ Z$ fx p~.#^ ), Q- k; K- k; C- 24 v& g* X' X< k{ %} a! +~ +~ +~ L! r! 7~ 8; %| 0/ 0/ 0/ 0/ 0/ 0/ 0/ 0/ 0/ 0/ k^ [q 4Q Y] F/ ~{.@+ B  <! $1 :| D*.C: 0/ 0/ 0/ 0/ 0/ 0/ 0/ 0/ 0/ 0/ 0/ 0/ 0/ C: N{ %| b% M+ B  C  N+ X$ `e /{.({._{._{._{._{._{._{._{._{._{._{._{._{._{._{._{._{._{._{._{._{._{._{._{._{._{._{._{._{._{._{._{._{._{._{._{._{._{._{._{._{._{._{._{._{._{._{._{._{._{._{._{._{._{._{._{._{._{._{._{._{._{._{._{._{._{._{._{._{._{._{._{._{._{._{._{._{._{._{._{._{._{._{._{._{._{._{._{._{._{._{._{._{._{._{._{._{._{._{._{._{._{._{._{._{._{._{._{._{._{._{._{._{._{._{._{._{._{._{._{._{._{._{._{._{._{._{._{._{._{._{._{._{._{._{._{._{._{._{._{._{._{._{._{._{._{._{._{._{._{._{._{._{._{._{._{._{._{._{._{._{._{._{._{._{._{._{._{._{._{._{._{._{._{._{._{._{._{._{._{._{._{._{.({.:{.:{./ .a[ P# c. ,5 !>.(~ w[ V/ 0/ 0/ 0/ 0/ 0/ 0/ 0/ 0/ 0/ 0/ 0/ 0/ 0/ 0/ 0/ 0/ ,[ ,[ ^^ `: Q[ B  y| y| y| y@ di [%.,[ 0/ 0/ 0/ 0/ 0/ 0/ 0/ 0/ 0/ 0/ 0/ 0/ 0/ (4 46 4Q k{ p~ 8) +~ +~ +~ +~ x! 97 w( {9 N= x- K- K- K- Y9 F~.Z] h+.=^ ^} _  ,) x# _$ _$ _$ _$ _$ _$ _$ _$ _$ _$ _$ P# /# 5@ *@ n+ N+ =+ K  c. c. B  Z. x  S] |{ 4] )) 4^ 5^ C!.|!._/ _/ _/ X1 b@ b@ b@ b@ b@ b@ b@ b@ Ds u+ u+ u+ XW *+.*+.*+.*+.*+.*+.*+.*+.,{.R~.R~.R~.r~.u+ u+ u+ u+ u+ u+ u+ u+ u+ u+ u+ u+ u+ u+ u+ u+ u+ u+ u+ u+ u+ u+ u+ u+ u+ ",
"#/ #/ #/ #/ #/ #/ 21 21 21 21 Wt )u )u )u )u )u )u )u )u )u t~.&~.&~.&~.&~.&~.&~.&~.&~.<{.)u )u )u <{.&~.&~.&~.&~.&~.&~.*~.[{.v!.v!.}{.}'.}'.}'.}'.}'.}'.}'.|{./1 x!.~).w).c).X).().4!.8!.s+.i  4. N. |. |. e  @@ S@ 7  L+ L+ b$ P# P# _$ _$ _$ _$ _$ _$ _$ _$ _$ _$ W$ @^ p~.}: ), R- }; K- K- C- U8 0, T& X' !1 l{ /| a! +~ +~ +~ L! r! 7~ K' %| 0/ 0/ 0/ 0/ 0/ 0/ 0/ 0/ 0/ 0/ +j ha wc __ F/ ,) @+ B  y| O# g} >[ C: 0/ 0/ 0/ 0/ 0/ 0/ 0/ 0/ 0/ 0/ 0/ 0/ 0/ C: N{ %| b% M+ B  c. M+ Y@ b= (4 i{ 1{.1{.;` ;` ;` ;` ;` ;` ;` ;` ;` ;` ;` ;` ;` ;` ;` ;` ;` ;` ;` ;` ;` ;` ;` ;` ;` ;` ;` ;` ;` ;` ;` ;` ;` ;` ;` ;` ;` ;` ;` ;` ;` ;` ;` ;` ;` ;` ;` ;` ;` ;` ;` ;` ;` ;` ;` ;` ;` ;` ;` ;` ;` ;` ;` ;` ;` ;` ;` ;` ;` ;` ;` ;` ;` ;` ;` ;` ;` ;` ;` ;` ;` ;` ;` ;` ;` ;` ;` ;` ;` ;` ;` ;` ;` ;` ;` ;` ;` ;` ;` ;` ;` ;` ;` ;` ;` ;` ;` ;` ;` ;` ;` ;` ;` ;` ;` ;` ;` ;` ;` ;` ;` ;` ;` ;` ;` ;` ;` ;` ;` ;` ;` ;` ;` ;` ;` ;` ;` ;` ;` ;` ;` ;` ;` ;` ;` ;` ;` ;` ;` ;` ;` ;` ;` ;` ;` ;` ;` ;` ;` ;` ;` ;` ;` ;` ;` ;` ;` ;` ;` ;` ;` ;` ;` ;` ;` ;` ;` ;` 1{.2{.3{.4{.5{.(4 5' t# q~ aZ !>.(~ w[ V/ 0/ 0/ 0/ 0/ 0/ 0/ 0/ 0/ 0/ 0/ 0/ 0/ 0/ 0/ 0/ 0/ ,[ ,[ ^^ `: Q[ B  y| y| y| y@ di [%.,[ 0/ 0/ 0/ 0/ 0/ 0/ 0/ 0/ 0/ 0/ 0/ 0/ 0/ /( W' LR k{ p~ 8) +~ +~ +~ +~ x!  & H/ {9 N= x- K- K- K- !- F~.Z] h+.=^ ^} _  o' x# _$ _$ _$ _$ _$ _$ _$ _$ _$ _$ _$ P# /# 5@ *@ n+ N+ =+ K  c. c. B  Z. x  S] |{ 4] )) 4^ 5^ C!.|!._/ _/ X1 b@ b@ b@ b@ b@ b@ b@ i= u+ u+ u+ u+ XW *+.*+.*+.*+.*+.*+.*+.*+.*+.6{.R~.R~.V% u+ u+ u+ u+ u+ u+ u+ u+ u+ u+ u+ u+ u+ u+ u+ u+ u+ u+ u+ u+ u+ u+ u+ u+ u+ u+ ",
"#/ #/ #/ #/ #/ #/ J} 21 21 21 0( )u )u )u )u )u )u )u )u )u >y &~.&~.&~.&~.&~.&~.&~.&~.)u )u )u )u )u t~.&~.&~.&~.&~.&~./~.M!.v!.v!.7{.}'.}'.}'.}'.}'.}'.}'.a{ /1 x!.~).w).c).X).().4!.8!.s+.i  4. N. |. |. e  @@ S@ 7  L+ L+ b$ P# P# _$ _$ _$ _$ _$ _$ _$ _$ _$ _$ D$ H: yz V( J> R- }; K- K- C- o= t& u% v7 $^ U} /| a! +~ +~ +~ L! r! 7~ e- %| 0/ 0/ 0/ 0/ 0/ 0/ 0/ 0/ 0/ 0/ C: %| U' ZO ![ ,) @+ B  y| O# g} >[ C: 0/ 0/ 0/ 0/ 0/ 0/ 0/ 0/ 0/ 0/ 0/ 0/ 0/ C: N{ %| b% M+ ,5 y| M+ Y@ W$ +{ ;` 8{.H~ .{ c` c` c` c` c` c` c` c` c` c` c` c` c` c` c` c` c` c` c` c` c` c` c` c` c` c` c` c` c` c` c` c` c` c` c` c` c` c` c` c` c` c` c` c` c` c` c` c` c` c` c` c` c` c` c` c` c` c` c` c` c` c` c` c` c` c` c` c` c` c` c` c` c` c` c` c` c` c` c` c` c` c` c` c` c` c` c` c` c` c` c` c` c` c` c` c` c` c` c` c` c` c` c` c` c` c` c` c` c` c` c` c` c` c` c` c` c` c` c` c` c` c` c` c` c` c` c` c` c` c` c` c` c` c` c` c` c` c` c` c` c` c` c` c` c` c` c` c` c` c` c` c` c` c` c` c` c` c` c` c` c` c` c` c` c` c` c` c` c` c` c` c` c` c` c` c` 9{.0{.9{.a{.b{.%| h[ M! t# q~ c{.!>.(~ w[ V/ 0/ 0/ 0/ 0/ 0/ 0/ 0/ 0/ 0/ 0/ 0/ 0/ 0/ 0/ 0/ 0/ ,[ ,[ m` b= U@ B  y| y| y| y@ di [%.,[ 0/ 0/ 0/ 0/ 0/ 0/ 0/ 0/ 0/ 0/ 0/ 0/ 0/ /( W' LR k{ p~ 8) +~ +~ +~ +~ x! ~% H/ 27 O= x- K- K- s- !- d{.ez c~.=^ K~._  T$ x# _$ _$ _$ _$ _$ _$ _$ _$ _$ _$ _$ P# /# 5@ *@ n+ N+ =+ K  c. c. B  Z. x  S] |{ 4] )) 4^ 5^ C!.|!._/ _/ b@ b@ b@ b@ b@ b@ `, u+ u+ u+ u+ u+ r~.*+.*+.*+.*+.*+.*+.*+.*+.*+.*+.R~.S~.H~.*+.u+ u+ u+ u+ u+ u+ u+ u+ u+ u+ u+ u+ u+ u+ u+ u+ u+ u+ u+ u+ u+ u+ u+ u+ u+ u+ ",
"#/ #/ #/ #/ #/ #/ W# 21 21 21 21 )u )u )u )u )u )u )u )u )u )u <{.&~.&~.&~.&~.&~.&~.hy )u )u )u )u )u e~.&~.&~.&~.&~.&~.e{.F!.}~.v!.f{.}'.}'.}'.}'.}'.}'.}'.a{ /1 -~.~).w).c).X).().4!.8!.s+.i  4. N. |. |. e  @@ S@ 7  L+ L+ 2) P# P# _$ _$ _$ _$ _$ _$ _$ _$ _$ _$ [! H: p~.V( ), i; K- K- K- C- o= t& u% v7 $^ U} o4 a! +~ +~ +~ L! r! 7~ e- %| 0/ 0/ 0/ 0/ 0/ 0/ 0/ 0/ 0/ 0/ 0/ >[ :% .^ ![ ,) @+ B  y| O# g} >[ C: 0/ 0/ 0/ 0/ 0/ 0/ 0/ 0/ 0/ 0/ 0/ 0/ 0/ C: N{ %| b% M+ ,5 y| M+ 6@ W$ 8~ g{.h{.i{.j{.j{.j{.j{.j{.j{.j{.j{.j{.j{.j{.j{.j{.j{.j{.j{.j{.j{.j{.j{.j{.j{.j{.j{.j{.j{.j{.j{.j{.j{.j{.j{.j{.j{.j{.j{.j{.j{.j{.j{.j{.j{.j{.j{.j{.j{.j{.j{.j{.j{.j{.j{.j{.j{.j{.j{.j{.j{.j{.j{.j{.j{.j{.j{.j{.j{.j{.j{.j{.j{.j{.j{.j{.j{.j{.j{.j{.j{.j{.j{.j{.j{.j{.j{.j{.j{.j{.j{.j{.j{.j{.j{.j{.j{.j{.j{.j{.j{.j{.j{.j{.j{.j{.j{.j{.j{.j{.j{.j{.j{.j{.j{.j{.j{.j{.j{.j{.j{.j{.j{.j{.j{.j{.j{.j{.j{.j{.j{.j{.j{.j{.j{.j{.j{.j{.j{.j{.j{.j{.j{.j{.j{.j{.j{.j{.j{.j{.j{.j{.j{.j{.j{.j{.j{.j{.j{.j{.j{.j{.j{.j{.j{.j{.j{.j{.j{.j{.j{.j{.j{.j{.j{.j{.j{.j{.j{.j{.k{.TZ l{.m{.N{ h[ y! d= t# q~ c{.!>.(~ w[ V/ 0/ 0/ 0/ 0/ 0/ 0/ 0/ 0/ 0/ 0/ 0/ 0/ 0/ 0/ 0/ 0/ C: ,[ /( (% Y  y| Nu y| y| y@ di [%.,[ 0/ 0/ 0/ 0/ 0/ 0/ 0/ 0/ 0/ 0/ 0/ 0/ 0/ /( 6; wc .l p~ 8) +~ +~ +~ +~ x! a$ 9m 18 O= x- K- K- 0H i0 n{.n^ c~.n^ K~.<  <  o' y# x# _$ _$ _$ _$ _$ _$ _$ _$ _$ P# /# 5@ *@ n+ N+ =+ K  c. c. B  Z. x  S] |{ 4] )) 4^ 5^ C!.|!._/ *. b@ b@ b@ b@ b@ {+ u+ u+ u+ u+ %t $t *+.*+.*+.*+.*+.*+.*+.*+.*+.*+.dd o{.dd *+.*+.u+ u+ u+ u+ u+ u+ u+ u+ u+ u+ u+ u+ u+ u+ u+ u+ u+ u+ u+ u+ u+ u+ u+ u+ u+ u+ ",
"#/ #/ #/ #/ #/ #/ q. 21 21 21 21 0( )u )u )u )u )u )u )u )u )u >y &~.&~.&~.&~.&~.&~.)u )u )u )u )u )u )u t~.&~.&~.&~.&~.p{.F!.q{.v!.r{.}'.}'.}'.}'.}'.}'.s{.t{.u{.-~.~).w).c).X).().4!.8!.s+.i  4. N. |. |. e  @@ S@ 7  L+ L+ 0$ /# P# _$ _$ _$ _$ _$ _$ _$ _$ _$ _$ H' B< Q~.V( J> i; K- K- K- C- o= t& =' NO $^  & 8] -0 +~ +~ +~ L! r! 7~ [! %| 0/ 0/ 0/ 0/ 0/ 0/ 0/ 0/ 0/ 0/ 0/ 0/ [% +^ ![ ,) @+ C  y| O# g} >[ C: 0/ 0/ 0/ 0/ 0/ 0/ 0/ 0/ 0/ 0/ 0/ 0/ 0/ C: N{ %| b% M+ ,5 y| M+ V@ W$ 4{.v{.w{.x{.y{.y{.y{.y{.y{.y{.y{.y{.y{.y{.y{.y{.y{.y{.y{.y{.y{.y{.y{.y{.y{.y{.y{.y{.y{.y{.y{.y{.y{.y{.y{.y{.y{.y{.y{.y{.y{.y{.y{.y{.y{.y{.y{.y{.y{.y{.y{.y{.y{.y{.y{.y{.y{.y{.y{.y{.y{.y{.y{.y{.y{.y{.y{.y{.y{.y{.y{.y{.y{.y{.y{.y{.y{.y{.y{.y{.y{.y{.y{.y{.y{.y{.y{.y{.y{.y{.y{.y{.y{.y{.y{.y{.y{.y{.y{.y{.y{.y{.y{.y{.y{.y{.y{.y{.y{.y{.y{.y{.y{.y{.y{.y{.y{.y{.y{.y{.y{.y{.y{.y{.y{.y{.y{.y{.y{.y{.y{.y{.y{.y{.y{.y{.y{.y{.y{.y{.y{.y{.y{.y{.y{.y{.y{.y{.y{.y{.y{.y{.y{.y{.y{.y{.y{.y{.y{.y{.y{.y{.y{.y{.y{.y{.y{.y{.y{.y{.y{.y{.y{.y{.y{.y{.y{.y{.y{.y{.y{.z{.&` B>. Z >[ {% Z$ D$ t# q~ c{.!>.(~ w[ V/ 0/ 0/ 0/ 0/ 0/ 0/ 0/ 0/ 0/ 0/ 0/ 0/ 0/ 0/ 0/ 0/ C: C: (4 R' o' @! Nu y| y| y@ di [%.,[ 0/ 0/ 0/ 0/ 0/ 0/ 0/ 0/ 0/ 0/ 0/ 0/ 0/ /( 6; rR .l p~ 8) +~ +~ +~ +~ x! H3 3^ 27 O= 2; j; K- M- &7 A{.n^ c~.Y] |^ <  <  <  g& z$  & =$ x# _$ _$ _$ _$ _$ _$ P# /# 5@ *@ n+ N+ =+ K  c. .+ B  Z. x  S] |{ 4] )) 4^ 5^ C!.|!.X1 b@ b@ b@ b@ b@ Z& u+ u+ u+ XW $t *+.*+.*+.*+.*+.*+.*+.*+.*+.*+.*+.*+.`9 `9 *+.*+.*+.r~.u+ u+ u+ u+ u+ u+ u+ u+ u+ u+ u+ u+ u+ u+ u+ u+ u+ u+ u+ u+ u+ u+ u+ u+ u+ ",
"#/ #/ #/ #/ #/ #/ #/ F, 21 21 21 21 0( .v Wt )u )u )u )u )u )u )u t~.&~.&~.&~.&~.)z )u )u )u )u )u )u )u t~.&~.&~.&~.&~.5~.F!.0~.v!._*.}'.}'.}'.}'.}'.A'.t{.t{.E%.-~.~).w).c).X).().4!.8!.s+.i  4. N. |. |. e  @@ S@ 7  L+ 6  c$ /# P# _$ _$ _$ _$ _$ _$ _$ _$ _$ _$ I$ u( `] B{.J> i; K- K- K- C- o= t& s% NO $^ [2 )t +~ +~ +~ +~ L! r! 7~ I' %| 0/ 0/ 0/ 0/ 0/ 0/ 0/ 0/ 0/ 0/ 0/ k^ Q` +^ ![ ,) @+ C  y| O# g} >[ C: 0/ 0/ 0/ 0/ 0/ 0/ 0/ 0/ 0/ 0/ 0/ 0/ 0/ C: N{ %| b% M+ ,5 y| M+ =$ W$ ha a` C{.K_ K_ K_ K_ K_ K_ K_ K_ K_ K_ K_ K_ K_ K_ K_ K_ K_ K_ K_ K_ K_ K_ K_ K_ K_ K_ K_ K_ K_ K_ K_ K_ K_ K_ K_ K_ K_ K_ K_ K_ K_ K_ K_ K_ K_ K_ K_ K_ K_ K_ K_ K_ K_ K_ K_ K_ K_ K_ K_ K_ K_ K_ K_ K_ K_ K_ K_ K_ K_ K_ K_ K_ K_ K_ K_ K_ K_ K_ K_ K_ K_ K_ K_ K_ K_ K_ K_ K_ K_ K_ K_ K_ K_ K_ K_ K_ K_ K_ K_ K_ K_ K_ K_ K_ K_ K_ K_ K_ K_ K_ K_ K_ K_ K_ K_ K_ K_ K_ K_ K_ K_ K_ K_ K_ K_ K_ K_ K_ K_ K_ K_ K_ K_ K_ K_ K_ K_ K_ K_ K_ K_ K_ K_ K_ K_ K_ K_ K_ K_ K_ K_ K_ K_ K_ K_ K_ K_ K_ K_ K_ K_ K_ K_ K_ K_ K_ K_ K_ K_ K_ K_ K_ K_ K_ K_ K_ K_ K_ K_ D{.E{.^< ,/  % Z$ D$ t# q~ c{.!>.(~ w[ V/ 0/ 0/ 0/ 0/ 0/ 0/ 0/ 0/ 0/ 0/ 0/ 0/ 0/ 0/ 0/ 0/ 0/ /( }% g[ q- C  0u y| y| y@ di [%.,[ 0/ 0/ 0/ 0/ 0/ 0/ 0/ 0/ 0/ 0/ 0/ 0/ 0/ (4 46 4Q k{ p~ 8) +~ +~ +~ +~ x! H3 3^ 27 6- 2; j; K- s- !- A{.Y] c~.Y] G. <  <  <  <  |+ _  _  .* Y  _$ _$ _$ _$ _$ P# /# 5@ *@ n+ N+ =+ K  c. .+ Z. Z. x  S] |{ 4] )) 4^ 5^ C!.|!.*. b@ b@ b@ b@ Z& u+ u+ u+ XW *+.*+.*+.*+.*+.*+.*+.*+.*+.*+.*+.*+.*+.*+.*+.*+.*+.*+.*+.$t u+ u+ u+ u+ u+ u+ u+ u+ u+ u+ u+ u+ u+ u+ u+ u+ u+ u+ u+ u+ u+ u+ u+ u+ u+ ",
"#/ #/ #/ #/ #/ #/ #/ h$ 21 21 21 21 21 21 21 Wt )u )u )u )u )u )u hy &~.&~.&~.&~.&~.t~.e~.)u )u )u )u )u <{.&~.&~.&~.&~.&~.F!.f~.v!.F{.}'.}'.}'.}'.}'.G{.t{.t{.t{.H{.~).w).c).X).().4!.8!.s+.i  4. N. |. |. e  @@ S@ 7  L+ 6  c$ /# P# _$ _$ _$ _$ _$ _$ _$ _$ _$ _$ m{ m^ `] B{.J> i; K- K- K- C- o= t& t% t6 ~9 a$ Y. +~ +~ +~ +~ L! r! 7~ I' %| 0/ 0/ 0/ 0/ 0/ 0/ 0/ 0/ 0/ 0/ 0/ k^ .e l .m^ ,) @+ C  y| O# g} >[ C: 0/ 0/ 0/ 0/ 0/ 0/ 0/ 0/ 0/ 0/ 0/ 0/ 0/ C: N{ %| b% M+ ,5 y| H8 x# W$ {% n= g} bk G4 G4 G4 G4 G4 G4 G4 G4 G4 G4 G4 G4 G4 G4 G4 G4 G4 G4 G4 G4 G4 G4 G4 G4 G4 G4 G4 G4 G4 G4 G4 G4 G4 G4 G4 G4 G4 G4 G4 G4 G4 G4 G4 G4 G4 G4 G4 G4 G4 G4 G4 G4 G4 G4 G4 G4 G4 G4 G4 G4 G4 G4 G4 G4 G4 G4 G4 G4 G4 G4 G4 G4 G4 G4 G4 G4 G4 G4 G4 G4 G4 G4 G4 G4 G4 G4 G4 G4 G4 G4 G4 G4 G4 G4 G4 G4 G4 G4 G4 G4 G4 G4 G4 G4 G4 G4 G4 G4 G4 G4 G4 G4 G4 G4 G4 G4 G4 G4 G4 G4 G4 G4 G4 G4 G4 G4 G4 G4 G4 G4 G4 G4 G4 G4 G4 G4 G4 G4 G4 G4 G4 G4 G4 G4 G4 G4 G4 G4 G4 G4 G4 G4 G4 G4 G4 G4 G4 G4 G4 G4 G4 G4 G4 G4 G4 G4 G4 G4 G4 G4 G4 G4 G4 G4 G4 G4 e_ e_ )W ha G4 4| b= +% D$ t# q~ c{.!>.(~ w[ V/ 0/ 0/ 0/ 0/ 0/ 0/ 0/ 0/ 0/ 0/ 0/ 0/ 0/ 0/ 0/ C: 0/ x..b+.O{ T$ E  0u y| y| y@ di [%.,[ 0/ 0/ 0/ 0/ 0/ 0/ 0/ 0/ 0/ 0/ 0/ 0/ 0/ (4 ^z 4Q k{ p~ 8) +~ +~ +~ +~ x! }2 3^ #w 6- w- s- j; M- !- A{.n^ c~.Y] G. <  <  <  <  <  <  <  <  r* U$ _$ _$ _$ _$ P# /# 5@ *@ n+ N+ =+ K  f+ `/ V. Z. x  S] |{ 4] )) 4^ 5^ C!.|!.b@ b@ b@ b@ {+ u+ u+ u+ u+ m/ *+.*+.*+.*+.*+.*+.*+.*+.*+.*+.*+.*+.*+.*+.*+.*+.*+.*+.*+.*+.%t u+ u+ u+ u+ u+ u+ u+ u+ u+ u+ u+ u+ u+ u+ u+ u+ u+ u+ u+ u+ u+ u+ u+ u+ ",
"#/ #/ #/ #/ #/ #/ #/ ~' 21 21 21 21 21 21 21 Wt )u )u )u )u )u )u >y &~.&~.&~.&~.&~.&~.&~.hy )u )u )u )u hy &~.&~.&~.&~.&~.F!.'{.I{.J{.}'.}'.}'.}'.|c t{.t{.t{.t{.K{.~).w).c).X).().4!.8!.s+.i  4. N. |. |. e  @@ S@ 7  L+ 6  `~ /# P# _$ _$ _$ _$ _$ _$ _$ _$ _$ _$ U} O{ `] B{.J> _; K- K- K- B- o= s& t% t6 H/ H3 Y. +~ +~ +~ +~ L! r! 7~ H$ %| 0/ 0/ 0/ 0/ 0/ 0/ 0/ 0/ 0/ 0/ 0/ C: ha b+.u( b$ @+ B  y| O# g} >[ C: 0/ 0/ 0/ 0/ 0/ 0/ 0/ 0/ 0/ 0/ 0/ 0/ 0/ C: N{ %| b% M+ ,5 y| H8 x# W$ {% `$ =| [q (4 %| %| %| %| %| %| %| %| %| %| %| %| %| %| %| %| %| %| %| %| %| %| %| %| %| %| %| %| %| %| %| %| %| %| %| %| %| %| %| %| %| %| %| %| %| %| %| %| %| %| %| %| %| %| %| %| %| %| %| %| %| %| %| %| %| %| %| %| %| %| %| %| %| %| %| %| %| %| %| %| %| %| %| %| %| %| %| %| %| %| %| %| %| %| %| %| %| %| %| %| %| %| %| %| %| %| %| %| %| %| %| %| %| %| %| %| %| %| %| %| %| %| %| %| %| %| %| %| %| %| %| %| %| %| %| %| %| %| %| %| %| %| %| %| %| %| %| %| %| %| %| %| %| %| %| %| %| %| %| %| %| %| %| %| %| %| %| %| %| %| %| %| %| %| %| %| %| %| %| a[ U( +% `$ D$ t# q~ c{.!>.(~ w[ V/ 0/ 0/ 0/ 0/ 0/ 0/ 0/ 0/ 0/ 0/ 0/ 0/ 0/ 0/ 0/ 0/ /( |% fx <( 2) yw 0u y| y| y@ di [%.,[ 0/ 0/ 0/ 0/ 0/ 0/ 0/ 0/ 0/ 0/ 0/ 0/ 0/ Nn ^z 4Q k{ p~ 8) +~ +~ +~ +~ x! &d }6 L6 6- v- M- j; M- L{.A{.(^ tz (^ G. <  <  <  <  <  <  <  <  <  T$ x# _$ _$ _$ P# /# 5@ *@ n+ N+ =+ $+ c+ |. R. Z. x  S] |{ 4] )) 4^ 5^ C!.M{.b@ b@ b@ &. u+ u+ u+ u+ u+ *+.*+.*+.*+.*+.*+.*+.*+.*+.*+.*+.*+.5t I( *+.*+.*+.*+.*+.*+.*+.*+.u+ u+ u+ u+ u+ u+ u+ u+ u+ u+ u+ u+ u+ u+ u+ u+ u+ u+ u+ u+ u+ u+ u+ u+ ",
"#/ #/ #/ #/ #/ #/ #/ q. 21 21 21 21 21 21 0( )u )u )u )u )u )u )u )u &~.&~.&~.&~.&~.&~.&~.&~.e~.)u )u )u )u &~.&~.&~.&~.&~.*{.F!.t{.}'.}'.}'.}'.I*.N{.t{.t{.t{.t{.K{.~).w).c).X).().4!.8!.s+.i  4. N. |. |. e  @@ S@ 7  L+ 6  9$ n{ P# _$ _$ _$ _$ _$ _$ _$ _$ _$ l2 o' E~.`] B{.J> (; M- j; j; z- o= r& q% t6 H/ H3 W. +~ +~ +~ +~ L! r! 7~ H$ %| 0/ 0/ 0/ 0/ 0/ 0/ 0/ 0/ 0/ 0/ 0/ C: ^^ Fk }: b$ @+ B  y| V@  ~ >[ C: 0/ 0/ 0/ 0/ 0/ 0/ 0/ 0/ 0/ 0/ 0/ 0/ 0/ C: N{ %| b% M+ ,5 y| H8 y# W$ Z$ $% bk _f ,[ C: C: C: C: C: C: C: C: C: C: C: C: C: C: C: C: C: C: C: C: C: C: C: C: C: C: C: C: C: C: C: C: C: C: C: C: C: C: C: C: C: C: C: C: C: C: C: C: C: C: C: C: C: C: C: C: C: C: C: C: C: C: C: C: C: C: C: C: C: C: C: C: C: C: C: C: C: C: C: C: C: C: C: C: C: C: C: C: C: C: C: C: C: C: C: C: C: C: C: C: C: C: C: C: C: C: C: C: C: C: C: C: C: C: C: C: C: C: C: C: C: C: C: C: C: C: C: C: C: C: C: C: C: C: C: C: C: C: C: C: C: C: C: C: C: C: C: C: C: C: C: C: C: C: C: C: C: C: C: C: C: C: C: C: C: C: C: C: C: C: C: C: C: C: C: C: C: C: C: .@.U( +% `$ D$ t# q~ c{.!>.(~ w[ V/ 0/ 0/ 0/ 0/ 0/ 0/ 0/ 0/ 0/ 0/ 0/ 0/ 0/ 0/ C: C: (4 <,.!x _( 2) yw 0u y| y| y@ di [%.,[ 0/ 0/ 0/ 0/ 0/ 0/ 0/ 0/ 0/ 0/ 0/ 0/ 0/ x..iz 4Q k{ p~ 8) +~ +~ +~ +~ x! U1 }6 /k i6 v- M- L- M- &7 O{.(^ p~.Q{ :  <  <  <  <  <  <  <  <  <  .* U$ _$ _$ _$ P# /# 5@ *@ n+ N+ =+ @+ a+ P{.8. X. x  S] |{ 4] )) 4^ &} X!.M{.b@ b@ b@ u+ u+ u+ u+ u+ u+ *+.*+.*+.*+.*+.*+.*+.*+.*+.*+.*+.z+.Q{.Q{.R{.*+.*+.*+.*+.*+.*+.*+.$t XW u+ u+ u+ u+ u+ u+ u+ u+ u+ u+ u+ u+ u+ u+ u+ u+ u+ u+ u+ u+ u+ u+ ",
"#/ #/ #/ #/ #/ #/ #/ q. 21 21 21 21 21 21 Wt )u )u )u )u )u )u )u )u t~.&~.&~.&~.&~.&~.&~.&~.t~.)u )u )u )u hy &~.&~.&~.&~.S{.T{.%. }'.}'.}'.}'.F@ t{.t{.t{.t{.t{.K{.~).w).c).X).().4!.8!.s+.i  4. N. |. |. e  @@ S@ 7  L+ L+ 9$ 6@ P# _$ _$ _$ _$ _$ _$ _$ _$ _$ _$ ~% :( `] B{.J> (; M- j; j; z- o= r& p% t6 H/ }2 x! +~ +~ +~ +~ L! r! 7~ H$ %| 0/ 0/ 0/ 0/ 0/ 0/ 0/ 0/ 0/ 0/ 0/ C: y/ f% }: b$ M{ B  y| 6@ F} >[ k^ 0/ 0/ 0/ 0/ 0/ 0/ 0/ 0/ 0/ 0/ 0/ 0/ 0/ C: N{ %| b% M+ ,5 y| H8 y# W$ Z$ b= N ./( ] .0/ 0/ 0/ 0/ 0/ 0/ 0/ 0/ 0/ 0/ 0/ 0/ 0/ 0/ 0/ 0/ 0/ 0/ 0/ 0/ 0/ 0/ 0/ 0/ 0/ 0/ 0/ 0/ 0/ 0/ 0/ 0/ 0/ 0/ 0/ 0/ 0/ 0/ 0/ 0/ 0/ 0/ 0/ 0/ 0/ 0/ 0/ 0/ 0/ 0/ 0/ 0/ 0/ 0/ 0/ 0/ 0/ 0/ 0/ 0/ 0/ 0/ 0/ 0/ 0/ 0/ 0/ 0/ 0/ 0/ 0/ 0/ 0/ 0/ 0/ 0/ 0/ 0/ 0/ 0/ 0/ 0/ 0/ 0/ 0/ 0/ 0/ 0/ 0/ 0/ 0/ 0/ 0/ 0/ 0/ 0/ 0/ 0/ 0/ 0/ 0/ 0/ 0/ 0/ 0/ 0/ 0/ 0/ 0/ 0/ 0/ 0/ 0/ 0/ 0/ 0/ 0/ 0/ 0/ 0/ 0/ 0/ 0/ 0/ 0/ 0/ 0/ 0/ 0/ 0/ 0/ 0/ 0/ 0/ 0/ 0/ 0/ 0/ 0/ 0/ 0/ 0/ 0/ 0/ 0/ 0/ 0/ 0/ 0/ 0/ 0/ 0/ 0/ 0/ 0/ 0/ 0/ 0/ 0/ 0/ 0/ 0/ 0/ 0/ 0/ 0/ 0/ 0/ 0/ 0/ 0/ 0/ 0/ 0/ 0/ 0/ 0/ k^ k^ .@.U( +% `$ D$ t# q~ c{.!>.(~ w[ V/ 0/ 0/ 0/ 0/ 0/ 0/ 0/ 0/ 0/ 0/ 0/ 0/ 0/ 0/ C: C: [q w..Y] _( b$ yw 0u y| y| y@ di [%.,[ 0/ 0/ 0/ 0/ 0/ 0/ 0/ 0/ 0/ 0/ 0/ 0/ 0/ x..b+.4Q k{ p~ 8) +~ +~ +~ +~ x! /| k{ r% i6 v- M- L- M- &7 O{.Q{ p~.Q{ <  <  <  <  <  <  <  <  <  <  _  o' _$ _$ _$ P# /# 5@ *@ n+ N+ =+ .4 9+ 2. 8. X. x  S] |{ 4] )) 4^ V'.~).M{.b@ b@ i= u+ u+ u+ u+ u+ u+ *+.*+.*+.*+.*+.*+.*+.*+.*+.*+.*+.U{.Q{.Q{.Q{.U{.*+.*+.*+.*+.*+.*+.*+.*+.$t $t 6U %t u+ u+ u+ u+ u+ u+ u+ u+ u+ u+ u+ u+ u+ u+ u+ u+ u+ u+ ",
"#/ #/ #/ #/ #/ ~' J} 21 21 21 21 21 21 Wt )u )u )u )u )u )u )u )u )u <{.&~.&~.&~.&~.&~.&~.&~.&~.)u )u )u )u )u t~.&~.&~.V{.W{.W{.X{.'S }'.}'.|c t{.t{.t{.t{.t{.t{.K{.~).w).c).X).().4!.8!.s+.i  4. N. |. |. e  @@ S@ 7  L+ L+ Y{.6@ &$ _$ _$ _$ _$ _$ _$ _$ _$ _$ _$ T$ m_ =^ d,.J> (; M- L- j; z- o= r& p% 46 H/ }2 x! +~ +~ +~ +~ L! r! 7~ H$ %| 0/ 0/ 0/ 0/ 0/ 0/ 0/ 0/ 0/ 0/ 0/ C: C: SO #^ 2) M{ B  j4 /# 5] >[ 0/ 0/ 0/ 0/ 0/ 0/ 0/ 0/ 0/ 0/ 0/ 0/ 0/ 0/ C: N{ %| b% M+ ,5 y| H8 y# W$ Z$ b= N ./( ] .0/ 0/ 0/ 0/ 0/ 0/ 0/ 0/ 0/ 0/ 0/ 0/ 0/ 0/ 0/ 0/ 0/ 0/ 0/ 0/ 0/ 0/ 0/ 0/ 0/ 0/ 0/ 0/ 0/ 0/ 0/ 0/ 0/ 0/ 0/ 0/ 0/ 0/ 0/ 0/ 0/ 0/ 0/ 0/ 0/ 0/ 0/ 0/ 0/ 0/ 0/ 0/ 0/ 0/ 0/ 0/ 0/ 0/ 0/ 0/ 0/ 0/ 0/ 0/ 0/ 0/ 0/ 0/ 0/ 0/ 0/ 0/ 0/ 0/ 0/ 0/ 0/ 0/ 0/ 0/ 0/ 0/ 0/ 0/ 0/ 0/ 0/ 0/ 0/ 0/ 0/ 0/ 0/ 0/ 0/ 0/ 0/ 0/ 0/ 0/ 0/ 0/ 0/ 0/ 0/ 0/ 0/ 0/ 0/ 0/ 0/ 0/ 0/ 0/ 0/ 0/ 0/ 0/ 0/ 0/ 0/ 0/ 0/ 0/ 0/ 0/ 0/ 0/ 0/ 0/ 0/ 0/ 0/ 0/ 0/ 0/ 0/ 0/ 0/ 0/ 0/ 0/ 0/ 0/ 0/ 0/ 0/ 0/ 0/ 0/ 0/ 0/ 0/ 0/ 0/ 0/ 0/ 0/ 0/ 0/ 0/ 0/ 0/ 0/ 0/ 0/ 0/ 0/ 0/ 0/ 0/ 0/ 0/ 0/ 0/ 0/ 0/ k^ k^ .@.U( +% `$ D$ t# q~ c{.!>.(~ w[ V/ 0/ 0/ 0/ 0/ 0/ 0/ 0/ 0/ 0/ 0/ 0/ 0/ 0/ 0/ 0/ `e g% .# (^ <( b$ yw 0u y| y| y@ di [%.,[ 0/ 0/ 0/ 0/ 0/ 0/ 0/ 0/ 0/ 0/ 0/ 0/ 0/ ha S' 4Q k{ p~ 8) +~ +~ +~ +~ +~ /| k{ r% 6- v- M- M- M- &7 O{.Q{ Q~.1^ 2  <  <  <  <  <  <  <  <  <  <  ,) _$ _$ _$ P# /# 5@ *@ n+ N+ =+ }^ 8+ N. P. 47 x  S] |{ 4] )) s] X!.x!.M{.b@ &. u+ u+ u+ u+ u+ u+ u+ *+.*+.*+.*+.*+.*+.*+.*+.*+.*+.5t Q{.Q{.Q{.Q{.Q{.`9 *+.*+.*+.*+.*+.*+.*+.*+.*+.*+.*+.r~.u+ u+ u+ u+ u+ u+ u+ u+ u+ u+ u+ u+ u+ u+ u+ u+ u+ ",
"#/ #/ ~' J} 21 21 21 21 21 21 21 21 q: )u )u )u )u )u )u )u )u )u )u )u )u hy :z &~.&~.&~.&~.hy )u )u )u )u )u )u t~.&~.Z{.W{.W{.t{.'S A'.`{.t{.t{.t{.t{.t{.t{.t{.K{.~).w).c).X).().4!.8!.s+.i  4. N. |. |. e  @@ S@ 7  L+ M# d$ -@ &$ _$ _$ _$ _$ _$ _$ _$ _$ _$ _$ 0$ ^} __ d,.J> (; M- L- L- z- o= r& o% |2 01 5) +~ +~ +~ +~ +~ L! r! 7~ H$ %| 0/ 0/ 0/ 0/ 0/ 0/ 0/ 0/ 0/ 0/ 0/ 0/ C: [q X< a$ M{ B  Dx e# 5] >[ 0/ 0/ 0/ 0/ 0/ 0/ 0/ 0/ 0/ 0/ 0/ 0/ 0/ 0/ C: N{ %| b% M+ ,5 y| H8 y# W$ Z$ b= N ./( ] .0/ 0/ 0/ 0/ 0/ 0/ 0/ 0/ 0/ 0/ 0/ 0/ 0/ 0/ 0/ 0/ 0/ 0/ 0/ 0/ 0/ 0/ 0/ 0/ 0/ 0/ 0/ 0/ 0/ 0/ 0/ 0/ 0/ 0/ 0/ 0/ 0/ 0/ 0/ 0/ 0/ 0/ 0/ 0/ 0/ 0/ 0/ 0/ 0/ 0/ 0/ 0/ 0/ 0/ 0/ 0/ 0/ 0/ 0/ 0/ 0/ 0/ 0/ 0/ 0/ 0/ 0/ 0/ 0/ 0/ 0/ 0/ 0/ 0/ 0/ 0/ 0/ 0/ 0/ 0/ 0/ 0/ 0/ 0/ 0/ 0/ 0/ 0/ 0/ 0/ 0/ 0/ 0/ 0/ 0/ 0/ 0/ 0/ 0/ 0/ 0/ 0/ 0/ 0/ 0/ 0/ 0/ 0/ 0/ 0/ 0/ 0/ 0/ 0/ 0/ 0/ 0/ 0/ 0/ 0/ 0/ 0/ 0/ 0/ 0/ 0/ 0/ 0/ 0/ 0/ 0/ 0/ 0/ 0/ 0/ 0/ 0/ 0/ 0/ 0/ 0/ 0/ 0/ 0/ 0/ 0/ 0/ 0/ 0/ 0/ 0/ 0/ 0/ 0/ 0/ 0/ 0/ 0/ 0/ 0/ 0/ 0/ 0/ 0/ 0/ 0/ 0/ 0/ 0/ 0/ 0/ 0/ /( /( /( 0/ 0/ k^ k^ .@.U( +% `$ D$ t# q~ c{.!>.(~ w[ V/ 0/ 0/ 0/ 0/ 0/ 0/ 0/ 0/ 0/ 0/ 0/ 0/ 0/ 0/ 0/ m` <% +^ Q{ <( b$ yw 0u y| y| y@ di [%.,[ 0/ 0/ 0/ 0/ 0/ 0/ 0/ 0/ 0/ 0/ 0/ 0/ 0/ &e ^z 4Q k{ p~ 8) +~ +~ +~ +~ +~ 8] k{ r% 6- v- M- M- M- L{. ].W( Q~.1^ 2  <  <  <  <  <  <  <  <  <  <  T$ _$ _$ _$ P# /# 5@ *@ n+ N+ H8 3@ M. N. O. U. x  S] |{ 4] )) I'..].,).M{.&. Z& u+ u+ u+ u+ u+ u+ u+ *+.*+.*+.*+.*+.*+.*+.*+.*+.z+.Q{.Q{.Q{.Q{.Q{.Q{.Q{.*+.*+.*+.*+.*+.*+.*+.*+.*+.*+.*+.*+.r~.u+ u+ u+ u+ u+ u+ u+ u+ u+ u+ u+ u+ u+ u+ u+ u+ ",
"h$ 21 21 21 21 21 21 21 21 21 21 21 .v )u )u )u )u )u )u )u )u )u )u )u )u )u )u )u )u )u )u )u )u )u )u )u )u )u )u t~.Z{.W{.W{.t{.t{.t{.t{.t{.t{.t{.t{.t{.t{.t{.K{.~).w).c).X).().4!.8!.s+.i  4. N. |. |. e  @@ S@ 7  L+ M# |  [# &$ _$ _$ _$ _$ _$ _$ _$ _$ _$ _$ c$ K~.Y] xV J> T- M- M- L- z- o= W5 o% |2 3^ U1 +~ +~ +~ +~ +~ L! r! 7~ H$ %| 0/ 0/ 0/ 0/ 0/ 0/ 0/ 0/ 0/ 0/ 0/ 0/ C: Nn .)  { @+ B  y| V@  ~ >[ k^ 0/ 0/ 0/ 0/ 0/ 0/ 0/ 0/ 0/ 0/ 0/ 0/ 0/ C: N{ %| b% M+ ,5 y| H8 y# W$ Z$ b= N ./( ] .0/ 0/ 0/ 0/ 0/ 0/ 0/ 0/ 0/ 0/ 0/ 0/ 0/ 0/ 0/ 0/ 0/ 0/ 0/ 0/ 0/ 0/ 0/ 0/ 0/ 0/ 0/ 0/ 0/ 0/ 0/ 0/ 0/ 0/ 0/ 0/ 0/ 0/ 0/ 0/ 0/ 0/ 0/ 0/ 0/ 0/ 0/ 0/ 0/ 0/ 0/ 0/ 0/ 0/ 0/ 0/ 0/ 0/ 0/ 0/ 0/ 0/ 0/ 0/ 0/ 0/ 0/ 0/ 0/ 0/ 0/ 0/ 0/ 0/ 0/ 0/ 0/ 0/ 0/ 0/ 0/ 0/ 0/ 0/ 0/ 0/ 0/ 0/ 0/ 0/ 0/ 0/ 0/ 0/ 0/ 0/ 0/ 0/ 0/ 0/ 0/ 0/ 0/ 0/ 0/ 0/ 0/ 0/ 0/ 0/ 0/ 0/ 0/ 0/ 0/ 0/ 0/ 0/ 0/ 0/ 0/ 0/ 0/ 0/ 0/ 0/ 0/ 0/ 0/ 0/ 0/ 0/ 0/ 0/ 0/ 0/ 0/ 0/ 0/ 0/ 0/ 0/ 0/ 0/ 0/ 0/ 0/ 0/ 0/ 0/ 0/ 0/ 0/ 0/ 0/ 0/ 0/ 0/ 0/ 0/ 0/ 0/ 0/ 0/ 0/ 0/ 0/ 0/ 0/ 0/ 0/ +j %| SO x..0/ 0/ k^ k^ .@.U( +% `$ D$ t# q~ c{.!>.(~ w[ V/ 0/ 0/ 0/ 0/ 0/ 0/ 0/ 0/ 0/ 0/ 0/ 0/ 0/ 0/ 0/ ^^ 6; H: Q{ <( b$ yw Nu y| y| y@ di [%.,[ 0/ 0/ 0/ 0/ 0/ 0/ 0/ 0/ 0/ 0/ 0/ 0/ 0/ (4 <,.4Q k{ p~ 8) +~ +~ +~ +~ +~ Y. k{ r% P= u- T; M- O- &7 +].$-.`] _^ 2  <  <  <  <  <  <  <  <  <  ]. z$ x# _$ _$ P# /# 5@ *@ n+ N+ H8 J: |. N. O. U. x  S] |{ 4] @].w) ~).,).h3 u+ u+ u+ u+ u+ u+ u+ u+ u+ *+.*+.*+.*+.*+.*+.*+.*+.$_ Q{.Q{.Q{.Q{.Q{.Q{.Q{.Q{.I( *+.*+.*+.*+.*+.*+.*+.*+.*+.*+.*+.*+.m/ G~.0& %t u+ u+ u+ u+ u+ u+ u+ u+ u+ u+ u+ u+ ",
"21 21 21 21 21 21 21 21 21 21 21 21 21 .v )u )u )u )u )u )u )u )u )u )u )u )u )u )u )u )u )u )u )u )u )u )u )u )u )u )u #].W{.W{.t{.t{.t{.t{.t{.t{.t{.t{.t{.t{.t{.K{.~).w).c).X).().4!.8!.s+.i  4. N. |. |. e  @@ S@ 7  L+ M# 2  ($ &$ _$ _$ _$ _$ _$ _$ x# Y@ Y@ W@ .* |+.(^ f< O..T- N- M- M- z- o= p& n% |2 3^ %} +~ +~ +~ +~ +~ L! r! r( H$ %| 0/ 0/ 0/ 0/ 0/ 0/ 0/ 0/ 0/ 0/ 0/ 0/ C: m` ]% [# @+ B  y| t#  % G4 0/ 0/ 0/ 0/ 0/ 0/ 0/ 0/ 0/ 0/ 0/ 0/ 0/ 0/ C: N{ %| b% M+ ,5 y| H8 y# W$ Z$ b= N ./( ] .0/ 0/ 0/ 0/ 0/ 0/ 0/ 0/ 0/ 0/ 0/ 0/ 0/ 0/ 0/ 0/ 0/ 0/ 0/ 0/ 0/ 0/ 0/ 0/ 0/ 0/ 0/ 0/ 0/ 0/ 0/ 0/ 0/ 0/ 0/ 0/ 0/ 0/ 0/ 0/ 0/ 0/ 0/ 0/ 0/ 0/ 0/ 0/ 0/ 0/ 0/ 0/ 0/ 0/ 0/ 0/ 0/ 0/ 0/ 0/ 0/ 0/ 0/ 0/ 0/ 0/ 0/ 0/ 0/ 0/ 0/ 0/ 0/ 0/ 0/ 0/ 0/ 0/ 0/ 0/ 0/ 0/ 0/ 0/ 0/ 0/ 0/ 0/ 0/ 0/ 0/ 0/ 0/ 0/ 0/ 0/ 0/ 0/ 0/ 0/ 0/ 0/ 0/ 0/ 0/ 0/ 0/ 0/ 0/ 0/ 0/ 0/ 0/ 0/ 0/ 0/ 0/ 0/ 0/ 0/ 0/ 0/ 0/ 0/ 0/ 0/ 0/ 0/ 0/ 0/ 0/ 0/ 0/ 0/ 0/ 0/ 0/ 0/ 0/ 0/ 0/ 0/ 0/ 0/ 0/ 0/ 0/ 0/ 0/ 0/ 0/ 0/ 0/ 0/ 0/ 0/ 0/ 0/ 0/ 0/ 0/ 0/ 0/ 0/ 0/ 0/ 0/ 0/ 0/ 0/ k^ 0/ [q <% .e 0/ k^ k^ k^ .@.U( +% `$ D$ t# q~ c{.!>.(~ w[ V/ 0/ 0/ 0/ 0/ 0/ 0/ 0/ 0/ 0/ 0/ 0/ 0/ 0/ C: C: >[ d% @^ Q{ <( b$ j4 Nu y| y| y@ di [%.,[ 0/ 0/ 0/ 0/ 0/ 0/ 0/ 0/ 0/ 0/ 0/ 0/ 0/ (4 46 4Q k{ p~ 8) +~ +~ +~ +~ +~ p~ l{ r% P= u- T; M- O- &7 +].$-.`] m_ <  <  <  <  <  <  <  <  <  <  }  p$ y# _$ _$ P# /# 5@ *@ n+ N+ @+ .( |. N. 7. S. x  S] |{ 4] =).X!.,).,).$).u+ u+ u+ u+ u+ u+ u+ u+ u+ $t *+.*+.*+.*+.*+.*+.$_ Q{.Q{.Q{.Q{.Q{.Q{.Q{.Q{.Q{.R{.*+.*+.*+.*+.*+.*+.*+.*+.*+.*+.*+.*+.*+.*+.*+.*+.*+.G~.u+ u+ u+ u+ u+ u+ u+ u+ u+ u+ ",
"21 21 21 21 21 21 21 21 21 21 21 21 21 21 21 .v )u )u )u )u )u )u )u )u )u )u )u )u )u )u )u )u )u )u )u )u )u )u )u )u Z+ W{.W{.t{.t{.t{.t{.t{.t{.t{.t{.t{.t{.t{.K{.~).w).c).X).().4!.8!.s+.i  4. N. |. |. e  @@ S@ 7  L+ M# 4  b$ Q# _$ _$ _$ _$ x# U$ o' z$ p$ .* s@ :^ Q{ _} ', U- M- M- M- z- o= p& m% |2 3^ /| a! +~ +~ +~ +~ L! r! r( A] %| 0/ 0/ 0/ 0/ 0/ 0/ 0/ 0/ 0/ 0/ 0/ 0/ ,[ %| (( t# @+ y| yw ,+ W/ _% &e 0/ k^ k^ C: C: C: C: 0/ 0/ 0/ 0/ 0/ 0/ C: N{ %| b% M+ ,5 y| H8 y# W$ Z$ b= N ./( ] .0/ 0/ 0/ 0/ 0/ 0/ 0/ 0/ 0/ 0/ 0/ 0/ 0/ 0/ 0/ 0/ 0/ 0/ 0/ 0/ 0/ 0/ 0/ 0/ 0/ 0/ 0/ 0/ 0/ 0/ 0/ 0/ 0/ 0/ 0/ 0/ 0/ 0/ 0/ 0/ 0/ 0/ 0/ 0/ 0/ 0/ 0/ 0/ 0/ 0/ 0/ 0/ 0/ 0/ 0/ 0/ 0/ 0/ 0/ 0/ 0/ 0/ 0/ 0/ 0/ 0/ 0/ 0/ 0/ 0/ 0/ 0/ 0/ 0/ 0/ 0/ 0/ 0/ 0/ 0/ 0/ 0/ 0/ 0/ 0/ 0/ 0/ 0/ 0/ 0/ 0/ 0/ 0/ 0/ 0/ 0/ 0/ 0/ 0/ 0/ 0/ 0/ 0/ 0/ 0/ 0/ 0/ 0/ 0/ 0/ 0/ 0/ 0/ 0/ 0/ 0/ 0/ 0/ 0/ 0/ 0/ 0/ 0/ 0/ 0/ 0/ 0/ 0/ 0/ 0/ 0/ 0/ 0/ 0/ 0/ 0/ 0/ 0/ 0/ 0/ 0/ 0/ 0/ 0/ 0/ 0/ 0/ 0/ 0/ 0/ 0/ 0/ 0/ 0/ 0/ 0/ 0/ 0/ 0/ 0/ 0/ 0/ 0/ 0/ 0/ 0/ 0/ 0/ 0/ 0/ k^ /( |% W' [q 0/ C: k^ k^ .@.U( +% `$ D$ t# q~ c{.!>.(~ w[ V/ 0/ 0/ 0/ 0/ 0/ 0/ 0/ 0/ 0/ 0/ 0/ 0/ 0/ k^ k^ >[ e% ][ Q{ <( b$ j4 Nu y| y| y@ di [%.,[ 0/ 0/ 0/ 0/ 0/ 0/ 0/ 0/ 0/ 0/ 0/ 0/ 0/ m` 46 4Q k{ p~ 8) +~ +~ +~ +~ +~ x! U} @v P= u- T; N- O- &7 +].W( =^ m_ <  <  <  <  <  <  <  <  <  <  }  p$ =$ _$ _$ P# /# 5@ *@ n+ N+ M6 a  |. N. h  R. x  S] |{ 3] H'.~).,).,).$).u+ u+ u+ u+ u+ u+ u+ u+ u+ $t *+.*+.*+.*+.*+.I( Q{.Q{.Q{.Q{.Q{.Q{.Q{.Q{.Q{.Q{.Q{.*+.*+.*+.*+.*+.*+.*+.*+.*+.*+.*+.*+.*+.*+.*+.*+.*+.*+.*+.%t u+ u+ u+ u+ u+ u+ u+ u+ ",
"21 21 21 21 21 21 21 21 21 21 21 21 21 21 21 21 21 0( .v Wt )u )u )u )u )u )u )u )u )u )u )u )u )u )u )u )u )u )u )u )u )u $].W{.t{.t{.t{.t{.t{.t{.t{.t{.t{.t{.t{.K{.~).w).c).X).().4!.8!.s+.i  4. N. |. |. e  @@ S@ 7  L+ M# %].c$ P# _$ _$ x# =$ :v <  <  <  <  <  <  G. E~._} K> U- N- T; M- E- o= O& m% S' k{ 8] a! +~ +~ +~ +~ L! r! r( j{ %| 0/ 0/ 0/ 0/ 0/ 0/ 0/ 0/ 0/ 0/ 0/ 0/ ,[ m~ J_ y@ h+ ,5 y| Q4 d,.+^ i&..e Nn m` `e /( /( /( 0/ 0/ 0/ 0/ 0/ 0/ C: N{ %| b% M+ ,5 y| H8 y# W$ Z$ b= N ./( ] .0/ 0/ 0/ 0/ 0/ 0/ 0/ 0/ 0/ 0/ 0/ 0/ 0/ 0/ 0/ 0/ 0/ 0/ 0/ 0/ 0/ 0/ 0/ 0/ 0/ 0/ 0/ 0/ 0/ 0/ 0/ 0/ 0/ 0/ 0/ 0/ 0/ 0/ 0/ 0/ 0/ 0/ 0/ 0/ 0/ 0/ 0/ 0/ 0/ 0/ 0/ 0/ 0/ 0/ 0/ 0/ 0/ 0/ 0/ 0/ 0/ 0/ 0/ 0/ 0/ 0/ 0/ 0/ 0/ 0/ 0/ 0/ 0/ 0/ 0/ 0/ 0/ 0/ 0/ 0/ 0/ 0/ 0/ 0/ 0/ 0/ 0/ 0/ 0/ 0/ 0/ 0/ 0/ 0/ 0/ 0/ 0/ 0/ 0/ 0/ 0/ 0/ 0/ 0/ 0/ 0/ 0/ 0/ 0/ 0/ 0/ 0/ 0/ 0/ 0/ 0/ 0/ 0/ 0/ 0/ 0/ 0/ 0/ 0/ 0/ 0/ 0/ 0/ 0/ 0/ 0/ 0/ 0/ 0/ 0/ 0/ 0/ 0/ 0/ 0/ 0/ 0/ 0/ 0/ 0/ 0/ 0/ 0/ 0/ 0/ 0/ 0/ 0/ 0/ 0/ 0/ 0/ 0/ 0/ k^ k^ 0/ 0/ 0/ 0/ 0/ 0/ 0/ 0/ k^ k^ &].E,.b+..e 0/ C: k^ k^ .@.U( +% `$ D$ t# q~ c{.!>.(~ w[ V/ 0/ 0/ 0/ 0/ 0/ 0/ 0/ 0/ 0/ 0/ 0/ 0/ 0/ 0/ 0/ >[ [% ][ Q{ <( b$ yw Nu y| y| y@ di [%.,[ 0/ 0/ 0/ 0/ 0/ 0/ 0/ 0/ 0/ 0/ 0/ 0/ 0/ m` W' LR k{ p~ 8) +~ +~ +~ +~ +~ x! 97 :4 Q= u- O- N- O- {- *]._^ __ ^} <  <  <  <  <  <  <  <  <  <  <  .* W@ _$ _$ P# /# 5@ *@ n+ N+ J: e  |. g  h  Q. x  S] |{ C). ).~).,).,).$).u+ u+ u+ u+ u+ u+ u+ u+ m/ *+.*+.*+.*+.*+.*+.Q{.Q{.Q{.Q{.Q{.Q{.Q{.Q{.Q{.Q{.Q{.Q{.z+.*+.*+.*+.*+.*+.*+.*+.*+.*+.*+.*+.*+.*+.*+.*+.*+.*+.*+.*+.%t u+ u+ u+ u+ u+ u+ u+ ",
"21 21 21 21 21 21 21 21 21 21 21 21 21 21 21 21 21 21 21 21 21 0( 0( .v Wt )u )u )u )u )u )u )u )u )u )u )u )u )u )u )u )u =].W{.t{.t{.t{.t{.t{.t{.t{.t{.t{.t{.t{.K{.~).w).c).X).().4!.8!.s+.i  4. N. |. |. e  @@ S@ 7  L+ M# 4  9$ V@ _$ y# -].g& <  <  <  <  <  <  <  <  E~._} K> U- N- N- T; x- o= O& l% X, U} Y. a! +~ +~ +~ +~ L! r! t( m{ %| 0/ 0/ 0/ 0/ 0/ 0/ 0/ 0/ 0/ 0/ 0/ 0/ ,[ m~ J_ y@ j4 ,5 y| g| f< b/ x1 p%.LR Ze 46 L .<,.f% x../( 0/ 0/ 0/ 0/ C: N{ %| b% M+ ,5 y| H8 y# W$ Z$ b= N ./( ] .0/ 0/ 0/ 0/ 0/ 0/ 0/ 0/ 0/ 0/ 0/ 0/ 0/ 0/ 0/ 0/ 0/ 0/ 0/ 0/ 0/ 0/ 0/ 0/ 0/ 0/ 0/ 0/ 0/ 0/ 0/ 0/ 0/ 0/ 0/ 0/ 0/ 0/ 0/ 0/ 0/ 0/ 0/ 0/ 0/ 0/ 0/ 0/ 0/ 0/ 0/ 0/ 0/ 0/ 0/ 0/ 0/ 0/ 0/ 0/ 0/ 0/ 0/ 0/ 0/ 0/ 0/ 0/ 0/ 0/ 0/ 0/ 0/ 0/ 0/ 0/ 0/ 0/ 0/ 0/ 0/ 0/ 0/ 0/ 0/ 0/ 0/ 0/ 0/ 0/ 0/ 0/ 0/ 0/ 0/ 0/ 0/ 0/ 0/ 0/ 0/ 0/ 0/ 0/ 0/ 0/ 0/ 0/ 0/ 0/ 0/ 0/ 0/ 0/ k^ k^ 0/ 0/ 0/ 0/ 0/ 0/ 0/ 0/ 0/ k^ k^ k^ 0/ 0/ 0/ 0/ 0/ 0/ 0/ 0/ 0/ 0/ 0/ 0/ 0/ 0/ 0/ 0/ 0/ k^ k^ k^ 0/ 0/ 0/ 0/ w[ 0/ 0/ 0/ /( (4 (4 /( 0/ 0/ 0/ 0/ 0/ C: k^ k^ k^ k^ w[ }% 4` e,.SO 0/ C: k^ k^ .@.U( +% `$ D$ t# q~ c{.!>.(~ w[ V/ 0/ 0/ 0/ 0/ 0/ 0/ 0/ 0/ 0/ 0/ 0/ 0/ 0/ 0/ 0/ ^^ e% ][ Q{ J3 Q4 yw 0u y| y| U@ b= /( ,[ 0/ 0/ 0/ 0/ 0/ 0/ 0/ 0/ 0/ 0/ 0/ 0/ 0/ /( W' LR k{ p~ 8) +~ +~ +~ +~ +~ x!  & :4 Q= u- O- T; O- &7 ;].>].Y] ^} <  <  <  <  <  <  <  <  <  <  <  .* U$ _$ _$ P# /# 5@ *@ n+ T  m7 e  |. |. 4. O. x  S] 8x L).c).~).,).,)./b u+ u+ u+ u+ u+ u+ 0& *+.*+.*+.*+.*+.*+.*+.*+.Q{.Q{.Q{.Q{.Q{.Q{.Q{.Q{.Q{.Q{.Q{.Q{.5t *+.*+.*+.*+.*+.*+.*+.*+.*+.*+.*+.*+.*+.*+.*+.*+.*+.*+.*+.*+.u+ u+ u+ u+ u+ u+ u+ ",
"21 21 21 21 21 21 21 21 21 21 21 21 21 21 21 21 21 21 21 21 21 21 21 21 21 21 0( .v )u )u )u )u )u )u )u )u )u )u )u )u )u ,].W{.t{.t{.t{.t{.t{.t{.t{.t{.:< t{.t{.K{.~).w).c).X).().4!.8!.s+.i  4. N. |. |. e  @@ S@ 7  L+ M# L# |  2) U$ T$ _  <  <  <  <  <  <  <  <  <  :( '].K> /; T; T; N- x- o= O& k%  )  { Y. +~ +~ +~ +~ +~ L! r! t( U} &e 0/ 0/ 0/ 0/ 0/ 0/ 0/ 0/ 0/ 0/ 0/ 0/ ,[ m~ ei y@ j4 ,5 y| g| r{ X] o^ ]z )].]z $-.W( Q{ x1 l .f% m` 0/ 0/ 0/ C: N{ %| b% M+ ,5 y| H8 y# W$ Z$ b= N ./( ] .0/ 0/ 0/ 0/ 0/ 0/ 0/ 0/ 0/ 0/ 0/ 0/ 0/ 0/ 0/ 0/ 0/ 0/ 0/ 0/ 0/ 0/ 0/ 0/ 0/ 0/ 0/ 0/ 0/ 0/ 0/ 0/ 0/ 0/ 0/ 0/ 0/ 0/ 0/ 0/ 0/ 0/ 0/ 0/ 0/ 0/ 0/ 0/ 0/ 0/ 0/ 0/ 0/ 0/ 0/ 0/ 0/ 0/ 0/ 0/ 0/ 0/ 0/ 0/ 0/ 0/ 0/ 0/ 0/ 0/ 0/ 0/ 0/ 0/ 0/ 0/ 0/ 0/ 0/ 0/ 0/ 0/ 0/ 0/ 0/ 0/ 0/ 0/ 0/ 0/ 0/ 0/ 0/ 0/ 0/ 0/ 0/ 0/ 0/ 0/ 0/ 0/ 0/ 0/ 0/ k^ k^ 0/ 0/ 0/ 0/ 0/ 0/ 0/ w[ (4 Nn B, [q [q B, B, Nn (4 R` /( w[ 0/ 0/ 0/ 0/ 0/ 0/ 0/ 0/ 0/ 0/ 0/ 0/ 0/ 0/ 0/ 0/ 0/ 0/ 0/ /( /( (4 Nn [q SO Q` e% d% W' ^z  e  e 1{ d% f% '+.x..(4 /( /( /( /( %| '+.w..Y] fx SO 0/ C: k^ k^ .@.U( +% `$ D$ t# q~ c{.!>.(~ w[ V/ 0/ 0/ 0/ 0/ 0/ 0/ 0/ 0/ 0/ 0/ 0/ 0/ 0/ 0/ 0/ %| 6; y[ Q{ J3 Q4 yw 0u y| y| y@ +% m` C: 0/ 0/ 0/ 0/ 0/ 0/ 0/ 0/ 0/ k^ k^ 0/ 0/ /( 6; wc k{ p~ 8) +~ +~ +~ +~ +~ ]^ a$ :4 Q= H- P- T; P- {- +].>].Y] |^ <  <  <  <  <  <  <  <  <  <  <  .* U$ _$ _$ P# /# 5@ *@ n+ ~# @( e  |. |. 4. O. v  S] !].S).c).~).,).,).~].u+ u+ u+ u+ %t $t *+.*+.*+.*+.*+.*+.*+.*+.*+.Q{.Q{.Q{.Q{.Q{.Q{.Q{.Q{.Q{.Q{.Q{.Q{.R{.*+.*+.*+.*+.*+.*+.*+.*+.*+.*+.*+.*+.*+.*+.*+.*+.*+.*+.*+.*+.XW u+ u+ u+ u+ u+ u+ ",
"21 21 21 21 21 21 21 21 21 21 21 21 21 21 21 21 21 21 21 21 21 21 21 21 21 21 21 21 21 Wt )u )u )u )u )u )u )u )u )u )u )u #  {].]].t{.t{.t{.t{.t{.t{.^]./].t{.t{.K{.~).w).c).X).().4!.8!.s+.i  4. N. |. |. e  @@ S@ 7  L+ M# L# 2  |  |+ |+ <  <  <  <  <  <  <  <  <  2  m_ ~*.K> /; O- T; T; x- o= $* j%  ) g| x! +~ +~ +~ +~ +~ L! r! t( o2 /p 0/ 0/ 0/ 0/ 0/ 0/ 0/ 0/ 0/ 0/ 0/ 0/ ,[ m~ ei y@ j4 ,5 y| Q4 t{ G/ Q{ Q{ o^ Q{ Q{ Q{ Q{ zx W( /Y |% /( 0/ 0/ C: N{ %| b% M+ ,5 y| H8 y# W$ Z$ b= N ./( ] .0/ 0/ 0/ 0/ 0/ 0/ 0/ 0/ 0/ 0/ 0/ 0/ 0/ 0/ 0/ 0/ 0/ 0/ 0/ 0/ 0/ 0/ 0/ 0/ 0/ 0/ 0/ 0/ 0/ 0/ 0/ 0/ 0/ 0/ 0/ 0/ 0/ 0/ 0/ 0/ 0/ 0/ 0/ 0/ 0/ 0/ 0/ 0/ 0/ 0/ 0/ 0/ 0/ 0/ 0/ 0/ 0/ 0/ 0/ 0/ 0/ 0/ 0/ 0/ 0/ 0/ 0/ 0/ 0/ 0/ 0/ 0/ 0/ 0/ 0/ 0/ 0/ 0/ 0/ 0/ 0/ 0/ 0/ 0/ 0/ 0/ 0/ 0/ 0/ 0/ 0/ 0/ 0/ 0/ 0/ 0/ 0/ 0/ 0/ 0/ 0/ 0/ 0/ 0/ 0/ 0/ /( m` Nn [q .e |% f% d% L .S'  e wc G} G} wc  e  e  e S' 46 W' d% <% [% Q` C, jz [q ha Nn Nn ha [q [q SO bk Q` e% <% d% 6; |2 X, wc 4Q ][ *^ B< X^ W( ]z ]z zx zx b/ +< g[ LR %..46 6; 6; 46 S' ][ X^ BP u=.g% 0/ C: k^ k^ .@.U( +% `$ D$ t# q~ c{.!>.(~ w[ V/ 0/ 0/ 0/ 0/ 0/ 0/ 0/ 0/ 0/ 0/ 0/ 0/ 0/ C: C: ha ^z M_ W( f[ H3 yw Nu y| y| y@ N' Nn C: 0/ 0/ 0/ 0/ 0/ 0/ 0/ 0/ /( &e %| 0/ 0/ /( d% wc -^ p~ 8) +~ +~ +~ +~ +~ x! H3 :4 #3 H- <; O- P- {- *].>].Y] :^ <  <  <  <  <  <  <  <  <  <  <  _   & _$ _$ P# /# 5@ *@ ^# <)  ( e  |. |. 3. 6. <!.B( +!.X).c).~).,).(].~].u+ u+ u+ u+ $t *+.*+.*+.*+.*+.*+.*+.*+.*+.*+.Q{.Q{.Q{.Q{.Q{.Q{.Q{.Q{.Q{.Q{.Q{.Q{.Q{.*+.*+.*+.*+.*+.*+.*+.*+.*+.*+.*+.*+.*+.*+.*+.*+.*+.*+.*+.*+.%t u+ u+ u+ u+ u+ u+ ",
"21 21 21 21 21 21 21 21 21 21 21 21 21 21 21 21 21 21 21 21 21 21 21 21 21 21 21 21 21 21 q: )u )u )u )u )u )u )u )u )u )u Ux {]._].t{.t{.t{.t{.t{.:]./]./].t{.t{.K{.~).w).c).X).().4!.8!.s+.i  4. N. |. |. e  @@ S@ 7  L+ M# L# 2  2  <  <  <  <  <  <  <  <  <  <  <  2  <+.+4 K> V- O- O- T; x- o= $* j%  ) H3 x! +~ +~ +~ +~ +~ L! r! t( q!.6; /( 0/ 0/ 0/ 0/ 0/ 0/ 0/ 0/ 0/ 0/ 0/ ,[ m~ ei y@ j4 ,5 y| Q4 t{ G/ Q{ Q{ Q{ Q{ Q{ Q{ Q{ Q{ W( __ 6; m` C: C: C: N{ %| b% M+ ,5 y| H8 y# W$ Z$ b= N ./( ] .0/ 0/ 0/ 0/ 0/ 0/ 0/ 0/ 0/ 0/ 0/ 0/ 0/ 0/ 0/ 0/ 0/ 0/ 0/ 0/ 0/ 0/ 0/ 0/ 0/ 0/ 0/ 0/ 0/ 0/ 0/ 0/ 0/ 0/ 0/ 0/ 0/ 0/ 0/ 0/ 0/ 0/ 0/ 0/ 0/ 0/ 0/ 0/ 0/ 0/ 0/ 0/ 0/ 0/ 0/ 0/ 0/ 0/ 0/ 0/ 0/ 0/ 0/ 0/ 0/ 0/ 0/ 0/ 0/ 0/ 0/ 0/ 0/ 0/ 0/ 0/ 0/ 0/ 0/ 0/ 0/ 0/ 0/ 0/ 0/ 0/ 0/ 0/ 0/ 0/ 0/ 0/ `e `e `e /( m` Nn x..B, SO C, [% e% c+.d% t6 |2 %..LR La +^ M_ Q{ $-.zx zx W( o^ o^ o^ zx zx zx W( W( W( i_ X^ B< H: @^ /Y LR  e  e Ze  e LR LR 0; ][ *^ B< X^ Q{ W( zx zx W( o^ Q{ Q{ o^ o^ Q{ o^ o^ o^ o^ Q{ W( W( zx zx W( i_ i_ W( $-.W( o^ Q{ qR g% 0/ C: k^ k^ .@.U( +% `$ D$ t# q~ c{.!>.(~ w[ V/ 0/ 0/ 0/ 0/ 0/ 0/ 0/ 0/ 0/ 0/ 0/ 0/ 0/ C: C: [q l .Q{ W( zz N# yw Nu y| y| M+ 9; B, C: k^ 0/ 0/ 0/ 0/ 0/ 0/ /( g% 1{ Q` k^ 0/ /( d%  e -^ p~ 8) +~ +~ +~ +~ +~ x! }2 M2 #3 t- <; P- <; J4 A{.>].(^ G. <  <  <  <  <  <  <  <  <  <  <  |+ ,) _$ _$ P# /# 5@ *@ n+ _{ 1@ e  |. |. h  4. m  +!.4!.X).c).~).,).(].~].u+ u+ u+ u+ $t *+.*+.*+.*+.*+.*+.*+.*+.*+.z+.Q{.Q{.Q{.Q{.Q{.Q{.Q{.Q{.Q{.Q{.Q{.Q{.Q{.z+.*+.*+.*+.*+.*+.*+.*+.*+.*+.*+.*+.*+.*+.*+.*+.*+.*+.*+.*+.XW u+ u+ u+ u+ u+ u+ ",
"21 21 21 21 21 21 21 21 21 21 21 21 21 21 21 21 21 W# h$ J} 21 21 21 21 21 21 21 21 21 21 21 q: )u )u )u )u )u )u )u )u )u Ux {].<].t{.t{.t{.t{.t{.^]./]./].%. t{.K{.~).w).c).X).().4!.8!.s+.i  4. N. |. |. e  @@ S@ 7  L+ M# L# 2  2  <  <  <  <  <  <  <  <  <  <  <  <  <+.3) K> V- P- O- O- 2; o= o& j%  ) }2 +~ +~ +~ +~ +~ +~ L! r! f/ S$ 4Q B, `e 0/ 0/ 0/ 0/ 0/ 0/ 0/ 0/ 0/ 0/ ,[ m~ ei y@ j4 ,5 y| Q4 t{ m^ Q{ Q{ Q{ Q{ Q{ Q{ Q{ Q{ W( Y] ^z (4 C: C: C: N{ %| b% M+ ,5 y| H8 y# W$ Z$ b= N ./( ] .0/ 0/ 0/ 0/ 0/ 0/ 0/ 0/ 0/ 0/ 0/ 0/ 0/ 0/ 0/ 0/ 0/ 0/ 0/ 0/ 0/ 0/ 0/ 0/ 0/ 0/ 0/ 0/ 0/ 0/ 0/ 0/ 0/ 0/ 0/ 0/ 0/ 0/ 0/ 0/ 0/ 0/ 0/ 0/ 0/ 0/ 0/ 0/ 0/ 0/ 0/ 0/ 0/ 0/ 0/ 0/ 0/ 0/ 0/ 0/ 0/ 0/ 0/ 0/ 0/ 0/ 0/ 0/ 0/ 0/ 0/ 0/ 0/ 0/ 0/ 0/ 0/ 0/ 0/ 0/ 0/ 0/ 0/ 0/ 0/ 0/ `e /( R` (4 %| %| &e &e &e [q |% f% <% t6 ^z wc 4Q fx +^ @^ y[ H: !x .^ .^ +^ +^  ^ =,. ^  ^  ^  ^  ^  ^  ^  ^  ^ =,.=,.=,.=,.=,.!x !x !x H: H: H: M_ H: H: H: H: H: H: B< B< B< B< B< q} B< M_ M_ M_ M_ M_ B< B< B< B< B< B< B< B< B< M_ X^ M_ M_ X^ X^ X^ X^ X^ Q{ u=.g% `e C: k^ k^ .@.U( +% `$ D$ t# q~ c{.!>.(~ w[ V/ 0/ 0/ 0/ 0/ 0/ 0/ 0/ 0/ 0/ 0/ 0/ 0/ 0/ C: 0/ |% qR o^ o^ zz N# yw Nu y| y| x@ Y( jz C: k^ 0/ 0/ 0/ 0/ 0/ 0/ Nn ci fx e% 0/ 0/ /( d%  e -^ p~ 8) +~ +~ +~ +~ +~ x! U1 M2 #3 t- <; P- Q- &z A{.>].Q{ <  <  <  <  <  <  <  <  <  <  <  <  <  z$ x# _$ P# /# 5@ *@ 5) [].1@ e  |. |. h  4. s+.%!.4!.X).c).~).,).(].~].u+ u+ u+ u+ m/ *+.*+.*+.*+.*+.*+.*+.*+.*+.U{.Q{.Q{.Q{.Q{.Q{.Q{.Q{.Q{.Q{.Q{.Q{.Q{.Q{.5| *+.*+.*+.*+.*+.*+.*+.*+.*+.*+.*+.*+.*+.*+.*+.*+.m/ u+ u+ u+ u+ u+ u+ u+ u+ u+ ",
"21 21 21 21 21 21 21 21 21 21 21 21 21 21 21 21 W# #/ #/ #/ #/ h$ 21 21 21 21 21 21 21 21 21 21 0( Wt )u )u )u )u )u )u )u Ux {].{].]].t{.t{.t{.t{.}]./]./].}].t{.K{.~).w).c).X).().4!.8!.s+.i  4. N. |. |. e  @@ S@ 7  L+ M# L# 2  2  <  <  <  <  <  <  <  <  <  <  <  <  |].`~ K> V- P- P- <; w- o= o& h% P' U1 a! +~ +~ +~ +~ +~ L! r! F~ L_ q} t6 SO ha [q ha /( 0/ 0/ 0/ 0/ 0/ 0/ ,[ m~ ei y@ j4 ,5 y| Q4 d,.m^ Q{ Q{ Q{ Q{ Q{ Q{ Q{ Q{ W( (^ %..ha C: C: C: N{ %| b% M+ ,5 y| H8 y# W$ Z$ b= @m a[ %| %| %| %| %| %| %| %| %| %| %| %| %| %| %| %| %| %| %| %| %| %| %| %| %| %| %| %| %| %| %| %| %| %| %| %| %| %| %| %| %| %| %| %| %| %| %| %| %| %| %| %| %| %| %| %| %| %| %| %| %| %| %| %| %| %| %| %| %| %| %| %| %| %| %| %| %| %| %| %| %| %| %| %| a[ G4 G4 bk Q` Q` n .+e +e =w :% :% :% :% :% _% _% c% _% c% U' c% c% c% c% c% c% c% c% c% c% c% c% c% c% U' U' U' U' U' U' T' S' T' S' S' T' 1].1].2].%% R' R' Q' Q' Q' Q' Q' Q' Q' Q'  )  )  )  )  ) P' P' P' j3 j3 j3 j3 j3 j3 j3 j3 G3 G3 j3 j3 j3 j3 j3 S) G} G} G} 0; 0; X, Q` &e ^^ %| %| .< F} +%  % D$ t# q~ c{.!>.(~ w[ V/ 0/ 0/ 0/ 0/ 0/ 0/ 0/ 0/ 0/ 0/ 0/ 0/ 0/ 0/ &e 46 !x Q{ Q{ NX H3 yw Nu y| y| *+ z] }% `e 0/ 0/ 0/ 0/ 0/ 0/ `e h% .# __ 46 m` 0/ /( d% wc k{ p~ 8) +~ +~ +~ +~ +~ +~ /| M2 Q= t- <; <; Q- Cy 3].N` Q{ <  <  <  <  <  <  <  <  <  <  <  <  <  _   & _$ P# /# 5@ n+ 4].@@ 1@ e  |. |. h  4. s+.%!.4!.X).c).~).,).(].~].u+ u+ u+ u+ XW *+.*+.*+.*+.*+.*+.*+.*+.R{.Q{.Q{.Q{.Q{.Q{.Q{.Q{.Q{.Q{.Q{.Q{.Q{.Q{.Q{.Q{.$_ *+.*+.*+.*+.*+.*+.*+.*+.*+.*+.*+.*+.*+.*+.*+.u+ u+ u+ u+ u+ u+ u+ u+ u+ u+ ",
"21 21 21 21 21 21 21 21 21 21 21 21 21 21 21 W# #/ #/ #/ #/ #/ #/ #/ h$ 21 21 21 21 21 21 21 21 21 21 .v )u )u )u )u )u )u Ux {].{].5].t{.t{.t{.t{.}]./]./]./].6].K{.~).w).c).X).().4!.8!.s+.i  4. N. |. |. e  @@ S@ 7  L+ M# L# 2  2  <  <  <  <  <  <  <  <  <  <  <  <  |^ 7].', V- <; <; P- w- o= n& 4% x[ /| a! +~ +~ +~ +~ +~ L! r! F~ e$ 1^ !x .# w...# ^z [q 0/ 0/ 0/ 0/ 0/ 0/ ,[ m~ ei y@ j4 ,5 y| Q4 d,.m^ Q{ Q{ Q{ Q{ Q{ Q{ Q{ Q{ W( i| l .[q C: C: C: N{ %| b% M+ ,5 y| H8 y# W$ Z$ W$ D$ W$ W$ W$ W$ W$ W$ W$ W$ W$ W$ W$ W$ W$ W$ W$ W$ W$ W$ W$ W$ W$ W$ W$ W$ W$ W$ W$ W$ W$ W$ W$ W$ W$ W$ W$ W$ W$ W$ W$ W$ W$ W$ W$ W$ W$ W$ W$ W$ W$ W$ W$ W$ W$ W$ W$ W$ W$ W$ W$ W$ W$ W$ W$ W$ W$ W$ W$ W$ W$ W$ W$ W$ W$ W$ W$ W$ W$ W$ W$ W$ W$ W$ W$ W$ W$ V$ E$ E$ D$ D$ D$ D$ D$ M! M! d= d= d= D$ D$ D$ D$ D$ V, V, :_ :_ :_ :_ :_ :_ :_ :_ V, V, D$ D$ E$ E$ E$ E$ E$ E$ E$ E$ E$ D$ D$ D$ D$ D$ D$ V, D$ D$ E$ E$ E$ D$ D$ D$ D$ D$ D$ D$ D$ [! [! [! [! +;.+;.[! [! [! [! [! [! +;.+;.+;.+;.+;.+;.+;.[! [! [! +;.E$ E$ E$ E$ E$ D$ V$ W$ *>.X$ X$ V$ E$ :_ {% Z$ D$ t# q~ c{.!>.(~ w[ V/ 0/ 0/ 0/ 0/ 0/ 0/ 0/ 0/ 0/ 0/ 0/ 0/ C: 0/ SO .# Q{ Q{ Q{ NX H3 j4 Nu y| y| f{ d,.iz x..0/ 0/ 0/ 0/ 0/ 0/ /( 8].9].Q{ l .SO 0/ m` <,.4Q k{ p~ 8) +~ +~ +~ +~ +~ +~ 8] 'd |P 6G <; <; R- &z O{.<+.1^ |  <  <  <  <  <  <  <  <  <  <  <  <  <  r* U$ P# /# 5@ 0].3+ @@ 1@ e  |. |. h  4. s+.%!.4!.X).c).~).,).(].~].u+ u+ u+ u+ u+ 6U *+.*+.*+.*+.z+.R{.Q{.Q{.Q{.Q{.Q{.Q{.Q{.Q{.Q{.Q{.Q{.Q{.Q{.Q{.Q{.Q{.Q{.Q{.U{.5| z+.*+.*+.*+.*+.*+.*+.*+.*+.*+.*+.*+.*+.m/ XW u+ u+ u+ u+ u+ u+ u+ u+ ",
"21 21 21 21 21 21 21 21 21 21 21 21 21 21 W# #/ #/ #/ #/ #/ #/ #/ #/ #/ q. F, 21 21 21 21 21 21 21 21 21 0( Wt )u )u )u )u Ux {].{].a].t{.t{.t{.t{.b]./]./]./]./].K{.~).w).c).X).().4!.8!.s+.i  4. N. |. |. e  @@ S@ 7  L+ M# L# 2  2  <  <  <  <  <  <  <  <  <  <  <  <  :^ c].K> m; <; <; P- w- 23 m& 2% Y; /| +~ +~ +~ +~ +~ +~ L! r! :~ e$ 1^ i_ Q{ X^ Y] .# j&.w[ 0/ 0/ 0/ 0/ 0/ ,[ m~ ei y@ j4 ,5 y| Q4 f< O{ Q{ Q{ Q{ Q{ Q{ Q{ Q{ Q{ W( i| .# SO 0/ k^ C: N{ %| b% M+ ,5 y| H8 x# n= :_ -@ .4 d+ e+ )t )t )t )t )t )t )t )t )t )t )t )t )t )t )t )t )t )t )t )t )t )t )t )t )t )t )t )t )t )t )t )t )t )t )t )t )t )t )t )t )t )t )t )t )t )t )t )t )t )t )t )t )t )t )t )t )t )t )t )t )t )t )t )t )t )t )t )t )t )t )t )t )t )t )t )t )t )t )t )t )t )t )t )t )t 8] 8] 8] 8] 8] 8] 8] 8] 8] 8] 8] 8] 8] 8] 8] 8] 8] 8] 8] 8] 8] 8] 8] 8] 8] 8] 8] 8] 8] 8] 8] 8] 8] 8] 8] 8] 8] 8] 8] 8] 8] 8] 8] 8] 8] 8] 8] 8] 8] 8] 8] 8] 8] 8] 8] 8] 8] 8] 8] 8] 8] 8] 8] 82 82 82 82 @! @! @! @! @! @! @! @! @! @! @! @! @! @! @! @! @! @! @! @! @! @! 8] )t )t )t Y. e+ &+ I$ Z$ D$ t# q~ c{.!>.(~ w[ V/ 0/ 0/ 0/ 0/ 0/ 0/ 0/ 0/ 0/ 0/ 0/ 0/ C: `e }% .^ W( o^ Q{ NX H3 j4 y| y| y| f{ f[ 4` |% 0/ k^ 0/ 0/ 0/ 0/ (4 i&.__ Q{ !x 6; /( Nn Ze 4Q k{ p~ 8) +~ +~ +~ +~ +~ +~ Y. 'd Q= H- <; <; R- Q3 +].}+.N` 2  <  <  <  <  <  <  <  <  <  <  <  <  <  <  .* 2) 0$ 1) 4].7  @@ 1@ e  |. |. h  4. s+.%!.4!.X).c).~).,).(].~].u+ u+ u+ u+ u+ u+ $t *+.*+.*+.*+.U{.Q{.Q{.Q{.Q{.Q{.Q{.Q{.Q{.Q{.Q{.Q{.Q{.Q{.Q{.Q{.Q{.Q{.Q{.Q{.Q{.Q{.U{.I( *+.*+.*+.*+.*+.*+.*+.*+.*+.*+.*+.*+.$t XW u+ u+ u+ u+ u+ u+ ",
"21 21 21 21 21 21 21 21 21 21 21 21 21 T# #/ #/ #/ #/ #/ #/ #/ #/ #/ #/ #/ #/ W# 21 21 21 21 21 21 21 21 21 21 .v )u )u )u Ux {].{].{].t{.t{.t{.t{.d]./]./]./]./].K{.~).w).c).X).().4!.8!.s+.i  4. N. |. |. e  @@ S@ 7  L+ M# L# 2  2  <  <  <  <  <  <  <  <  <  <  <  <  o$ }) K> X- <; <; <; w- o= n& 1% K' @! +~ +~ +~ +~ +~ +~ L! r! :~ e$ 1^ Q{ Q{ Q{ c/ l .j&.w[ 0/ 0/ 0/ 0/ 0/ ,[ m~ ei y@ j4 ,5 y| H3 J3 O{ Q{ Q{ Q{ Q{ Q{ Q{ Q{ Q{ W( o^ fx [% /( k^ C: N{ %| b% M+ ,5 y| H8 x# W$ Y@ .4 t  B/ () () () () () () () () () () () () () () () () () () () () () () () () () () () () () () () () () () () () () () () () () () () () () () () () () () () () () () () () () () () () () () () () () () () () () () () () () () () () () () () () () () () () () () () () () () () () () () () () () () () () () () () () () () () () () () () () () () () () () () () () () () () () () () () () () () () () () () () () () () () () () () () () () () () () () () () () () () () () () () () () () () () () () () () () () () () () () () () () () () () 8) B/ ]^ <| H$ [! t# q~ c{.!>.(~ w[ V/ 0/ 0/ 0/ 0/ 0/ 0/ 0/ 0/ 0/ 0/ 0/ C: C: (4 46 __ o^ Q{ Q{ NX H3 h+ y| y| y| f{ [( __ <% /( 0/ 0/ 0/ 0/ 0/ x..^z Y] Q{ X^ 4Q |% J8 p%.fx -^ p~ 8) +~ +~ +~ +~ +~ +~ x! q2 4- I- R- R- R- Q3 *].|+.^} <  <  <  <  <  <  <  <  <  <  <  <  <  <  <  }  2  2  /. 3+ 7  @@ 1@ e  |. |. h  4. s+.%!.4!.X).c).~).,).(].~].u+ u+ u+ u+ u+ u+ u+ $t *+.*+.*+.*+.Q{.Q{.Q{.Q{.Q{.Q{.Q{.Q{.Q{.Q{.Q{.Q{.Q{.Q{.Q{.Q{.Q{.Q{.Q{.Q{.Q{.Q{.Q{.Q{.5t *+.*+.*+.*+.*+.*+.*+.*+.*+.*+.*+.*+.u+ u+ u+ u+ u+ u+ ",
"21 21 21 21 21 21 21 21 21 21 21 21 T# #/ #/ #/ #/ #/ #/ #/ #/ #/ #/ #/ #/ #/ #/ #/ q. h$ T# 21 21 21 21 21 21 21 q: )u )u Ux {].{].{].e].t{.t{.t{.t{./]./]./]./].K{.~).w).c).X).().4!.8!.s+.i  4. N. |. |. e  @@ S@ 7  L+ M# L# 2  2  <  <  <  <  <  <  <  <  <  <  <  <  G. f].|w X- <; <; <; v- o= m& 1% J' 8] +~ +~ +~ +~ +~ +~ L! r! :~ e$ 1^ Q{ Q{ Q{ Q{ .# SO 0/ 0/ 0/ 0/ 0/ 0/ ,[ m~ ei y@ j4 0u y| Q4 r{ O{ Q{ Q{ Q{ Q{ Q{ Q{ Q{ Q{ Q{ Q{ +^ `' ^^ k^ C: N{ %| b% M+ ,5 y| M+ Y@ n{ *+ W. @< ]^ ]^ ]^ ]^ ]^ ]^ ]^ ]^ ]^ ]^ ]^ ]^ ]^ ]^ ]^ ]^ ]^ ]^ ]^ ]^ ]^ ]^ ]^ ]^ ]^ ]^ ]^ ]^ ]^ ]^ ]^ ]^ ]^ ]^ ]^ ]^ ]^ ]^ ]^ ]^ ]^ ]^ ]^ ]^ ]^ ]^ ]^ ]^ ]^ ]^ ]^ ]^ ]^ ]^ ]^ ]^ ]^ ]^ ]^ ]^ ]^ ]^ ]^ ]^ ]^ ]^ ]^ ]^ ]^ ]^ ]^ ]^ ]^ ]^ ]^ ]^ ]^ ]^ ]^ ]^ ]^ ]^ ]^ ]^ ]^ ]^ ]^ ]^ ]^ ]^ ]^ ]^ ]^ ]^ ]^ ]^ ]^ ]^ ]^ ]^ ]^ ]^ ]^ ]^ ]^ ]^ ]^ ]^ ]^ ]^ ]^ ]^ ]^ ]^ ]^ ]^ ]^ ]^ ]^ ]^ ]^ ]^ ]^ ]^ ]^ ]^ ]^ ]^ ]^ ]^ ]^ ]^ ]^ ]^ ]^ ]^ ]^ ]^ ]^ ]^ ]^ ]^ ]^ ]^ ]^ ]^ ]^ ]^ ]^ ]^ ]^ ]^ ]^ ]^ ]^ ]^ ]^ ]^ ]^ ]^ ]^ ]^ ]^ ]^ ]^ ]^ ]^ ]^ ]^ ]^ ]^ ]^ ]^ ]^ ]^ ]^ ]^ ]^ ]^ ]^ ]^ ]^ t  X. U  U$ n+ h+ c{.!>.(~ w[ V/ 0/ 0/ 0/ 0/ 0/ 0/ 0/ 0/ 0/ 0/ 0/ k^ 0/ '+.La b/ Q{ Q{ Q{ NX H3 h+ y| y| y| f{ L| x1 ^z x..0/ 0/ 0/ 0/ 0/ P;.l .Q{ Q{ Q{ Y] +^  @.Y] fx -^ p~ 8) +~ +~ +~ +~ +~ +~ +~ q2 4- *&.i; R- i; Q3 3].Q@ K~.<  <  <  <  <  <  <  <  <  <  <  <  <  <  <  <  2  2  /. 3+ 7  @@ 1@ e  |. |. h  4. s+.%!.4!.X).c).~).,).(].~].u+ u+ u+ u+ u+ u+ u+ u+ $t *+.*+.*+.$_ Q{.Q{.Q{.Q{.Q{.Q{.Q{.Q{.Q{.Q{.Q{.Q{.Q{.Q{.Q{.Q{.Q{.Q{.Q{.Q{.Q{.Q{.Q{.Q{.I( *+.*+.*+.*+.*+.*+.*+.*+.*+.*+.*+.XW u+ u+ u+ u+ u+ ",
"21 21 21 21 21 21 21 21 21 21 21 J} #/ #/ #/ #/ #/ #/ #/ #/ #/ #/ #/ #/ #/ #/ #/ #/ #/ #/ #/ q. 21 21 21 21 21 21 21 0( Wt 21 g].{].{].h].t{.t{.t{.t{.i]./]./]./].K{.~).w).c).X).().4!.8!.s+.i  4. N. |. |. e  @@ S@ 7  L+ M# L# 2  2  <  <  <  <  <  <  <  <  <  <  <  <  <  j].K> W- <; <; <; F- 23 #* }% I3 Y. +~ +~ +~ +~ +~ +~ L! r! :~ e$ 1^ Q{ Q{ Q{ Q{ fx SO 0/ 0/ 0/ 0/ 0/ 0/ ,[ m~ ei y@ Dx Nu yw ,+ f< O{ Q{ Q{ Q{ Q{ Q{ Q{ Q{ Q{ Q{ Q{ .^ 6; ^^ C: C: N{ %| b% M+ B  y| T  U@ @+ Y. W. W. W. W. W. W. W. W. W. W. W. W. W. W. W. W. W. W. W. W. W. W. W. W. W. W. W. W. W. W. W. W. W. W. W. W. W. W. W. W. W. W. W. W. W. W. W. W. W. W. W. W. W. W. W. W. W. W. W. W. W. W. W. W. W. W. W. W. W. W. W. W. W. W. W. W. W. W. W. W. W. W. W. W. W. W. W. W. W. W. W. W. W. W. W. W. W. W. W. W. W. W. W. W. W. W. W. W. W. W. W. W. W. W. W. W. W. W. W. W. W. W. W. W. W. W. W. W. W. W. W. W. W. W. W. W. W. W. W. W. W. W. W. W. W. W. W. W. W. W. W. W. W. W. W. W. W. W. W. W. W. W. W. W. W. W. W. W. W. W. W. W. W. W. W. W. W. W. W. W. W. W. W. W. W. V. e+ f{ T  h+ aZ !>.(~ w[ V/ 0/ 0/ 0/ 0/ 0/ 0/ 0/ 0/ 0/ 0/ 0/ k^ Nn 46 x1 W( Q{ Q{ Q{ NX N# q~ y| y| y| f{ NX X^ 4` |% 0/ 0/ 0/ 0/ /( |% +^ W( Q{ Q{ W( zx zx Q{ fx -^ p~ 8) +~ +~ +~ +~ +~ +~ +~ k].4- J- i; R- i; Q3 l].K+ G. <  <  <  <  <  <  <  <  <  <  <  <  <  <  <  <  2  2  /. 3+ 7  @@ 1@ e  |. |. h  4. s+.%!.4!.X).c).~).,).(].~].u+ u+ u+ u+ u+ u+ u+ u+ u+ 0& *+.*+.*+.*+.5| Q{.Q{.Q{.Q{.Q{.Q{.Q{.Q{.Q{.Q{.Q{.Q{.Q{.Q{.Q{.Q{.Q{.Q{.Q{.Q{.Q{.Q{.U{.*+.*+.*+.*+.*+.*+.*+.*+.*+.*+.*+.%t u+ u+ u+ u+ u+ ",
"21 21 21 21 21 21 21 21 21 21 F, #/ #/ #/ #/ #/ #/ #/ #/ #/ #/ #/ #/ #/ #/ #/ #/ #/ #/ #/ #/ #/ J} 21 21 21 21 21 21 21 W# #/ L< m].n].o]..T :[ t{.t{.b]./]./]./].K{.~).w).c).X).().4!.8!.s+.i  4. N. |. |. e  @@ S@ 7  L+ M# L# 2  2  <  <  <  <  <  <  <  <  <  <  <  <  <  p].|w X- R- R- <; u- 23 #* }% A] Y. +~ +~ +~ +~ +~ +~ L! r! :~ e$ 1^ Q{ Q{ Q{ Q{ +^ |% 0/ 0/ 0/ 0/ 0/ 0/ ,[ m~ ei y@ Dx Nu yw Q4 f< O{ Q{ Q{ Q{ Q{ Q{ Q{ Q{ Q{ Q{ o^ C< 1{ %| C: C: N{ %| b% M+ y| c. #+ E  y| %+ x@ Q[ Q[ Q[ Q[ Q[ Q[ Q[ Q[ Q[ Q[ Q[ Q[ Q[ Q[ Q[ Q[ Q[ Q[ Q[ Q[ Q[ Q[ Q[ Q[ Q[ Q[ Q[ Q[ Q[ Q[ Q[ Q[ Q[ Q[ Q[ Q[ Q[ Q[ Q[ Q[ Q[ Q[ Q[ Q[ Q[ Q[ Q[ Q[ Q[ Q[ Q[ Q[ Q[ Q[ Q[ Q[ Q[ Q[ Q[ Q[ Q[ Q[ Q[ Q[ Q[ Q[ Q[ Q[ Q[ Q[ Q[ Q[ Q[ Q[ Q[ Q[ Q[ Q[ Q[ Q[ Q[ Q[ Q[ Q[ Q[ Q[ Q[ Q[ Q[ Q[ Q[ Q[ Q[ Q[ Q[ Q[ Q[ Q[ Q[ Q[ Q[ Q[ Q[ Q[ Q[ Q[ Q[ Q[ Q[ Q[ Q[ Q[ Q[ Q[ Q[ Q[ Q[ Q[ Q[ Q[ Q[ Q[ Q[ Q[ Q[ Q[ Q[ Q[ Q[ Q[ Q[ Q[ Q[ Q[ Q[ Q[ Q[ Q[ Q[ Q[ Q[ Q[ Q[ Q[ Q[ Q[ Q[ Q[ Q[ Q[ Q[ Q[ Q[ Q[ Q[ Q[ Q[ Q[ Q[ Q[ Q[ Q[ Q[ Q[ Q[ Q[ Q[ Q[ Q[ Q[ Q[ Q[ Q[ Q[ Q[ Q[ Q[ Q[ Q[ Q[ Q[ Q[ Q[ Q[ %+ <! B  c. y| Nu !>.(~ w[ V/ 0/ 0/ 0/ 0/ 0/ 0/ 0/ 0/ 0/ 0/ C: 0/ |% +^ i_ W( Q{ Q{ O{ L| I4 q~ y| y| y| f{ NX M^ __ t6 m` k^ 0/ 0/ (4 J8 _&.W( Q{ Q{ Q{ Q{ Q{ Q{ fx -^ p~ 8) +~ +~ +~ +~ +~ +~ a! Y' 4- J- i; i; i; Q3 +].[  <  <  <  <  <  <  <  <  <  <  <  <  <  <  <  <  <  2  2  /. 3+ 7  @@ 1@ e  |. |. h  4. s+.%!.4!.X).c).~).,).(].~].u+ u+ u+ u+ u+ u+ u+ u+ u+ u+ 0& *+.*+.*+.*+.*+.z+.Q{.Q{.Q{.Q{.Q{.Q{.Q{.Q{.Q{.Q{.Q{.Q{.Q{.Q{.Q{.Q{.Q{.Q{.Q{.Q{.Q{.$_ *+.*+.*+.*+.*+.*+.*+.*+.*+.*+.G~.u+ u+ u+ u+ u+ ",
"21 21 21 21 21 21 21 21 21 21 q. #/ #/ #/ #/ #/ #/ #/ #/ #/ #/ #/ #/ #/ #/ #/ #/ #/ #/ #/ #/ #/ q. 21 21 21 21 21 21 T# #/ D3 A'.A'.q].o].G< A'.e@ 2m r].s].M5 M5 K{.~).w).c).X).().4!.8!.s+.i  4. N. |. |. e  @@ S@ 7  L+ M# L# 2  2  <  <  <  <  <  <  <  <  <  <  <  <  1+ t].K> u].i; R- R- u- 23 #* }% p{ a. +~ +~ +~ +~ +~ +~ L! r! :~ e$ 1^ Q{ Q{ Q{ W( .^ f% /( 0/ 0/ 0/ 0/ 0/ ,[ m~ ei y@ Dx Nu yw ,+ f< O{ Q{ Q{ Q{ Q{ Q{ Q{ Q{ Q{ Q{ W( (^ %..&e C: C: N{ %| b% M+ y| y| Dx H8 :B @Z RX [Y [Y [Y [Y [Y [Y [Y [Y [Y [Y [Y [Y [Y [Y [Y [Y [Y [Y [Y [Y [Y [Y [Y [Y [Y [Y [Y [Y [Y [Y [Y [Y [Y [Y [Y [Y [Y [Y [Y [Y [Y [Y [Y [Y [Y [Y [Y [Y [Y [Y [Y [Y [Y [Y [Y [Y [Y [Y [Y [Y [Y [Y [Y [Y [Y [Y [Y [Y [Y [Y [Y [Y [Y [Y [Y [Y [Y [Y [Y [Y [Y [Y [Y [Y [Y [Y [Y [Y [Y [Y [Y [Y [Y [Y [Y [Y [Y [Y [Y [Y [Y [Y [Y [Y [Y [Y [Y [Y [Y [Y [Y [Y [Y [Y [Y [Y [Y [Y [Y [Y [Y [Y [Y [Y [Y [Y [Y [Y [Y [Y [Y [Y [Y [Y [Y [Y [Y [Y [Y [Y [Y [Y [Y [Y [Y [Y [Y [Y [Y [Y [Y [Y [Y [Y [Y [Y [Y [Y [Y [Y [Y [Y [Y [Y [Y [Y [Y [Y [Y [Y [Y [Y [Y [Y [Y [Y [Y [Y [Y [Y [Y [Y [Y *Y 2Y (>.#>.y| y| aZ !>.(~ w[ V/ 0/ 0/ 0/ 0/ 0/ 0/ 0/ 0/ 0/ 0/ C: (4 L .Y] W( Q{ Q{ Q{ O{ D< }2 q~ y| y| y| f{ NX M^ Y] .# SO w[ k^ `e P;.%..c/ W( Q{ Q{ Q{ Q{ Q{ Q{ fx -^ p~ 8) +~ +~ +~ +~ +~ +~ a! 29 4- J- i; i; 9> v]. ].W~ <  <  <  <  <  <  <  <  <  <  <  <  <  <  <  <  <  2  2  /. 3+ 7  @@ 1@ e  |. |. h  4. s+.%!.4!.X).c).~).,).(].~].u+ u+ u+ u+ u+ u+ u+ u+ u+ XW *+.*+.*+.*+.*+.*+.*+.Q{.Q{.Q{.Q{.Q{.Q{.Q{.Q{.Q{.Q{.Q{.Q{.Q{.Q{.Q{.Q{.Q{.Q{.Q{.Q{.Q{.5t *+.*+.*+.*+.*+.*+.*+.*+.*+.*+.*+.r~.u+ u+ u+ u+ ",
"J} 21 21 21 21 21 21 21 21 W# #/ #/ #/ #/ #/ #/ #/ #/ #/ #/ #/ #/ #/ #/ #/ #/ #/ #/ #/ #/ #/ #/ #/ W# 21 21 21 21 T# #/ D3 'S A'.A'.w].o].G< A'.A'.A'.b].x].x].x].K{.~).w).c).X).().4!.8!.s+.i  4. N. |. |. e  @@ S@ 7  L+ M# L# 2  2  <  <  <  <  <  <  <  <  <  <  <  <  |  y].K> Y- i; i; R- u- 23 Q& Z' V@ x! +~ +~ +~ +~ +~ +~ L! r! :~ e$ 1^ Q{ Q{ Q{ W( __ NO m` 0/ 0/ 0/ 0/ 0/ ,[ m~ ei y@ Dx Nu yw Q4 f< O{ Q{ Q{ Q{ Q{ Q{ Q{ Q{ Q{ Q{ W( (^ l ..e 0/ C: N{ %| b% H8 y| j4 z].$Z ;Y LX oX oX oX oX oX oX oX oX oX oX oX oX oX oX oX oX oX oX oX oX oX oX oX oX oX oX oX oX oX oX oX oX oX oX oX oX oX oX oX oX oX oX oX oX oX oX oX oX oX oX oX oX oX oX oX oX oX oX oX oX oX oX oX oX oX oX oX oX oX oX oX oX oX oX oX oX oX oX oX oX oX oX oX oX oX oX oX oX oX oX oX oX oX oX oX oX oX oX oX oX oX oX oX oX oX oX oX oX oX oX oX oX oX oX oX oX oX oX oX oX oX oX oX oX oX oX oX oX oX oX oX oX oX oX oX oX oX oX oX oX oX oX oX oX oX oX oX oX oX oX oX oX oX oX oX oX oX oX oX oX oX oX oX oX oX oX oX oX oX oX oX oX oX oX oX oX oX oX oX oX oX oX oX oX oX oX *Y 0] H8 Dx Nu !>.(~ w[ V/ 0/ 0/ 0/ 0/ 0/ 0/ 0/ 0/ 0/ C: 0/ |% fx b/ Q{ Q{ Q{ Q{ O{ D< }2 q~ y| y| y| f{ NX M^ Q{ __ 1{ [q /( Nn v7  ^ (^ Q{ Q{ Q{ Q{ Q{ Q{ Q{ fx -^ p~ 8) +~ +~ +~ +~ +~ +~ +~ V' 3Q |; _; i; S- v].A].L+ 2  <  <  <  <  <  <  <  <  <  <  <  <  <  <  <  <  2  2  /. 3+ 7  @@ 1@ e  |. |. h  4. s+.%!.4!.X).c).~).,).(].~].u+ u+ u+ u+ u+ u+ u+ u+ r~.*+.*+.*+.*+.*+.*+.*+.*+.Q{.Q{.Q{.Q{.Q{.Q{.Q{.Q{.Q{.Q{.Q{.Q{.Q{.Q{.Q{.Q{.Q{.Q{.Q{.Q{.Q{.Q{.*+.*+.*+.*+.*+.*+.*+.*+.*+.*+.*+.*+.m/ XW u+ u+ ",
"#/ F, 21 21 21 21 21 21 J} #/ #/ #/ #/ #/ #/ w+ B].]! ]! ]! |).o/ Vb #/ #/ #/ #/ #/ #/ #/ #/ #/ #/ #/ W# 21 J} q. #/ D3 'S A'.A'.A'.o].o].G< A'.A'.A'.+S *< *< *< K{.~).w).c).X).().4!.8!.s+.i  4. N. |. |. e  @@ S@ 7  L+ M# L# 2  2  <  <  <  <  <  <  <  <  <  <  <  <  <  <!.', S; i; i; i; u- 23 Q& <% [# g{ +~ +~ +~ +~ +~ +~ L! r! :~ e$ 1^ Q{ Q{ Q{ W( Y] %..[q 0/ 0/ 0/ 0/ 0/ ,[ m~ ei y@ Dx Nu yw Q4 J3 O{ Q{ Q{ Q{ Q{ Q{ Q{ Q{ Q{ Q{ W( W( fx |% `e C: N{ %| ei H8 C].]# :Y *Y lX lX lX lX lX lX lX lX lX lX lX lX lX lX lX lX lX lX lX lX lX lX lX lX lX lX lX lX lX lX lX lX lX lX lX lX lX lX lX lX lX lX lX lX lX lX lX lX lX lX lX lX lX lX lX lX lX lX lX lX lX lX lX lX lX lX lX lX lX lX lX lX lX lX lX lX lX lX lX lX lX lX lX lX lX lX lX lX lX lX lX lX lX lX lX lX lX lX lX lX lX lX lX lX lX lX lX lX lX lX lX lX lX lX lX lX lX lX lX lX lX lX lX lX lX lX lX lX lX lX lX lX lX lX lX lX lX lX lX lX lX lX lX lX lX lX lX lX lX lX lX lX lX lX lX lX lX lX lX lX lX lX lX lX lX lX lX lX lX lX lX lX lX lX lX lX lX lX lX lX lX lX lX lX lX lX lX lX -Y *Y TX !>.D].O .(~ w[ V/ 0/ 0/ 0/ 0/ 0/ 0/ 0/ 0/ 0/ C: m` W' x1 W( Q{ Q{ Q{ Q{ O{ D< }2 q~ y| y| y| f{ NX M^ Q{ X^ !x  e 6; L .+^ (^ o^ Q{ Q{ Q{ Q{ Q{ Q{ Q{ fx -^ p~ 8) +~ +~ +~ +~ +~ +~ +~ E].3Q |; (; i; (; n,.A]._. <  <  <  <  <  <  <  <  <  <  <  <  <  <  <  <  <  2  2  /. 3+ 7  @@ 1@ e  |. |. h  4. s+.%!.4!.X).c).~).,).(].~1 u+ u+ u+ u+ u+ u+ u+ m/ *+.*+.*+.*+.*+.*+.*+.*+.5t Q{.Q{.Q{.Q{.Q{.Q{.Q{.Q{.Q{.Q{.Q{.Q{.Q{.Q{.Q{.Q{.Q{.Q{.Q{.Q{.Q{.Q{.5| *+.*+.*+.*+.*+.*+.*+.*+.*+.*+.*+.*+.*+.$t r~.",
"#/ #/ h$ 21 21 21 21 21 q. #/ #/ #/ #/ }/ |).]! ]! ]! ]! ]! ]! ]! ]! F].Vb #/ #/ #/ #/ #/ #/ #/ #/ #/ #/ #/ #/ #/ P8 'S A'.A'.A'.A'.o].o].G< A'.A'.A'.A'.A'.A'.A'.K{.~).w).c).X).().4!.8!.s+.i  4. N. |. |. e  @@ S@ 7  L+ M# L# 2  2  <  <  <  <  <  <  <  <  <  <  <  <  <  !].', *U i; i; i; u- n+._& :% t# g{ +~ +~ +~ +~ +~ +~ L! r! :~ e$ 1^ Q{ Q{ Q{ Q{ Q{ K,.I;.w[ 0/ 0/ 0/ 0/ ,[ m~ ei y@ Dx Nu y| H3 J3 O{ Q{ Q{ Q{ Q{ Q{ Q{ Q{ Q{ Q{ Q{ Q{ !x 46 &e +j ,[ %| ei v{ TX *Y lX lX lX lX lX lX lX lX lX lX lX lX lX lX lX lX lX lX lX lX lX lX lX lX lX lX lX lX lX lX lX lX lX lX lX lX lX lX lX lX lX lX lX lX lX lX lX lX lX lX lX lX lX lX lX lX lX lX lX lX lX lX lX lX lX lX lX lX lX lX lX lX lX lX lX lX lX lX lX lX lX lX lX lX lX lX lX lX lX lX lX lX lX lX lX lX lX lX lX lX lX lX lX lX lX lX lX lX lX lX lX lX lX lX lX lX lX lX lX lX lX lX lX lX lX lX lX lX lX lX lX lX lX lX lX lX lX lX lX lX lX lX lX lX lX lX lX lX lX lX lX lX lX lX lX lX lX lX lX lX lX lX lX lX lX lX lX lX lX lX lX lX lX lX lX lX lX lX lX lX lX lX lX lX lX lX lX lX lX lX lX lX lX RX wY v# A< w[ V/ 0/ 0/ 0/ 0/ 0/ 0/ 0/ 0/ C: 0/ |% La Q{ o^ Q{ Q{ Q{ Q{ O{ D< u{ Dx y| y| y| f{ NX M^ Q{ Q{ Q{ o^ W( W( Q{ Q{ Q{ Q{ Q{ Q{ Q{ Q{ Q{ Q{ fx -^ p~ 8) +~ +~ +~ +~ +~ +~ +~ G].#Q |; (; _; (; n,.H].@@ <  <  <  <  <  <  <  <  <  <  <  <  <  <  <  <  <  2  2  /. 3+ 7  @@ 1@ e  |. |. h  4. s+.%!.4!.X).c).~).,).(].B+ I].u+ u+ u+ u+ u+ $t *+.*+.*+.*+.*+.*+.*+.*+.I( Q{.Q{.Q{.Q{.Q{.Q{.Q{.Q{.Q{.Q{.Q{.Q{.Q{.Q{.Q{.Q{.Q{.Q{.Q{.Q{.Q{.Q{.Q{.Q{.Q{.R{.R{.5t *+.*+.*+.*+.*+.*+.*+.*+.*+.*+.*+.",
"#/ #/ #/ #/ ~' h$ W# q. #/ #/ #/ #/ }/ ]! ]! ]! ]! ]! ]! ]! ]! ]! ]! ]! ]! }/ #/ #/ #/ #/ #/ #/ #/ #/ #/ #/ 1# An A'.A'.A'.A'.A'.A'.o].0i A'.A'.A'.A'.A'.A'.A'.A'.K{.~).w).c).X).().4!.8!.s+.i  4. N. |. |. e  @@ S@ 7  L+ M# L# 2  2  <  <  <  <  <  <  <  <  <  <  <  <  <  J].', ]; _; _; i; t- o= _& ^% U@ g{ +~ +~ +~ +~ +~ +~ L! r! :~ e$ 1^ Q{ Q{ Q{ Q{ W( x1 <,.m` 0/ 0/ 0/ 0/ ,[ m~ ei y@ Dx Nu y| H3 J3 O{ Q{ Q{ Q{ Q{ Q{ Q{ Q{ Q{ Q{ Q{ W( Q{ fx J8 Nn y~.jz (~ QX mX K].#X @X @X @X @X @X @X @X @X @X @X @X @X @X @X @X @X @X @X @X @X @X @X @X @X @X @X @X @X @X @X @X @X @X @X @X @X @X @X @X @X @X @X @X @X @X @X @X @X @X @X @X @X @X @X @X @X @X @X @X @X @X @X @X @X @X @X @X @X @X @X @X @X @X @X @X @X @X @X @X @X @X @X @X @X @X @X @X @X @X @X @X @X @X @X @X @X @X @X @X @X @X @X @X @X @X @X @X @X @X @X @X @X L].@X @X @X @X @X @X @X @X @X @X @X @X @X @X @X @X @X @X @X @X @X @X @X @X @X @X @X @X @X @X @X @X @X @X @X @X @X @X @X @X @X @X @X @X @X @X @X @X @X @X @X @X @X @X @X @X @X @X @X @X @X @X @X @X @X @X @X @X @X @X @X @X @X @X @X @X @X @X #X K].mX `;.;a `e ,[ 0/ 0/ 0/ 0/ 0/ 0/ 0/ 0/ C: m` W' !x W( Q{ Q{ Q{ Q{ Q{ O{ D< u{ Dx y| y| y| f{ NX M^ Q{ Q{ Q{ Q{ Q{ Q{ Q{ Q{ Q{ Q{ Q{ Q{ Q{ Q{ Q{ Q{ fx -^ p~ 8) +~ +~ +~ +~ +~ +~ +~ G].zP |; (; (; (; n,.H].M].<  <  <  <  <  <  <  <  <  <  <  <  <  <  <  <  <  2  2  /. 3+ 7  @@ 1@ e  |. |. h  4. s+.%!.4!.X).c).~).,).(].B+ N].u+ u+ u+ u+ $t *+.*+.*+.*+.*+.*+.*+.$_ R{.Q{.Q{.Q{.Q{.Q{.Q{.Q{.Q{.Q{.Q{.Q{.Q{.Q{.Q{.Q{.Q{.Q{.Q{.Q{.Q{.Q{.Q{.Q{.Q{.Q{.Q{.Q{.Q{.Q{.Q{.U{.5t I( z+.*+.*+.*+.*+.*+.*+.",
"#/ #/ #/ #/ #/ #/ #/ #/ #/ #/ #/ Vb ]! ]! ]! ]! ]! ]! ]! ]! ]! ]! ]! ]! ]! ]! Vb #/ #/ #/ #/ #/ #/ #/ #/ P8 +S A'.A'.A'.A'.A'.A'.A'.o].@n A'.A'.A'.A'.A'.A'.A'.A'.K{.~).w).c).X).().4!.8!.s+.i  4. N. |. |. e  @@ S@ 7  L+ M# L# 2  2  <  <  <  <  <  <  <  <  <  <  <  <  <  O].K> 0> S- _; _; t- o= _& ]% U@ x! +~ +~ +~ +~ +~ +~ L! r! :~ e$ 1^ Q{ Q{ Q{ Q{ W( Q{ w..jz `e 0/ 0/ 0/ ,[ m~ ei y@ Dx Nu y| H3 J3 O{ Q{ Q{ Q{ Q{ Q{ Q{ Q{ Q{ Q{ Q{ Q{ Q{ Q{ b/ _&.R;.fx 4Q |2 @m bk [q x..(4 m` m` m` m` m` m` m` m` m` m` m` m` m` m` m` m` m` m` m` m` m` m` m` m` m` m` m` m` m` m` m` m` m` m` m` m` m` m` m` m` m` m` m` m` m` m` m` m` m` m` m` m` m` m` m` m` m` m` m` m` m` m` m` m` m` m` m` m` m` m` m` m` m` m` m` m` m` m` m` m` m` m` m` m` m` m` m` m` m` m` m` m` m` m` m` m` m` m` m` m` m` m` m` m` m` m` (4 Nn Nn ha ha &e (4 (4 (4 (4 m` m` m` m` m` m` m` m` m` m` m` m` m` m` m` m` m` m` m` m` m` m` m` m` m` m` m` m` m` m` m` m` m` m` m` m` m` m` m` m` m` m` m` m` m` m` m` m` m` m` m` m` m` m` m` m` m` m` m` m` m` m` m` m` m` m` m` m` m` m` m` m` m` m` >[ >[ >[ 0/ 0/ 0/ 0/ 0/ 0/ 0/ 0/ 0/ 0/ C: /( E% qR o^ o^ Q{ Q{ Q{ Q{ Q{ O{ D< u{ Dx y| y| y| f{ NX M^ Q{ Q{ Q{ Q{ Q{ Q{ Q{ Q{ Q{ Q{ Q{ Q{ Q{ Q{ Q{ Q{ fx -^ p~ 8) +~ +~ +~ +~ +~ +~ +~ G].P].j; _> (; Q].n,.A].N. <  <  <  <  <  <  <  <  <  <  <  <  <  <  <  <  <  2  2  /. 3+ 7  @@ 1@ e  |. |. h  4. s+.%!.4!.X).c).~).,).(].cd N].u+ W[ W[ $_ R].KR S].T].R].5t 5| U{.Q{.Q{.Q{.Q{.Q{.Q{.Q{.Q{.Q{.Q{.Q{.Q{.Q{.Q{.Q{.Q{.Q{.Q{.Q{.Q{.Q{.Q{.Q{.Q{.Q{.Q{.Q{.Q{.Q{.Q{.Q{.Q{.Q{.Q{.Q{.Q{.Q{.U{.5t *+.*+.*+.",
"#/ #/ #/ #/ #/ #/ #/ #/ #/ #/ #/ `7 ]! ]! ]! ]! ]! ]! ]! ]! ]! ]! ]! ]! ]! ]! }/ #/ #/ #/ #/ #/ 1# Z#.+S A'.A'.A'.A'.A'.A'.A'.A'.A'.5U A'.A'.A'.A'.A'.A'.A'.A'.A'.K{.~).w).c).X).().4!.8!.s+.i  4. N. |. |. e  @@ S@ 7  L+ M# L# 2  2  <  <  <  <  <  <  <  <  <  <  <  <  <  O].L> U].(; (; _; t- o= _& *% U  x! +~ +~ +~ +~ +~ +~ L! r! :~ e$ 1^ Q{ Q{ Q{ Q{ Q{ Q{ __ <,.Nn 0/ 0/ 0/ ,[ m~ ei y@ Dx Nu y| H3 J3 O{ Q{ Q{ Q{ Q{ Q{ Q{ Q{ Q{ Q{ Q{ Q{ Q{ Q{ i_ Q{ Q{ Q{ X^ X^ x1 +^ w..NO SO ^^ 0/ 0/ 0/ 0/ 0/ 0/ 0/ 0/ 0/ 0/ 0/ 0/ 0/ 0/ 0/ 0/ 0/ 0/ 0/ 0/ 0/ 0/ 0/ 0/ 0/ 0/ 0/ 0/ 0/ 0/ 0/ 0/ 0/ 0/ 0/ 0/ 0/ 0/ 0/ 0/ 0/ 0/ 0/ 0/ 0/ 0/ 0/ 0/ 0/ 0/ 0/ 0/ 0/ 0/ 0/ 0/ 0/ 0/ 0/ 0/ 0/ 0/ 0/ 0/ 0/ 0/ 0/ 0/ 0/ 0/ 0/ 0/ 0/ 0/ 0/ 0/ 0/ 0/ 0/ 0/ 0/ 0/ 0/ 0/ 0/ 0/ 0/ 0/ 0/ 0/ 0/ 0/ 0/ 0/ 0/ 0/ 0/ 0/ 0/ 0/ 0/ `e m` (4 Nn [q SO I;.V].f% |% SO .e o+.(4 (4 (4 m` /( `e 0/ 0/ 0/ 0/ 0/ 0/ 0/ 0/ 0/ 0/ 0/ 0/ 0/ 0/ 0/ 0/ 0/ 0/ 0/ 0/ 0/ 0/ 0/ 0/ 0/ 0/ 0/ 0/ 0/ 0/ 0/ 0/ 0/ 0/ 0/ 0/ 0/ 0/ 0/ 0/ 0/ 0/ 0/ 0/ 0/ 0/ 0/ 0/ 0/ 0/ 0/ 0/ 0/ 0/ 0/ 0/ 0/ 0/ 0/ 0/ 0/ 0/ 0/ 0/ 0/ 0/ 0/ 0/ 0/ 0/ 0/ 0/ 0/ 0/ 0/ 0/ 0/ 0/ 0/ 0/ 0/ C: 0/ '+.4Q Q{ W( Q{ Q{ Q{ Q{ Q{ Q{ O{ D< u{ Dx y| y| y| f{ NX M^ Q{ Q{ Q{ Q{ Q{ Q{ Q{ Q{ Q{ Q{ Q{ Q{ Q{ Q{ Q{ Q{ fx -^ p~ 8) +~ +~ +~ +~ +~ +~ B( X, W].M- _> (; => [F X].Y].<  <  <  <  <  <  <  <  <  <  <  <  <  <  <  <  <  2  2  /. 3+ 7  @@ 1@ e  |. |. h  4. s+.%!.4!.X).c).~).,).(].Z]. %. %. %. %. %. %. %.>%.`].`]. ^..^.+^.@^.Q{.Q{.Q{.Q{.Q{.Q{.Q{.Q{.Q{.Q{.Q{.Q{.Q{.Q{.Q{.Q{.Q{.Q{.Q{.Q{.Q{.Q{.Q{.Q{.Q{.Q{.Q{.Q{.`+.PY PY PY PY PY PY [| Q{.Q{.Q{.$_ *+.",
"#/ #/ #/ D3 11 11 11 11 11 11 %# ]! ]! ]! ]! ]! ]! ]! ]! ]! ]! ]! ]! ]! ]! ]! }/ 1# 11 90 #^.M< A'.A'.A'.A'.A'.A'.A'.A'.A'.A'.A'.A'.A'.A'.A'.A'.A'.A'.A'.A'.A'.A'.K{.~).w).c).X).().4!.8!.s+.i  4. N. |. |. e  @@ S@ 7  L+ M# L# 2  2  <  <  <  <  <  <  <  <  <  <  <  <  <  $^.Q> b> (; (; (; t- %^._& F$ T  x! +~ +~ +~ +~ +~ +~ L! r! :~ e$ 1^ Q{ Q{ Q{ Q{ Q{ Q{ Q{ 9].J8 m` 0/ 0/ ,[ m~ ei y@ Dx Nu y| H3 J3 O{ Q{ Q{ Q{ Q{ Q{ Q{ Q{ Q{ Q{ Q{ Q{ Q{ Q{ Q{ Q{ Q{ Q{ Q{ o^ W( Q{ X^ x1 !x LR n .(4 `e 0/ 0/ 0/ 0/ 0/ 0/ 0/ 0/ 0/ 0/ 0/ 0/ 0/ 0/ 0/ 0/ 0/ 0/ 0/ 0/ 0/ 0/ 0/ 0/ 0/ 0/ 0/ 0/ 0/ 0/ 0/ 0/ 0/ 0/ 0/ 0/ 0/ 0/ 0/ 0/ 0/ 0/ 0/ 0/ 0/ 0/ 0/ 0/ 0/ 0/ 0/ 0/ 0/ 0/ 0/ 0/ 0/ 0/ 0/ 0/ 0/ 0/ 0/ 0/ 0/ 0/ 0/ 0/ 0/ 0/ 0/ 0/ 0/ 0/ 0/ 0/ 0/ 0/ 0/ 0/ 0/ 0/ 0/ 0/ 0/ 0/ 0/ 0/ 0/ 0/ `e /( /( /( m` Nn h% E% ^z e,.+^ !x __ x1 x1 Y] Y] x1 x1 x1 !x +^ La LR ^z 6; |% [q %| (4 /( /( /( /( /( /( `e 0/ 0/ 0/ 0/ 0/ 0/ 0/ 0/ 0/ 0/ 0/ 0/ 0/ 0/ 0/ 0/ 0/ 0/ 0/ 0/ 0/ 0/ 0/ 0/ 0/ 0/ 0/ 0/ 0/ 0/ 0/ 0/ 0/ 0/ 0/ /( /( /( /( (4 %| %| R` /( /( /( /( /( `e 0/ 0/ 0/ 0/ 0/ 0/ 0/ 0/ 0/ 0/ 0/ 0/ 0/ 0/ 0/ 0/ 0/ 0/ 0/ 0/ 0/ 0/ 0/ x..^z Y] W( Q{ Q{ Q{ Q{ Q{ Q{ Q{ O{ D< u{ Dx y| y| y| f{ NX M^ Q{ Q{ Q{ Q{ Q{ Q{ Q{ Q{ Q{ Q{ Q{ Q{ Q{ Q{ Q{ Q{ fx -^ p~ 8) +~ +~ +~ +~ +~ +~ B( 1{ &^.*^.(; (; T- Q3 =^.s+.<  <  <  <  <  <  <  <  <  <  <  <  <  <  <  <  <  2  2  /. 3+ 7  @@ 1@ e  |. |. h  4. s+.%!.4!.X).c).~).,).(].-^.q5 q5 ;^.}[ }[ >^.>^.>^.>^.>^.>^.>^.>^.>^.,^.'^.T%.)^.!^.Q{.Q{.Q{.Q{.Q{.Q{.Q{.Q{.Q{.Q{.Q{.Q{.T_ T_ T_ T_ T_ T_ T_ T_ `m 4i ~^.{^.{^.{^.{^.{^.{^.{^.{^.{^.{^.{^.{^.x% ",
"A'.A'.A'.A'.A'.A'.A'.A'.A'.A'.A'.A'.A'.A'.A'.A'.A'.A'.B'.>d >d >d >d >d >d >d B'.A'.A'.A'.A'.A'.A'.A'.A'.A'.A'.A'.A'.A'.A'.A'.A'.A'.A'.A'.A'.A'.A'.A'.A'.A'.A'.A'.K{.~).w).c).X).().4!.8!.s+.i  4. N. |. |. e  @@ S@ 7  L+ M# L# 2  2  <  <  <  <  <  <  <  <  <  <  <  <  <  ]^.u= ^^.(; (; (; t- %^./& C$ $+ x! +~ +~ +~ +~ +~ +~ L! r! :~ e$ 1^ Q{ Q{ Q{ Q{ Q{ Q{ Q{ c/ K,.J8 (4 0/ ,[ m~ ei y@ Dx Nu y| H3 J3 O{ Q{ Q{ Q{ Q{ Q{ Q{ Q{ Q{ Q{ Q{ Q{ Q{ Q{ Q{ Q{ Q{ Q{ Q{ Q{ Q{ Q{ Q{ W( W( Q{ !x La 46 |% (4 0/ 0/ 0/ 0/ 0/ 0/ 0/ 0/ 0/ 0/ 0/ 0/ 0/ 0/ 0/ 0/ 0/ 0/ 0/ 0/ 0/ 0/ 0/ 0/ 0/ 0/ 0/ 0/ 0/ 0/ 0/ 0/ 0/ 0/ 0/ 0/ 0/ 0/ 0/ 0/ 0/ 0/ 0/ 0/ 0/ 0/ 0/ 0/ `e `e `e 0/ 0/ 0/ 0/ 0/ 0/ 0/ 0/ 0/ 0/ 0/ 0/ 0/ 0/ 0/ 0/ 0/ 0/ 0/ 0/ 0/ 0/ 0/ 0/ 0/ 0/ 0/ 0/ 0/ 0/ 0/ 0/ 0/ 0/ `e >[ %| SO NO ^z m..e,.R;..^ __ Y] Q{ W( W( W( W( W( W( W( W( W( zx zx W( Q{ b/ X^ B< !x .^ +^ p%.La /^.b+.^z L .46 J8 }% |% SO ha %| /( /( w[ /( /( /( `e 0/ 0/ 0/ 0/ 0/ 0/ 0/ 0/ 0/ 0/ 0/ 0/ 0/ 0/ 0/ 0/ 0/ 0/ 0/ 0/ 0/ `e %| '+.W' %..La p%.p%.p%.p%.La .# w..^z i&.f% |% SO ha (4 /( w[ /( /( /( /( /( /( /( /( /( /( /( /( /( w[ /( x..f% %..__ Q{ Q{ Q{ Q{ Q{ Q{ Q{ Q{ Q{ O{ D< u{ y| y| y| y| f{ NX M^ Q{ Q{ Q{ Q{ Q{ Q{ Q{ Q{ Q{ Q{ Q{ Q{ Q{ Q{ Q{ Q{ fx -^ p~ 8) +~ +~ +~ +~ +~ +~ B( 8m (^._^.T- T- T- :n F~.8!.<  <  <  <  <  <  <  <  <  <  <  <  <  <  <  <  <  2  2  /. 3+ 7  @@ 1@ e  |. |. h  4. s+.%!.4!.X).c).~).,).(].:^.>^.>^.>^.>^.>^.>^.>^.>^.>^.>^.>^.>^.>^.>^.>^.>^.>^.>^.>^.>^.>^.>^.>^.>^.>^.>^.>^.>^.{o <^.<^.<^.<^.<^.<^.<^.<^.<^.<^.<^.<^.<^.<^.<^.<^.<^.<^.<^.<^.<^.<^.<^.<^.<^.<^.",
"A'.A'.A'.A'.A'.A'.A'.A'.A'.A'.A'.A'.A'.A'.A'.A'.A'.A'.A'.A'.A'.A'.A'.A'.A'.A'.A'.A'.A'.A'.A'.A'.A'.A'.A'.A'.A'.A'.A'.A'.A'.A'.A'.A'.A'.A'.A'.A'.A'.A'.A'.A'.A'.A'.K{.~).w).c).X).().4!.8!.s+.i  4. N. |. |. e  @@ S@ 7  L+ M# L# 2  2  <  <  <  <  <  <  <  <  <  <  <  <  <  [^.}^.|^.Y- S; X- N- c- ]& _$ *+ x! +~ +~ +~ +~ +~ +~ L! r! :~ e$ 1^ Q{ Q{ Q{ Q{ Q{ Q{ Q{ Q{ Y] WO E% m` ,[ m~ ei y@ Dx Nu y| H3 J3 O{ Q{ Q{ Q{ Q{ Q{ Q{ Q{ Q{ Q{ Q{ Q{ Q{ Q{ Q{ Q{ Q{ Q{ Q{ Q{ Q{ Q{ Q{ Q{ Q{ Q{ W( W( Y] +^ %..d% .e %| >[ /( /( /( /( /( `e `e `e 0/ 0/ 0/ 0/ 0/ 0/ 0/ 0/ 0/ 0/ 0/ 0/ 0/ 0/ 0/ 0/ `e `e `e `e `e /( /( /( /( /( /( /( .@.%| &e ha .e SO |% f% f% f% f% }% |% SO [q (4 /( 0/ 0/ 0/ 0/ 0/ 0/ 0/ 0/ 0/ 0/ 0/ 0/ 0/ 0/ 0/ 0/ 0/ 0/ 0/ 0/ 0/ 0/ 0/ 0/ 0/ 0/ /( .e 6;  e La +^ !x M_ Q{ W( W( W( W( Q{ Q{ Q{ Q{ Q{ Q{ Q{ Q{ Q{ Q{ Q{ Q{ Q{ Q{ Q{ Q{ Q{ Q{ W( zx zx ]z W( i_ b/ X^ M_ __ !x +^ fx fx fx 4Q l .w..%..^z L .W' J8 f% |% SO .e ha (4 /( /( /( `e 0/ 0/ 0/ 0/ 0/ 0/ 0/ 0/ `e %| SO 6; wc fx B< Q{ W( zx ]z ]z W( W( W( Q{ X^ x1  @.+^ +^ fx .# l .m..1^.b+.b+.L .L .46 46 46 L .^z ^z Ze %..m..l .fx .^ X^ Q{ Q{ Q{ Q{ Q{ Q{ Q{ Q{ Q{ (^ O{ o2 u{ y| y| y| y| f{ NX M^ Q{ Q{ Q{ Q{ Q{ Q{ Q{ Q{ Q{ Q{ Q{ Q{ Q{ Q{ Q{ Q{ fx -^ p~ 8) +~ +~ +~ +~ +~ +~ B( 1p 2^.U- 3^.T- (; 4^.5^.6^.<  <  <  <  <  <  <  <  <  <  <  <  <  <  <  <  <  2  2  /. 3+ 7  @@ 1@ e  |. |. h  4. s+.%!.4!.X).c).~).,).(].:^.>^.>^.>^.>^.>^.>^.>^.>^.>^.>^.>^.>^.>^.>^.>^.>^.>^.>^.>^.>^.>^.>^.>^.>^.>^.>^.>^.>^.7^.<^.<^.<^.<^..[ f@ f@ f@ f@ 8^.<^.<^.<^.<^.<^.<^.<^.<^.<^.<^.<^.<^.<^.<^.<^.<^.",
"A'.A'.A'.A'.A'.A'.A'.A'.A'.A'.A'.A'.A'.A'.A'.A'.A'.A'.A'.A'.A'.A'.A'.A'.A'.A'.A'.A'.A'.A'.A'.A'.A'.A'.A'.0).0).0).@..A'.A'.A'.A'.A'.A'.A'.A'.A'.A'.A'.A'.A'.A'.A'.K{.~).w).c).X).().4!.8!.s+.i  4. N. |. |. e  @@ S@ 7  L+ M# L# 2  2  <  <  <  <  <  <  <  <  <  <  <  <  <  9^.[j 0^.W= a^.3- ,n X* b^._$ *+ x! +~ +~ +~ +~ +~ +~ L! r! F~ e$ 1^ Q{ Q{ Q{ Q{ Q{ Q{ Q{ Q{ Q{ 2^ 4` 1% o&.m~ ei !>.y| Nu y| H3 J3 O{ Q{ Q{ Q{ Q{ Q{ Q{ Q{ Q{ Q{ Q{ Q{ Q{ Q{ Q{ Q{ Q{ Q{ Q{ Q{ Q{ Q{ Q{ Q{ Q{ Q{ Q{ Q{ Q{ W( Q{ !x La LR  e Ze ^z 46 46 t6 `' c^.TQ }% g% g% g% LO jz jz jz jz jz jz g% g% g% g% }% TQ TQ <% `' 6; t6 46 46 1{ ^z Ze Ze  e wc LR 4Q fx fx +^ +^ +^ +^ +^ +^ p%.fx La w..ci E% B, /( +j +j +j +j +j +j +j C: C: 0/ 0/ 0/ 0/ 0/ 0/ 0/ 0/ 0/ 0/ 0/ 0/ 0/ &e 6; /Y B< W( W( W( Q{ Q{ Q{ Q{ Q{ Q{ Q{ Q{ Q{ Q{ Q{ Q{ Q{ Q{ Q{ Q{ Q{ Q{ Q{ Q{ Q{ Q{ Q{ Q{ Q{ Q{ Q{ Q{ Q{ Q{ Q{ Q{ Q{ Q{ Q{ Q{ Q{ Q{ o^ zx zx zx zx o^ Q{ X^ M_ !x +^ p%.La La 4Q wc Ze Ze 1{ t6 TQ b8 SO [q ha (4 m` &e }% X, fx X^ o^ o^ Q{ Q{ Q{ Q{ Q{ Q{ Q{ Q{ Q{ Q{ Q{ Q{ Q{ W( W( zx zx W( W( i_ i_ b/ X^ X^ M_ M_ X^ X^ b/ Q{ Q{ W( W( zx zx W( Q{ Q{ Q{ Q{ Q{ Q{ Q{ Q{ Q{ (^ (^ 1^ o2 %+ y| y| y| y| f{ NX M^ Q{ Q{ Q{ Q{ Q{ Q{ Q{ Q{ Q{ Q{ Q{ Q{ Q{ Q{ Q{ Q{ fx -^ p~ 8) +~ +~ +~ +~ +~ +~ a! By d^.e^.f^.g^.-> h^.i^.c).<  <  <  <  <  <  <  <  <  <  <  <  <  <  <  <  <  2  2  /. 3+ 7  @@ 1@ e  |. |. h  4. s+.%!.4!.X).c).~).,).(].:^.>^.>^.>^.>^.>^.>^.>^.>^.>^.>^.>^.>^.>^.>^.>^.>^.>^.>^.>^.>^.>^.>^.>^.>^.>^.>^.>^.>^.j^.Dl Dl k^.l^.l^.l^.l^.m^.m^.m^.m^.m^.m^.m^.n^.o^.p^.9^ <[ <^.<^.<^.<^.<^.<^.<^.",
"A'.A'.A'.A'.A'.A'.A'.A'.A'.A'.A'.A'.A'.A'.A'.A'.A'.A'.A'.A'.A'.w&.7_ A'.A'.A'.A'.J'.%/ %/ %/ )q q^.r^.s^.t^.u^.u^.v^.w^.x^.A' y^.y^.y^.y^.z^..] .] .] y^.y^.y^.y^.K{.~).w).c).X).().4!.8!.s+.i  4. N. |. |. e  @@ S@ 7  L+ M# L# 2  2  <  <  <  <  <  <  <  <  <  <  <  <  <  2) A^.B^.C^.S, I& c* )& b= _$ *+ x! +~ +~ +~ +~ +~ a! (! D^.,! e$ 1^ Q{ Q{ Q{ Q{ Q{ Q{ Q{ Q{ Q{ Q{ 2^ l .P;.a[ ei !>.y| Nu y| H3 J3 O{ Q{ Q{ Q{ Q{ Q{ Q{ Q{ Q{ Q{ Q{ Q{ Q{ Q{ Q{ Q{ Q{ Q{ Q{ Q{ Q{ Q{ Q{ Q{ Q{ Q{ Q{ Q{ Q{ Q{ Q{ Q{ o^ W( W( o^ o^ X^ q} q} B< <v .^ .^ qR qR qR u=.u=./Y /Y /Y /Y /Y qR qR qR qR qR .^ .^ .^ __ __ C< C< Y] M^ o^ N_ N_ W( W( W( W( o^ Q{ Q{ Q{ Q{ Q{ Q{ Q{ Q{ Q{ o^ o^ 2^ ZO i#.W' }% g% b8 }% }% }% }% g% SO SO SO jz [q ha &e %| %| %| %| %| &e bk U' .^ Q{ Q{ Q{ Q{ Q{ Q{ Q{ Q{ Q{ Q{ Q{ Q{ Q{ Q{ Q{ Q{ Q{ Q{ Q{ Q{ Q{ Q{ Q{ Q{ Q{ Q{ Q{ Q{ Q{ Q{ Q{ Q{ Q{ Q{ Q{ Q{ Q{ Q{ Q{ Q{ Q{ Q{ Q{ Q{ Q{ Q{ Q{ Q{ Q{ Q{ Q{ Q{ Q{ Q{ Q{ Q{ W( W( W( W( o^ M^ C< .^ qR /Y 4Q w..Ze ^z Ze qR M^ Q{ Q{ Q{ Q{ Q{ Q{ Q{ Q{ Q{ Q{ Q{ Q{ Q{ Q{ Q{ Q{ Q{ Q{ Q{ Q{ Q{ Q{ Q{ Q{ Q{ Q{ Q{ Q{ Q{ Q{ Q{ Q{ Q{ Q{ Q{ Q{ Q{ Q{ Q{ Q{ Q{ Q{ Q{ Q{ Q{ Q{ Q{ Q{ Q{ (^ (^ O{ o2 %+ y| y| y| y| f{ NX Q{ Q{ Q{ Q{ Q{ Q{ Q{ Q{ Q{ Q{ Q{ Q{ Q{ Q{ Q{ Q{ Q{ /Y -^ Y).8) +~ +~ +~ +~ +~ +~ +~ F: E^.F^.G^.|R wV H^.Mb |. <  <  <  <  <  <  <  <  <  <  <  <  <  <  <  <  <  2  2  /. 3+ 7  @@ 1@ e  |. |. h  4. s+.%!.4!.X).c).~).,).(].:^.>^.>^.>^.>^.>^.>^.>^.>^.>^.>^.>^.>^.>^.>^.>^.>^.>^.I^.J^.K^.L^.L^.L^.L^.L^.L^.L^.L^.K^.M^.N^.O^.O^.O^.O^.O^.O^.O^.O^.O^.O^.O^.O^.P^.Q^.R^.R^.R^.R^.R^.S^.T^.Al <^.<^.",
"A'.A'.A'.A'.A'.A'.A'.A'.A'.A'.A'.A'.A'.A'.A'.A'.A'.A'.A'.A'.A'.F+ U^.U^.V^.b1 y=..] W^.y^.y^.y^.y^.y^.y^.y^.y^.y^.y^.y^.y^.y^.y^.8{ b1 X^.U^.U^.U^.U^.U^.U^.X^.V^.K{.~).w).c).X).().4!.8!.s+.i  4. N. |. |. e  @@ S@ 7  L+ M# L# 2  2  <  <  <  <  <  <  <  <  <  <  <  <  <  o' P# u# Z$ E% f% <% :> C$ _$ 5@ M+ K  Nu gA Y^.Z^.`$ `^. /.qR gz -z ,z ./../../../../../../../.,z +/.@/.#/.$/.y~.g} X$ @3 Y$ 1{ %/.,z ,z ,z &/.&/.&/.&/.&/.&/.&/.&/.&/.&/.&/.&/.*/.*/.*/.=/.,z ,z ,z +/.*/.*/.*/.*/.o. +/.+/.+/.+/.*/.*/.*/.o. o. +/.+/.+/.+/.+/.o. */.*/.*/.*/.*/.*/.*/.*/.*/.*/.*/.*/.*/.*/.*/.o. +/.+/.+/.+/.+/.*/.*/.*/.*/.*/.o. o. +/.+/.+/.+/.+/.+/.+/.*/.*/.*/.*/.*/.*/.&/.-/.-/.;/.;/.>/.;/.&/.,z ,z &/.=/.=/.=/.,z ./../.,/.]a '/.)/.)/.!/.!/.!/.~/.~/.)/.,/.{/.;/.;/.;/.;/.;/.;/.;/.;/.;/.;/.;/.;/.;/.;/.;/.;/.;/.;/.;/.;/.;/.;/.;/.-/.-/.-/.-/.-/.-/.-/.-/.-/.-/.;/.;/.;/.;/.;/.;/.;/.;/.;/.;/.;/.;/.;/.;/.;/.;/.;/.;/.;/.;/.;/.;/.;/.&/.&/.&/.&/.]/.]/.;/.;/.;/.;/.;/.;/.;/.;/.;/.;/.;/.]/.;/.;/.&/.&/.&/.&/.&/.&/.&/.&/.&/.&/.&/.&/.&/.&/.&/.&/.&/.&/.&/.&/.&/.&/.&/.&/.&/.&/.&/.&/.&/.&/.&/.&/.&/.&/.&/.&/.&/.&/.&/.-z &/.&/.&/.]/.]/.&/.&/.&/.*/.-/.mz M' +;.[! +;.V$ .) @~ ,z ,z ,z ,z ,z ,z ,z ,z ,z ,z ,z ,z ,z ,z ,z ,z ,z W!.V< ^/.//.(/.+~ +~ +~ +~ +~ +~ y| e` _/.l&.:/.}q !j 3^ ]. <  <  <  <  <  <  <  <  <  <  <  <  <  <  <  <  <  2  2  /. 3+ 7  @@ 1@ e  |. |. h  4. s+.%!.4!.X).c).~).,).(].</.>^.>^.>^.>^.>^.>^.>^.>^.>^.>^.>^.>^.>^.>^.>^.>^.>^.[/.O^.J^.}/.L^.L^.L^.L^.|/.1/.2/.O^.O^.O^.O^.O^.O^.O^.O^.O^.O^.O^.O^.3/.3/.4/.5/.6/.o{.IS R^.R^.R^.R^.R^._/ 7/.<^.",
"|~ |~ |~ |~ |~ |~ |~ |~ |~ |~ |~ |~ `b WW WW $~.A'.A'.A'.A'.A'.U^.U^.U^.U^.U^.U^.U^.U^.U^.U^.U^.U^.U^.8/.8/.8/.8/.8/.8/.9/.0/.a/.X^.U^.U^.U^.U^.U^.U^.U^.U^.U^.U^.K{.~).w).c).X).().().4!.s+.i  4. N. |. |. e  @@ S@ 7  L+ M# L# 2  2  <  <  <  <  <  <  <  <  <  <  <  <  <  o' _$ _$ b% }% h% 4% .% E$ Bx F$ b= hC b/.c/.d/.e/.f/.g/.h/.i/.j/.i/.k/.k/.k/.k/.k/.k/.k/.k/.k/.k/.k/.l/.m/.n/.o/.p/.q/.r/.q/.s/.i/.l/.i/.i/.i/.i/.i/.t/.u/.u/.v/.w/.x/.y/.z/.A/.B/.C/.D/.E/.F/.G/.H/.I/.J/.K/.L/.L/.M/.N/.O/.P/.Q/.R/.S/.S/.T/.T/.U/.U/.V/.V/.W/.X/.Y/.Z/.`/. (..(..(.+(.@(.#(.$(.%(.&(.*(.=(.=(.-(.;(.>(.,(.,(.'(.)(.!(.!(.~(.~(.~(.{(.](.^(./(.((._(._(.:(.<(.[(.[(.[(.}(.eP |(.1(.1(.2(.3(.3(.3(.4(.4(.5(.6(.6(.7(.8(.8(.8(.8(.8(.9(.9(.0(.0(.0(.a(.b(.b(.c(.c(.c(.c(.c(.c(.c(.c(.c(.d(.e(.e(.e(.e(.e(.e(.e(.e(.d(.c(.c(.c(.c(.c(.c(.c(.c(.b(.b(.b(.a(.0(.9(.9(.9(.9(.8(.8(.8(.8(.7(.f(.f(.6(.4(.4(.3(.3(.3(.2(.g(.1(.h(.|(.i(.i(.j(.j(.}(.}(.k(.l(.l(.:(.m(.m(._(./(.^(.^(.](.~(.!(.)(.)(.n(.o(.o(.p(.p(.;(.-(.=(.*(.&(.&(.%(.$(.@(.+(.q(.q(..(. (.`/.Z/.Z/.r(.s(.t(.t(.U/.u(.T/.T/.S/.v(.Q/.w(.O/.N/.x(.M/.L/.J/.J/.J/.y(.G/.G/.G/.E/.D/.C/.z(.A/.x/.x/.A(.A(.B(.C(.D(.D(.D(.C(.E(.j/.u/.u/.u/.u/.u/.u/.u/.u/.u/.u/.u/.u/.u/.u/.u/.u/.u/.F(.G(.H(.I(.J(.K(.L(.g{ +~ +~ +~ y| /# P# C$ b% C$ n{ T$ ]. <  <  <  <  <  <  <  <  <  <  <  <  <  <  <  <  <  2  2  /. 3+ 7  @@ 1@ e  |. |. h  4. s+.%!.4!.X).c).~).,).K{.<b M(.N(.>^.>^.>^.>^.>^.>^.>^.>^.>^.>^.>^.>^.>^.>^.>^.>^.$q O^.O^.O(.P(.P(.Q(.O^.O^.O^.O^.O^.O^.O^.O^.O^.O^.O^.R(.S(.T(.U(.U(.U(.U(.U(.U(.V(.W(.0& #0 X(.X(.=} _/ _/ 7( ",
"|~ |~ |~ |~ |~ |~ |~ |~ |~ |~ |~ |~ |~ |~ |~ WW A'.A'.A'.A'.A'.Y(.U^.U^.U^.U^.U^.U^.U^.U^.U^.U^.U^.U^.U^.U^.U^.U^.U^.U^.U^.U^.U^.U^.w: u$ u$ u$ u$ u$ u$ u$ u$ u$ ~).c).V).X).4!.%!.Z(.k  3. f  `(. _.._.+_.@_.#_.$_.%_.&_.*_.=_.-_.*_.D. 4' 4' 4' 4' ;_.>_.,_.'_.'_.)_.!_.~_.md I| C$ b% <% j% j% n= D$ b% =| {_.]_.^_./_.(_.__.:_.:_.:_.:_.:_.:_.:_.:_.:_.:_.:_.:_.:_.:_.:_.:_.:_.:_.:_.:_.:_.:_.:_.:_.:_.:_.:_.:_.:_.:_.:_.:_.:_.:_.<_.<_.__.[_.}_.|_.|_.1_.2_.3_.4_.5_.6_.7_.8_.9_.9_.0_.a_.a_.b_.c_.d_.e_.f_.f_.g_.h_.i_.j_.k_.l_.m_.n_.n_.o_.p_.q_.r_.s_.s_.t_.u_.v_.w_.x_.x_.y_.z_.z_.z_.A_.B_.C_.D_.E_.E_.F_.G_.H_.H_.I_.I_.J_.K_.K_.L_.L_.M_.M_.N_.O_.P_.P_.P_.Q_.R_.S_.S_.T_.U_.U_.U_.U_.V_.W_.W_.X_.X_.Y_.Y_.Y_.Y_.Y_.Y_.Z_.Z_.`_.`_.`_.`_.`_. :. :. :. :..:..:..:..:..:..:.+:..:..:..:..:..:..:..:..:. :. :. :. :. :. :. :. :. :.`_.`_.`_.Z_.Z_.Y_.Y_.Y_.X_.W_.W_.W_.W_.V_.V_.U_.T_.T_.S_.S_.S_.R_.R_.Q_.Q_.P_.O_.O_.N_.N_.M_.M_.L_.J_.I_.I_.I_.H_.G_.G_.F_.E_.D_.D_.C_.B_.A_.A_.z_.y_.@:.x_.x_.w_.v_.v_.u_.s_.s_.r_.r_.q_.p_.o_.n_.n_.m_.l_.k_.k_.j_.i_.h_.h_.g_.f_.e_.d_.c_.#:.b_.a_.0_.$:.$:.9_.7_.6_.6_.5_.4_.3_.2_.2_.1_.|_.}_.}_.[_.[_.__.<_.:_.:_.:_.:_.:_.:_.:_.:_.:_.:_.:_.:_.:_.:_.:_.:_.:_.:_.:_.:_.:_.:_.:_.:_.:_.:_.:_.:_.%:.&:.h/.*:.=:.5) x! ]^ g{ y| e# _$ _$ _$ _$ y# T$ ]. <  <  <  <  <  <  <  <  <  <  <  <  <  <  <  <  <  2  2  /. 3+ 7  @@ 1@ e  |. |. h  4. s+.%!.4!.X).c).~).,).,).A+.{Y -:.;:.>^.>^.>^.>^.>^.>^.>^.>^.>^.>^.>^.>^.>^.>^.>^.>:.O^.O^.O^.O^.R(.,:.nj _/ _/ _/ _/ _/ _/ _/ _/ _/ _/ _/ _/ _/ _/ _/ N/ ^#.^#._/ _/ _/ _/ _/ _/ _/ _/ _/ _/ _/ ",
"|~ |~ |~ |~ |~ |~ |~ |~ |~ |~ |~ |~ |~ |~ |~ |~ A'.A'.A'.A'.A'.':.U^.U^.U^.U^.U^.U^.U^.U^.U^.U^.U^.U^.U^.U^.U^.w: ):.x;.x;.x;.x;.x;.x;.x;.x;.x;.x;.x;.x;.x;.x;.x;.!:.~:.{:.{:.]:.^:./:.(:._:.::.<:.[:.}:.}:.|:.{~ 1:.0! }+ 2:.3:.Z) Z) Z) Z) /  4:.4:.4:.5:.5:.6:.7:.8:.9:.IO W, h[ T< (~ F} B, |%                                                                                                                                                                                                                                                                                                                                                                                                                0:.a:.b:.b:.b:.b:.a:.a:.c:.c:.c:.c:.c:.0:.0:.0:.0:.d:.e:.e:.e:.e:.e:.e:.0:.a:.f:.f:.f:.f:.f:.f:.f:.f:.f:.f:.f:.g:.g:.g:.g:.g:.h:.i:.i:.i:.i:.i:.j:.k:.+:.+:.+:. :. :. :. :.`_.Z_.Z_.Z_.Y_.X_.X_.W_.V_.V_.U_.U_.U_.T_.S_.S_.P_.M_.K_.K_.J_.I_.H_.H_.G_.F_.E_.D_.D_.C_.B_.B_.A_.z_.@:.@:.x_.w_.v_.u_.s_.r_.p_.p_.o_.n_.m_.k_.j_.j_.l:.l:.h_.h_.f_.e_.d_.c_.#:.#:.a_.$:.$:.9_.8_.6_.4_.3_.2_.1_.|_.}_.[_.[_.[_.__.:_.:_.:_.:_.:_.:_.:_.:_.:_.:_.:_.:_.:_.:_.:_.:_.:_.:_.:_.:_.:_.:_.:_.:_.:_.:_.:_.:_.:_.:_.:_.:_.:_.:_.:_.:_.:_.:_.:_.:_.m:.n:.o:.][ W. Y. x! h+ P# _$ _$ _$ _$ y# Y! ]. <  <  <  <  <  <  <  <  <  <  <  <  <  <  <  <  <  2  2  /. 3+ 7  @@ 1@ e  |. |. h  4. s+.%!.4!.X).c).~).V).p:.8+.{Y {Y {Y M(.N(.>^.>^.>^.>^.>^.>^.>^.>^.>^.>^.>^.>^.>^.>^.q:.O^.O^.r:._/ _/ _/ _/ _/ _/ _/ _/ _/ _/ _/ _/ _/ _/ _/ _/ _/ _/ _/ _/ _/ _/ _/ _/ _/ _/ _/ _/ _/ _/ _/ _/ ",
"|~ |~ |~ |~ |~ |~ |~ |~ |~ |~ |~ |~ |~ |~ |~ |~ A'.A'.A'.A'.A'.s:.U^.U^.U^.U^.U^.U^.U^.U^.U^.U^.U^.U^.U^.U^.U^.^;.x;.x;.x;.x;.x;.x;.x;.x;.x;.x;.x;.x;.x;.x;.x;.x;.*-.t:.=-.=-.=-.=-.=-.=-.|{.|{.&;.[] u:.}' v:.v:.v:.v:.v:.v:.v:.v:.v:.v:.v:.v:.v:.v:.v:.v:.v:.w:.q] v:.v:.v:.                                                                                                                                                                                                                                                                                                                                                                                                                                                                                                                                                                                                                                                                                                                                                                                                                                                                                                                                                                                          x  +~ y| /# _$ _$ _$ _$ Y@ T$ <  _  _  _  _  _  _  _  _  _  _  _  _  _  _  _  _  _  |  |  3  J. 3+ :.  ( 1@ M. |. 6. j  i  t+.Z(.S).R'.X!.x:.6+.y:.{Y {Y {Y {Y -:.;:.>^.>^.>^.>^.>^.>^.>^.>^.>^.>^.>^.>^.>^.z:.O^.A:._/ _/ _/ _/ _/ _/ _/ _/ _/ _/ _/ _/ _/ _/ _/ _/ _/ _/ _/ _/ _/ _/ _/ _/ _/ _/ _/ _/ _/ _/ _/ _/ _/ ",
"|~ |~ |~ |~ |~ |~ |~ |~ |~ |~ |~ |~ |~ |~ |~ |~ A'.A'.A'.A'.A'.w&.U^.U^.U^.U^.U^.U^.U^.U^.U^.U^.U^.U^.U^.U^.B:.x;.x;.x;.x;.x;.x;.x;.x;.x;.x;.x;.x;.x;.x;.x;.x;.x;.x;.x;.x;.x;.x;.x;.x;.x;.x;.x;.x;.x;.C:.D:.D:.D:.D:.D:.D:.D:.D:.D:.D:.D:.D:.D:.D:.D:.D:.D:.D:.D:.D:.D:.D:.D:.                                                                                                                                                                                                                                                                                                                                                                                                                                                                                                                                                                                                                                                                                                                                                                                                                                                                                                                                                                                             (! h+ Z@ x# x# x# x# y# Y  ~% o' f} f} f} md E:.E:.E:.E:.E:.E:.Y  Y  Y  Y  Y  o' a$ b$ N# &d 0].%} M6 3@ c+ a+ 0+ 9+ $( q  p  Y^ H).{).6. #0 {Y {Y {Y {Y {Y {Y {Y M(.F:.>^.>^.>^.>^.>^.>^.>^.>^.>^.>^.>^.N^.G:.N/ _/ _/ _/ _/ _/ _/ _/ _/ _/ _/ _/ _/ _/ _/ _/ _/ _/ _/ _/ _/ _/ _/ _/ _/ _/ _/ _/ _/ _/ _/ _/ _/ _/ "};
