/* XPM */
static char *door_xpm[] = {
"64 64 4 1",
"  c #4A3C2E",
"# c #6B5344",
"@ c #8B7355",
"+ c #2F2519",
"################################################################",
"################################################################",
"##+++++++++++++++++++++++++++++++++++++++++++++++++++++++++++###",
"##+++++++++++++++++++++++++++++++++++++++++++++++++++++++++++###",
"##++@@@@@@@@@@@@@@@@@@@@@@@@@@@@@@@@@@@@@@@@@@@@@@@@@@@@@@@@++###",
"##++@@@@@@@@@@@@@@@@@@@@@@@@@@@@@@@@@@@@@@@@@@@@@@@@@@@@@@@@++###",
"##++@@  @@  @@  @@  @@  @@  @@  @@  @@  @@  @@  @@  @@  @@@@++###",
"##++@@  @@  @@  @@  @@  @@  @@  @@  @@  @@  @@  @@  @@  @@@@++###",
"##++@@  @@  @@  @@  @@  @@  @@  @@  @@  @@  @@  @@  @@  @@@@++###",
"##++@@  @@  @@  @@  @@  @@  @@  @@  @@  @@  @@  @@  @@  @@@@++###",
"##++@@@@@@@@@@@@@@@@@@@@@@@@@@@@@@@@@@@@@@@@@@@@@@@@@@@@@@@@++###",
"##++@@  @@  @@  @@  @@  @@  @@  @@  @@  @@  @@  @@  @@  @@@@++###",
"##++@@  @@  @@  @@  @@  @@  @@  @@  @@  @@  @@  @@  @@  @@@@++###",
"##++@@  @@  @@  @@  @@  @@  @@  @@  @@  @@  @@  @@  @@  @@@@++###",
"##++@@  @@  @@  @@  @@  @@  @@  @@  @@  @@  @@  @@  @@  @@@@++###",
"##++@@@@@@@@@@@@@@@@@@@@@@@@@@@@@@@@@@@@@@@@@@@@@@@@@@@@@@@@++###",
"##++@@  @@  @@  @@  @@  @@  @@  @@  @@  @@  @@  @@  @@  @@@@++###",
"##++@@  @@  @@  @@  @@  @@  @@  @@  @@  @@  @@  @@  @@  @@@@++###",
"##++@@  @@  @@  @@  @@  @@  @@  @@  @@  @@  @@  @@  @@  @@@@++###",
"##++@@  @@  @@  @@  @@  @@  @@  @@  @@  @@  @@  @@  @@  @@@@++###",
"##++@@@@@@@@@@@@@@@@@@@@@@@@@@@@@@@@@@@@@@@@@@@@@@@@@@@@@@@@++###",
"##++@@  @@  @@  @@  @@  @@  @@  @@  @@  @@  @@  @@  @@  @@@@++###",
"##++@@  @@  @@  @@  @@  @@  @@  @@  @@  @@  @@  @@  @@  @@@@++###",
"##++@@  @@  @@  @@  @@  @@  @@  @@  @@  @@  @@  @@  @@  @@@@++###",
"##++@@  @@  @@  @@  @@  @@  @@  @@  @@  @@  @@  @@  @@  @@@@++###",
"##++@@@@@@@@@@@@@@@@@@@@@@@@@@@@@@@@@@@@@@@@@@@@@@@@@@@@@@@@++###",
"##++@@  @@  @@  @@  @@  @@  @@  @@  @@  @@  @@  @@  @@  @@@@++###",
"##++@@  @@  @@  @@  @@  @@  @@  @@  @@  @@  @@  @@  @@  @@@@++###",
"##++@@  @@  @@  @@  @@  @@@@@@@@@@@@@@@@@@  @@  @@  @@  @@@@++###",
"##++@@  @@  @@  @@  @@  @@@@@@@@@@@@@@@@@@  @@  @@  @@  @@@@++###",
"##++@@@@@@@@@@@@@@@@@@@@@@@@@@@@@@@@@@@@@@@@@@@@@@@@@@@@@@@@++###",
"##++@@  @@  @@  @@  @@  @@@@@@@@@@@@@@@@@@  @@  @@  @@  @@@@++###",
"##++@@  @@  @@  @@  @@  @@@@@@++@@++@@@@@@  @@  @@  @@  @@@@++###",
"##++@@  @@  @@  @@  @@  @@@@@@++@@++@@@@@@  @@  @@  @@  @@@@++###",
"##++@@  @@  @@  @@  @@  @@@@@@++@@++@@@@@@  @@  @@  @@  @@@@++###",
"##++@@  @@  @@  @@  @@  @@@@@@@@@@@@@@@@@@  @@  @@  @@  @@@@++###",
"##++@@@@@@@@@@@@@@@@@@@@@@@@@@@@@@@@@@@@@@@@@@@@@@@@@@@@@@@@++###",
"##++@@  @@  @@  @@  @@  @@@@@@@@@@@@@@@@@@  @@  @@  @@  @@@@++###",
"##++@@  @@  @@  @@  @@  @@@@@@@@@@@@@@@@@@  @@  @@  @@  @@@@++###",
"##++@@  @@  @@  @@  @@  @@  @@  @@  @@  @@  @@  @@  @@  @@@@++###",
"##++@@  @@  @@  @@  @@  @@  @@  @@  @@  @@  @@  @@  @@  @@@@++###",
"##++@@@@@@@@@@@@@@@@@@@@@@@@@@@@@@@@@@@@@@@@@@@@@@@@@@@@@@@@++###",
"##++@@  @@  @@  @@  @@  @@  @@  @@  @@  @@  @@  @@  @@  @@@@++###",
"##++@@  @@  @@  @@  @@  @@  @@  @@  @@  @@  @@  @@  @@  @@@@++###",
"##++@@  @@  @@  @@  @@  @@  @@  @@  @@  @@  @@  @@  @@  @@@@++###",
"##++@@  @@  @@  @@  @@  @@  @@  @@  @@  @@  @@  @@  @@  @@@@++###",
"##++@@@@@@@@@@@@@@@@@@@@@@@@@@@@@@@@@@@@@@@@@@@@@@@@@@@@@@@@++###",
"##++@@  @@  @@  @@  @@  @@  @@  @@  @@  @@  @@  @@  @@  @@@@++###",
"##++@@  @@  @@  @@  @@  @@  @@  @@  @@  @@  @@  @@  @@  @@@@++###",
"##++@@  @@  @@  @@  @@  @@  @@  @@  @@  @@  @@  @@  @@  @@@@++###",
"##++@@  @@  @@  @@  @@  @@  @@  @@  @@  @@  @@  @@  @@  @@@@++###",
"##++@@@@@@@@@@@@@@@@@@@@@@@@@@@@@@@@@@@@@@@@@@@@@@@@@@@@@@@@++###",
"##++@@  @@  @@  @@  @@  @@  @@  @@  @@  @@  @@  @@  @@  @@@@++###",
"##++@@  @@  @@  @@  @@  @@  @@  @@  @@  @@  @@  @@  @@  @@@@++###",
"##++@@  @@  @@  @@  @@  @@  @@  @@  @@  @@  @@  @@  @@  @@@@++###",
"##++@@  @@  @@  @@  @@  @@  @@  @@  @@  @@  @@  @@  @@  @@@@++###",
"##++@@@@@@@@@@@@@@@@@@@@@@@@@@@@@@@@@@@@@@@@@@@@@@@@@@@@@@@@++###",
"##++@@@@@@@@@@@@@@@@@@@@@@@@@@@@@@@@@@@@@@@@@@@@@@@@@@@@@@@@++###",
"##+++++++++++++++++++++++++++++++++++++++++++++++++++++++++++###",
"##+++++++++++++++++++++++++++++++++++++++++++++++++++++++++++###",
"################################################################",
"################################################################",
"################################################################",
"################################################################"
};
